Textures/0.cube
# Created by: G'MIC (https://gmic.eu)
TITLE "Identity.cube"
# LUT size
LUT_3D_SIZE 33
# Data domain
DOMAIN_MIN 0.0 0.0 0.0
DOMAIN_MAX 1.0 1.0 1.0
# LUT data points
0.0095263803377747536 0.0090825250372290611 0.010062068700790405
0.040895819664001465 0.0095607014372944832 0.0094402357935905457
0.069962523877620697 0.0095898164436221123 0.010213387198746204
0.10026092827320099 0.0094439443200826645 0.0089062824845314026
0.13148874044418335 0.01053246483206749 0.0099243046715855598
0.16127482056617737 0.010401359759271145 0.010278318077325821
0.19109101593494415 0.00882001593708992 0.009524899534881115
0.22230008244514465 0.010067842900753021 0.0081029832363128662
0.25243395566940308 0.010002238675951958 0.0098645798861980438
0.28279900550842285 0.010815860703587532 0.0089633287861943245
0.31381824612617493 0.0098866773769259453 0.01024446077644825
0.3434377908706665 0.0092304777354001999 0.0093713980168104172
0.37392807006835938 0.0079197380691766739 0.010016107931733131
0.40456011891365051 0.010310485027730465 0.0096614658832550049
0.43420824408531189 0.0081518609076738358 0.010953607968986034
0.46645063161849976 0.0090968441218137741 0.0090384045615792274
0.50101089477539062 0.0090691344812512398 0.0090375365689396858
0.53509443998336792 0.010036274790763855 0.0095578590407967567
0.5655553936958313 0.0091226976364850998 0.01049444917589426
0.59579277038574219 0.0096967155113816261 0.008225725032389164
0.62436306476593018 0.0091965757310390472 0.0095569919794797897
0.65477877855300903 0.0088937599211931229 0.0085570411756634712
0.68670803308486938 0.0097183194011449814 0.0091302972286939621
0.71689301729202271 0.010310783050954342 0.0097764879465103149
0.7470436692237854 0.0095277717337012291 0.0082871103659272194
0.77695930004119873 0.0097444560378789902 0.0094655323773622513
0.80827003717422485 0.010647501796483994 0.010249562561511993
0.83831566572189331 0.0097636356949806213 0.010161187499761581
0.86858046054840088 0.0097273103892803192 0.0091456016525626183
0.89949393272399902 0.0094670150429010391 0.011026320978999138
0.92864108085632324 0.010002702474594116 0.010060333646833897
0.95995718240737915 0.0094689894467592239 0.0095588462427258492
0.98990535736083984 0.0095588462427258492 0.010035287588834763
0.0091188214719295502 0.039323464035987854 0.0086732311174273491
0.03894488513469696 0.039913062006235123 0.0094688702374696732
0.07120794802904129 0.039881732314825058 0.0087073128670454025
0.10086140781641006 0.039612453430891037 0.0081209670752286911
0.13068217039108276 0.039788108319044113 0.0089396452531218529
0.16191352903842926 0.040178295224905014 0.0093666240572929382
0.19204425811767578 0.040735509246587753 0.010807886719703674
0.22158792614936829 0.04016471654176712 0.0093903690576553345
0.25214642286300659 0.040701691061258316 0.0093019921332597733
0.28337129950523376 0.040488496422767639 0.010377451777458191
0.31235030293464661 0.040520232170820236 0.0094417454674839973
0.34376281499862671 0.040816109627485275 0.0087463455274701118
0.37419641017913818 0.038757387548685074 0.0096940509974956512
0.40498587489128113 0.039036523550748825 0.0099583417177200317
0.43458595871925354 0.039485469460487366 0.010542968288064003
0.46451914310455322 0.040751326829195023 0.0096193794161081314
0.50045812129974365 0.039489127695560455 0.0087019270285964012
0.53595620393753052 0.039548423141241074 0.010373860597610474
0.56451541185379028 0.040334314107894897 0.0095845209434628487
0.59567719697952271 0.040105186402797699 0.0099326679483056068
0.62543660402297974 0.040289591997861862 0.010430146008729935
0.65587377548217773 0.039764750748872757 0.0090339025482535362
0.68581140041351318 0.03938751295208931 0.0098242135718464851
0.71622163057327271 0.038748811930418015 0.0095326956361532211
0.74687695503234863 0.039411112666130066 0.010003599338233471
0.77729874849319458 0.040746677666902542 0.0092789055779576302
0.807300865650177 0.039628699421882629 0.0093959188088774681
0.83824598789215088 0.039265908300876617 0.0094263199716806412
0.86811387538909912 0.040042165666818619 0.008817487396299839
0.90020591020584106 0.040302898734807968 0.010203512385487556
0.92998528480529785 0.039893709123134613 0.008940364234149456
0.95965903997421265 0.040488492697477341 0.0095247654244303703
0.99091750383377075 0.039954908192157745 0.0099720917642116547
0.0096451137214899063 0.070402652025222778 0.0093999886885285378
0.039566807448863983 0.070375531911849976 0.010020088404417038
0.068957492709159851 0.070380598306655884 0.0091360872611403465
0.10009150207042694 0.070370487868785858 0.01059905719012022
0.13164730370044708 0.070596300065517426 0.010594644583761692
0.16217656433582306 0.070309676229953766 0.010129633359611034
0.19235648214817047 0.070656433701515198 0.0092546688392758369
0.22253285348415375 0.069514468312263489 0.0093879299238324165
0.25270572304725647 0.070589020848274231 0.010239060036838055
0.28331786394119263 0.071368157863616943 0.0098525509238243103
0.31353545188903809 0.07006923109292984 0.0094824405387043953
0.3438287079334259 0.07023002952337265 0.0089940596371889114
0.3756159245967865 0.069441676139831543 0.0083569949492812157
0.40435901284217834 0.070222809910774231 0.0099837165325880051
0.4345213770866394 0.069995716214179993 0.0096559757366776466
0.46496596932411194 0.070502184331417084 0.010051341727375984
0.50036907196044922 0.07068450003862381 0.008488398976624012
0.53550773859024048 0.069797791540622711 0.0090922657400369644
0.56558215618133545 0.069988831877708435 0.010443953797221184
0.59520983695983887 0.069824688136577606 0.010848536156117916
0.62498843669891357 0.071235418319702148 0.0099085364490747452
0.6561235785484314 0.069525010883808136 0.009695637971162796
0.68523228168487549 0.069123230874538422 0.0086756991222500801
0.7169044017791748 0.070038579404354095 0.0097772814333438873
0.74652618169784546 0.071613989770412445 0.010077837854623795
0.7772020697593689 0.070769093930721283 0.0085179470479488373
0.80792790651321411 0.070307523012161255 0.0090380171313881874
0.83698171377182007 0.070307247340679169 0.0098992306739091873
0.86749273538589478 0.069972634315490723 0.0096228662878274918
0.90091711282730103 0.069815225899219513 0.0087465411052107811
0.92985224723815918 0.071737825870513916 0.0093103554099798203
0.95992088317871094 0.070829004049301147 0.009088209830224514
0.99091750383377075 0.071315065026283264 0.0092990146949887276
0.0090884510427713394 0.10035078227519989 0.0086445948109030724
0.04107699915766716 0.10078271478414536 0.01006601843982935
0.070037603378295898 0.10155823081731796 0.0090781273320317268
0.10109705477952957 0.10073212534189224 0.0097717307507991791
0.13116540014743805 0.10059995949268341 0.0099029708653688431
0.16144415736198425 0.10096707195043564 0.010014551691710949
0.19197259843349457 0.10057478398084641 0.0093632293865084648
0.22290106117725372 0.099736824631690979 0.0079992571845650673
0.25207814574241638 0.10159347206354141 0.0089434320107102394
0.28267973661422729 0.10190489888191223 0.0098690390586853027
0.31363898515701294 0.1000450998544693 0.0098137417808175087
0.34386906027793884 0.10138092935085297 0.009697718545794487
0.37483426928520203 0.10125230997800827 0.0092827966436743736
0.40346807241439819 0.10119114816188812 0.0091265570372343063
0.43504449725151062 0.10020712018013 0.0092028584331274033
0.4661247730255127 0.10087037086486816 0.0086313690990209579
0.49929162859916687 0.10097458213567734 0.0094641121104359627
0.53434485197067261 0.10139385610818863 0.011021144688129425
0.5642966628074646 0.09946693480014801 0.0087408861145377159
0.59519147872924805 0.10037625581026077 0.009640909731388092
0.62616860866546631 0.10090185701847076 0.0091869262978434563
0.65597879886627197 0.10173217952251434 0.010159660130739212
0.68752551078796387 0.1006365567445755 0.009539727121591568
0.71662360429763794 0.10070323944091797 0.008688775822520256
0.74745142459869385 0.10043691098690033 0.0091410679742693901
0.77684319019317627 0.10142381489276886 0.009858669713139534
0.80723488330841064 0.10015317797660828 0.0099716419354081154
0.83886688947677612 0.10053694993257523 0.010332417674362659
0.86845815181732178 0.10086467117071152 0.009733639657497406
0.89948105812072754 0.099858008325099945 0.0095920003950595856
0.93012607097625732 0.10106544196605682 0.00928499735891819
0.96005421876907349 0.09948277473449707 0.0090785762295126915
0.99037986993789673 0.10032020509243011 0.0099722109735012054
0.0089294714853167534 0.13120336830615997 0.0085482150316238403
0.040528841316699982 0.13112381100654602 0.0091097857803106308
0.069882772862911224 0.13112230598926544 0.010065658949315548
0.10023026168346405 0.12944322824478149 0.0091944066807627678
0.13120488822460175 0.130091592669487 0.010561699979007244
0.16235478222370148 0.13070306181907654 0.0098451739177107811
0.19210059940814972 0.13162729144096375 0.0090474560856819153
0.22303713858127594 0.13122996687889099 0.0090952571481466293
0.25271615386009216 0.13138850033283234 0.0092308521270751953
0.28342193365097046 0.1306840181350708 0.0093348026275634766
0.31399744749069214 0.13036559522151947 0.0086900023743510246
0.34411138296127319 0.12979155778884888 0.0089398249983787537
0.37468245625495911 0.13050590455532074 0.009531618095934391
0.40413600206375122 0.13181754946708679 0.0099158072844147682
0.43483132123947144 0.13153757154941559 0.0088005214929580688
0.4656202495098114 0.13233694434165955 0.0090342918410897255
0.49984973669052124 0.13095502555370331 0.0095368837937712669
0.53477907180786133 0.13156233727931976 0.010120446793735027
0.56507259607315063 0.13185741007328033 0.0094665214419364929
0.59540849924087524 0.13159844279289246 0.0097057810053229332
0.62627559900283813 0.13085903227329254 0.0097338631749153137
0.65598803758621216 0.1304972767829895 0.0087573276832699776
0.68576055765151978 0.13025546073913574 0.0090464688837528229
0.71574509143829346 0.12996764481067657 0.0090908585116267204
0.74664551019668579 0.13114652037620544 0.0090557439252734184
0.77738851308822632 0.13081981241703033 0.0084894467145204544
0.80812549591064453 0.13042107224464417 0.0091149015352129936
0.83820396661758423 0.13177119195461273 0.0090676844120025635
0.86786109209060669 0.13105671107769012 0.0098155224695801735
0.89952182769775391 0.13117983937263489 0.0099071590229868889
0.92952847480773926 0.13141515851020813 0.0095860771834850311
0.96062636375427246 0.13226607441902161 0.0096043888479471207
0.99048709869384766 0.13196118175983429 0.0094266496598720551
0.0099262958392500877 0.16265399754047394 0.0087311007082462311
0.040184315294027328 0.16206543147563934 0.0094685107469558716
0.070281028747558594 0.16155268251895905 0.010420645587146282
0.10047337412834167 0.16175740957260132 0.0094389468431472778
0.13038091361522675 0.16200187802314758 0.0099369324743747711
0.16153229773044586 0.16126711666584015 0.0096882311627268791
0.19205242395401001 0.16124166548252106 0.009647224098443985
0.22230349481105804 0.16163522005081177 0.010373801924288273
0.25298619270324707 0.1619817316532135 0.0091369403526186943
0.28316298127174377 0.16057871282100677 0.01010407879948616
0.31287002563476562 0.16131733357906342 0.0092049688100814819
0.34252274036407471 0.16221825778484344 0.0090798325836658478
0.3743097186088562 0.16132134199142456 0.0095354188233613968
0.40433776378631592 0.16208437085151672 0.0091862818226218224
0.43448156118392944 0.1623883992433548 0.0085489936172962189
0.46414431929588318 0.16217558085918427 0.0085483351722359657
0.49963244795799255 0.16117827594280243 0.0092060612514615059
0.53361064195632935 0.1607743501663208 0.0096917925402522087
0.56524288654327393 0.16227863729000092 0.010186186991631985
0.59544849395751953 0.16143880784511566 0.0097684087231755257
0.625876784324646 0.16140839457511902 0.0095975818112492561
0.65557229518890381 0.16163875162601471 0.0099413767457008362
0.68579846620559692 0.1613774448633194 0.0097226565703749657
0.71659529209136963 0.16185151040554047 0.0090937009081244469
0.7476348876953125 0.16104662418365479 0.0096533279865980148
0.77780061960220337 0.16205206513404846 0.010251852683722973
0.80801874399185181 0.16079781949520111 0.0087303826585412025
0.83845001459121704 0.16151155531406403 0.0097904028370976448
0.86924093961715698 0.16191655397415161 0.0097717307507991791
0.89923161268234253 0.16224537789821625 0.0094864945858716965
0.92916268110275269 0.16051506996154785 0.0096293454989790916
0.96013921499252319 0.16112375259399414 0.010385007597506046
0.9906347393989563 0.16166149079799652 0.0088835554197430611
0.0096790902316570282 0.19261431694030762 0.0099886534735560417
0.03983963280916214 0.19144275784492493 0.010507060214877129
0.070475399494171143 0.19159334897994995 0.0099839400500059128
0.099926665425300598 0.19229398667812347 0.0091727124527096748
0.13087883591651917 0.19109626114368439 0.0102458531036973
0.16143405437469482 0.19258522987365723 0.0086240824311971664
0.1912224292755127 0.19136838614940643 0.0086359316483139992
0.22233060002326965 0.19159094989299774 0.010158463381230831
0.25320807099342346 0.19214515388011932 0.0097503662109375
0.28341615200042725 0.19163885712623596 0.0087803378701210022
0.31424960494041443 0.19108234345912933 0.0095719518139958382
0.34355786442756653 0.1915154904127121 0.009265577420592308
0.37322217226028442 0.19282306730747223 0.010273754596710205
0.40479731559753418 0.19207173585891724 0.010321959853172302
0.43443721532821655 0.19143226742744446 0.0087206875905394554
0.46495363116264343 0.19187027215957642 0.0096525950357317924
0.49985978007316589 0.19071109592914581 0.0082772662863135338
0.5340537428855896 0.19196838140487671 0.0086278989911079407
0.56464046239852905 0.19243907928466797 0.010234781540930271
0.59507626295089722 0.19154089689254761 0.0091472025960683823
0.62466293573379517 0.19168323278427124 0.0092901568859815598
0.65673702955245972 0.19139821827411652 0.0091963056474924088
0.68579059839248657 0.19178664684295654 0.0084522534161806107
0.71696704626083374 0.19194744527339935 0.009968501515686512
0.74800968170166016 0.19219233095645905 0.010334930382668972
0.77855223417282104 0.19245085120201111 0.01043192483484745
0.8078959584236145 0.19175167381763458 0.0089333029463887215
0.83788871765136719 0.1921260803937912 0.010467292740941048
0.86943483352661133 0.19237381219863892 0.0095070218667387962
0.89931023120880127 0.19223298132419586 0.0095696942880749702
0.92873066663742065 0.19141428172588348 0.00977292750030756
0.95985192060470581 0.19287493824958801 0.009472026489675045
0.99050241708755493 0.19213807582855225 0.0087729627266526222
0.0092833507806062698 0.2217840850353241 0.010265331715345383
0.039247035980224609 0.22160583734512329 0.010539406910538673
0.070545978844165802 0.22222819924354553 0.010306296870112419
0.10059508681297302 0.2221950888633728 0.0096264118328690529
0.13184109330177307 0.22349004447460175 0.010209450498223305
0.16153869032859802 0.22315819561481476 0.0089413514360785484
0.19141338765621185 0.22273252904415131 0.0085249356925487518
0.22194866836071014 0.22300787270069122 0.0096673769876360893
0.25280410051345825 0.22277586162090302 0.0095912665128707886
0.28270521759986877 0.2222713977098465 0.010277614928781986
0.31409797072410583 0.22227182984352112 0.0091966195032000542
0.34353113174438477 0.22293442487716675 0.010001055896282196
0.37410709261894226 0.22288928925991058 0.0091021545231342316
0.40408039093017578 0.22188916802406311 0.0097613483667373657
0.43577823042869568 0.22169861197471619 0.0098328329622745514
0.46520695090293884 0.22179432213306427 0.010762928053736687
0.49921315908432007 0.22129303216934204 0.0093674026429653168
0.53401082754135132 0.221722811460495 0.010149008594453335
0.56524026393890381 0.22301971912384033 0.0091293845325708389
0.59509462118148804 0.22217333316802979 0.0090563585981726646
0.6260949969291687 0.22232122719287872 0.01004097331315279
0.65562176704406738 0.22205114364624023 0.0099890278652310371
0.68610268831253052 0.22210025787353516 0.009043864905834198
0.71607059240341187 0.22182761132717133 0.0097675267606973648
0.7470935583114624 0.22194834053516388 0.0099359145388007164
0.7772868275642395 0.22155600786209106 0.01019870862364769
0.80800843238830566 0.22167082130908966 0.0095889652147889137
0.83810383081436157 0.22323906421661377 0.010140106081962585
0.86877483129501343 0.22286252677440643 0.0089399600401520729
0.89894598722457886 0.22126856446266174 0.0098408656194806099
0.92892652750015259 0.22280895709991455 0.010113055817782879
0.95956414937973022 0.22250598669052124 0.0082851666957139969
0.98970651626586914 0.22179698944091797 0.0089008361101150513
0.0095722675323486328 0.25168484449386597 0.01006404310464859
0.039430681616067886 0.25321352481842041 0.0095253335312008858
0.070608720183372498 0.25124311447143555 0.0093421945348381996
0.10099632292985916 0.25279667973518372 0.0092248078435659409
0.13014279305934906 0.25325807929039001 0.0096170753240585327
0.160032719373703 0.25309035181999207 0.0094898156821727753
0.19194617867469788 0.25322040915489197 0.0091286227107048035
0.22254110872745514 0.25309157371520996 0.0099201472476124763
0.25246816873550415 0.2522205114364624 0.010326121002435684
0.28245556354522705 0.25275534391403198 0.01029471680521965
0.31312710046768188 0.25276407599449158 0.010305683128535748
0.34369346499443054 0.25244402885437012 0.0095324404537677765
0.37469419836997986 0.25214281678199768 0.010226447135210037
0.40461078286170959 0.25294235348701477 0.0087975440546870232
0.43355011940002441 0.25312384963035583 0.0095722973346710205
0.46444454789161682 0.25203901529312134 0.0094217108562588692
0.49952569603919983 0.25296324491500854 0.0098255760967731476
0.5357850193977356 0.25293594598770142 0.0096002602949738503
0.56498557329177856 0.25345677137374878 0.0093056429177522659
0.59489566087722778 0.25189915299415588 0.0093710832297801971
0.62483179569244385 0.25287121534347534 0.0092231910675764084
0.65525937080383301 0.25205454230308533 0.010080710053443909
0.68648970127105713 0.25158253312110901 0.0089048612862825394
0.71608340740203857 0.25169691443443298 0.009425346739590168
0.74697178602218628 0.25223556160926819 0.0098916152492165565
0.77701598405838013 0.25311920046806335 0.0095287291333079338
0.80876487493515015 0.25258028507232666 0.010560562834143639
0.83803713321685791 0.25251179933547974 0.010252959094941616
0.86945223808288574 0.25273498892784119 0.0088889729231595993
0.89920276403427124 0.25157082080841064 0.0096482103690505028
0.93016010522842407 0.25367820262908936 0.0090337814763188362
0.96006053686141968 0.25277227163314819 0.0090667260810732841
0.98995232582092285 0.25217521190643311 0.0091299219056963921
0.008794969879090786 0.28247612714767456 0.010358091443777084
0.040415506809949875 0.28379064798355103 0.0093504060059785843
0.070681773126125336 0.28381109237670898 0.0092101898044347763
0.10074308514595032 0.28317645192146301 0.0097783133387565613
0.13142898678779602 0.28318649530410767 0.010203707031905651
0.16202108561992645 0.28357857465744019 0.0100544523447752
0.19146008789539337 0.28263005614280701 0.0094614792615175247
0.22291478514671326 0.28241735696792603 0.010189972817897797
0.25280240178108215 0.2822786271572113 0.0099542280659079552
0.28339201211929321 0.28462165594100952 0.0092849209904670715
0.31406858563423157 0.28385734558105469 0.0093547757714986801
0.34437358379364014 0.28268501162528992 0.0092844124883413315
0.37508636713027954 0.28264555335044861 0.0094506312161684036
0.40378019213676453 0.28357762098312378 0.010127030313014984
0.43539687991142273 0.28262233734130859 0.0099616330116987228
0.46565872430801392 0.28370150923728943 0.0096208611503243446
0.49951037764549255 0.28374102711677551 0.0099045708775520325
0.53548920154571533 0.28259667754173279 0.0080544184893369675
0.56553381681442261 0.28307300806045532 0.010272768326103687
0.59512186050415039 0.28332695364952087 0.0087029142305254936
0.62498593330383301 0.28379058837890625 0.0098538687452673912
0.65586686134338379 0.28323453664779663 0.0097613176330924034
0.68609803915023804 0.28300690650939941 0.010089595802128315
0.71732121706008911 0.28254538774490356 0.010143502615392208
0.74657237529754639 0.28290736675262451 0.010522007010877132
0.77761763334274292 0.2826198935508728 0.0097711458802223206
0.8083915114402771 0.282621830701828 0.010549791157245636
0.83863645792007446 0.28410753607749939 0.0093973111361265182
0.86873316764831543 0.28404331207275391 0.0095545966178178787
0.89874690771102905 0.28264701366424561 0.0086428439244627953
0.92953842878341675 0.28390258550643921 0.0094085168093442917
0.96006464958190918 0.28382858633995056 0.0089588118717074394
0.99030321836471558 0.28250113129615784 0.0090576298534870148
0.0090429084375500679 0.31363013386726379 0.009190860204398632
0.040281340479850769 0.31263899803161621 0.0096327401697635651
0.071264684200286865 0.31339919567108154 0.01013979222625494
0.10071445256471634 0.31417286396026611 0.0096975676715373993
0.13130106031894684 0.31332236528396606 0.0098355105146765709
0.16104094684123993 0.31343212723731995 0.010337773710489273
0.19148831069469452 0.31432914733886719 0.0094393808394670486
0.22332644462585449 0.31394290924072266 0.0094222351908683777
0.25273171067237854 0.31327134370803833 0.008965812623500824
0.2830086350440979 0.31321591138839722 0.008671540766954422
0.31412434577941895 0.3128858208656311 0.010416604578495026
0.34420958161354065 0.31234121322631836 0.0095631256699562073
0.37470519542694092 0.3135438859462738 0.0089579885825514793
0.40397155284881592 0.31329813599586487 0.0093904873356223106
0.43534836173057556 0.31373527646064758 0.0099227195605635643
0.46522998809814453 0.31410229206085205 0.0097080562263727188
0.49982625246047974 0.31475657224655151 0.009783443994820118
0.5354686975479126 0.31286391615867615 0.0099552450701594353
0.56524580717086792 0.31381818652153015 0.0097927069291472435
0.59631258249282837 0.31254816055297852 0.0088225444778800011
0.62564176321029663 0.31405147910118103 0.0089874928817152977
0.6563030481338501 0.31365057826042175 0.0094862254336476326
0.68711560964584351 0.31338557600975037 0.0086135352030396461
0.71675264835357666 0.31294384598731995 0.0095023075118660927
0.74647319316864014 0.31333732604980469 0.0095525188371539116
0.77854353189468384 0.31246978044509888 0.0088465716689825058
0.80904102325439453 0.31285539269447327 0.0088921589776873589
0.83802193403244019 0.31435629725456238 0.0094569753855466843
0.86924266815185547 0.31367805600166321 0.0089463191106915474
0.89927196502685547 0.31377413868904114 0.0091011514887213707
0.9295925498008728 0.31391119956970215 0.0090421754866838455
0.95969259738922119 0.31347513198852539 0.0083218207582831383
0.99090671539306641 0.31313076615333557 0.0087496377527713776
0.0095282364636659622 0.34452888369560242 0.0085167661309242249
0.038987703621387482 0.34372016787528992 0.0096972538158297539
0.070663772523403168 0.34392595291137695 0.010331685654819012
0.10082302242517471 0.34373494982719421 0.0096819493919610977
0.13172116875648499 0.34435784816741943 0.0093504367396235466
0.16130810976028442 0.34408369660377502 0.0099586565047502518
0.19214355945587158 0.34423121809959412 0.009947899729013443
0.22260989248752594 0.34362471103668213 0.0086079109460115433
0.25226041674613953 0.3427814245223999 0.0089270034804940224
0.28235772252082825 0.34289801120758057 0.0091065084561705589
0.31350201368331909 0.34373962879180908 0.0088197458535432816
0.34354966878890991 0.34303233027458191 0.010356655344367027
0.37308311462402344 0.34341403841972351 0.0095454705879092216
0.40476173162460327 0.34320172667503357 0.010019938461482525
0.43546211719512939 0.34356674551963806 0.0099811116233468056
0.46644708514213562 0.34448897838592529 0.0092377029359340668
0.50101089477539062 0.34422010183334351 0.0091797281056642532
0.5343671441078186 0.34332439303398132 0.010887615382671356
0.56502270698547363 0.34347972273826599 0.008296567015349865
0.59575784206390381 0.34389641880989075 0.010288731195032597
0.62577372789382935 0.34424501657485962 0.0095116142183542252
0.65608096122741699 0.34406718611717224 0.010116752237081528
