Textures/0.cube
# Created by: G'MIC (https://gmic.eu)
TITLE "Identity.cube"
# LUT size
LUT_3D_SIZE 5
# Data domain
DOMAIN_MIN 0.0 0.0 0.0
DOMAIN_MAX 1.0 1.0 1.0
# LUT data points
0.0095263803377747536 0.0090825250372290611 0.010062068700790405
0.25243395566940308 0.010002238675951958 0.0098645798861980438
0.50101089477539062 0.0090691344812512398 0.0090375365689396858
0.7470436692237854 0.0095277717337012291 0.0082871103659272194
0.98990535736083984 0.0095588462427258492 0.010035287588834763
0.0095722675323486328 0.25168484449386597 0.01006404310464859
0.25246816873550415 0.2522205114364624 0.010326121002435684
0.49952569603919983 0.25296324491500854 0.0098255760967731476
0.74697178602218628 0.25223556160926819 0.0098916152492165565
0.98995232582092285 0.25217521190643311 0.0091299219056963921
0.0090375365689396858 0.4994787871837616 0.0095589067786931992
0.25342327356338501 0.49973294138908386 0.010079318657517433
0.5 0.49952518939971924 0.011044977232813835
0.7480628490447998 0.5007433295249939 0.0090992981567978859
0.99188077449798584 0.49852916598320007 0.0085477652028203011
0.0093599976971745491 0.74604755640029907 0.0095747355371713638
0.25273621082305908 0.74732804298400879 0.010316304862499237
0.50044423341751099 0.74803125858306885 0.0088623110204935074
0.7471764087677002 0.74710625410079956 0.009961811825633049
0.99040806293487549 0.74779224395751953 0.0095598641782999039
0.010477167554199696 0.98996472358703613 0.010125264525413513
0.25336927175521851 0.99045836925506592 0.00981912761926651
0.50049161911010742 0.99044114351272583 0.0090672196820378304
0.74800789356231689 0.98895460367202759 0.0093293860554695129
0.98945963382720947 0.99044305086135864 0.0095302099362015724
0.0091146174818277359 0.010034823790192604 0.25324809551239014
0.25175788998603821 0.0096699334681034088 0.25339853763580322
0.50020533800125122 0.010301463305950165 0.25320154428482056
0.74681305885314941 0.0087840491905808449 0.25294974446296692
0.99065488576889038 0.0095608215779066086 0.25349247455596924
0.0097233457490801811 0.25263398885726929 0.2538105845451355
0.2528831958770752 0.25229960680007935 0.25225898623466492
0.50049066543579102 0.25343945622444153 0.25193768739700317
0.74775922298431396 0.25271949172019958 0.25249204039573669
0.9902692437171936 0.25329828262329102 0.25315612554550171
0.0092917587608098984 0.50097930431365967 0.25198379158973694
0.25255864858627319 0.50000667572021484 0.25233557820320129
0.50027573108673096 0.50099557638168335 0.25295650959014893
0.7469291090965271 0.50055140256881714 0.25276347994804382
0.99086964130401611 0.50053656101226807 0.25321602821350098
0.0089665018022060394 0.74772101640701294 0.25220799446105957
0.25330543518066406 0.7475510835647583 0.25316411256790161
0.50009191036224365 0.74778711795806885 0.25207611918449402
0.74769073724746704 0.74700212478637695 0.25264072418212891
0.99086081981658936 0.74728727340698242 0.25305292010307312
0.010064013302326202 0.98968970775604248 0.2539505660533905
0.25277391076087952 0.99154132604598999 0.25262454152107239
0.50053560733795166 0.9911535382270813 0.25347021222114563
0.74733459949493408 0.99088454246520996 0.25320154428482056
0.9897078275680542 0.99094867706298828 0.25246736407279968
0.0095569919794797897 0.0090691344812512398 0.50042837858200073
0.25340783596038818 0.009289364330470562 0.49898910522460938
0.49952521920204163 0.0086090471595525742 0.50047481060028076
0.74734997749328613 0.010807513259351254 0.50072753429412842
0.99093091487884521 0.0085477652028203011 0.50045806169509888
0.01047716848552227 0.25294837355613708 0.49980902671813965
0.25221401453018188 0.25335526466369629 0.50040686130523682
0.5 0.25219047069549561 0.50050544738769531
0.74681282043457031 0.2522149384021759 0.49875220656394958
0.98991972208023071 0.25192186236381531 0.49974727630615234
0.010033836588263512 0.50003063678741455 0.49949455261230469
0.25295647978782654 0.50001537799835205 0.49926486611366272
0.49901977181434631 0.49901977181434631 0.50098025798797607
0.74730396270751953 0.49926483631134033 0.50073522329330444
0.99037986993789673 0.49851429462432861 0.50047481060028076
0.0095445429906249046 0.7475883960723877 0.49970132112503052
0.25286555290222168 0.74830794334411621 0.50037479400634766
0.50027573108673096 0.74751836061477661 0.50049012899398804
0.74718910455703735 0.7468525767326355 0.50009238719940186
0.99044013023376465 0.74751073122024536 0.50023740530014038
0.010080276057124138 0.99041146039962769 0.49957165122032166
0.25345438718795776 0.98920691013336182 0.49905040860176086
0.49996939301490784 0.98993551731109619 0.50053608417510986
0.74676769971847534 0.99075561761856079 0.49974682927131653
0.99093091487884521 0.98949122428894043 0.50045996904373169
0.010035287588834763 0.0098196202889084816 0.74702787399291992
0.25344711542129517 0.0097412997856736183 0.74722582101821899
0.49876657128334045 0.010255501605570316 0.74780946969985962
0.74730443954467773 0.0092982063069939613 0.74702656269073486
0.99040806293487549 0.0095574548467993736 0.74681508541107178
0.0095813637599349022 0.2530917227268219 0.74739181995391846
0.25199943780899048 0.25265365839004517 0.74740821123123169
0.49960947036743164 0.2525743842124939 0.74677449464797974
0.74739086627960205 0.25347092747688293 0.74753612279891968
0.99004632234573364 0.2530694305896759 0.74732816219329834
0.011282442137598991 0.50099557638168335 0.74850660562515259
0.25335526466369629 0.49951037764549255 0.74666059017181396
0.50022977590560913 0.49977028369903564 0.74730396270751953
0.74668353796005249 0.50038343667984009 0.74754101037979126
0.99039417505264282 0.4997788667678833 0.74804705381393433
0.0093144848942756653 0.74733436107635498 0.74758124351501465
0.25236132740974426 0.74699234962463379 0.74740546941757202
0.49924188852310181 0.74695068597793579 0.74771195650100708
0.74762046337127686 0.74692487716674805 0.74721014499664307
0.99067854881286621 0.74757325649261475 0.74654734134674072
0.0090715428814291954 0.9909319281578064 0.74730533361434937
0.25333583354949951 0.99117743968963623 0.74716144800186157
0.50047439336776733 0.99017393589019775 0.74751126766204834
0.74728894233703613 0.98991948366165161 0.74777758121490479
0.9902268648147583 0.99018239974975586 0.74676781892776489
0.0095569919794797897 0.0095569919794797897 0.99139201641082764
0.25242051482200623 0.0095608215779066086 0.99068707227706909
0.50052130222320557 0.0081192748621106148 0.99050247669219971
0.74655252695083618 0.0090380003675818443 0.99076265096664429
0.99192768335342407 0.010035287588834763 0.98949027061462402
0.0088070295751094818 0.25223743915557861 0.98978358507156372
0.25278937816619873 0.25283104181289673 0.99044734239578247
0.50072801113128662 0.25267928838729858 0.99020367860794067
0.7480698823928833 0.25166234374046326 0.9912148118019104
0.99114567041397095 0.25142458081245422 0.98993754386901855
0.0095589067786931992 0.50048965215682983 0.98995131254196167
0.25397485494613647 0.4989737868309021 0.99066376686096191
0.5 0.50098025798797607 0.99047178030014038
0.74678206443786621 0.49976307153701782 0.99015724658966064
0.9904094934463501 0.50048965215682983 0.98991978168487549
0.0080570662394165993 0.74679690599441528 0.99094820022583008
0.25306776165962219 0.74807143211364746 0.99004727602005005
0.50072711706161499 0.74757117033004761 0.9904559850692749
0.74698728322982788 0.74783152341842651 0.98983335494995117
0.98994892835617065 0.74679756164550781 0.98990350961685181
0.0096201887354254723 0.99100750684738159 0.98993414640426636
0.25300320982933044 0.98976767063140869 0.99044305086135864
0.49993875622749329 0.99096250534057617 0.99090129137039185
0.74702596664428711 0.99047273397445679 0.99120694398880005
0.99047178030014038 0.9899972677230835 0.99091756343841553
