Textures/1.cube
# Created by: G'MIC (https://gmic.eu)
TITLE "Anime.cube"
# LUT size
LUT_3D_SIZE 33
# Data domain
DOMAIN_MIN 0.0 0.0 0.0
DOMAIN_MAX 1.0 1.0 1.0
# LUT data points
0.060291171073913574 0.0085354428738355637 0
0.081928588449954987 0.0095728468149900436 0
0.099996566772460938 0.015501661226153374 0
0.11743571609258652 0.016960814595222473 0
0.13572612404823303 0.017815839499235153 0
0.15432700514793396 0.027368517592549324 0
0.17270265519618988 0.037977796047925949 0
0.19605131447315216 0.045424807816743851 0
0.22053170204162598 0.054239880293607712 0
0.24523058533668518 0.067298471927642822 0
0.27064889669418335 0.081933341920375824 0
0.29225549101829529 0.09438624233007431 0
0.31151962280273438 0.10580379515886307 0.00019802925817202777
0.33443820476531982 0.11863049864768982 0.0014333311701193452
0.35767632722854614 0.13207806646823883 0.0024376057554036379
0.37864705920219421 0.14521484076976776 0.0061905793845653534
0.4001334011554718 0.15866704285144806 0.0074577112682163715
0.42375096678733826 0.17234164476394653 0.017703985795378685
0.446300208568573 0.18730561435222626 0.032062552869319916
0.4678095281124115 0.20063917338848114 0.039301391690969467
0.48850530385971069 0.21236525475978851 0.042265415191650391
0.51121443510055542 0.22669363021850586 0.05130327120423317
0.53490424156188965 0.24218381941318512 0.064468972384929657
0.56171262264251709 0.25743693113327026 0.077753059566020966
0.59195804595947266 0.27438560128211975 0.096130058169364929
0.61894559860229492 0.29026570916175842 0.10867130756378174
0.64067333936691284 0.30391240119934082 0.11492088437080383
0.66332745552062988 0.31925791501998901 0.1232805922627449
0.68814605474472046 0.33616554737091064 0.1327686607837677
0.71228694915771484 0.35057485103607178 0.14235067367553711
0.73778104782104492 0.36428359150886536 0.15213079750537872
0.76590728759765625 0.38089466094970703 0.1662077009677887
0.79636263847351074 0.39813968539237976 0.18319208920001984
0.039840392768383026 0.040294289588928223 0
0.079937785863876343 0.024457111954689026 0
0.10429050773382187 0.028577286750078201 0
0.1219668984413147 0.042854029685258865 0
0.1404944509267807 0.046870257705450058 0
0.16263408958911896 0.050792954862117767 0
0.18163082003593445 0.058613482862710953 0
0.2005932629108429 0.063939057290554047 0
0.22253893315792084 0.070915050804615021 0
0.244037926197052 0.080573327839374542 0
0.26805096864700317 0.093861758708953857 0
0.29115781188011169 0.10650269687175751 0
0.31151962280273438 0.11765599250793457 0.00042896877857856452
0.33334368467330933 0.12971991300582886 0.0042546638287603855
0.35563862323760986 0.14288105070590973 0.0071699758991599083
0.37758573889732361 0.15481381118297577 0.015216290019452572
0.3992651104927063 0.16745385527610779 0.019830161705613136
0.42339968681335449 0.18080960214138031 0.027446728199720383
0.44671657681465149 0.19510291516780853 0.039448339492082596
0.46828886866569519 0.20867809653282166 0.049350794404745102
0.48921918869018555 0.22023580968379974 0.054646909236907959
0.512520432472229 0.23318706452846527 0.062315110117197037
0.53685086965560913 0.24778465926647186 0.073762863874435425
0.56107807159423828 0.26237785816192627 0.083188578486442566
0.58772063255310059 0.27845031023025513 0.0960230752825737
0.616249680519104 0.2944028377532959 0.1108928844332695
0.64162260293960571 0.30895295739173889 0.1228841245174408
0.66375696659088135 0.32408437132835388 0.13051183521747589
0.68557804822921753 0.34106218814849854 0.1380467414855957
0.71009260416030884 0.35501620173454285 0.14803463220596313
0.73636871576309204 0.36706581711769104 0.15796034038066864
0.76456886529922485 0.38386201858520508 0.17121638357639313
0.79399788379669189 0.40307265520095825 0.18790847063064575
0.013289601542055607 0.077453359961509705 0
0.055346760898828506 0.058487832546234131 0
0.10229054838418961 0.045193098485469818 0
0.12601616978645325 0.058717772364616394 0
0.14390647411346436 0.073850348591804504 5.7451183238299564e-05
0.16536884009838104 0.077820010483264923 0.0003064062912017107
0.18765318393707275 0.08119993656873703 0.00089589116396382451
0.20607089996337891 0.085937187075614929 0.0013303776504471898
0.22462829947471619 0.090986043214797974 0.0026730033569037914
0.2448451966047287 0.099766135215759277 0.0042998427525162697
0.26615312695503235 0.10921172052621841 0.0047534671612083912
0.28881591558456421 0.12007211148738861 0.0060890056192874908
0.31188264489173889 0.13156217336654663 0.0070347362197935581
0.3342011570930481 0.14377374947071075 0.011235532350838184
0.3551228940486908 0.1565311998128891 0.015769826248288155
0.3756389319896698 0.1675959974527359 0.023988630622625351
0.39713701605796814 0.17927362024784088 0.032941851764917374
0.42087963223457336 0.19214031100273132 0.041593745350837708
0.44513231515884399 0.2051347941160202 0.050482794642448425
0.46847489476203918 0.21684403717517853 0.058269541710615158
0.48979708552360535 0.22890704870223999 0.066093437373638153
0.51416623592376709 0.24303564429283142 0.075274169445037842
0.539195716381073 0.25682783126831055 0.084840148687362671
0.56273847818374634 0.27000859379768372 0.093217909336090088
0.5858229398727417 0.28487977385520935 0.10109083354473114
0.61131423711776733 0.29962444305419922 0.11215931922197342
0.63969320058822632 0.31492775678634644 0.12854456901550293
0.66469085216522217 0.33054462075233459 0.13985136151313782
0.6846001148223877 0.34753021597862244 0.14608763158321381
0.70766234397888184 0.36172515153884888 0.15502816438674927
0.73488277196884155 0.37182343006134033 0.16473141312599182
0.76258540153503418 0.38737836480140686 0.17762631177902222
0.79126060009002686 0.40776664018630981 0.19431829452514648
0.0056167510338127613 0.11102847009897232 0
0.037079848349094391 0.09721105545759201 0
0.08790646493434906 0.081078171730041504 0
0.12766292691230774 0.076882012188434601 0
0.14716799557209015 0.088513001799583435 0.0002298047038493678
0.16505604982376099 0.097296461462974548 0.0012256251648068428
0.18665391206741333 0.1021445244550705 0.0022587655112147331
0.20737253129482269 0.10789830982685089 0.0036425173748284578
0.2262132465839386 0.11317672580480576 0.0053837494924664497
0.24580332636833191 0.12286952137947083 0.010391891933977604
0.26635026931762695 0.13230240345001221 0.012450050562620163
0.28811225295066833 0.13995563983917236 0.021248787641525269
0.31094950437545776 0.15038186311721802 0.026438450440764427
0.33371740579605103 0.16220410168170929 0.030446877703070641
0.35426151752471924 0.17401692271232605 0.034722380340099335
0.37224686145782471 0.18367211520671844 0.041550803929567337
0.39238828420639038 0.19466853141784668 0.050485581159591675
0.4149785041809082 0.20713761448860168 0.058660216629505157
0.43900665640830994 0.2200256735086441 0.06715693324804306
0.46489179134368896 0.23034664988517761 0.071864776313304901
0.48867079615592957 0.24158714711666107 0.078534558415412903
0.51420563459396362 0.25714948773384094 0.088359981775283813
0.54017806053161621 0.27155670523643494 0.098045423626899719
0.56325733661651611 0.2829936146736145 0.10606341809034348
0.58599197864532471 0.29628065228462219 0.11367352306842804
0.6086047887802124 0.30956706404685974 0.12163492292165756
0.63322043418884277 0.32382616400718689 0.13372401893138885
0.66048347949981689 0.33935859799385071 0.14664970338344574
0.68429058790206909 0.3555179238319397 0.15665890276432037
0.70820057392120361 0.36993557214736938 0.16508199274539948
0.73619967699050903 0.3810025155544281 0.17286007106304169
0.76268130540847778 0.39563754200935364 0.18413880467414856
0.78792363405227661 0.41420260071754456 0.1988852322101593
0.0037644358817487955 0.14060479402542114 0
0.031619701534509659 0.1286541074514389 0
0.078341886401176453 0.11599165946245193 0
0.12330300360918045 0.10717751085758209 0
0.15223866701126099 0.10389136523008347 0.0011275791330263019
0.17019824683666229 0.11202013492584229 0.0024471296928822994
0.18830756843090057 0.12120718508958817 0.0046165864914655685
0.20871329307556152 0.12759105861186981 0.0069620953872799873
0.22945232689380646 0.13400599360466003 0.0085456753149628639
0.24896207451820374 0.14380012452602386 0.013502354733645916
0.26824274659156799 0.15438489615917206 0.018015611916780472
0.28881794214248657 0.16227075457572937 0.029061930254101753
0.31017985939979553 0.17052426934242249 0.042430255562067032
0.33210587501525879 0.18160468339920044 0.047788847237825394
0.35277318954467773 0.1929638683795929 0.052520804107189178
0.37084931135177612 0.20227453112602234 0.059647798538208008
0.38904908299446106 0.21177032589912415 0.067005239427089691
0.4105590283870697 0.22363950312137604 0.075143426656723022
0.43317496776580811 0.23660086095333099 0.084288544952869415
0.45809251070022583 0.247102290391922 0.090201802551746368
0.48489463329315186 0.25717413425445557 0.094329766929149628
0.51140755414962769 0.27070450782775879 0.10235584527254105
0.53830260038375854 0.28594794869422913 0.1120748445391655
0.56214684247970581 0.29855841398239136 0.12056702375411987
0.58518099784851074 0.31022030115127563 0.12813389301300049
0.60857641696929932 0.32299149036407471 0.13655522465705872
0.62991631031036377 0.33629709482192993 0.1443861722946167
0.65527665615081787 0.35086098313331604 0.15447568893432617
0.68228626251220703 0.36644253134727478 0.16766640543937683
0.70890343189239502 0.37896996736526489 0.17624275386333466
0.7375258207321167 0.39072594046592712 0.18239796161651611
0.7632860541343689 0.40542858839035034 0.19295211136341095
0.78647869825363159 0.42248988151550293 0.20620916783809662
0.0012856790563091636 0.16545550525188446 0
0.016453087329864502 0.15687389671802521 0
0.063303716480731964 0.14500495791435242 0
0.12856319546699524 0.13596232235431671 0
0.16388395428657532 0.13098059594631195 0.0016017652815207839
0.18269546329975128 0.13353356719017029 0.0036629447713494301
0.2003563791513443 0.14158663153648376 0.0068256780505180359
0.21724352240562439 0.14900679886341095 0.014034541323781013
0.23703646659851074 0.15584580600261688 0.016991071403026581
0.25632500648498535 0.16453126072883606 0.022166125476360321
0.27485790848731995 0.17437613010406494 0.027374411001801491
0.29309642314910889 0.18299844861030579 0.036802254617214203
0.31331062316894531 0.1908850222826004 0.049114447087049484
0.33421552181243896 0.20225167274475098 0.056643534451723099
0.35513448715209961 0.2138398140668869 0.062414195388555527
0.37442585825920105 0.2226230651140213 0.069838367402553558
0.39273563027381897 0.23182506859302521 0.07769639790058136
0.41375792026519775 0.24152970314025879 0.086368396878242493
0.43632403016090393 0.25306114554405212 0.096037186682224274
0.45884796977043152 0.26498737931251526 0.10477210581302643
0.48304107785224915 0.27545559406280518 0.11113861948251724
0.50902402400970459 0.28631883859634399 0.11787209659814835
0.53555095195770264 0.30078622698783875 0.12744973599910736
0.55979651212692261 0.31423723697662354 0.13612265884876251
0.583049476146698 0.3260294497013092 0.14390553534030914
0.60836303234100342 0.33895903825759888 0.15403127670288086
0.6324196457862854 0.35249707102775574 0.16431108117103577
0.65713423490524292 0.36681881546974182 0.17303366959095001
0.68219560384750366 0.38186579942703247 0.18447627127170563
0.70946866273880005 0.39258727431297302 0.19036097824573517
0.73808550834655762 0.40235227346420288 0.19506531953811646
0.76294559240341187 0.41603925824165344 0.20536981523036957
0.78579771518707275 0.43221646547317505 0.21895737946033478
0.00074504571966826916 0.19050025939941406 0
0.0097612384706735611 0.18346327543258667 0
0.04321545735001564 0.17537251114845276 0
0.11411748826503754 0.16715756058692932 0
0.17243337631225586 0.16076117753982544 0.0036869558971375227
0.19567707180976868 0.16104158759117126 0.0075144581496715546
0.21306699514389038 0.16379322111606598 0.010216445662081242
0.22920596599578857 0.17077597975730896 0.018206147477030754
0.24557611346244812 0.17830583453178406 0.024826353415846825
0.26396963000297546 0.18603332340717316 0.030208852142095566
0.28251877427101135 0.19395036995410919 0.036258511245250702
0.30006563663482666 0.20218551158905029 0.045593403279781342
0.31784388422966003 0.21012018620967865 0.054433654993772507
0.33806651830673218 0.22133654356002808 0.061477415263652802
0.35920447111129761 0.23428638279438019 0.06964363157749176
0.37905952334403992 0.24361646175384521 0.078648887574672699
0.39848959445953369 0.25170242786407471 0.086027823388576508
0.41939434409141541 0.26055908203125 0.094263598322868347
0.44183051586151123 0.26981538534164429 0.10527515411376953
0.46404734253883362 0.2815069854259491 0.11487754434347153
0.48586317896842957 0.29289904236793518 0.12427264451980591
0.51009154319763184 0.30447205901145935 0.13327760994434357
0.53550177812576294 0.31833893060684204 0.14303301274776459
0.5592573881149292 0.33117765188217163 0.15181852877140045
0.58242309093475342 0.34292426705360413 0.159653440117836
0.60791915655136108 0.35512915253639221 0.16967581212520599
0.63427507877349854 0.36835977435112 0.18282176554203033
0.65918266773223877 0.38217368721961975 0.1925763338804245
0.68256294727325439 0.39745396375656128 0.20218619704246521
0.70826035737991333 0.40859311819076538 0.20833460986614227
0.73698055744171143 0.41697403788566589 0.2114727795124054
0.76339137554168701 0.42868208885192871 0.21971434354782104
0.78642404079437256 0.44400817155838013 0.23313978314399719
0 0.21913617849349976 0
0.0022294807713478804 0.21342192590236664 0
0.030725723132491112 0.20672416687011719 0
0.10197079181671143 0.20037597417831421 0
0.16655275225639343 0.19289712607860565 0.0059232646599411964
0.20307055115699768 0.18910236656665802 0.018241338431835175
0.22254900634288788 0.19005012512207031 0.021904531866312027
0.23937162756919861 0.19354850053787231 0.030161434784531593
0.2561924159526825 0.20040147006511688 0.036874860525131226
0.27232655882835388 0.20578223466873169 0.039002060890197754
0.29003804922103882 0.21290828287601471 0.044146299362182617
0.30735287070274353 0.22190403938293457 0.054846514016389847
0.32485702633857727 0.23001860082149506 0.064313203096389771
0.34297960996627808 0.23906713724136353 0.070112816989421844
0.36337167024612427 0.25070813298225403 0.078156024217605591
0.38533511757850647 0.26311308145523071 0.08940405398607254
0.40566271543502808 0.27231103181838989 0.097855396568775177
0.42348599433898926 0.27935698628425598 0.10314738750457764
0.4436783492565155 0.28761455416679382 0.1120268702507019
0.46793031692504883 0.29999420046806335 0.12182734161615372
0.4914851188659668 0.31204372644424438 0.13168816268444061
0.51462483406066895 0.32370200753211975 0.14353489875793457
0.53912246227264404 0.33666834235191345 0.15473258495330811
0.56333667039871216 0.35007396340370178 0.16531984508037567
0.58694088459014893 0.36370649933815002 0.17534904181957245
0.61126065254211426 0.37405163049697876 0.18485496938228607
0.63622206449508667 0.38553383946418762 0.19703853130340576
0.65959590673446655 0.39835852384567261 0.20547008514404297
0.68192011117935181 0.4126758873462677 0.21172162890434265
0.70600128173828125 0.42514681816101074 0.22135725617408752
0.73304075002670288 0.43439552187919617 0.22928248345851898
0.76174432039260864 0.44483768939971924 0.23697316646575928
0.78707993030548096 0.45767641067504883 0.24752560257911682
0 0.24959442019462585 0
0 0.24453951418399811 0
0.014285571873188019 0.23867668211460114 0
0.081561140716075897 0.23298601806163788 0
0.1544593870639801 0.22665195167064667 0.0030489102937281132
0.19908469915390015 0.22119437158107758 0.014477405697107315
0.23101510107517242 0.21850946545600891 0.029180906713008881
0.25098034739494324 0.220940962433815 0.042397860437631607
0.26803880929946899 0.22474034130573273 0.050250571221113205
0.28357094526290894 0.22861790657043457 0.051611877977848053
0.29905518889427185 0.23344820737838745 0.053400672972202301
0.31568619608879089 0.24234651029109955 0.064030468463897705
0.33332905173301697 0.25165843963623047 0.075814142823219299
0.35149803757667542 0.25983259081840515 0.082235634326934814
0.36930248141288757 0.26845309138298035 0.088941097259521484
0.39030051231384277 0.28069460391998291 0.099814996123313904
0.41310152411460876 0.2932584285736084 0.11064088344573975
0.43138998746871948 0.30028650164604187 0.11633482575416565
0.44730943441390991 0.30675822496414185 0.12085222452878952
0.46988353133201599 0.31831008195877075 0.12937560677528381
0.49599727988243103 0.3314920961856842 0.13903480768203735
0.51974159479141235 0.34359198808670044 0.15007761120796204
0.5431177020072937 0.35534954071044922 0.16361632943153381
0.56663787364959717 0.3679923415184021 0.17513690888881683
0.59158968925476074 0.38344904780387878 0.18831682205200195
0.61511695384979248 0.39401397109031677 0.19874027371406555
0.63829654455184937 0.40366330742835999 0.20996366441249847
0.66102313995361328 0.41534668207168579 0.21726253628730774
0.68234723806381226 0.42880368232727051 0.22004364430904388
0.70676732063293457 0.44122189283370972 0.22939425706863403
0.73192703723907471 0.45165157318115234 0.24366940557956696
0.75816458463668823 0.46321681141853333 0.25516718626022339
0.78500008583068848 0.47468286752700806 0.26322165131568909
0 0.28341752290725708 0
0 0.27885928750038147 0
0.0052103162743151188 0.27319973707199097 0
0.048431858420372009 0.26846721768379211 0
0.1252865344285965 0.26200288534164429 0
0.19311569631099701 0.2548186182975769 0.0015007618349045515
0.23143963515758514 0.25110068917274475 0.019816316664218903
0.26034525036811829 0.25112679600715637 0.052546422928571701
0.27916669845581055 0.25288015604019165 0.064345605671405792
0.29611089825630188 0.25377422571182251 0.066694192588329315
0.3115813136100769 0.2577492892742157 0.068068109452724457
0.32738286256790161 0.26432335376739502 0.074966900050640106
0.34446617960929871 0.27290156483650208 0.085323534905910492
0.36526945233345032 0.28231912851333618 0.094735942780971527
0.38395687937736511 0.2918027937412262 0.10234563052654266
0.40100365877151489 0.30365824699401855 0.1121605783700943
0.42218479514122009 0.31561693549156189 0.1230853796005249
0.44289436936378479 0.32245540618896484 0.13086768984794617
0.4596123993396759 0.32898074388504028 0.13637879490852356
0.47717490792274475 0.33899396657943726 0.14323177933692932
0.49940350651741028 0.351247638463974 0.15139080584049225
0.5231209397315979 0.36489331722259521 0.16160599887371063
0.54696309566497803 0.37751361727714539 0.17497950792312622
0.57051104307174683 0.38850307464599609 0.18610027432441711
0.59588527679443359 0.40198224782943726 0.19792617857456207
0.61731016635894775 0.41172730922698975 0.20717006921768188
0.63831722736358643 0.42061161994934082 0.21606886386871338
0.66204041242599487 0.43128412961959839 0.22479747235774994
0.68463617563247681 0.44364055991172791 0.23119071125984192
0.70960605144500732 0.45726200938224792 0.24039024114608765
0.73415422439575195 0.46890145540237427 0.25176164507865906
0.75867855548858643 0.48197457194328308 0.26479274034500122
0.78577399253845215 0.49666035175323486 0.2768222987651825
0 0.31763136386871338 0
0 0.31271052360534668 0
0.0035686541814357042 0.30717790126800537 0
0.036960456520318985 0.30302771925926208 0
0.09627869725227356 0.29797345399856567 0
0.17131760716438293 0.29014101624488831 0
0.22960735857486725 0.2835375964641571 0.011715194210410118
0.2633499801158905 0.28195244073867798 0.049301445484161377
0.28978806734085083 0.2819446325302124 0.07826194167137146
0.30788218975067139 0.2819446325302124 0.083358727395534515
0.32506456971168518 0.28343498706817627 0.085727021098136902
0.34125131368637085 0.28937414288520813 0.09053194522857666
0.35816523432731628 0.29541778564453125 0.09528021514415741
0.37782746553421021 0.30461743474006653 0.10444090515375137
0.39969706535339355 0.31608852744102478 0.11518744379281998
0.41644105315208435 0.32744875550270081 0.12529656291007996
0.43269467353820801 0.33831137418746948 0.13628792762756348
0.45222210884094238 0.34518778324127197 0.14414732158184052
0.47323125600814819 0.35158604383468628 0.15174277126789093
0.49109551310539246 0.36142629384994507 0.15946981310844421
0.50546669960021973 0.37141057848930359 0.16549001634120941
0.52618318796157837 0.38429021835327148 0.17496006190776825
0.55132108926773071 0.39924731850624084 0.1883440762758255
0.57503396272659302 0.41106763482093811 0.19933433830738068
0.60147273540496826 0.42244523763656616 0.208958700299263
0.62353706359863281 0.43148189783096313 0.21674397587776184
0.6414262056350708 0.43914356827735901 0.22270800173282623
0.66380536556243896 0.44906270503997803 0.23058629035949707
0.68840628862380981 0.45927178859710693 0.24170221388339996
0.71320605278015137 0.47177284955978394 0.25274601578712463
0.73673874139785767 0.48527130484580994 0.25948154926300049
0.76101893186569214 0.49910080432891846 0.27077341079711914
0.78902006149291992 0.51598960161209106 0.28701823949813843
0 0.34961172938346863 0
0 0.346596360206604 0
1.716442420729436e-05 0.34143856167793274 0
0.010908888652920723 0.33841922879219055 0
0.064603060483932495 0.33387672901153564 0
0.15787391364574432 0.32587283849716187 0
0.22622884809970856 0.31801971793174744 0.012025222182273865
0.26912194490432739 0.31266507506370544 0.058072552084922791
0.29847848415374756 0.31210210919380188 0.093282595276832581
0.31885647773742676 0.31309807300567627 0.10522081702947617
0.33686324954032898 0.31422841548919678 0.10787511616945267
0.35760274529457092 0.31924474239349365 0.11076182126998901
0.37518301606178284 0.32466945052146912 0.11421100050210953
0.39177241921424866 0.32924643158912659 0.11906281858682632
0.41240546107292175 0.33867278695106506 0.12854865193367004
0.42857801914215088 0.34908401966094971 0.13849629461765289
0.44406396150588989 0.3600820004940033 0.14934749901294708
0.46075555682182312 0.36709854006767273 0.15523876249790192
0.4809039831161499 0.3732638955116272 0.1615876704454422
0.50443404912948608 0.38344591856002808 0.17241986095905304
0.52057355642318726 0.39414387941360474 0.18054512143135071
0.53760236501693726 0.40589204430580139 0.18845587968826294
0.55968284606933594 0.41967934370040894 0.20042568445205688
0.58249437808990479 0.43178799748420715 0.21204590797424316
0.60780876874923706 0.44292205572128296 0.22248817980289459
0.6309325098991394 0.4533286988735199 0.23015148937702179
0.65000021457672119 0.46290591359138489 0.23726709187030792
0.67152899503707886 0.47153869271278381 0.24386993050575256
0.6950334906578064 0.47981497645378113 0.25236591696739197
0.71862417459487915 0.49203076958656311 0.26344689726829529
0.74248749017715454 0.50609320402145386 0.27214142680168152
0.76683306694030762 0.51911616325378418 0.28401833772659302
0.79410237073898315 0.53343355655670166 0.3011472225189209
0 0.3808862566947937 0
0 0.3789675235748291 0
0 0.37604221701622009 0
5.9579000662779436e-05 0.37299636006355286 0
0.026226872578263283 0.37023469805717468 0
0.125567227602005 0.36187595129013062 0
0.22094689309597015 0.35274133086204529 0.0082230037078261375
0.26978752017021179 0.34608903527259827 0.054565612226724625
0.30646893382072449 0.34181448817253113 0.10634676367044449
0.32900646328926086 0.3426358699798584 0.12492536008358002
0.34660694003105164 0.34544506669044495 0.12977162003517151
0.36846476793289185 0.34979259967803955 0.13236348330974579
0.39028280973434448 0.35518792271614075 0.13478752970695496
0.40782791376113892 0.35845956206321716 0.13856081664562225
0.4251365065574646 0.36173489689826965 0.14346422255039215
0.44057586789131165 0.37096256017684937 0.15229102969169617
0.45653209090232849 0.38203296065330505 0.16328749060630798
0.47246342897415161 0.38938957452774048 0.1692957729101181
0.49016621708869934 0.39549356698989868 0.17218536138534546
0.51267176866531372 0.40575471520423889 0.18153668940067291
0.53482294082641602 0.4167943000793457 0.19414550065994263
0.5526961088180542 0.42731484770774841 0.20301641523838043
0.57091784477233887 0.43944212794303894 0.21266256272792816
0.59204190969467163 0.45067405700683594 0.22334443032741547
0.6150164008140564 0.46225976943969727 0.2349218875169754
