Textures/1.cube
# Created by: G'MIC (https://gmic.eu)
TITLE "Anime.cube"
# LUT size
LUT_3D_SIZE 5
# Data domain
DOMAIN_MIN 0.0 0.0 0.0
DOMAIN_MAX 1.0 1.0 1.0
# LUT data points
0.060291171073913574 0.0085354428738355637 0
0.22053170204162598 0.054239880293607712 0
0.4001334011554718 0.15866704285144806 0.0074577112682163715
0.59195804595947266 0.27438560128211975 0.096130058169364929
0.79636263847351074 0.39813968539237976 0.18319208920001984
0 0.24959442019462585 0
0.26803880929946899 0.22474034130573273 0.050250571221113205
0.41310152411460876 0.2932584285736084 0.11064088344573975
0.59158968925476074 0.38344904780387878 0.18831682205200195
0.78500008583068848 0.47468286752700806 0.26322165131568909
0 0.52159428596496582 0
0.27129614353179932 0.48681992292404175 0.012576225213706493
0.51078420877456665 0.49340254068374634 0.23502199351787567
0.66282713413238525 0.54736119508743286 0.28358578681945801
0.82926958799362183 0.63018888235092163 0.3564489483833313
0 0.81007784605026245 0
0.0091826515272259712 0.79368716478347778 0
0.60420036315917969 0.74798458814620972 0.35056257247924805
0.78234487771987915 0.76422357559204102 0.42406800389289856
0.92795926332473755 0.80360537767410278 0.46557885408401489
0 1 0
0 1 0
0.49278134107589722 0.99486297369003296 0.026807624846696854
0.86571210622787476 0.97801250219345093 0.54563862085342407
0.9975966215133667 0.98706728219985962 0.56168228387832642
0.0917845219373703 0.0088678272441029549 0.21049851179122925
0.22870349884033203 0.045943494886159897 0.10088686645030975
0.39352577924728394 0.14633198082447052 0.13221612572669983
0.58608812093734741 0.26899981498718262 0.18601889908313751
0.80072182416915894 0.38960409164428711 0.25576546788215637
0.0092527931556105614 0.25561794638633728 0.1671583354473114
0.26352295279502869 0.23168617486953735 0.17997713387012482
0.4287630021572113 0.28264719247817993 0.20723037421703339
0.62252688407897949 0.35940149426460266 0.25075793266296387
0.83058828115463257 0.45528969168663025 0.29433426260948181
0 0.54533171653747559 0
0.012646946124732494 0.52669131755828857 0.0034025537315756083
0.50888645648956299 0.49104884266853333 0.33082342147827148
0.65457618236541748 0.55603140592575073 0.38205364346504211
0.83237385749816895 0.62868911027908325 0.44175702333450317
0 0.81878143548965454 0
0 0.82756513357162476 0
0.54537743330001831 0.76097840070724487 0.30799210071563721
0.77304363250732422 0.7635493278503418 0.49059814214706421
0.92396247386932373 0.80612123012542725 0.52846944332122803
0 1 0
0 1 0
0.32936415076255798 0.99890530109405518 0.004004970658570528
0.85338819026947021 0.9785502552986145 0.5833473801612854
0.99754470586776733 0.98574346303939819 0.61430943012237549
0.13464783132076263 0.0095400819554924965 0.42911604046821594
0.28965017199516296 0.0067003099247813225 0.38119634985923767
0.41527605056762695 0.15829476714134216 0.27532288432121277
0.59888279438018799 0.2784450352191925 0.32782056927680969
0.79590892791748047 0.39718168973922729 0.39842009544372559
0.048042271286249161 0.24314767122268677 0.44401401281356812
0.25913667678833008 0.24438300728797913 0.4414304792881012
0.44331744313240051 0.27933084964752197 0.33944442868232727
0.61364680528640747 0.35884556174278259 0.37065064907073975
0.81252199411392212 0.45983505249023438 0.41598013043403625
0.015902325510978699 0.52842694520950317 0.43602192401885986
0.034549422562122345 0.52530616521835327 0.44490617513656616
0.49827152490615845 0.50450390577316284 0.46865203976631165
0.67527759075164795 0.55219775438308716 0.50080913305282593
0.87683796882629395 0.61375057697296143 0.51973658800125122
0 0.83174103498458862 0.31695544719696045
0 0.84227263927459717 0.25723710656166077
0.056442365050315857 0.82128012180328369 0.24631831049919128
0.76742804050445557 0.77023804187774658 0.6222151517868042
0.91053146123886108 0.8111034631729126 0.65331482887268066
0 1 0.26724720001220703
0 1 0.18529647588729858
0 1 0
0.78942090272903442 0.99296200275421143 0.55253654718399048
0.99468463659286499 0.98515373468399048 0.7194557785987854
0.092871144413948059 0.023933932185173035 0.66805911064147949
0.28849825263023376 0.014479908160865307 0.64650869369506836
0.49979919195175171 0.08107631653547287 0.57631856203079224
0.62229323387145996 0.286802738904953 0.46869871020317078
0.81213086843490601 0.41054326295852661 0.52259820699691772
0 0.25587084889411926 0.69793039560317993
0.21354411542415619 0.25894010066986084 0.70678681135177612
0.49452778697013855 0.26044633984565735 0.64391475915908813
0.64711952209472656 0.37599217891693115 0.52635651826858521
0.83066469430923462 0.47397491335868835 0.56400632858276367
0 0.52432745695114136 0.74221181869506836
0.034973867237567902 0.51888090372085571 0.75393027067184448
0.47773480415344238 0.51760363578796387 0.73794490098953247
0.69475364685058594 0.5520787239074707 0.6298753023147583
0.87615710496902466 0.61823725700378418 0.65651333332061768
0 0.82318109273910522 0.7241060733795166
0.022109150886535645 0.82078462839126587 0.73091804981231689
0.31253787875175476 0.80281072854995728 0.73782730102539062
0.76024037599563599 0.77756267786026001 0.76088064908981323
0.93380057811737061 0.80810582637786865 0.77285593748092651
0 1 0.66827785968780518
0 1 0.64353817701339722
0 1 0.538177490234375
0.4059237539768219 0.99997621774673462 0.51871055364608765
0.99418896436691284 0.99171239137649536 0.85383147001266479
0.017450053244829178 0.08434344083070755 0.90367162227630615
0.25849926471710205 0.068521104753017426 0.9048774242401123
0.51033163070678711 0.092514723539352417 0.86036789417266846
0.70572966337203979 0.2560679018497467 0.74693775177001953
0.84554576873779297 0.43167394399642944 0.68399381637573242
0 0.27753356099128723 0.96695512533187866
0.075307108461856842 0.28128832578659058 0.96772754192352295
0.47412091493606567 0.2849031388759613 0.9242592453956604
0.7270386815071106 0.33276301622390747 0.82812589406967163
0.86224234104156494 0.49239444732666016 0.71836626529693604
0 0.52493202686309814 0.98934322595596313
0.017978277057409286 0.52078235149383545 0.98955738544464111
0.43172803521156311 0.531879723072052 0.99147909879684448
0.74011677503585815 0.53893351554870605 0.95292782783508301
0.90070343017578125 0.62613773345947266 0.8019595742225647
0.0035931109450757504 0.80728840827941895 0.98790132999420166
0 0.80833196640014648 0.99355459213256836
0.35791373252868652 0.80155372619628906 0.99875646829605103
0.73214715719223022 0.79067438840866089 0.99738246202468872
0.95352590084075928 0.81010395288467407 0.90885293483734131
0 1 0.97022050619125366
0 1 0.97139579057693481
0.039350137114524841 0.99874711036682129 0.97493612766265869
0.56326180696487427 0.99701786041259766 0.97820532321929932
0.98662757873535156 0.9928661584854126 0.98922419548034668
