Textures/10.cube
# Created by: G'MIC (https://gmic.eu)
TITLE "DropBlues.cube"
# LUT size
LUT_3D_SIZE 33
# Data domain
DOMAIN_MIN 0.0 0.0 0.0
DOMAIN_MAX 1.0 1.0 1.0
# LUT data points
0.061809390783309937 0.062641382217407227 0.060127019882202148
0.074196979403495789 0.061917033046483994 0.061760414391756058
0.088275045156478882 0.062118701636791229 0.064141780138015747
0.10859411954879761 0.066231489181518555 0.067745596170425415
0.13183125853538513 0.070075333118438721 0.07128317654132843
0.15901219844818115 0.069109052419662476 0.072286255657672882
0.18716098368167877 0.06763274222612381 0.07206445187330246
0.21817250549793243 0.065422520041465759 0.069625452160835266
0.24968385696411133 0.062043368816375732 0.06601378321647644
0.28501936793327332 0.058599457144737244 0.062448389828205109
0.32196179032325745 0.05436117947101593 0.057781901210546494
0.3556617796421051 0.046176936477422714 0.048266325145959854
0.38765358924865723 0.036023586988449097 0.038497608155012131
0.41925057768821716 0.031399484723806381 0.031515598297119141
0.44994613528251648 0.026647202670574188 0.02317015640437603
0.47651839256286621 0.018278975039720535 0.022451864555478096
0.50190931558609009 0.010854924097657204 0.023846423253417015
0.5289616584777832 0.0096466392278671265 0.024181703105568886
0.55554091930389404 0.01449204795062542 0.025674400851130486
0.58518761396408081 0.013260806910693645 0.021710198372602463
0.61583608388900757 0.0083775948733091354 0.013264711014926434
0.64385217428207397 0.0072899241931736469 0.013900009915232658
0.67099690437316895 0.0066655739210546017 0.021080426871776581
0.69983702898025513 0.0033866504672914743 0.022973449900746346
0.73038870096206665 0.0033601634204387665 0.022941861301660538
0.76152288913726807 0.0048006270080804825 0.021539906039834023
0.79057043790817261 0.0041656154207885265 0.01806299015879631
0.81847548484802246 0.00099267926998436451 0.017508393153548241
0.84729158878326416 0.00088239082833752036 0.019073048606514931
0.87786281108856201 0.0001178103921120055 0.019006608054041862
0.90857833623886108 0 0.015762688592076302
0.93852716684341431 0.00011624998296611011 0.012547461315989494
0.96715074777603149 0.0003557717427611351 0.010665797628462315
0.057932399213314056 0.079186916351318359 0.056419584900140762
0.079652756452560425 0.078594796359539032 0.054546531289815903
0.096545897424221039 0.078594803810119629 0.055794946849346161
0.11835310608148575 0.07887905091047287 0.059165917336940765
0.14316368103027344 0.080635234713554382 0.06230611726641655
0.17365187406539917 0.078379206359386444 0.062849000096321106
0.20206758379936218 0.076281465590000153 0.062038708478212357
0.23087562620639801 0.074679732322692871 0.058736827224493027
0.26131901144981384 0.071666404604911804 0.055101566016674042
0.29146388173103333 0.068370603024959564 0.049794599413871765
0.32555904984474182 0.064369335770606995 0.043620862066745758
0.35657384991645813 0.062393650412559509 0.036721821874380112
0.38801300525665283 0.057057607918977737 0.029246393591165543
0.41794502735137939 0.055339939892292023 0.027712469920516014
0.44781315326690674 0.052488747984170914 0.022933760657906532
0.47465589642524719 0.047915831208229065 0.022165140137076378
0.50062841176986694 0.041611067950725555 0.022391790524125099
0.52709054946899414 0.035207819193601608 0.019215779379010201
0.5534331202507019 0.035540308803319931 0.017819596454501152
0.58472186326980591 0.035242587327957153 0.01786435954272747
0.61571741104125977 0.030894933268427849 0.014397815801203251
0.64385217428207397 0.029215816408395767 0.013898224569857121
0.67099690437316895 0.027403773739933968 0.01819491945207119
0.6998366117477417 0.020208122208714485 0.018838122487068176
0.72914165258407593 0.018589649349451065 0.017888801172375679
0.76031947135925293 0.018850568681955338 0.016957346349954605
0.79095000028610229 0.013849941082298756 0.014479614794254303
0.81855785846710205 0.0073972521349787712 0.014802904799580574
0.84447968006134033 0.0074709281325340271 0.01550052035599947
0.87563478946685791 0.0042963214218616486 0.015574824996292591
0.90826523303985596 0.00018214150622952729 0.0139742661267519
0.93831223249435425 0.000468120735604316 0.011641696095466614
0.96599346399307251 0.0035302620381116867 0.012791585177183151
0.049028422683477402 0.099875912070274353 0.050889670848846436
0.074779868125915527 0.098304785788059235 0.047441307455301285
0.10155592113733292 0.097630776464939117 0.045634102076292038
0.12531080842018127 0.097630783915519714 0.04856901615858078
0.15025594830513 0.096909038722515106 0.051099073141813278
0.1808752715587616 0.094119779765605927 0.051208540797233582
0.21141006052494049 0.091341882944107056 0.050465356558561325
0.24035482108592987 0.089548282325267792 0.04745950922369957
0.26954549551010132 0.087794765830039978 0.043756365776062012
0.29859352111816406 0.084722414612770081 0.037955757230520248
0.32788804173469543 0.08125392347574234 0.031536359339952469
0.35819911956787109 0.080701649188995361 0.026937607675790787
0.38682019710540771 0.082295715808868408 0.021886879578232765
0.4164256751537323 0.081905394792556763 0.020797381177544594
0.44500058889389038 0.080978825688362122 0.020326964557170868
0.47119265794754028 0.077032051980495453 0.019749969244003296
0.49836131930351257 0.073323577642440796 0.019766947254538536
0.52570563554763794 0.069134339690208435 0.01711583323776722
0.55229455232620239 0.063815891742706299 0.012062296271324158
0.58200705051422119 0.060397118330001831 0.011642510071396828
0.61520320177078247 0.057429999113082886 0.013672458939254284
0.64516729116439819 0.056708764284849167 0.016347678378224373
0.67231428623199463 0.05384112149477005 0.017404926940798759
0.7002791166305542 0.048576131463050842 0.016833014786243439
0.72884374856948853 0.044718317687511444 0.015264943242073059
0.75882202386856079 0.041448190808296204 0.014267824590206146
0.79061686992645264 0.0325513556599617 0.012049410492181778
0.81951385736465454 0.025460081174969673 0.010572787374258041
0.84323513507843018 0.026223158463835716 0.010718155652284622
0.87238389253616333 0.02434077113866806 0.01319664902985096
0.90669947862625122 0.015390913002192974 0.013258030638098717
0.93834000825881958 0.012477917596697807 0.01118321530520916
0.96539431810379028 0.017113855108618736 0.014198088087141514
0.035827074199914932 0.12527565658092499 0.045246973633766174
0.067469663918018341 0.12342890352010727 0.041221760213375092
0.097165234386920929 0.12211497128009796 0.038873884826898575
0.12602631747722626 0.12205881625413895 0.038591295480728149
0.15159499645233154 0.12165214866399765 0.039659716188907623
0.18060952425003052 0.12090907245874405 0.038174159824848175
0.21075989305973053 0.11846928298473358 0.037388015538454056
0.23990413546562195 0.11715666949748993 0.036491774022579193
0.26903766393661499 0.11527179181575775 0.033599715679883957
0.29793873429298401 0.11437268555164337 0.028644351288676262
0.32704067230224609 0.11215262115001678 0.023690318688750267
0.3578701913356781 0.10974902659654617 0.023684782907366753
0.38700973987579346 0.10963354259729385 0.020103391259908676
0.41716143488883972 0.10977316647768021 0.016796626150608063
0.44602164626121521 0.10889898240566254 0.015253610908985138
0.47018152475357056 0.10545609891414642 0.014281208626925945
0.49620133638381958 0.10293444991111755 0.014383193105459213
0.52494776248931885 0.10272426158189774 0.014548338949680328
0.5522722601890564 0.099285237491130829 0.011578100733458996
0.58038532733917236 0.093509525060653687 0.011312025599181652
0.61132752895355225 0.088449567556381226 0.013437786139547825
0.64529716968536377 0.090211436152458191 0.017143450677394867
0.67646896839141846 0.090908057987689972 0.018088053911924362
0.70289522409439087 0.087785221636295319 0.019191879779100418
0.73098272085189819 0.085538394749164581 0.020899547263979912
0.75839638710021973 0.07999052107334137 0.019554154947400093
0.78803437948226929 0.070503167808055878 0.016707245260477066
0.81762659549713135 0.064017929136753082 0.011474053375422955
0.84447848796844482 0.064509063959121704 0.008438602089881897
0.87394142150878906 0.063201285898685455 0.012990384362637997
0.9067080020904541 0.05570949986577034 0.015887528657913208
0.93848031759262085 0.049119122326374054 0.014252911321818829
0.96602869033813477 0.046810809522867203 0.016120718792080879
0.025495370849967003 0.15078945457935333 0.03976980596780777
0.058853920549154282 0.14917582273483276 0.03601481020450592
0.092860952019691467 0.14782790839672089 0.033750545233488083
0.12289097905158997 0.14767304062843323 0.032945111393928528
0.15183953940868378 0.14754000306129456 0.031266648322343826
0.18078310787677765 0.14733658730983734 0.029510779306292534
0.20928424596786499 0.14737813174724579 0.028103586286306381
0.2384025901556015 0.14590515196323395 0.02808409184217453
0.26796680688858032 0.14435839653015137 0.027230087667703629
0.29670369625091553 0.14389538764953613 0.022602327167987823
0.32539701461791992 0.14357393980026245 0.018535317853093147
0.35569116473197937 0.1406659334897995 0.018526239320635796
0.38609835505485535 0.1372760534286499 0.01764070987701416
0.41614642739295959 0.13666090369224548 0.014687925577163696
0.44627389311790466 0.13647022843360901 0.011526096612215042
0.47132366895675659 0.13458749651908875 0.011613891460001469
0.49525651335716248 0.1327945739030838 0.011024757288396358
0.52388894557952881 0.13191209733486176 0.010348599404096603
0.55235761404037476 0.13143087923526764 0.010025640018284321
0.5806725025177002 0.12700143456459045 0.0096343439072370529
0.60939270257949829 0.11994107067584991 0.011356505565345287
0.64091318845748901 0.11958323419094086 0.014101974666118622
0.67535239458084106 0.12304171919822693 0.015908705070614815
0.70499038696289062 0.12285428494215012 0.018234357237815857
0.7318185567855835 0.12252563983201981 0.023141352459788322
0.76017671823501587 0.11775123327970505 0.023046622052788734
0.78668308258056641 0.10926614701747894 0.019754691049456596
0.81477564573287964 0.10368745774030685 0.015946868807077408
0.84386467933654785 0.10330135375261307 0.0106089748442173
0.87614399194717407 0.10090404748916626 0.011531786993145943
0.90820670127868652 0.093845352530479431 0.015344864688813686
0.9382825493812561 0.088765241205692291 0.015894018113613129
0.96635007858276367 0.081508234143257141 0.017224064096808434
0.022613730281591415 0.17687308788299561 0.031900446861982346
0.055445343255996704 0.17637655138969421 0.029276598244905472
0.089479103684425354 0.1751200258731842 0.027720648795366287
0.12204734236001968 0.17608977854251862 0.030967485159635544
0.15172913670539856 0.17595803737640381 0.030331028625369072
0.18129104375839233 0.17489688098430634 0.026929356157779694
0.2090771347284317 0.17466056346893311 0.025383858010172844
0.23594599962234497 0.17561540007591248 0.026915591210126877
0.26494351029396057 0.17485707998275757 0.026322836056351662
0.29632401466369629 0.1737246960401535 0.022376872599124908
0.32559356093406677 0.17282986640930176 0.018496701493859291
0.35393831133842468 0.17067858576774597 0.017892271280288696
0.38371577858924866 0.16756358742713928 0.016974899917840958
0.41241544485092163 0.16522857546806335 0.013788139447569847
0.44167560338973999 0.16510055959224701 0.01095634326338768
0.46922633051872253 0.16600580513477325 0.013164794072508812
0.49529886245727539 0.16432388126850128 0.011829405091702938
0.52499985694885254 0.16092227399349213 0.0091503961011767387
0.55361098051071167 0.15935947000980377 0.0088979117572307587
0.58301836252212524 0.1576818972826004 0.0079314494505524635
0.61224126815795898 0.1524323970079422 0.0084623526781797409
0.63967347145080566 0.14933188259601593 0.009426572360098362
0.67133903503417969 0.15144798159599304 0.010650848038494587
0.70208501815795898 0.15258429944515228 0.013165767304599285
0.73041927814483643 0.15155220031738281 0.015917221084237099
0.7587009072303772 0.14929087460041046 0.016625924035906792
0.78668308258056641 0.14382150769233704 0.01572684571146965
0.81415104866027832 0.13913393020629883 0.014535580761730671
0.84270220994949341 0.13903863728046417 0.01139480248093605
0.87550061941146851 0.13661430776119232 0.010062947869300842
0.91025930643081665 0.13047543168067932 0.011188492178916931
0.93899089097976685 0.12611144781112671 0.01238806638866663
0.9661480188369751 0.12250587344169617 0.01305787917226553
0.021853521466255188 0.20319055020809174 0.024643236771225929
0.053769301623106003 0.20309612154960632 0.022736625745892525
0.086457237601280212 0.20294028520584106 0.02208319678902626
0.11986906826496124 0.20413783192634583 0.026471458375453949
0.15099985897541046 0.2047494649887085 0.029059881344437599
0.18007223308086395 0.20315571129322052 0.024548828601837158
0.20903809368610382 0.20175696909427643 0.021390959620475769
0.23560577630996704 0.20336136221885681 0.023300657048821449
0.26170456409454346 0.20468956232070923 0.023744197562336922
0.29286575317382812 0.20348654687404633 0.020474463701248169
0.32428106665611267 0.20129236578941345 0.017341084778308868
0.35292726755142212 0.19972607493400574 0.016525547951459885
0.38164350390434265 0.19748283922672272 0.015664072707295418
0.40949645638465881 0.19497205317020416 0.012401656247675419
0.43712535500526428 0.19353541731834412 0.0098611610010266304
0.4654293954372406 0.19409963488578796 0.011100021190941334
0.49455526471138 0.19393505156040192 0.010704252868890762
0.52468526363372803 0.19135609269142151 0.0091503961011767387
0.55406361818313599 0.18802221119403839 0.0087749240919947624
0.58375751972198486 0.18570616841316223 0.0074588032439351082
0.61429643630981445 0.18391704559326172 0.0074006924405694008
0.64232742786407471 0.18251658976078033 0.0077439332380890846
0.67008066177368164 0.18225221335887909 0.007748371921479702
0.69948387145996094 0.18238796293735504 0.0084946565330028534
0.72814363241195679 0.18028339743614197 0.0087196743115782738
0.75752490758895874 0.17764948308467865 0.0085766930133104324
0.78670883178710938 0.17573598027229309 0.010004482232034206
0.81500965356826782 0.17421191930770874 0.011698608286678791
0.842143714427948 0.17398864030838013 0.010345647111535072
0.87263000011444092 0.17120404541492462 0.010126358829438686
0.90943259000778198 0.16559728980064392 0.010160261765122414
0.94017589092254639 0.16332466900348663 0.010628586634993553
0.96705204248428345 0.15997256338596344 0.010812115855515003
0.025044044479727745 0.23284800350666046 0.020004762336611748
0.055463846772909164 0.23176579177379608 0.021071111783385277
0.087415620684623718 0.23160691559314728 0.020927920937538147
0.1173713281750679 0.23198674619197845 0.021844703704118729
0.14760299026966095 0.23209626972675323 0.023179329931735992
0.17626631259918213 0.22979635000228882 0.018731672316789627
0.20597010850906372 0.22843122482299805 0.015789885073900223
0.23592957854270935 0.23013834655284882 0.019806396216154099
0.26257988810539246 0.23157468438148499 0.021387921646237373
0.28916889429092407 0.23080925643444061 0.017551682889461517
0.31930479407310486 0.2286229282617569 0.013885525986552238
0.34911760687828064 0.22735898196697235 0.013274373486638069
0.37840184569358826 0.22581084072589874 0.012289694510400295
0.40729066729545593 0.22288766503334045 0.009756862185895443
0.4357018768787384 0.22051516175270081 0.0084606288000941277
0.46348175406455994 0.21993473172187805 0.009958827868103981
0.49144095182418823 0.21993473172187805 0.0098227877169847488
0.52165210247039795 0.2197042852640152 0.0091503961011767387
0.55134105682373047 0.21795101463794708 0.0086891017854213715
0.58030050992965698 0.21682596206665039 0.0068925195373594761
0.61008715629577637 0.21559835970401764 0.0067335041239857674
0.64120703935623169 0.21357801556587219 0.0067335041239857674
0.67142659425735474 0.21339885890483856 0.0067228642292320728
0.69940340518951416 0.21339885890483856 0.0066994586959481239
0.72676730155944824 0.21292467415332794 0.0066994596272706985
0.75751662254333496 0.20881862938404083 0.006703005637973547
0.7875867486000061 0.20612981915473938 0.0071850717067718506
0.81727594137191772 0.20699729025363922 0.010386403650045395
0.84565502405166626 0.20898756384849548 0.010192473419010639
0.87302994728088379 0.20540696382522583 0.010267077945172787
0.9046403169631958 0.19911113381385803 0.010376022197306156
0.9371485710144043 0.19554117321968079 0.012748733162879944
0.96605247259140015 0.19377118349075317 0.017199715599417686
0.026775922626256943 0.2626369297504425 0.014634410850703716
0.056879632174968719 0.26152405142784119 0.016083071008324623
0.088175520300865173 0.26052051782608032 0.017355406656861305
0.11677554249763489 0.26024472713470459 0.017585201188921928
0.14425821602344513 0.25952044129371643 0.0174102783203125
0.17277708649635315 0.25740426778793335 0.013642214238643646
0.20261694490909576 0.25650700926780701 0.011245138011872768
0.23335830867290497 0.25760859251022339 0.015351032838225365
0.26361578702926636 0.25888609886169434 0.019090155139565468
0.28991979360580444 0.25772455334663391 0.015067501924932003
0.31537050008773804 0.25620251893997192 0.010832110419869423
0.34455627202987671 0.25590980052947998 0.010316580533981323
0.37475237250328064 0.25534260272979736 0.0099269086495041847
0.40439486503601074 0.25243827700614929 0.0086092371493577957
0.4351552426815033 0.24908646941184998 0.008446292020380497
0.46296963095664978 0.24885627627372742 0.0087742246687412262
0.48875200748443604 0.24885395169258118 0.0087227355688810349
0.51836276054382324 0.24875447154045105 0.0083026625216007233
0.54822456836700439 0.24835070967674255 0.0080289756879210472
0.5767170786857605 0.24780179560184479 0.0068256347440183163
0.60559475421905518 0.24772024154663086 0.0066994586959481239
0.6369749903678894 0.24663090705871582 0.0066994586959481239
0.67111271619796753 0.24455626308917999 0.0066994586959481239
0.70019716024398804 0.243874192237854 0.0066994586959481239
0.72599732875823975 0.24374179542064667 0.0066994596272706985
0.7553870677947998 0.24131722748279572 0.0066994596272706985
0.78863286972045898 0.23736162483692169 0.0066305166110396385
0.81857836246490479 0.23789931833744049 0.0073325717821717262
0.84770220518112183 0.24161450564861298 0.0077357743866741657
0.87527495622634888 0.23959076404571533 0.0093059595674276352
0.90302479267120361 0.23244410753250122 0.0094192493706941605
0.93188482522964478 0.22813218832015991 0.0098226470872759819
0.96240359544754028 0.22664922475814819 0.018077841028571129
0.02162240631878376 0.29161033034324646 0.011306492611765862
0.053287256509065628 0.29004684090614319 0.011488489806652069
0.08481898158788681 0.28824779391288757 0.013953430578112602
0.11379045993089676 0.28739681839942932 0.014950968325138092
0.14117297530174255 0.28702905774116516 0.014510484412312508
0.17050611972808838 0.28620827198028564 0.013450081460177898
0.20026031136512756 0.28476771712303162 0.010825303383171558
0.23076647520065308 0.28644672036170959 0.012514158152043819
0.26220881938934326 0.28725090622901917 0.015838503837585449
0.29277268052101135 0.28432789444923401 0.013420311734080315
0.31875672936439514 0.28313747048377991 0.010163788683712482
0.3444591760635376 0.28427109122276306 0.010049189440906048
0.37362012267112732 0.28439599275588989 0.010049189440906048
0.40262934565544128 0.28353819251060486 0.010049189440906048
0.43348956108093262 0.2818818986415863 0.0092099849134683609
0.46277102828025818 0.28202620148658752 0.0079248547554016113
0.48939231038093567 0.28182569146156311 0.0074755740351974964
0.51827239990234375 0.27864167094230652 0.0068674152716994286
0.54751485586166382 0.2775360643863678 0.006753931287676096
0.57535421848297119 0.27752241492271423 0.0067005930468440056
0.60377961397171021 0.27738851308822632 0.0066994586959481239
0.63318777084350586 0.27603092789649963 0.0066994586959481239
0.66581076383590698 0.27387422323226929 0.0066994586959481239
0.69740325212478638 0.27362343668937683 0.0066994586959481239
0.72628355026245117 0.27425098419189453 0.0066994596272706985
0.75602883100509644 0.27224475145339966 0.0066994591616094112
0.78642714023590088 0.26921361684799194 0.0065309354104101658
0.81807750463485718 0.26905345916748047 0.004135549534112215
0.84771251678466797 0.27093729376792908 0.0041020759381353855
0.87484925985336304 0.27068468928337097 0.0075526973232626915
0.90261435508728027 0.26498702168464661 0.0078635746613144875
0.93032926321029663 0.26071619987487793 0.0045162253081798553
0.96069014072418213 0.25778868794441223 0.0080041121691465378
0.016716178506612778 0.31953668594360352 0.0098896380513906479
0.048397094011306763 0.31802898645401001 0.0096417814493179321
0.080887392163276672 0.31646430492401123 0.010235646739602089
0.10977704077959061 0.3149147629737854 0.010833715088665485
0.1374499648809433 0.31377303600311279 0.010962491855025291
0.16801828145980835 0.31331995129585266 0.010829564183950424
0.19867101311683655 0.3135356605052948 0.010368973948061466
0.2291112095117569 0.31478503346443176 0.011128697544336319
0.25999283790588379 0.31600210070610046 0.01220166590064764
0.29323506355285645 0.31329423189163208 0.011146247386932373
0.32312875986099243 0.31023800373077393 0.0098279239609837532
0.34883224964141846 0.31156453490257263 0.010049189440906048
0.37440410256385803 0.3130531907081604 0.010049189440906048
0.40272489190101624 0.31283015012741089 0.010049189440906048
0.43176451325416565 0.31247332692146301 0.0094573041424155235
0.46080604195594788 0.31240898370742798 0.0083726812154054642
0.48979604244232178 0.31209152936935425 0.0079818600788712502
0.51889884471893311 0.31012600660324097 0.0073785544373095036
0.54737049341201782 0.30685406923294067 0.0071546356193721294
0.57514393329620361 0.30626863241195679 0.0067010191269218922
0.60207724571228027 0.30614027380943298 0.0066994586959481239
0.63145697116851807 0.30483654141426086 0.0066994586959481239
0.66088998317718506 0.30253833532333374 0.0066994586959481239
0.6922600269317627 0.30259603261947632 0.0066994586959481239
0.72600424289703369 0.30415248870849609 0.0066994596272706985
0.7569153904914856 0.30266076326370239 0.0066994591616094112
0.78614485263824463 0.30073189735412598 0.0064923255704343319
0.81603002548217773 0.30047991871833801 0.0040650181472301483
0.84691566228866577 0.30061984062194824 0.0038461312651634216
0.8747861385345459 0.2993236780166626 0.0060673244297504425
0.90261435508728027 0.29567337036132812 0.0064656566828489304
0.93030881881713867 0.29197922348976135 0.0041045555844902992
0.96068555116653442 0.28832420706748962 0.0036488596815615892
0.016660526394844055 0.34582522511482239 0.0091503961011767387
0.048529457300901413 0.34458830952644348 0.0097416834905743599
0.080846734344959259 0.34354376792907715 0.0094156097620725632
0.1060803011059761 0.34305155277252197 0.0082492055371403694
0.13400192558765411 0.34179145097732544 0.0091314101591706276
0.16797579824924469 0.34110879898071289 0.010365525260567665
0.19929975271224976 0.3410569429397583 0.0098842121660709381
0.22891822457313538 0.34297826886177063 0.0093263210728764534
0.25962179899215698 0.34428083896636963 0.010554220527410507
0.2908746600151062 0.3434009850025177 0.010917713865637779
0.32150956988334656 0.34093058109283447 0.01041143573820591
0.34955295920372009 0.34044608473777771 0.010143181309103966
0.37578883767127991 0.34144547581672668 0.010049189440906048
0.40319305658340454 0.34027382731437683 0.010049189440906048
0.43164509534835815 0.33928599953651428 0.0097495913505554199
0.45696151256561279 0.33857131004333496 0.0091503961011767387
0.48507201671600342 0.33856195211410522 0.0088866939768195152
0.51702594757080078 0.33938586711883545 0.007972080260515213
0.54660922288894653 0.33756965398788452 0.0079248547554016113
0.57542389631271362 0.3367646336555481 0.0068576224148273468
0.60302191972732544 0.33663356304168701 0.0066994586959481239
0.63216227293014526 0.33519059419631958 0.0066994586959481239
0.6616026759147644 0.33323165774345398 0.0066994586959481239
0.6935688853263855 0.33315831422805786 0.0066994586959481239
0.72772896289825439 0.33474713563919067 0.0066994596272706985
