Textures/10.cube
# Created by: G'MIC (https://gmic.eu)
TITLE "DropBlues.cube"
# LUT size
LUT_3D_SIZE 5
# Data domain
DOMAIN_MIN 0.0 0.0 0.0
DOMAIN_MAX 1.0 1.0 1.0
# LUT data points
0.061809390783309937 0.062641382217407227 0.060127019882202148
0.24968385696411133 0.062043368816375732 0.06601378321647644
0.50190931558609009 0.010854924097657204 0.023846423253417015
0.73038870096206665 0.0033601634204387665 0.022941861301660538
0.96715074777603149 0.0003557717427611351 0.010665797628462315
0.026775922626256943 0.2626369297504425 0.014634410850703716
0.26361578702926636 0.25888609886169434 0.019090155139565468
0.48875200748443604 0.24885395169258118 0.0087227355688810349
0.72599732875823975 0.24374179542064667 0.0066994596272706985
0.96240359544754028 0.22664922475814819 0.018077841028571129
0.011752289719879627 0.48275953531265259 0.0065862927585840225
0.25466212630271912 0.48280090093612671 0.0063743218779563904
0.48434081673622131 0.47924724221229553 0.0038803925272077322
0.72259664535522461 0.47888937592506409 0.0052770320326089859
0.96030247211456299 0.47548353672027588 0.0027693777810782194
0.023329012095928192 0.71528786420822144 0
0.26693058013916016 0.71575593948364258 0
0.48280870914459229 0.71231484413146973 0
0.72472119331359863 0.70707446336746216 0
0.9535297155380249 0.71046942472457886 0
0.018903195858001709 0.95040857791900635 0
0.22699412703514099 0.95047664642333984 0
0.47059434652328491 0.94579154253005981 0
0.71605420112609863 0.94572710990905762 0
0.95916920900344849 0.94479459524154663 0
0.085830353200435638 0.08218027651309967 0.1282179057598114
0.17656669020652771 0.1336849182844162 0.17546489834785461
0.31179943680763245 0.22485865652561188 0.25061771273612976
0.58936548233032227 0.25362873077392578 0.30383795499801636
0.87708801031112671 0.23479962348937988 0.2980964183807373
0.12623865902423859 0.25425374507904053 0.23834118247032166
0.25558680295944214 0.25714606046676636 0.25263211131095886
0.44574132561683655 0.27576389908790588 0.2711101770401001
0.68602985143661499 0.27738526463508606 0.26934108138084412
0.94645786285400391 0.25853002071380615 0.25972172617912292
0.0053570051677525043 0.48027470707893372 0.236660435795784
0.23691378533840179 0.48021042346954346 0.23544909060001373
0.48905289173126221 0.48175421357154846 0.23991549015045166
0.72043108940124512 0.47857984900474548 0.23658755421638489
0.95882385969161987 0.47165945172309875 0.23225796222686768
0 0.71681356430053711 0.23744063079357147
0.21776348352432251 0.71909612417221069 0.23236396908760071
0.48124748468399048 0.71035724878311157 0.22250854969024658
0.7265934944152832 0.70946341753005981 0.23153682053089142
0.95457512140274048 0.70959365367889404 0.2160211056470871
0 0.95137625932693481 0.2143370509147644
0.19837810099124908 0.94985383749008179 0.21042434871196747
0.48032060265541077 0.94754898548126221 0.21664479374885559
0.70987236499786377 0.94727987051010132 0.21255481243133545
0.96401256322860718 0.95017087459564209 0.21944884955883026
0.14176356792449951 0.12212477624416351 0.20552822947502136
0.20373895764350891 0.16487529873847961 0.24399363994598389
0.32307347655296326 0.24817733466625214 0.31567928194999695
0.46368235349655151 0.35087460279464722 0.40576332807540894
0.63287347555160522 0.44531148672103882 0.50326406955718994
0.23142696917057037 0.25157669186592102 0.29846903681755066
0.27442640066146851 0.27806699275970459 0.32149443030357361
0.37400037050247192 0.32471299171447754 0.37119925022125244
0.49581155180931091 0.40341973304748535 0.43623468279838562
0.69886887073516846 0.46657422184944153 0.51951026916503906
0.22799305617809296 0.46960622072219849 0.45450738072395325
0.32743245363235474 0.4707798957824707 0.45702314376831055
0.48128941655158997 0.48347422480583191 0.47996443510055542
0.65248340368270874 0.50274240970611572 0.50651633739471436
0.89617699384689331 0.51799517869949341 0.51289188861846924
0 0.71812087297439575 0.47150585055351257
0.22269187867641449 0.71404081583023071 0.47532650828361511
0.47188392281532288 0.71561628580093384 0.46808743476867676
0.71681016683578491 0.7149275541305542 0.47357669472694397
0.95797544717788696 0.71120059490203857 0.47209003567695618
0 0.95071631669998169 0.46376997232437134
0.19630144536495209 0.95001524686813354 0.46225446462631226
0.460976243019104 0.95203632116317749 0.45842349529266357
0.72207063436508179 0.94748234748840332 0.46114644408226013
0.95764827728271484 0.94670259952545166 0.46312010288238525
0.21811327338218689 0.1853625625371933 0.30886197090148926
0.26156717538833618 0.2160055935382843 0.33567821979522705
0.35013470053672791 0.28171259164810181 0.3938143253326416
0.47684592008590698 0.36747536063194275 0.46838381886482239
0.61921638250350952 0.47132799029350281 0.55727487802505493
0.27569609880447388 0.28169488906860352 0.37708243727684021
0.3097061812877655 0.30119603872299194 0.39377567172050476
0.38765138387680054 0.34785076975822449 0.44008955359458923
0.51150310039520264 0.42007920145988464 0.50639408826828003
0.64314985275268555 0.50897175073623657 0.58460789918899536
0.40517041087150574 0.4553106427192688 0.50538176298141479
0.43869650363922119 0.46999678015708923 0.51655185222625732
0.49018403887748718 0.49786251783370972 0.54325604438781738
0.59304308891296387 0.54363161325454712 0.59248089790344238
0.70657473802566528 0.6096121072769165 0.65203583240509033
0.36295601725578308 0.68911701440811157 0.67727422714233398
0.42686668038368225 0.69027358293533325 0.67803776264190674
0.55696016550064087 0.69807207584381104 0.6870691180229187
0.71119683980941772 0.7131119966506958 0.70962095260620117
0.89870369434356689 0.73634463548660278 0.73398518562316895
0 0.95073533058166504 0.70562893152236938
0.17940284311771393 0.95037740468978882 0.70524799823760986
0.466817706823349 0.95438224077224731 0.705882728099823
0.70338034629821777 0.9498755931854248 0.70432919263839722
0.9571799635887146 0.94691908359527588 0.71010667085647583
0.2894388735294342 0.24543820321559906 0.40757268667221069
0.3193202018737793 0.26703470945358276 0.42861014604568481
0.39631792902946472 0.32333096861839294 0.47430700063705444
0.5097917914390564 0.3992156982421875 0.54452437162399292
0.64035958051681519 0.49669298529624939 0.62582379579544067
0.33550959825515747 0.32268652319908142 0.46204110980033875
0.36393606662750244 0.33924514055252075 0.47479301691055298
0.42791056632995605 0.38436385989189148 0.51414060592651367
0.53733193874359131 0.4502464234828949 0.57986408472061157
0.66348403692245483 0.53356117010116577 0.65294873714447021
0.44791388511657715 0.48380446434020996 0.57998198270797729
0.46887749433517456 0.49074003100395203 0.58708250522613525
0.52124303579330444 0.52028363943099976 0.61406570672988892
0.61103016138076782 0.56726735830307007 0.65974605083465576
0.72680997848510742 0.62850576639175415 0.7211768627166748
0.59378910064697266 0.66964703798294067 0.71862924098968506
0.60907787084579468 0.67443978786468506 0.72580230236053467
0.65203756093978882 0.69274133443832397 0.74280071258544922
0.72316247224807739 0.72854495048522949 0.77493399381637573
0.82474911212921143 0.77460163831710815 0.81871557235717773
0.49462032318115234 0.92297631502151489 0.90922707319259644
0.5424727201461792 0.92568117380142212 0.90918684005737305
0.635689377784729 0.92703580856323242 0.91028457880020142
0.7879365086555481 0.93490570783615112 0.92058706283569336
0.9494938850402832 0.95097404718399048 0.94690459966659546
