Textures/100.cube
# Created by: G'MIC (https://gmic.eu)
TITLE "Polaroid_PX-680_Warm_3.cube"
# LUT size
LUT_3D_SIZE 33
# Data domain
DOMAIN_MIN 0.0 0.0 0.0
DOMAIN_MAX 1.0 1.0 1.0
# LUT data points
0.25402668118476868 0.20779582858085632 0.082653000950813293
0.25418415665626526 0.20784302055835724 0.082666508853435516
0.25428915023803711 0.20784303545951843 0.082920916378498077
0.25530773401260376 0.20789024233818054 0.08272147923707962
0.25676789879798889 0.20794601738452911 0.083115652203559875
0.25897642970085144 0.20808334648609161 0.08301890641450882
0.26201295852661133 0.20841881632804871 0.083685196936130524
0.2659018337726593 0.20847032964229584 0.08334776759147644
0.27207902073860168 0.2085108757019043 0.083034910261631012
0.28094139695167542 0.20912964642047882 0.082940489053726196
0.29417398571968079 0.2097879946231842 0.082383051514625549
0.31359797716140747 0.20986679196357727 0.081350058317184448
0.34091314673423767 0.20999707281589508 0.079664573073387146
0.37800359725952148 0.21059665083885193 0.077703692018985748
0.42297619581222534 0.21018433570861816 0.074199594557285309
0.47232991456985474 0.20923446118831635 0.070258080959320068
0.5241665244102478 0.20791447162628174 0.065072633326053619
0.57562702894210815 0.20740509033203125 0.0594073086977005
0.62563318014144897 0.20854902267456055 0.053161736577749252
0.67603254318237305 0.21398715674877167 0.046148788183927536
0.71889877319335938 0.22226782143115997 0.038976948708295822
0.75688904523849487 0.23438777029514313 0.03302905336022377
0.79197138547897339 0.24993941187858582 0.029965976253151894
0.82393383979797363 0.26801696419715881 0.029408842325210571
0.85329961776733398 0.28874498605728149 0.033418454229831696
0.87983298301696777 0.31158587336540222 0.043424967676401138
0.90335386991500854 0.33568674325942993 0.059099826961755753
0.92410898208618164 0.36019480228424072 0.077271148562431335
0.94233870506286621 0.38498631119728088 0.098243311047554016
0.95773482322692871 0.40887710452079773 0.11957305669784546
0.97125530242919922 0.43246001005172729 0.14220388233661652
0.98205631971359253 0.45459306240081787 0.16409267485141754
0.99225437641143799 0.47925886511802673 0.18940052390098572
0.25420483946800232 0.20785550773143768 0.082985222339630127
0.25429663062095642 0.20786486566066742 0.082637675106525421
0.25487938523292542 0.20794603228569031 0.08285357803106308
0.25595742464065552 0.20794017612934113 0.082949653267860413
0.25759977102279663 0.20831622183322906 0.083297446370124817
0.25933751463890076 0.20829124748706818 0.082974039018154144
0.26230597496032715 0.2085970938205719 0.083260379731655121
0.26665940880775452 0.20885694026947021 0.082902662456035614
0.2735322117805481 0.20980556309223175 0.083158567547798157
0.28254109621047974 0.20982404053211212 0.082595258951187134
0.29643043875694275 0.21053113043308258 0.081995680928230286
0.31672254204750061 0.21096415817737579 0.080648802220821381
0.34516984224319458 0.21186721324920654 0.078982092440128326
0.38278266787528992 0.21251843869686127 0.076401576399803162
0.42766457796096802 0.21216785907745361 0.07271980494260788
0.47709080576896667 0.21179307997226715 0.068641588091850281
0.52841925621032715 0.21074673533439636 0.063563182950019836
0.58012783527374268 0.2110217809677124 0.058185823261737823
0.63057351112365723 0.21279041469097137 0.051249418407678604
0.67939275503158569 0.21854813396930695 0.043934866786003113
0.72241657972335815 0.22790467739105225 0.036641601473093033
0.76030170917510986 0.24061903357505798 0.031248137354850769
0.79483169317245483 0.25628665089607239 0.027873167768120766
0.82649433612823486 0.2747248113155365 0.027807768434286118
0.85592621564865112 0.2959427535533905 0.033386047929525375
0.88258641958236694 0.31862398982048035 0.044283866882324219
0.90561199188232422 0.34200948476791382 0.060318421572446823
0.92584818601608276 0.36700254678726196 0.079741291701793671
0.94409799575805664 0.39144134521484375 0.10105918347835541
0.95923250913619995 0.4150012731552124 0.12283125519752502
0.9725043773651123 0.4383048415184021 0.14535196125507355
0.98316031694412231 0.46035882830619812 0.16772867739200592
0.99287813901901245 0.48432824015617371 0.19301073253154755
0.25402584671974182 0.20850969851016998 0.082935571670532227
0.25405547022819519 0.20838877558708191 0.082712925970554352
0.25495073199272156 0.2089073657989502 0.082849986851215363
0.25654140114784241 0.20918717980384827 0.082715019583702087
0.25790208578109741 0.20886361598968506 0.082887046039104462
0.26019245386123657 0.20901896059513092 0.082930348813533783
0.26391631364822388 0.20976327359676361 0.082960464060306549
0.26851248741149902 0.20980122685432434 0.082907408475875854
0.27524071931838989 0.2103346586227417 0.082476906478404999
0.28522488474845886 0.21106137335300446 0.08216867595911026
0.29962724447250366 0.21224899590015411 0.081468865275382996
0.32037481665611267 0.21315164864063263 0.079851925373077393
0.34978517889976501 0.21376864612102509 0.078088611364364624
0.38798007369041443 0.2149776816368103 0.075481079518795013
0.43330267071723938 0.21510638296604156 0.07174769788980484
0.48234042525291443 0.21521161496639252 0.067364752292633057
0.53320670127868652 0.21483258903026581 0.062251854687929153
0.58429110050201416 0.21538351476192474 0.056195508688688278
0.63531738519668579 0.21825577318668365 0.049195695668458939
0.68337893486022949 0.22484441101551056 0.041798040270805359
0.72491455078125 0.23456166684627533 0.034537535160779953
0.76206290721893311 0.24731826782226562 0.028857192024588585
0.79687631130218506 0.26378214359283447 0.026116224005818367
0.82850909233093262 0.28240132331848145 0.026824114844202995
0.85769128799438477 0.30347311496734619 0.032672502100467682
0.88384318351745605 0.32606005668640137 0.044575408101081848
0.907379150390625 0.35012176632881165 0.06185777485370636
0.92780613899230957 0.37456494569778442 0.082073599100112915
0.94564366340637207 0.39906677603721619 0.10420215129852295
0.96060037612915039 0.42242929339408875 0.12642136216163635
0.97353082895278931 0.44569635391235352 0.14973179996013641
0.98436558246612549 0.4684353768825531 0.17312833666801453
0.99435633420944214 0.49285811185836792 0.19982001185417175
0.25413426756858826 0.21019816398620605 0.083106003701686859
0.25441241264343262 0.21018335223197937 0.082949571311473846
0.2549893856048584 0.21032401919364929 0.082997620105743408
0.256410151720047 0.21040546894073486 0.083076648414134979
0.25852996110916138 0.21088190376758575 0.082682251930236816
0.2615969181060791 0.2109450101852417 0.082565993070602417
0.26577275991439819 0.21149076521396637 0.082488290965557098
0.27096003293991089 0.21171724796295166 0.082295902073383331
0.27780106663703918 0.21222765743732452 0.081916123628616333
0.28881746530532837 0.21345987915992737 0.08137502521276474
0.30398517847061157 0.21449904143810272 0.08032543957233429
0.32670891284942627 0.21608899533748627 0.078893020749092102
0.35659304261207581 0.2172805517911911 0.076744288206100464
0.39515164494514465 0.21868623793125153 0.073823846876621246
0.44045212864875793 0.21936121582984924 0.069890037178993225
0.48878952860832214 0.219975546002388 0.064971424639225006
0.53906810283660889 0.22050066292285919 0.06000509113073349
0.59021693468093872 0.22206398844718933 0.05372551828622818
0.64046931266784668 0.22569432854652405 0.046278763562440872
0.68563830852508545 0.23279394209384918 0.03856649249792099
0.72602719068527222 0.24302712082862854 0.031754292547702789
0.76225262880325317 0.25588226318359375 0.026567606255412102
0.7954564094543457 0.27161994576454163 0.023931581526994705
0.82607096433639526 0.28901821374893188 0.024610130116343498
0.85479068756103516 0.30938068032264709 0.030666952952742577
0.88104885816574097 0.33164200186729431 0.042798388749361038
0.90360838174819946 0.35401180386543274 0.059037480503320694
0.92423415184020996 0.37718752026557922 0.079078912734985352
0.94210290908813477 0.40067267417907715 0.1004195436835289
0.95713692903518677 0.42342117428779602 0.12228316068649292
0.970203697681427 0.44577452540397644 0.14494730532169342
0.98111933469772339 0.46695616841316223 0.16725550591945648
0.99145305156707764 0.49037143588066101 0.19313564896583557
0.25426965951919556 0.21212029457092285 0.08319903165102005
0.25455677509307861 0.21199899911880493 0.082963019609451294
0.25534409284591675 0.21208366751670837 0.083086222410202026
0.25678879022598267 0.2124454528093338 0.08279147744178772
0.2583986222743988 0.21303269267082214 0.082883149385452271
0.26212659478187561 0.21345335245132446 0.082400597631931305
0.26696139574050903 0.21442981064319611 0.082073703408241272
0.27270644903182983 0.21461845934391022 0.081403680145740509
0.28147053718566895 0.2150680273771286 0.08100099116563797
0.29367643594741821 0.21648944914340973 0.080448321998119354
0.31041803956031799 0.21817012131214142 0.079171717166900635
0.33464735746383667 0.21981468796730042 0.077154643833637238
0.36614778637886047 0.22200141847133636 0.074750058352947235
0.40540614724159241 0.22385716438293457 0.071447573602199554
0.45079323649406433 0.22545067965984344 0.067418977618217468
0.49813824892044067 0.22632862627506256 0.062370683997869492
0.54826885461807251 0.22805245220661163 0.056449007242918015
0.60010629892349243 0.23085148632526398 0.049324274063110352
0.64814168214797974 0.23605474829673767 0.041655808687210083
0.69171416759490967 0.24416111409664154 0.03375307098031044
0.73067539930343628 0.25474849343299866 0.027150079607963562
0.76599025726318359 0.26813217997550964 0.022501353174448013
0.79874229431152344 0.28383255004882812 0.020365787670016289
0.82904171943664551 0.30159801244735718 0.021943917497992516
0.85727095603942871 0.32189372181892395 0.029131453484296799
0.88292783498764038 0.34317466616630554 0.042347408831119537
0.90505093336105347 0.36528861522674561 0.060322951525449753
0.92533600330352783 0.38812786340713501 0.081352487206459045
0.94279104471206665 0.41087201237678528 0.10329104959964752
0.9577973484992981 0.43286323547363281 0.12553732097148895
0.97051894664764404 0.45442041754722595 0.14777939021587372
0.98164665699005127 0.47530773282051086 0.17085228860378265
0.99139481782913208 0.49834731221199036 0.19707915186882019
0.25384131073951721 0.21514321863651276 0.082875728607177734
0.2544974684715271 0.21522088348865509 0.082684583961963654
0.25533530116081238 0.21544294059276581 0.082868330180644989
0.25674483180046082 0.21584618091583252 0.082742713391780853
0.25888291001319885 0.21637758612632751 0.082304239273071289
0.26252609491348267 0.21724537014961243 0.082165367901325226
0.267933189868927 0.21834065020084381 0.081294268369674683
0.27528440952301025 0.21989557147026062 0.080536097288131714
0.285300612449646 0.22091132402420044 0.079909488558769226
0.29866647720336914 0.22204522788524628 0.078559018671512604
0.31750679016113281 0.22310139238834381 0.077189244329929352
0.34335297346115112 0.22527502477169037 0.075125746428966522
0.37587061524391174 0.22810442745685577 0.072328358888626099
0.41525018215179443 0.23068913817405701 0.068605072796344757
0.4595676064491272 0.23280851542949677 0.063956290483474731
0.50723510980606079 0.23483991622924805 0.058294773101806641
0.55814647674560547 0.23803472518920898 0.051686659455299377
0.60785543918609619 0.2421526312828064 0.044149130582809448
0.65268754959106445 0.24805091321468353 0.036076392978429794
0.69426506757736206 0.25658994913101196 0.028125010430812836
0.73212301731109619 0.26765727996826172 0.022363550961017609
0.76676803827285767 0.28133389353752136 0.018270133063197136
0.79886776208877563 0.29656615853309631 0.016376469284296036
0.82854008674621582 0.31394797563552856 0.018676804378628731
0.85669368505477905 0.33367624878883362 0.026610342785716057
0.88186442852020264 0.3548092246055603 0.040659122169017792
0.90434956550598145 0.37617227435112 0.05982096865773201
0.92439699172973633 0.39846059679985046 0.081516720354557037
0.94224107265472412 0.42052584886550903 0.10440230369567871
0.95713454484939575 0.44215008616447449 0.12700308859348297
0.96985906362533569 0.46367445588111877 0.15053194761276245
0.98096603155136108 0.4845491349697113 0.17436870932579041
0.9911113977432251 0.5076180100440979 0.20109590888023376
0.25359046459197998 0.21991628408432007 0.082425959408283234
0.25404965877532959 0.22016151249408722 0.082378357648849487
0.25503581762313843 0.22019518911838531 0.082413472235202789
0.25688385963439941 0.22079189121723175 0.082480572164058685
0.25913900136947632 0.22136564552783966 0.082005038857460022
0.26305139064788818 0.2222478836774826 0.08181270956993103
0.26867190003395081 0.22372181713581085 0.081105045974254608
0.27699708938598633 0.22577701508998871 0.079949751496315002
0.28915494680404663 0.22864975035190582 0.078399159014225006
0.30462938547134399 0.23102505505084991 0.076785199344158173
0.32579523324966431 0.23353771865367889 0.074927128851413727
0.35375034809112549 0.23502181470394135 0.07205730676651001
0.3873138427734375 0.23710088431835175 0.069024182856082916
0.42652657628059387 0.23992842435836792 0.064820058643817902
0.47200337052345276 0.24311602115631104 0.059202719479799271
0.52061736583709717 0.24685880541801453 0.052730560302734375
0.56944680213928223 0.25080958008766174 0.045332103967666626
0.61547333002090454 0.25580033659934998 0.037097297608852386
0.65781170129776001 0.26248866319656372 0.029121913015842438
0.69760686159133911 0.27167367935180664 0.021819716319441795
0.73360812664031982 0.28274312615394592 0.016178006306290627
0.76593595743179321 0.29546129703521729 0.012298322282731533
0.79760521650314331 0.31073713302612305 0.011347704567015171
0.82666397094726562 0.32766309380531311 0.014363463036715984
0.85368549823760986 0.34616121649742126 0.022299908101558685
0.87889367341995239 0.36582306027412415 0.03670695424079895
0.90075725317001343 0.38590654730796814 0.056366141885519028
0.92067062854766846 0.40645089745521545 0.078066259622573853
0.93835335969924927 0.42748710513114929 0.10069301724433899
0.95292329788208008 0.44749629497528076 0.1230618953704834
0.96616548299789429 0.46774837374687195 0.14596264064311981
0.97710525989532471 0.48722732067108154 0.16896893084049225
0.98774784803390503 0.5096435546875 0.19566933810710907
0.25338295102119446 0.22726155817508698 0.081975392997264862
0.25385808944702148 0.2277374267578125 0.082162246108055115
0.25495192408561707 0.22781391441822052 0.082018293440341949
0.2566840648651123 0.22813147306442261 0.081990599632263184
0.25948032736778259 0.22936511039733887 0.081636779010295868
0.26373177766799927 0.23050712049007416 0.081406228244304657
0.26957356929779053 0.23229043185710907 0.080475173890590668
0.27836400270462036 0.23452283442020416 0.079382143914699554
0.29213440418243408 0.23821280896663666 0.077120982110500336
0.31275260448455811 0.24390162527561188 0.074049308896064758
0.33604466915130615 0.24757039546966553 0.070975542068481445
0.3662322461605072 0.25100269913673401 0.067153982818126678
0.40231278538703918 0.25362133979797363 0.062573060393333435
0.44428178668022156 0.25513920187950134 0.057480938732624054
0.49039492011070251 0.25744611024856567 0.0514984130859375
0.53597074747085571 0.2612224817276001 0.043808650225400925
0.58170372247695923 0.26635399460792542 0.035669319331645966
0.6252666711807251 0.2722020149230957 0.027431467548012733
0.6653132438659668 0.27990475296974182 0.019393319264054298
0.7027401328086853 0.28936323523521423 0.01275977399200201
0.73745125532150269 0.30101174116134644 0.007539861835539341
0.76945215463638306 0.31416985392570496 0.0051801539957523346
0.80028504133224487 0.32917758822441101 0.0052797333337366581
0.8288571834564209 0.34576496481895447 0.0090600745752453804
0.85569113492965698 0.36355787515640259 0.018686279654502869
0.87991666793823242 0.38259273767471313 0.034790433943271637
0.90151262283325195 0.40203729271888733 0.056402690708637238
0.92126953601837158 0.4220750629901886 0.080057069659233093
0.93815618753433228 0.4418308436870575 0.10325726866722107
0.952972412109375 0.46114310622215271 0.12644074857234955
0.96570420265197754 0.48009386658668518 0.14937469363212585
0.97686684131622314 0.49925601482391357 0.17276248335838318
0.98675602674484253 0.52001452445983887 0.19923122227191925
0.25172802805900574 0.2383454442024231 0.080897003412246704
0.25270077586174011 0.23911958932876587 0.080797821283340454
0.25366887450218201 0.2392844557762146 0.0807805135846138
0.25607344508171082 0.23970739543437958 0.080806471407413483
0.25904631614685059 0.24080400168895721 0.080819703638553619
0.26376941800117493 0.24258925020694733 0.079898029565811157
0.27072185277938843 0.24486331641674042 0.079004973173141479
0.28039708733558655 0.24777610599994659 0.077706798911094666
0.29402878880500793 0.25127837061882019 0.075497932732105255
0.31513065099716187 0.25658908486366272 0.072170473635196686
0.34589394927024841 0.26547008752822876 0.066541276872158051
0.37911555171012878 0.27127745747566223 0.060547556728124619
0.41697299480438232 0.27580198645591736 0.054742582142353058
0.45798656344413757 0.2782512903213501 0.048423685133457184
0.5011519193649292 0.27936601638793945 0.0412110835313797
0.54419153928756714 0.27970784902572632 0.034333068877458572
0.58692866563796997 0.28273260593414307 0.026943681761622429
0.62767571210861206 0.28892382979393005 0.018572511151432991
0.66575217247009277 0.29678776860237122 0.011327956803143024
0.70204728841781616 0.30635634064674377 0.0048965904861688614
0.73524314165115356 0.31748548150062561 0.0014509360771626234
0.76639217138290405 0.3305056095123291 0.00081329193199053407
0.79638165235519409 0.34442055225372314 0.001208521774969995
0.82473444938659668 0.36026811599731445 0.0038988818414509296
0.85124325752258301 0.37743866443634033 0.012146362103521824
0.87577718496322632 0.39561331272125244 0.028934115543961525
0.89768010377883911 0.41418096423149109 0.05149020254611969
0.9176708459854126 0.43316015601158142 0.076212227344512939
0.93474185466766357 0.45235654711723328 0.1004253551363945
0.94999051094055176 0.47110936045646667 0.12469247728586197
0.96323537826538086 0.48981064558029175 0.14875765144824982
0.97436648607254028 0.50874775648117065 0.17271670699119568
0.9850236177444458 0.52940726280212402 0.20042432844638824
0.24865357577800751 0.25508153438568115 0.07835426926612854
0.24995416402816772 0.25629955530166626 0.078656688332557678
0.25163376331329346 0.25664538145065308 0.078911140561103821
0.25426399707794189 0.2570708692073822 0.07885163277387619
0.25743263959884644 0.25758346915245056 0.078657440841197968
0.26308214664459229 0.25989815592765808 0.077743381261825562
0.27142742276191711 0.26305258274078369 0.076699733734130859
0.28253257274627686 0.26701617240905762 0.074453897774219513
0.29872602224349976 0.2720504105091095 0.071589760482311249
0.32059794664382935 0.27803853154182434 0.067831389605998993
0.35171204805374146 0.28622069954872131 0.062227010726928711
0.39471247792243958 0.29751878976821899 0.051084510982036591
0.43428659439086914 0.30370214581489563 0.042031988501548767
0.47451397776603699 0.30731004476547241 0.0339508056640625
0.51617187261581421 0.30928957462310791 0.026007458567619324
0.55664461851119995 0.30981460213661194 0.018636742606759071
0.59592652320861816 0.30950707197189331 0.012087997980415821
0.63344275951385498 0.31077006459236145 0.006162288598716259
0.66919833421707153 0.31655922532081604 0.0017217246349900961
0.70395082235336304 0.32625570893287659 8.3694030763581395e-05
0.73588782548904419 0.33714562654495239 9.0787052613450214e-06
0.76611697673797607 0.34930023550987244 0
0.79597443342208862 0.36338689923286438 2.9505790735129267e-05
0.82362359762191772 0.37837189435958862 0.00074917695019394159
0.84924745559692383 0.39436089992523193 0.0066930023021996021
0.87321287393569946 0.41163623332977295 0.022777602076530457
0.89462429285049438 0.42842429876327515 0.046829678118228912
0.91418254375457764 0.44632121920585632 0.072538703680038452
0.93152564764022827 0.46391275525093079 0.097553722560405731
0.94651889801025391 0.48132115602493286 0.12157610803842545
0.95994305610656738 0.49909922480583191 0.14541608095169067
0.97093796730041504 0.51607060432434082 0.16901625692844391
0.98194390535354614 0.53621029853820801 0.19690114259719849
0.24323040246963501 0.27811294794082642 0.074159115552902222
0.2444242388010025 0.28017038106918335 0.074182882905006409
0.24655048549175262 0.28031110763549805 0.074108734726905823
0.24993306398391724 0.28096160292625427 0.074464090168476105
0.25430986285209656 0.28219771385192871 0.07462676614522934
0.26108479499816895 0.28488194942474365 0.073717191815376282
0.27091997861862183 0.28897157311439514 0.071568362414836884
0.28470951318740845 0.29384517669677734 0.068923056125640869
0.30327218770980835 0.29967725276947021 0.065685376524925232
0.32714855670928955 0.30586358904838562 0.060705151408910751
0.3577800989151001 0.31309434771537781 0.054926425218582153
0.39780154824256897 0.32167866826057434 0.045551314949989319
0.44911810755729675 0.33544138073921204 0.028848305344581604
0.49187985062599182 0.34139308333396912 0.016659565269947052
0.53192025423049927 0.34403312206268311 0.008883034810423851
0.56972640752792358 0.34500905871391296 0.0032091292086988688
0.60710674524307251 0.34575366973876953 0.00060494354693219066
0.64237689971923828 0.34595987200737 2.0285231585148722e-05
0.67540764808654785 0.34612587094306946 0
0.70771783590316772 0.34971457719802856 0
0.73892158269882202 0.35921832919120789 0
0.76814484596252441 0.37146928906440735 0
0.79714334011077881 0.38495182991027832 0
0.82457762956619263 0.39992249011993408 5.2911822422174737e-05
0.85010367631912231 0.41539227962493896 0.003474897937849164
0.87396079301834106 0.43187522888183594 0.019175665453076363
0.89490729570388794 0.44802862405776978 0.045485630631446838
0.91435617208480835 0.46505481004714966 0.073864102363586426
0.93171900510787964 0.48255595564842224 0.10102210193872452
0.94636255502700806 0.49927094578742981 0.12627123296260834
0.95972001552581787 0.51646947860717773 0.15131287276744843
0.97089594602584839 0.53327697515487671 0.1763501912355423
0.98124510049819946 0.55212980508804321 0.20429663360118866
0.23588137328624725 0.30500385165214539 0.068425580859184265
0.23770822584629059 0.30757206678390503 0.068325214087963104
0.24049150943756104 0.30778777599334717 0.068262092769145966
0.24452917277812958 0.308360755443573 0.068665415048599243
0.24986532330513 0.30917832255363464 0.069131135940551758
0.25711098313331604 0.31070378422737122 0.068928278982639313
0.26820257306098938 0.31414714455604553 0.066987529397010803
0.28278461098670959 0.31844869256019592 0.064198948442935944
0.30189999938011169 0.32355156540870667 0.060699306428432465
0.32579809427261353 0.32960259914398193 0.056188695132732391
0.35524821281433105 0.33592215180397034 0.050169378519058228
0.39127877354621887 0.34295383095741272 0.041837774217128754
0.43384087085723877 0.35167384147644043 0.031048871576786041
0.48840329051017761 0.36589419841766357 0.011382739990949631
0.53301101922988892 0.37343180179595947 0.0010754577815532684
0.5700039267539978 0.375672847032547 9.3624139481107704e-06
0.60607218742370605 0.37773355841636658 0
0.63950276374816895 0.37866029143333435 0
0.67141646146774292 0.37955015897750854 0
0.70248669385910034 0.38029786944389343 0
0.73164039850234985 0.38122251629829407 0
0.7599603533744812 0.38685926795005798 0
0.78845113515853882 0.39852914214134216 0
0.81605768203735352 0.41265848278999329 0
0.84086823463439941 0.42665386199951172 0.00018195423763245344
0.86493748426437378 0.44200018048286438 0.0070506506599485874
0.88619112968444824 0.45759293437004089 0.03008563257753849
0.9058830738067627 0.47307500243186951 0.059770788997411728
0.92328745126724243 0.48879075050354004 0.087688148021697998
0.93861240148544312 0.50430387258529663 0.11389289051294327
0.95200318098068237 0.51988917589187622 0.13887540996074677
0.96383535861968994 0.53530871868133545 0.16314803063869476
0.97539383172988892 0.55413466691970825 0.19197443127632141
0.2259790450334549 0.33825832605361938 0.060795173048973083
