Textures/100.cube
# Created by: G'MIC (https://gmic.eu)
TITLE "Polaroid_PX-680_Warm_3.cube"
# LUT size
LUT_3D_SIZE 5
# Data domain
DOMAIN_MIN 0.0 0.0 0.0
DOMAIN_MAX 1.0 1.0 1.0
# LUT data points
0.25402668118476868 0.20779582858085632 0.082653000950813293
0.27207902073860168 0.2085108757019043 0.083034910261631012
0.5241665244102478 0.20791447162628174 0.065072633326053619
0.85329961776733398 0.28874498605728149 0.033418454229831696
0.99225437641143799 0.47925886511802673 0.18940052390098572
0.25172802805900574 0.2383454442024231 0.080897003412246704
0.29402878880500793 0.25127837061882019 0.075497932732105255
0.58692866563796997 0.28273260593414307 0.026943681761622429
0.85124325752258301 0.37743866443634033 0.012146362103521824
0.9850236177444458 0.52940726280212402 0.20042432844638824
0.21220733225345612 0.45364314317703247 0.05110539123415947
0.30236250162124634 0.46036162972450256 0.064844779670238495
0.57720571756362915 0.51419639587402344 0.039397288113832474
0.82508808374404907 0.57015931606292725 0.030042406171560287
0.96080476045608521 0.61680597066879272 0.18734779953956604
0.32219579815864563 0.6594620943069458 0.15716437995433807
0.38520348072052002 0.65897959470748901 0.16940143704414368
0.555045485496521 0.68935149908065796 0.21051940321922302
0.77001845836639404 0.73655122518539429 0.27342993021011353
0.92493438720703125 0.77551591396331787 0.36898112297058105
0.62368708848953247 0.83769398927688599 0.44725161790847778
0.64435762166976929 0.83612388372421265 0.45206844806671143
0.72412294149398804 0.83840781450271606 0.49449360370635986
0.83119302988052368 0.84574860334396362 0.54558581113815308
0.92156815528869629 0.85712587833404541 0.61136865615844727
0.25600516796112061 0.20943129062652588 0.10204888135194778
0.28031447529792786 0.21427848935127258 0.10476080328226089
0.56611555814743042 0.18181891739368439 0.15036967396736145
0.86394381523132324 0.37197789549827576 0.25679540634155273
0.97953110933303833 0.54655164480209351 0.35854601860046387
0.25971955060958862 0.25367334485054016 0.1288021057844162
0.34127840399742126 0.27298745512962341 0.15077708661556244
0.63242530822753906 0.32705211639404297 0.19152827560901642
0.86104071140289307 0.44294306635856628 0.25573036074638367
0.97399669885635376 0.5830572247505188 0.36030599474906921
0.34457749128341675 0.48051589727401733 0.19884231686592102
0.39041417837142944 0.48771989345550537 0.19235962629318237
0.61442971229553223 0.53561735153198242 0.21696437895298004
0.83509910106658936 0.57780301570892334 0.23044143617153168
0.9565889835357666 0.64584857225418091 0.33094194531440735
0.38497921824455261 0.67283016443252563 0.24326859414577484
0.43893304467201233 0.67361074686050415 0.25395360589027405
0.58160930871963501 0.69932746887207031 0.2976456880569458
0.78259587287902832 0.74409329891204834 0.35589393973350525
0.92564600706100464 0.77862536907196045 0.42831164598464966
0.63510739803314209 0.83900642395019531 0.47012168169021606
0.65647083520889282 0.83747464418411255 0.47497838735580444
0.73319911956787109 0.8391183614730835 0.51419532299041748
0.83495718240737915 0.84655511379241943 0.56403279304504395
0.92336565256118774 0.85798990726470947 0.62600946426391602
0.29083231091499329 0.2195371687412262 0.30854269862174988
0.41152945160865784 0.23709006607532501 0.32915753126144409
0.6375916600227356 0.35059449076652527 0.37891662120819092
0.84548389911651611 0.35760378837585449 0.43327242136001587
0.9746091365814209 0.54955655336380005 0.49327334761619568
0.31130003929138184 0.3176175057888031 0.3613336980342865
0.45788636803627014 0.33607503771781921 0.38120439648628235
0.66780376434326172 0.45282337069511414 0.41586896777153015
0.85085797309875488 0.46783295273780823 0.45632061362266541
0.96250081062316895 0.62554728984832764 0.51870191097259521
0.37843534350395203 0.49740442633628845 0.36691680550575256
0.47634482383728027 0.51145237684249878 0.38343441486358643
0.68123960494995117 0.5749548077583313 0.4450208842754364
0.84215903282165527 0.64480948448181152 0.48901021480560303
0.93778711557388306 0.71777069568634033 0.54003095626831055
0.49282968044281006 0.67467862367630005 0.39845851063728333
0.54867357015609741 0.68483591079711914 0.41410288214683533
0.64105725288391113 0.71256488561630249 0.4376240074634552
0.80634009838104248 0.75518637895584106 0.4925302267074585
0.92774796485900879 0.77897101640701294 0.52411389350891113
0.66096222400665283 0.83752936124801636 0.52639615535736084
0.67099761962890625 0.83758425712585449 0.52255755662918091
0.73948347568511963 0.84037238359451294 0.54858982563018799
0.83770185708999634 0.84698551893234253 0.60107421875
0.92794346809387207 0.86014032363891602 0.65920591354370117
0.50348103046417236 0.32697698473930359 0.59131407737731934
0.60450083017349243 0.36607140302658081 0.59298956394195557
0.77148163318634033 0.52040946483612061 0.6036984920501709
0.85641229152679443 0.65475541353225708 0.61791044473648071
0.93347805738449097 0.64846771955490112 0.62844526767730713
0.51161134243011475 0.41822952032089233 0.59531909227371216
0.6074676513671875 0.45085084438323975 0.59652304649353027
0.77315855026245117 0.58054566383361816 0.60883235931396484
0.85542267560958862 0.69414383172988892 0.62593263387680054
0.9292876124382019 0.68649119138717651 0.63727843761444092
0.41771447658538818 0.55569785833358765 0.55977582931518555
0.51943200826644897 0.56385481357574463 0.56916731595993042
0.73763918876647949 0.63804078102111816 0.60404700040817261
0.85229766368865967 0.74411481618881226 0.63553911447525024
0.92559254169464111 0.73872095346450806 0.64760667085647583
0.47878420352935791 0.69197142124176025 0.53782260417938232
0.5288352370262146 0.69606202840805054 0.5427287220954895
0.67307537794113159 0.72254925966262817 0.57145720720291138
0.84452676773071289 0.77683383226394653 0.63544833660125732
0.93092221021652222 0.80556386709213257 0.67322146892547607
0.59966617822647095 0.83459228277206421 0.58246910572052002
0.63272958993911743 0.83420109748840332 0.58565777540206909
0.73916172981262207 0.83801072835922241 0.61260664463043213
0.84081506729125977 0.84827691316604614 0.65345567464828491
0.93653827905654907 0.86400145292282104 0.71423232555389404
0.76118123531341553 0.64810580015182495 0.75556182861328125
0.78995990753173828 0.66592758893966675 0.7516905665397644
0.85156679153442383 0.72483134269714355 0.7468409538269043
0.90342032909393311 0.78763866424560547 0.74555295705795288
0.93106675148010254 0.80883568525314331 0.75006473064422607
0.7563011646270752 0.67637449502944946 0.75447815656661987
0.78589993715286255 0.69156765937805176 0.75150853395462036
0.8491625189781189 0.74091112613677979 0.74811065196990967
0.9039233922958374 0.79510170221328735 0.74870586395263672
0.93252968788146973 0.81520837545394897 0.75403410196304321
0.71125847101211548 0.71901130676269531 0.74974143505096436
0.74302679300308228 0.72150683403015137 0.74930292367935181
0.82859581708908081 0.75736278295516968 0.75002771615982056
0.90259206295013428 0.80580276250839233 0.7544664740562439
0.935455322265625 0.82808113098144531 0.76234465837478638
0.5904269814491272 0.78471541404724121 0.73788189888000488
0.61616182327270508 0.7818458080291748 0.73741781711578369
0.71095508337020874 0.78151828050613403 0.74378323554992676
0.88153594732284546 0.81285470724105835 0.76130181550979614
0.94205600023269653 0.84688156843185425 0.7770543098449707
0.68096435070037842 0.86148446798324585 0.75319087505340576
0.69440233707427979 0.86041069030761719 0.752768874168396
0.7495962381362915 0.85977715253829956 0.75790780782699585
0.83644682168960571 0.86025214195251465 0.76897734403610229
0.95140618085861206 0.8725203275680542 0.79919564723968506
