Textures/11.cube
# Created by: G'MIC (https://gmic.eu)
TITLE "EdgyEmber.cube"
# LUT size
LUT_3D_SIZE 5
# Data domain
DOMAIN_MIN 0.0 0.0 0.0
DOMAIN_MAX 1.0 1.0 1.0
# LUT data points
0.037970870733261108 0.031215338036417961 0.027443127706646919
0.19586746394634247 0.03429567813873291 0.036241684108972549
0.35875403881072998 0.0019148285500705242 0
0.51248472929000854 0 0
0.70342457294464111 0 0
0.17907804250717163 0.14983795583248138 0
0.25479331612586975 0.13898889720439911 0
0.38192850351333618 0.12516401708126068 0
0.53885906934738159 0.10117471218109131 0
0.73398846387863159 0.12306760251522064 0
0.31617096066474915 0.28098112344741821 0
0.36435332894325256 0.27564820647239685 0
0.4744601845741272 0.27462893724441528 0
0.6357804536819458 0.29011109471321106 0
0.84828811883926392 0.33274629712104797 0
0.55584567785263062 0.50286293029785156 0
0.59846729040145874 0.50846534967422485 0
0.70258373022079468 0.51800119876861572 0
0.86363106966018677 0.55007535219192505 0
0.99770897626876831 0.61714249849319458 0
0.94460779428482056 0.85109192132949829 0
0.9634634256362915 0.857430100440979 0
0.99553698301315308 0.8627321720123291 0
1 0.87211185693740845 0
1 0.8681023120880127 0.0054654725827276707
0.096489228308200836 0.036116745322942734 0.040440917015075684
0.22967694699764252 0.021958976984024048 0.04987204447388649
0.35843580961227417 0.009690198116004467 1.3263419532449916e-05
0.50945603847503662 0 0
0.70402407646179199 0 0
0.20728109776973724 0.14309976994991302 0.00030445266747847199
0.2714570164680481 0.13771574199199677 0
0.38649863004684448 0.11962108314037323 0
0.53946924209594727 0.10393256694078445 0
0.74081993103027344 0.13325168192386627 0
0.3360341489315033 0.27414903044700623 0
0.37679699063301086 0.27421262860298157 0
0.48627975583076477 0.27791911363601685 0
0.64074766635894775 0.29287829995155334 0
0.857269287109375 0.33182772994041443 0
0.5773775577545166 0.50074464082717896 0
0.61141693592071533 0.50367105007171631 0
0.70572227239608765 0.51936227083206177 0
0.86808902025222778 0.54763936996459961 0
0.99880146980285645 0.61901676654815674 0.0059829340316355228
0.95473527908325195 0.84986019134521484 0.064436055719852448
0.98365509510040283 0.85378682613372803 0.064386524260044098
0.99794691801071167 0.86436367034912109 0.04875587671995163
1 0.87250345945358276 0.10074539482593536
1 0.86381238698959351 0.087401479482650757
0.21411237120628357 0.018564606085419655 0.075279407203197479
0.27363568544387817 0.014739126898348331 0.066914498805999756
0.38301995396614075 0.00045776530168950558 0.047591391950845718
0.52902263402938843 0 0.03264230489730835
0.71509552001953125 0.018087634816765785 0.037011574953794479
0.26433241367340088 0.13170240819454193 0.038022276014089584
0.31209924817085266 0.13029026985168457 0.031247299164533615
0.41077545285224915 0.11609748750925064 0.015562303364276886
0.55529093742370605 0.10867547988891602 0.018265899270772934
0.7421455979347229 0.15013414621353149 0.030700197443366051
0.37740495800971985 0.27352872490882874 0
0.41670995950698853 0.26762530207633972 0
0.5147087574005127 0.27777525782585144 0
0.66308176517486572 0.29651674628257751 0.00073856348171830177
0.87145125865936279 0.33896511793136597 0.048241350799798965
0.61403149366378784 0.50124180316925049 0.00030640061595477164
0.63771748542785645 0.50345635414123535 0.0019869673997163773
0.73542368412017822 0.51941370964050293 0.0053333169780671597
0.89719301462173462 0.55897712707519531 0.050442975014448166
0.99995708465576172 0.62063556909561157 0.13848760724067688
0.98418772220611572 0.84739351272583008 0.19473373889923096
0.98916089534759521 0.85175734758377075 0.19896066188812256
1 0.86512863636016846 0.19758452475070953
1 0.87242704629898071 0.19712510704994202
1 0.85996717214584351 0.1902138888835907
0.30560711026191711 0 0.099461488425731659
0.34318768978118896 0 0.097744889557361603
0.42993268370628357 0 0.091164901852607727
0.56129246950149536 0 0.086218267679214478
0.7408408522605896 0.015124078840017319 0.095929145812988281
0.33913305401802063 0.11596275120973587 0.082895681262016296
0.37071171402931213 0.11598540842533112 0.085369594395160675
0.45271375775337219 0.112026646733284 0.079700425267219543
0.59661149978637695 0.10411319881677628 0.083329997956752777
0.782062828540802 0.15706008672714233 0.10628226399421692
0.43634051084518433 0.2644788920879364 0.049645837396383286
0.47182381153106689 0.26714959740638733 0.059929072856903076
0.55313700437545776 0.27795377373695374 0.063517287373542786
0.69828897714614868 0.29159775376319885 0.089077547192573547
0.8964119553565979 0.35035264492034912 0.13157559931278229
0.66693437099456787 0.50212401151657104 0.091613620519638062
0.69593304395675659 0.51117652654647827 0.098170772194862366
0.78232473134994507 0.52635926008224487 0.12597791850566864
0.92925125360488892 0.56732255220413208 0.16874264180660248
1 0.62970030307769775 0.23606501519680023
0.99268102645874023 0.85482603311538696 0.27332350611686707
0.99771356582641602 0.85828113555908203 0.27857494354248047
1 0.86164438724517822 0.28552383184432983
1 0.86943775415420532 0.28579238057136536
1 0.85625147819519043 0.26574787497520447
0.39091140031814575 0 0.12872928380966187
0.42065584659576416 0 0.12607355415821075
0.49088278412818909 0 0.12806390225887299
0.61705189943313599 0 0.13385601341724396
0.79782652854919434 0.04320700466632843 0.16327092051506042
0.42069104313850403 0.092094428837299347 0.12160453945398331
0.44478851556777954 0.097570121288299561 0.12250965088605881
0.51812535524368286 0.099905185401439667 0.12343952804803848
0.65054881572723389 0.10697893798351288 0.14018154144287109
0.84004509449005127 0.16645585000514984 0.17383521795272827
0.51298671960830688 0.269156813621521 0.1218048557639122
0.53902673721313477 0.26773548126220703 0.12231967598199844
0.62188601493835449 0.28399914503097534 0.13649989664554596
0.75627034902572632 0.30689293146133423 0.16051918268203735
0.95106852054595947 0.36209771037101746 0.20665103197097778
0.74448531866073608 0.51364332437515259 0.17829699814319611
0.77495324611663818 0.51855218410491943 0.19172735512256622
0.85367071628570557 0.53492772579193115 0.21421006321907043
0.98471176624298096 0.58917498588562012 0.25312608480453491
1 0.64738345146179199 0.31208896636962891
1 0.85686272382736206 0.33981305360794067
1 0.86044532060623169 0.33713722229003906
1 0.86386692523956299 0.34859356284141541
1 0.86916214227676392 0.35199138522148132
1 0.85005682706832886 0.33788976073265076
