Textures/11.cube
# Created by: G'MIC (https://gmic.eu)
TITLE "EdgyEmber.cube"
# LUT size
LUT_3D_SIZE 33
# Data domain
DOMAIN_MIN 0.0 0.0 0.0
DOMAIN_MAX 1.0 1.0 1.0
# LUT data points
0.037970870733261108 0.031215338036417961 0.027443127706646919
0.050252903252840042 0.031408440321683884 0.026271797716617584
0.06433635950088501 0.032312002032995224 0.025363180786371231
0.079417325556278229 0.03597605973482132 0.028421288356184959
0.09675309807062149 0.039794832468032837 0.032444730401039124
0.11830996721982956 0.045681823045015335 0.036287970840930939
0.14102725684642792 0.048956781625747681 0.03879975900053978
0.16834761202335358 0.041944980621337891 0.037696171551942825
0.19586746394634247 0.03429567813873291 0.036241684108972549
0.2209891676902771 0.025974294170737267 0.033135313540697098
0.24512124061584473 0.018815776333212852 0.030254136770963669
0.26552295684814453 0.019110627472400665 0.023259095847606659
0.28317001461982727 0.017538968473672867 0.015748022124171257
0.3035130500793457 0.011742180213332176 0.0085542621091008186
0.32086318731307983 0.0064371638000011444 0.0014350027777254581
0.34010922908782959 0.0038389577530324459 0
0.35875403881072998 0.0019148285500705242 0
0.37598037719726562 4.2130868678214028e-05 0
0.39287939667701721 0 0
0.41024267673492432 0 0
0.42961969971656799 0 0
0.44820261001586914 0 0
0.46764713525772095 0 0
0.48916974663734436 0 0
0.51248472929000854 0 0
0.53472214937210083 0 0
0.55596411228179932 0 0
0.57664424180984497 0 0
0.59818947315216064 0 0
0.62153518199920654 0 0
0.64486610889434814 0 0
0.67282503843307495 0 0
0.70342457294464111 0 0
0.057924333959817886 0.044739209115505219 0.030336504802107811
0.064975671470165253 0.046040832996368408 0.032603397965431213
0.077432684600353241 0.0471070297062397 0.031850744038820267
0.091904692351818085 0.048137951642274857 0.029942715540528297
0.10899253934621811 0.050314269959926605 0.032969284802675247
0.13251456618309021 0.052821982651948929 0.039918616414070129
0.15509805083274841 0.055134370923042297 0.041984930634498596
0.17783908545970917 0.049063865095376968 0.036666862666606903
0.20287884771823883 0.042157303541898727 0.033654991537332535
0.22450944781303406 0.034484080970287323 0.028750034049153328
0.24767355620861053 0.028196575120091438 0.025638347491621971
0.26552298665046692 0.029422089457511902 0.01918908953666687
0.28317001461982727 0.028562501072883606 0.011814158409833908
0.3035130500793457 0.023158274590969086 0.0060050473548471928
0.32075163722038269 0.017807448282837868 0.00049365457380190492
0.33815181255340576 0.015881400555372238 0
0.35821589827537537 0.013277475722134113 0
0.37598037719726562 0.0039869435131549835 0
0.39297378063201904 6.8090281274635345e-05 0
0.41095998883247375 0 0
0.43016704916954041 0 0
0.44820261001586914 0 0
0.46764713525772095 0 0
0.48916974663734436 0 0
0.51248472929000854 0 0
0.53472214937210083 0 0
0.55596411228179932 0 0
0.57721865177154541 0 0
0.60008734464645386 0 0
0.62383747100830078 0 0
0.64830780029296875 0 0
0.67598217725753784 0 0
0.70523899793624878 0 0
0.078009232878684998 0.0589173324406147 0.031458795070648193
0.083577826619148254 0.060268484055995941 0.034722194075584412
0.092462144792079926 0.061358124017715454 0.038159441202878952
0.10576367378234863 0.06171899288892746 0.034866724163293839
0.12139704823493958 0.061671771109104156 0.033065326511859894
0.14496426284313202 0.062629669904708862 0.038623712956905365
0.16808189451694489 0.063109494745731354 0.041883379220962524
0.18845982849597931 0.058037694543600082 0.035830829292535782
0.20958489179611206 0.052279531955718994 0.029925273731350899
0.23010058701038361 0.04573088139295578 0.025038288906216621
0.24986012279987335 0.039376430213451385 0.020989282056689262
0.26691526174545288 0.039564605802297592 0.014884598553180695
0.28464779257774353 0.040553521364927292 0.0079589150846004486
0.30371639132499695 0.035937637090682983 0.0032376318704336882
0.32236349582672119 0.030669918283820152 0
0.33911979198455811 0.028259282931685448 0
0.35758161544799805 0.02706841379404068 0
0.37598124146461487 0.018014803528785706 0
0.3937193751335144 0.0063277818262577057 0
0.41176944971084595 0.0029174538794904947 0
0.42982453107833862 0.0023955528158694506 0
0.45060545206069946 0.00010043316433439031 0
0.46990063786506653 0 0
0.48948979377746582 0 0
0.5126415491104126 0 0
0.5351441502571106 0 0
0.55640494823455811 0 0
0.5775720477104187 0 0
0.60114538669586182 0 0
0.62647032737731934 0 0
0.65210521221160889 0 0
0.67922157049179077 0.00011490236647659913 0
0.70793014764785767 0.0003064062912017107 0
0.096039339900016785 0.07369280606508255 0.035964179784059525
0.10257688909769058 0.074016138911247253 0.035421703010797501
0.1108221709728241 0.074502915143966675 0.038970880210399628
0.12310151010751724 0.072778820991516113 0.038850024342536926
0.13763006031513214 0.072261251509189606 0.037005122750997543
0.15833009779453278 0.071518637239933014 0.035529825836420059
0.1791846752166748 0.071360871195793152 0.036062467843294144
0.19614593684673309 0.069173276424407959 0.028240257874131203
0.21624384820461273 0.064756348729133606 0.022257044911384583
0.23571166396141052 0.061116326600313187 0.018420839682221413
0.25484657287597656 0.055722411721944809 0.015084283426403999
0.27104148268699646 0.05318966880440712 0.0089780827984213829
0.2881891131401062 0.05229094997048378 0.0024341640528291464
0.30714857578277588 0.050542894750833511 0.0012869065394625068
0.32605144381523132 0.04621722549200058 0
0.34151366353034973 0.042926270514726639 0
0.35820218920707703 0.041361074894666672 0
0.37602126598358154 0.035232473164796829 0
0.39451757073402405 0.02591242641210556 0
0.4103129506111145 0.018317461013793945 0
0.4287581741809845 0.013336841948330402 0
0.45499923825263977 0.0045106774196028709 0
0.4774610698223114 9.3624155852012336e-05 0
0.49302494525909424 0 0
0.51156270503997803 0 0
0.53529250621795654 0 0
0.55814492702484131 0 0
0.57861620187759399 0 0
0.59999138116836548 0 0
0.62728136777877808 0 0
0.65616285800933838 0 0
0.6823810338973999 0.00045960940769873559 0
0.70900428295135498 0.0012256251648068428 0
0.1123209148645401 0.088964357972145081 0.035927228629589081
0.11932014673948288 0.089127391576766968 0.034395631402730942
0.12867245078086853 0.087932571768760681 0.034092623740434647
0.14020068943500519 0.08676484227180481 0.035648364573717117
0.15298597514629364 0.085632249712944031 0.035990271717309952
0.17168889939785004 0.08329397439956665 0.0330243781208992
0.18983528017997742 0.081758022308349609 0.028464071452617645
0.20588244497776031 0.079479314386844635 0.021212484687566757
0.22351625561714172 0.077782921493053436 0.014599984511733055
0.24210609495639801 0.075052231550216675 0.0121510224416852
0.26067987084388733 0.072650671005249023 0.0099759232252836227
0.2762356698513031 0.069104105234146118 0.0053922920487821102
0.29258573055267334 0.065424241125583649 0
0.31114497780799866 0.0630074143409729 0
0.33038043975830078 0.060923554003238678 0
0.34534171223640442 0.059044823050498962 0
0.35943672060966492 0.056679870933294296 0
0.37688148021697998 0.051812555640935898 0
0.39598461985588074 0.045803390443325043 0
0.41364264488220215 0.038717295974493027 0
0.43177545070648193 0.0294466782361269 0
0.45501795411109924 0.019663108512759209 0
0.48154458403587341 0.0089906584471464157 0
0.50091230869293213 0.0060097631067037582 0
0.51510000228881836 0.0072045582346618176 0
0.53590059280395508 0.005587384570389986 0
0.56024307012557983 0.0049020834267139435 0
0.58218139410018921 0.0052320249378681183 0
0.60191762447357178 0.0055485921911895275 0
0.62755274772644043 0.0076854252256453037 0
0.65814948081970215 0.0080474698916077614 0
0.68567883968353271 0.0105618080124259 0
0.71094000339508057 0.011534946039319038 0
0.12614467740058899 0.1039152666926384 0.02296765148639679
0.1345655620098114 0.10329668968915939 0.021377872675657272
0.14359456300735474 0.10245493054389954 0.020943814888596535
0.15411540865898132 0.10156756639480591 0.022331086918711662
0.16625449061393738 0.10002043098211288 0.022735521197319031
0.18170078098773956 0.10000000894069672 0.02029949426651001
0.1991153210401535 0.098799914121627808 0.016691256314516068
0.21348226070404053 0.096078507602214813 0.011037681251764297
0.2297380119562149 0.094430804252624512 0.0061327270232141018
0.24671953916549683 0.091827422380447388 0.0053469426929950714
0.26474201679229736 0.088692143559455872 0.0039217290468513966
0.28059646487236023 0.084373511373996735 0.0031081975903362036
0.29672867059707642 0.08053860068321228 0
0.31549245119094849 0.076870538294315338 0
0.33450630307197571 0.074790552258491516 0
0.34956535696983337 0.073941424489021301 0
0.36350774765014648 0.071726799011230469 0
0.38071215152740479 0.068682834506034851 0
0.39965039491653442 0.063976377248764038 0
0.41974815726280212 0.056808628141880035 0
0.43858009576797485 0.047967415302991867 0
0.45855781435966492 0.041862908750772476 0
0.48307278752326965 0.033890824764966965 0
0.50696998834609985 0.029422089457511902 0
0.52428138256072998 0.030784480273723602 0
0.54355883598327637 0.027402417734265327 0
0.56608176231384277 0.02271123044192791 0
0.58909177780151367 0.025110732764005661 0
0.61039113998413086 0.027304261922836304 0
0.63451302051544189 0.032476425170898438 0
0.66220313310623169 0.036102969199419022 0
0.68947356939315796 0.041936468333005905 0
0.71535032987594604 0.047456979751586914 0
0.14052891731262207 0.1196056455373764 0.011729065328836441
0.14883279800415039 0.11756087839603424 0.01008990965783596
0.15860626101493835 0.116254523396492 0.0088372305035591125
0.16816633939743042 0.11576790362596512 0.010923898778855801
0.17901892960071564 0.11518742889165878 0.011685987934470177
0.1933211088180542 0.11486910283565521 0.0096638491377234459
0.20833684504032135 0.11437623202800751 0.0075610424391925335
0.22218702733516693 0.11292005330324173 0.0027729140128940344
0.23619537055492401 0.11066380143165588 1.5320314560085535e-05
0.25228935480117798 0.10765556991100311 0
0.26951029896736145 0.10388259589672089 0
0.28514444828033447 0.099720858037471771 0
0.30063995718955994 0.096052967011928558 0
0.31899502873420715 0.092647209763526917 0
0.33810213208198547 0.089706048369407654 0
0.3538970947265625 0.088200941681861877 0
0.36803600192070007 0.086141914129257202 0
0.38495272397994995 0.082827441394329071 0
0.40362876653671265 0.081355065107345581 0
0.42440488934516907 0.075134359300136566 0
0.44522678852081299 0.066182069480419159 0
0.46534690260887146 0.061018817126750946 0
0.48679742217063904 0.057202883064746857 0
0.5092238187789917 0.055026683956384659 0
0.53029686212539673 0.056410718709230423 0
0.55095726251602173 0.053681232035160065 0
0.57223451137542725 0.046751752495765686 0
0.59484279155731201 0.047623388469219208 0
0.61803144216537476 0.051630511879920959 0
0.64273929595947266 0.056295726448297501 0
0.66842347383499146 0.062023170292377472 0
0.69452303647994995 0.069272421300411224 0
0.72117787599563599 0.078609317541122437 0
0.15940055251121521 0.13423602283000946 0.0044119167141616344
0.1622912734746933 0.13313412666320801 0.003850315697491169
0.17071372270584106 0.13040405511856079 0.0022963366936892271
0.18118564784526825 0.12976913154125214 0.0030077607370913029
0.19120755791664124 0.12825094163417816 0.0044119167141616344
0.20228052139282227 0.12653195858001709 0.0039612175896763802
0.21647520363330841 0.12589888274669647 0.0024448488838970661
0.23117108643054962 0.1257123202085495 0.0012409451883286238
0.24488745629787445 0.12456725537776947 0
0.25754106044769287 0.1229565292596817 0
0.27372851967811584 0.11979617178440094 0
0.29065921902656555 0.1154666393995285 0
0.30596223473548889 0.11137307435274124 0
0.32163506746292114 0.10945312678813934 0
0.34060639142990112 0.10669920593500137 0
0.35972470045089722 0.10649390518665314 0
0.37512144446372986 0.10544850677251816 0
0.38986888527870178 0.10133115202188492 0
0.40708768367767334 0.098856218159198761 0
0.42833423614501953 0.095075167715549469 0
0.44981497526168823 0.088145919144153595 0
0.46979415416717529 0.084018200635910034 0
0.49094906449317932 0.081332691013813019 0
0.51262205839157104 0.079665057361125946 0
0.53385698795318604 0.079798005521297455 0
0.55453264713287354 0.078418157994747162 0
0.57579237222671509 0.073053546249866486 0
0.5996253490447998 0.076081462204456329 0
0.62386661767959595 0.084093630313873291 0
0.64854508638381958 0.085883848369121552 0
0.67308300733566284 0.088953636586666107 0
0.69974404573440552 0.094556666910648346 0
0.72756326198577881 0.099498763680458069 0
0.17907804250717163 0.14983795583248138 0
0.17989438772201538 0.147589311003685 0
0.18351422250270844 0.14697378873825073 0
0.194027379155159 0.14383144676685333 0
0.20480640232563019 0.14308278262615204 0
0.21474765241146088 0.14020280539989471 0
0.22540545463562012 0.13962404429912567 0
0.23991720378398895 0.13962404429912567 0
0.25479331612586975 0.13898889720439911 0
0.26697191596031189 0.137220099568367 0
0.2791755199432373 0.13655821979045868 0
0.29536646604537964 0.13304731249809265 0
0.31249237060546875 0.12821352481842041 0
0.32842686772346497 0.12536649405956268 0
0.34463471174240112 0.12393795698881149 0
0.3629116415977478 0.12419462203979492 0
0.38192850351333618 0.12516401708126068 0
0.39762455224990845 0.1214989572763443 0
0.41161710023880005 0.11646918952465057 0
0.43134647607803345 0.11350259184837341 0
0.454184889793396 0.10955654084682465 0
0.47495973110198975 0.10701729357242584 0
0.49626004695892334 0.10522612184286118 0
0.51743543148040771 0.10342530906200409 0
0.53885906934738159 0.10117471218109131 0
0.56004387140274048 0.10068792849779129 0
0.58121961355209351 0.097139842808246613 0
0.60495263338088989 0.10062726587057114 0
0.63000106811523438 0.11292948573827744 0
0.65511339902877808 0.11876298487186432 0
0.67867839336395264 0.11911888420581818 0
0.705391526222229 0.12224125862121582 0
0.73398846387863159 0.12306760251522064 0
0.19452306628227234 0.16449044644832611 0
0.19895786046981812 0.16304557025432587 0
0.20134535431861877 0.16112241148948669 0
0.20763881504535675 0.16056902706623077 0
0.21741580963134766 0.15816040337085724 0
0.2280539870262146 0.15679572522640228 0
0.23828831315040588 0.15669937431812286 0
0.2510228157043457 0.15669938921928406 0
0.26580542325973511 0.1555556058883667 0
0.27819254994392395 0.15134647488594055 0
0.29006049036979675 0.15040868520736694 0
0.30444461107254028 0.15074726939201355 0
0.32087218761444092 0.14691852033138275 0
0.33834749460220337 0.14445370435714722 0
0.35453939437866211 0.14228866994380951 0
0.3704473078250885 0.14106212556362152 0
0.38896137475967407 0.14108900725841522 0
0.40804368257522583 0.13672374188899994 0
0.42318072915077209 0.1318076103925705 0
0.43939122557640076 0.13098196685314178 0
0.45993649959564209 0.12902460992336273 0
0.48199948668479919 0.12857352197170258 0
0.50315475463867188 0.12749534845352173 0
0.5245358943939209 0.1241106390953064 0
0.54705899953842163 0.12197669595479965 0
0.56969988346099854 0.12444719672203064 0
0.59110164642333984 0.12423747777938843 0
0.61376243829727173 0.124185711145401 0
0.63742518424987793 0.13237549364566803 0
0.66320163011550903 0.14094597101211548 0
0.68766826391220093 0.14309114217758179 0
0.71575039625167847 0.14574776589870453 0
0.7461431622505188 0.14775720238685608 0
0.20769199728965759 0.18010032176971436 0
0.21324189007282257 0.17786605656147003 0
0.21850915253162384 0.17757157981395721 0
0.22306893765926361 0.17567387223243713 0
0.22895301878452301 0.17376132309436798 0
0.23980177938938141 0.17334330081939697 0
0.25126153230667114 0.17338936030864716 0
0.26353123784065247 0.17368495464324951 0
0.277120441198349 0.1727549135684967 0
0.289552241563797 0.16760784387588501 0
0.30147618055343628 0.16276037693023682 0
0.31535804271697998 0.16391442716121674 0
0.32959005236625671 0.16533438861370087 0
0.34713175892829895 0.16241832077503204 0
0.36553418636322021 0.16170364618301392 0
0.38072025775909424 0.15874762833118439 0
0.39661717414855957 0.15788060426712036 0
0.41522502899169922 0.15307058393955231 0
0.43407765030860901 0.14814822375774384 0
0.45138901472091675 0.14741061627864838 0
0.4674103856086731 0.14750900864601135 0
0.48788300156593323 0.14828804135322571 0
0.50939303636550903 0.14960962533950806 0
0.5320020318031311 0.14738403260707855 0
0.55650311708450317 0.14403100311756134 0
0.5795520544052124 0.14600563049316406 0
0.60070592164993286 0.14982762932777405 0
0.62318897247314453 0.15157394111156464 0
0.64725112915039062 0.15341788530349731 0
0.67185866832733154 0.1587582528591156 0
0.69716769456863403 0.16264042258262634 0
0.72626376152038574 0.16676945984363556 0
0.75826704502105713 0.17050139605998993 0
0.22120985388755798 0.19460771977901459 0
0.22644680738449097 0.19460770487785339 0
0.23197522759437561 0.1923917680978775 0
0.23621205985546112 0.19132621586322784 0
0.24164724349975586 0.19072550535202026 0
0.25237280130386353 0.18828077614307404 0
0.26368969678878784 0.18748193979263306 0
0.27455794811248779 0.18702340126037598 0
0.28749677538871765 0.18676471710205078 0
0.3007761538028717 0.18582858145236969 0
0.31316366791725159 0.18168111145496368 0
0.32806897163391113 0.1791006475687027 0
0.34231165051460266 0.17946694791316986 0
0.35831290483474731 0.17832407355308533 0
0.37551862001419067 0.17624682188034058 0
0.38861259818077087 0.17501896619796753 0
0.40361809730529785 0.17389534413814545 0
0.42034310102462769 0.17236010730266571 0
0.43875342607498169 0.16940183937549591 0
0.45989203453063965 0.1693398505449295 0
0.47818604111671448 0.16988128423690796 0
0.49714228510856628 0.1706964522600174 0
0.51822638511657715 0.17177927494049072 0
0.54305809736251831 0.171413853764534 0
0.5683940052986145 0.1691698431968689 0
0.59140580892562866 0.16968637704849243 0
0.61324793100357056 0.17270050942897797 0
0.6356627345085144 0.17450454831123352 0
0.65868228673934937 0.17581196129322052 0
0.68318897485733032 0.1800525039434433 0
0.70853728055953979 0.18558625876903534 0
0.73838722705841064 0.19005434215068817 0
0.77169305086135864 0.19409367442131042 0
0.23620182275772095 0.20800663530826569 0
0.24161761999130249 0.20800668001174927 0
0.24667446315288544 0.20800668001174927 0
0.25069493055343628 0.20800668001174927 0
0.25586745142936707 0.20782256126403809 0
0.26620417833328247 0.20520833134651184 0
0.27734872698783875 0.20408502221107483 0
0.28786441683769226 0.2025003582239151 0
0.29824188351631165 0.20016340911388397 0
0.31218180060386658 0.20016340911388397 0
0.32572171092033386 0.20013338327407837 0
0.34038498997688293 0.19707106053829193 0
0.35561850666999817 0.19400908052921295 0
0.37082818150520325 0.19271837174892426 0
0.38655063509941101 0.19107495248317719 0
0.39907747507095337 0.18915654718875885 0
0.41129013895988464 0.18903756141662598 0
0.42769613862037659 0.18869824707508087 0
0.44497862458229065 0.18908753991127014 0
0.46589666604995728 0.19071228802204132 0
0.48826861381530762 0.1925816535949707 0
0.50855165719985962 0.19360026717185974 0
0.52863895893096924 0.19373102486133575 0
0.55284053087234497 0.19371996819972992 0
0.57939302921295166 0.19346101582050323 0
0.60345155000686646 0.19439992308616638 0
0.6263200044631958 0.19647444784641266 0
0.65007084608078003 0.19835576415061951 0
0.67149412631988525 0.19856011867523193 0
0.6952817440032959 0.20299874246120453 0
0.72065174579620361 0.21035444736480713 0
0.75029820203781128 0.21579110622406006 0
0.78447479009628296 0.21965961158275604 0
0.25591149926185608 0.22508174180984497 0
0.26228207349777222 0.22504939138889313 0
0.26683405041694641 0.22502735257148743 0
0.26946204900741577 0.22508032619953156 0
0.27376836538314819 0.22508174180984497 0
0.28117480874061584 0.22375279664993286 0
0.29243272542953491 0.22116003930568695 0
0.30428746342658997 0.22008097171783447 0
0.31545394659042358 0.21729663014411926 0
0.32938742637634277 0.21898110210895538 0
0.3421282172203064 0.21887658536434174 0
0.35435399413108826 0.21672230958938599 0
0.36949378252029419 0.2139342725276947 0
0.38641920685768127 0.21226038038730621 0
0.4014228880405426 0.21056318283081055 0
0.4149760901927948 0.21037597954273224 0
0.42721062898635864 0.21023860573768616 0
0.44412916898727417 0.20975083112716675 0
0.46109145879745483 0.21017807722091675 0
0.47870495915412903 0.21327008306980133 0
0.49964016675949097 0.21552766859531403 0
0.52146428823471069 0.21565473079681396 0
0.54185187816619873 0.21539357304573059 0
0.5633806586265564 0.21746678650379181 0
0.58831632137298584 0.21892139315605164 0
0.61386799812316895 0.21858620643615723 0
0.63688355684280396 0.21955272555351257 0
0.66403055191040039 0.22456954419612885 0
0.68878471851348877 0.22776378691196442 0
0.71138477325439453 0.2317328155040741 0
0.73621833324432373 0.23905576765537262 0
0.76542216539382935 0.24428452551364899 0
0.79773658514022827 0.24815970659255981 0
0.27515310049057007 0.24240607023239136 0
0.28185996413230896 0.24108433723449707 0
0.28723371028900146 0.23961451649665833 0
0.28927391767501831 0.24213911592960358 0
0.2928406298160553 0.24235926568508148 0
0.29907339811325073 0.24182207882404327 0
0.30678603053092957 0.23897621035575867 0
0.31944459676742554 0.23804138600826263 0
0.33267048001289368 0.23602817952632904 0
0.34599968791007996 0.23802433907985687 0
0.3590090274810791 0.2384362667798996 0
0.3708527684211731 0.23680366575717926 0
0.38323205709457397 0.23489604890346527 0
0.39982637763023376 0.23364539444446564 0
0.41685935854911804 0.23168259859085083 0
0.43086794018745422 0.23186282813549042 0
0.44440701603889465 0.23186282813549042 0
0.46143805980682373 0.23176382482051849 0
0.47843140363693237 0.23186822235584259 0
0.49567002058029175 0.23476928472518921 0
0.51311039924621582 0.23821315169334412 0
0.53402745723724365 0.23869431018829346 0
0.55548471212387085 0.23712728917598724 0
0.57725191116333008 0.23942667245864868 0
0.59872257709503174 0.24301068484783173 0
0.62262856960296631 0.24365711212158203 0
0.64594137668609619 0.24229194223880768 0
0.67299699783325195 0.2466963529586792 0
0.70332199335098267 0.25391498208045959 0
0.72890341281890869 0.26015749573707581 0
0.75389605760574341 0.26760604977607727 0
0.78282499313354492 0.27343657612800598 0
0.81345003843307495 0.27726852893829346 0
0.29425773024559021 0.26127925515174866 0
0.29893910884857178 0.26045686006546021 0
0.30435651540756226 0.2594563364982605 0
0.30637240409851074 0.25931382179260254 0
0.31054851412773132 0.25983574986457825 0
0.31921634078025818 0.26126366853713989 0
0.32610899209976196 0.25962346792221069 0
0.33564117550849915 0.25683781504631042 0
0.3479657769203186 0.25541257858276367 0
0.36058142781257629 0.25700509548187256 0
0.37395980954170227 0.25874876976013184 0
0.38694712519645691 0.25593516230583191 0
0.3993091881275177 0.2550998330116272 0
0.41422954201698303 0.25364983081817627 0
0.43109390139579773 0.25241270661354065 0
0.44560506939888 0.25305235385894775 0
0.45974883437156677 0.25314202904701233 0
0.47855702042579651 0.25400334596633911 0
0.49647018313407898 0.25439566373825073 0
0.51342517137527466 0.25577643513679504 0
0.5312991738319397 0.25860294699668884 0
0.55056995153427124 0.26076635718345642 0
0.57117372751235962 0.26056790351867676 0
0.59419161081314087 0.2626895010471344 0
0.61647427082061768 0.26583430171012878 0
0.63781881332397461 0.26858150959014893 0
0.65978914499282837 0.26877781748771667 0
0.68659126758575439 0.27197575569152832 0
0.71788835525512695 0.27876380085945129 0
0.74717092514038086 0.28585314750671387 0
0.7736126184463501 0.29342895746231079 0
0.80176776647567749 0.30105924606323242 0
0.83052980899810791 0.30534803867340088 0
0.31617096066474915 0.28098112344741821 0
0.3191244900226593 0.28076034784317017 0
0.32297345995903015 0.28074711561203003 0
0.32421544194221497 0.279276043176651 0
0.32838505506515503 0.27865579724311829 0
0.33753564953804016 0.28027388453483582 0
0.3469180166721344 0.28111100196838379 0
0.35504332184791565 0.27809351682662964 0
0.36435332894325256 0.27564820647239685 0
0.37724325060844421 0.27708536386489868 0
0.39040213823318481 0.27778589725494385 0
