Textures/12.cube
# Created by: G'MIC (https://gmic.eu)
TITLE "FallColors.cube"
# LUT size
LUT_3D_SIZE 5
# Data domain
DOMAIN_MIN 0.0 0.0 0.0
DOMAIN_MAX 1.0 1.0 1.0
# LUT data points
0.054133415222167969 0.037416629493236542 0.027985315769910812
0.34021985530853271 0.01887812465429306 0.0098825898021459579
0.62067383527755737 0.0073477807454764843 0.0023316098377108574
0.89545851945877075 0.0016161034582182765 4.3691270548151806e-05
1 0 0
0.17818118631839752 0.22282108664512634 0.12942524254322052
0.30817791819572449 0.27132201194763184 0.00049389561172574759
0.58751851320266724 0.25710490345954895 0
0.86772876977920532 0.24384486675262451 0
1 0.231430783867836 0
0.25457769632339478 0.36553892493247986 0.18760909140110016
0.32966810464859009 0.47006312012672424 0.067444868385791779
0.55199515819549561 0.50713324546813965 0
0.82740283012390137 0.49465134739875793 0
1 0.48242360353469849 0
0.33135151863098145 0.50887382030487061 0.24586822092533112
0.452034592628479 0.56468135118484497 0.2422352135181427
0.52815264463424683 0.74933552742004395 0
0.78926771879196167 0.74373120069503784 0
1 0.73262393474578857 0
0.40799796581268311 0.65224546194076538 0.30411225557327271
0.54965543746948242 0.68557363748550415 0.33499228954315186
0.58874630928039551 0.86770844459533691 0.12490450590848923
0.76289308071136475 0.99120897054672241 0
1 0.98002445697784424 0
0.067075163125991821 0.058006744831800461 0.26250001788139343
0.32157596945762634 0.071732297539710999 0.21054069697856903
0.55316299200057983 0.049226012080907822 0.24277639389038086
0.86181145906448364 0.0038728476502001286 0.23426847159862518
1 0 0.21700620651245117
0.070712357759475708 0.27650481462478638 0.26120719313621521
0.30985656380653381 0.2659924328327179 0.23396065831184387
0.58837246894836426 0.25167447328567505 0.2168443351984024
0.86303418874740601 0.23919926583766937 0.20491679012775421
1 0.22646485269069672 0.19317552447319031
0.23583629727363586 0.39666286110877991 0.26929575204849243
0.40985772013664246 0.41136622428894043 0.29909136891365051
0.54884827136993408 0.50245183706283569 0.20059122145175934
0.82581067085266113 0.49018707871437073 0.18458834290504456
1 0.47796183824539185 0.16981880366802216
0.34545424580574036 0.52060973644256592 0.3271329402923584
0.48718354105949402 0.55402278900146484 0.35788196325302124
0.56137138605117798 0.68746745586395264 0.25716763734817505
0.78529304265975952 0.73913747072219849 0.16593337059020996
1 0.72822964191436768 0.15016411244869232
0.4221649169921875 0.66395312547683716 0.38533005118370056
0.56381869316101074 0.69740152359008789 0.41630491614341736
0.67713534832000732 0.76014262437820435 0.41162043809890747
0.76154053211212158 0.97775954008102417 0.15646804869174957
1 0.97555291652679443 0.13089306652545929
0.067075163125991821 0.058006744831800461 0.48415064811706543
0.30295968055725098 0.061457093805074692 0.46193286776542664
0.55586028099060059 0.084756359457969666 0.38373181223869324
0.77786493301391602 0.09165983647108078 0.39757701754570007
0.99302178621292114 0.064818046987056732 0.44683879613876343
0.066401228308677673 0.27818650007247925 0.48325183987617493
0.29681378602981567 0.27728775143623352 0.48325183987617493
0.57815766334533691 0.29006490111351013 0.4000474214553833
0.78512907028198242 0.27330392599105835 0.45272195339202881
1 0.23267142474651337 0.45435017347335815
0.066176585853099823 0.49893805384635925 0.48325183987617493
0.30109819769859314 0.49611601233482361 0.48095908761024475
0.55230659246444702 0.49541226029396057 0.45040214061737061
0.83061176538467407 0.4854598343372345 0.43570581078529358
1 0.47270858287811279 0.42397016286849976
0.20606927573680878 0.63086509704589844 0.45076286792755127
0.47130367159843445 0.58883273601531982 0.45062568783760071
0.637046217918396 0.59897279739379883 0.47225689888000488
0.78212893009185791 0.73449093103408813 0.42311409115791321
1 0.7235114574432373 0.40480765700340271
0.35603645443916321 0.73376989364624023 0.47399029135704041
0.57876598834991455 0.70966291427612305 0.50127655267715454
0.71439093351364136 0.74163275957107544 0.5306810736656189
0.79442495107650757 0.89404177665710449 0.46570989489555359
0.99967014789581299 0.97093337774276733 0.38875451683998108
0.067075163125991821 0.058006744831800461 0.71005332469940186
0.29681378602981567 0.058006744831800461 0.71004897356033325
0.54920011758804321 0.08040386438369751 0.59445083141326904
0.78548741340637207 0.097556695342063904 0.56046664714813232
0.99920511245727539 0.10718949139118195 0.56840407848358154
0.066176578402519226 0.27818650007247925 0.71004897356033325
0.29681378602981567 0.27728775143623352 0.71004897356033325
0.52942311763763428 0.28071531653404236 0.6842491626739502
0.80766886472702026 0.30286872386932373 0.57668721675872803
1 0.31153222918510437 0.58789676427841187
0.066176578402519226 0.49893805384635925 0.71004897356033325
0.29681378602981567 0.49893805384635925 0.71004897356033325
0.51674836874008179 0.49893805384635925 0.71004903316497803
0.82977914810180664 0.50927764177322388 0.59305727481842041
0.99999392032623291 0.500294029712677 0.66169410943984985
0.066176570951938629 0.72001641988754272 0.71004897356033325
0.29656869173049927 0.72001641988754272 0.70990198850631714
0.52073788642883301 0.71635228395462036 0.70520812273025513
0.78931397199630737 0.72494035959243774 0.67355865240097046
1 0.71933412551879883 0.66088700294494629
0.16146136820316315 0.87887716293334961 0.67248314619064331
0.43602955341339111 0.83809095621109009 0.65364331007003784
0.69445008039474487 0.78420209884643555 0.63422954082489014
0.8622136116027832 0.7853550910949707 0.64677029848098755
0.99882370233535767 0.96613985300064087 0.65263563394546509
0.067075163125991821 0.058006744831800461 0.94076794385910034
0.29681378602981567 0.058006744831800461 0.94076794385910034
0.51954084634780884 0.059023480862379074 0.93040972948074341
0.78646230697631836 0.098721407353878021 0.74583655595779419
0.99973487854003906 0.11111094802618027 0.73976081609725952
0.066176585853099823 0.27728775143623352 0.94076794385910034
0.29681378602981567 0.27728775143623352 0.94039005041122437
0.51674836874008179 0.27728775143623352 0.9398694634437561
0.78550624847412109 0.29726842045783997 0.81257903575897217
1 0.31625798344612122 0.7560850977897644
0.066176585853099823 0.49893805384635925 0.9398694634437561
0.29681378602981567 0.49893805384635925 0.93968850374221802
0.51674836874008179 0.49893805384635925 0.93897086381912231
0.74470371007919312 0.50014972686767578 0.91861629486083984
1 0.52201050519943237 0.7724299430847168
0.066176570951938629 0.72001641988754272 0.93897086381912231
0.29656869173049927 0.72001641988754272 0.93897086381912231
0.51584947109222412 0.72001641988754272 0.93897086381912231
0.73178118467330933 0.7200121283531189 0.93897086381912231
1 0.72872805595397949 0.78865289688110352
0.065278030931949615 0.94166654348373413 0.93897086381912231
0.29566991329193115 0.94166654348373413 0.93897086381912231
0.51584947109222412 0.94166654348373413 0.93897086381912231
0.73510444164276123 0.93812090158462524 0.93513840436935425
0.99877536296844482 0.95638585090637207 0.90158385038375854
