Textures/12.cube
# Created by: G'MIC (https://gmic.eu)
TITLE "FallColors.cube"
# LUT size
LUT_3D_SIZE 33
# Data domain
DOMAIN_MIN 0.0 0.0 0.0
DOMAIN_MAX 1.0 1.0 1.0
# LUT data points
0.054133415222167969 0.037416629493236542 0.027985315769910812
0.086475521326065063 0.034383546561002731 0.021812932565808296
0.1231175884604454 0.031426414847373962 0.019765697419643402
0.15909725427627563 0.028497191146016121 0.018102873116731644
0.19558344781398773 0.026546452194452286 0.016282068565487862
0.2321847528219223 0.02423568069934845 0.014095749706029892
0.26866665482521057 0.02205396443605423 0.012416165322065353
0.30408981442451477 0.020826103165745735 0.011021237820386887
0.34021985530853271 0.01887812465429306 0.0098825898021459579
0.37579679489135742 0.017300888895988464 0.0086810365319252014
0.4107590913772583 0.015865148976445198 0.0075230258516967297
0.44658595323562622 0.013791055418550968 0.0063357609324157238
0.48154634237289429 0.012712923809885979 0.0054423934780061245
0.51652467250823975 0.010771093890070915 0.0047066644765436649
0.55130112171173096 0.010192958638072014 0.003756275400519371
0.58591330051422119 0.0085687572136521339 0.0029837100300937891
0.62067383527755737 0.0073477807454764843 0.0023316098377108574
0.6555677056312561 0.0064562712796032429 0.0018925686599686742
0.68974882364273071 0.0052503878250718117 0.0015543256886303425
0.7245563268661499 0.0049619683995842934 0.00096669280901551247
0.75895112752914429 0.0034302547574043274 0.00057019403902813792
0.79293829202651978 0.0030811207834631205 0.00040795357199385762
0.82757866382598877 0.0022266991436481476 0.0003183221269864589
0.86153125762939453 0.0018792084883898497 0.00020597311959136277
0.89545851945877075 0.0016161034582182765 4.3691270548151806e-05
0.929665207862854 0.00065358338179066777 0
0.96342802047729492 0.00062039779732003808 0
0.99424421787261963 0.00033307334524579346 0
1 0.00032683339668437839 0
1 0.00014327331155072898 0
1 0 0
1 0 0
1 0 0
0.079017922282218933 0.073520168662071228 0.049766682088375092
0.088611669838428497 0.064907029271125793 0.025167061015963554
0.11951520293951035 0.061644945293664932 0.017564067617058754
0.15594446659088135 0.059120558202266693 0.015234143473207951
0.19234606623649597 0.057353835552930832 0.013390611857175827
0.22883874177932739 0.055242124944925308 0.011314037255942822
0.26530879735946655 0.053301814943552017 0.0099618462845683098
0.30072599649429321 0.051548521965742111 0.0087492344900965691
0.33695763349533081 0.050141740590333939 0.0075250463560223579
0.37228727340698242 0.048094570636749268 0.0063780290074646473
0.4074249267578125 0.046893589198589325 0.0054750144481658936
0.44328343868255615 0.044963117688894272 0.004727410152554512
0.47819006443023682 0.043473999947309494 0.0037803901359438896
0.51298153400421143 0.041918367147445679 0.0030220034532248974
0.54793089628219604 0.040011696517467499 0.0024437170941382647
0.58261066675186157 0.038793589919805527 0.0019586922135204077
0.61741870641708374 0.036844439804553986 0.0015473748790100217
0.65228241682052612 0.035497769713401794 0.00097616104176267982
0.68644648790359497 0.033870216459035873 0.00058569124666973948
0.72130101919174194 0.032053563743829727 0.00040894633275456727
0.75560170412063599 0.030862016603350639 0.00031888947705738246
0.78973007202148438 0.028846887871623039 0.00020370344282127917
0.8242763876914978 0.027537697926163673 4.9932874389924109e-05
0.85818171501159668 0.025896063074469566 0
0.89215594530105591 0.024147491902112961 0
0.92636275291442871 0.022902932018041611 0
0.96014261245727539 0.020985562354326248 0
0.99210202693939209 0.019710220396518707 0
1 0.018054815009236336 0
1 0.016306599602103233 0
1 0.015131915919482708 0
1 0.013216626830399036 0
1 0.012466994114220142 0
0.11065007746219635 0.11081834137439728 0.076128706336021423
0.11361954361200333 0.10199000686407089 0.047027155756950378
0.12055937945842743 0.094265230000019073 0.019784167408943176
0.15281218290328979 0.091595828533172607 0.013829299248754978
0.18884554505348206 0.089345194399356842 0.01145855151116848
0.22513450682163239 0.086855515837669373 0.0097792893648147583
0.26156854629516602 0.085020661354064941 0.0079098343849182129
0.29735380411148071 0.082586333155632019 0.0064841439016163349
0.33349770307540894 0.081354185938835144 0.005466400645673275
0.36870110034942627 0.079527676105499268 0.0047980877570807934
0.40397870540618896 0.077756613492965698 0.003891106229275465
0.43993359804153442 0.076437227427959442 0.0031351910438388586
0.47478595376014709 0.07439325749874115 0.0024461282882839441
0.50937533378601074 0.073260411620140076 0.0019574509933590889
0.54457515478134155 0.071244701743125916 0.0015571982366964221
0.57933390140533447 0.069821111857891083 0.00097006169380620122
0.61411619186401367 0.068256936967372894 0.0005871098255738616
0.64894980192184448 0.066293291747570038 0.00040965541847981513
0.68314391374588013 0.065214820206165314 0.00032598170218989253
0.71799856424331665 0.063230730593204498 0.0002029941970249638
0.75225168466567993 0.061871059238910675 4.7095782065298408e-05
0.78642773628234863 0.060282614082098007 0
0.82103800773620605 0.058402586728334427 0
0.85489636659622192 0.05731331929564476 0
0.88886654376983643 0.055337715893983841 0
0.92301297187805176 0.053991839289665222 0
0.9568488597869873 0.052432794123888016 0
0.98976254463195801 0.050556041300296783 0
1 0.049490958452224731 0
1 0.047437969595193863 0
1 0.046189501881599426 0
1 0.044617392122745514 0
1 0.042723905295133591 0
0.12623657286167145 0.1335269957780838 0.086767025291919708
0.12499698996543884 0.13379783928394318 0.05902370810508728
0.12691377103328705 0.1268547922372818 0.028283474966883659
0.1508566290140152 0.12375111132860184 0.013409792445600033
0.1851433664560318 0.12121088057756424 0.010130995884537697
0.22094815969467163 0.11959302425384521 0.0083644958212971687
0.25721350312232971 0.11670678108930588 0.0066063250415027142
0.29321464896202087 0.11536865681409836 0.0051722810603678226
0.32904195785522461 0.1127762496471405 0.0043203230015933514
0.36471110582351685 0.11169476807117462 0.0032778473105281591
0.40021270513534546 0.1093437671661377 0.0025318928528577089
0.43599629402160645 0.10801549255847931 0.0019543697126209736
0.4710056483745575 0.10608261823654175 0.0015818454558029771
0.50602096319198608 0.10434726625680923 0.00097623222973197699
0.54127258062362671 0.10306467115879059 0.00056962680537253618
0.57598429918289185 0.10103756189346313 0.0004086627159267664
0.61076641082763672 0.099919922649860382 0.00031761277932673693
0.64560043811798096 0.098002389073371887 0.00020540569676086307
0.67976021766662598 0.09640967845916748 4.6102792111923918e-05
0.7143700122833252 0.095059834420681 0
0.74860024452209473 0.093038961291313171 0
0.78264564275741577 0.091993480920791626 0
0.81728637218475342 0.089989997446537018 0
0.85123610496520996 0.088534921407699585 0
0.88530647754669189 0.087112307548522949 0
0.91962963342666626 0.085154116153717041 0
0.95349884033203125 0.084114611148834229 0
0.98716235160827637 0.082177400588989258 0
1 0.080708935856819153 0
1 0.079332791268825531 0
1 0.077370680868625641 0
1 0.076325841248035431 0
1 0.074410520493984222 0
0.13610056042671204 0.15133483707904816 0.094765752553939819
0.13309299945831299 0.15549272298812866 0.06712004542350769
0.1303529292345047 0.15708377957344055 0.034521739929914474
0.15112893283367157 0.15506459772586823 0.017472116276621819
0.18179546296596527 0.15331554412841797 0.009348573163151741
0.21743141114711761 0.15069803595542908 0.0069306851364672184
0.25318476557731628 0.14928434789180756 0.0054923207499086857
0.2888970673084259 0.14650695025920868 0.0043964986689388752
0.32456046342849731 0.14525006711483002 0.0031428409274667501
0.36005684733390808 0.14271913468837738 0.0024343573022633791
0.39596447348594666 0.14139378070831299 0.0018433170625939965
0.4317949116230011 0.13891904056072235 0.0011888012522831559
0.46732896566390991 0.13763894140720367 0.00065898319007828832
0.50276398658752441 0.13536001741886139 0.00041050638537853956
0.53785425424575806 0.13412384688854218 0.00032044993713498116
0.57262593507766724 0.13233837485313416 0.00020313604909460992
0.60725188255310059 0.13059268891811371 5.0074733735527843e-05
0.64213120937347412 0.12934674322605133 0
0.67626798152923584 0.12733274698257446 0
0.71090400218963623 0.12617754936218262 0
0.74515038728713989 0.12432140111923218 0
0.77920758724212646 0.12273577600717545 0
0.81384795904159546 0.12140638381242752 0
0.84779065847396851 0.11941646784543991 0
0.88184499740600586 0.11831371486186981 0
0.91613715887069702 0.11642446368932724 0
0.94998854398727417 0.11485858261585236 0
0.98389840126037598 0.11352455615997314 0
1 0.11152680963277817 0
1 0.1104717031121254 0
1 0.10860893875360489 0
1 0.10701258480548859 0
1 0.10577582567930222 0
0.14754579961299896 0.16939418017864227 0.10522996634244919
0.15107619762420654 0.17523130774497986 0.088171295821666718
0.14497378468513489 0.18046413362026215 0.053652677685022354
0.15178647637367249 0.18587721884250641 0.020259568467736244
0.17935536801815033 0.18453776836395264 0.008713308721780777
0.21356675028800964 0.18285219371318817 0.0056398138403892517
0.24934671819210052 0.18054015934467316 0.0045192386023700237
0.28450173139572144 0.17882835865020752 0.0033002616837620735
0.32037591934204102 0.17661464214324951 0.0023381332866847515
0.35561633110046387 0.17506261169910431 0.001812464208342135
0.39117810130119324 0.17279432713985443 0.0010799278970807791
0.42716482281684875 0.17130504548549652 0.00057288852985948324
0.46218445897102356 0.16894818842411041 0.00034597888588905334
0.49811822175979614 0.16767938435077667 0.00026101278490386903
0.53357017040252686 0.16524343192577362 4.4967957364860922e-05
0.56806528568267822 0.16424724459648132 0
0.603340744972229 0.16204166412353516 0
0.63823449611663818 0.16071803867816925 0
0.67262369394302368 0.15910321474075317 0
0.70742934942245483 0.15712252259254456 0
0.74170815944671631 0.15608058869838715 0
0.77582383155822754 0.153919517993927 0
0.81046438217163086 0.15275324881076813 0
0.84445130825042725 0.1510687917470932 0
0.8783571720123291 0.14926344156265259 0
0.91252952814102173 0.14818337559700012 0
0.94623678922653198 0.14608433842658997 0
0.98043179512023926 0.14492619037628174 0
0.99997639656066895 0.1432139128446579 0
1 0.1414434015750885 0
1 0.14036259055137634 0
1 0.13829940557479858 0
1 0.13713344931602478 0
0.15751534700393677 0.18736277520656586 0.11289387941360474
0.16692933440208435 0.19434422254562378 0.1054900735616684
0.16894635558128357 0.20138844847679138 0.08451312780380249
0.16839201748371124 0.20977388322353363 0.042890612035989761
0.17860735952854156 0.2150239497423172 0.0099910292774438858
0.21030279994010925 0.21437913179397583 0.0045326435938477516
0.24550805985927582 0.21204563975334167 0.0032640555873513222
0.28067690134048462 0.21048493683338165 0.0022467311937361956
0.31650570034980774 0.20809023082256317 0.0017373892478644848
0.35179832577705383 0.20659847557544708 0.00092360383132472634
0.38641786575317383 0.20468334853649139 0.00054750312119722366
0.42236950993537903 0.2029070109128952 0.00034087340463884175
0.45714130997657776 0.20122018456459045 0.00025916864979080856
0.4923093318939209 0.19913694262504578 2.2554910174221732e-05
0.52823692560195923 0.19771628081798553 0
0.56332576274871826 0.19539590179920197 0
0.59841382503509521 0.19429701566696167 0
0.63380593061447144 0.19183902442455292 0
0.66879498958587646 0.1907656192779541 0
0.70408368110656738 0.18864090740680695 0
0.73848724365234375 0.1872207373380661 0
0.77247422933578491 0.18575713038444519 0
0.80711472034454346 0.1837894469499588 0
0.84110164642333984 0.18271808326244354 0
0.87500739097595215 0.18076504766941071 0
0.90917998552322388 0.17936058342456818 0
0.94288063049316406 0.1778712272644043 0
0.97693049907684326 0.17592538893222809 0
0.99929624795913696 0.17489294707775116 0
1 0.17292444407939911 0
1 0.17148301005363464 0
1 0.17009370028972626 0
1 0.16814714670181274 0
0.16818757355213165 0.20488797128200531 0.12175704538822174
0.18106204271316528 0.21080772578716278 0.11872851848602295
0.18702387809753418 0.21930131316184998 0.10558066517114639
0.18574951589107513 0.23139940202236176 0.068363793194293976
0.18833182752132416 0.23998129367828369 0.025584015995264053
0.20821608603000641 0.24465097486972809 0.0046936809085309505
0.24194507300853729 0.2436039000749588 0.0022467311937361956
0.27674823999404907 0.2413499653339386 0.0017464325064793229
0.31242454051971436 0.23977009952068329 0.00088019738905131817
0.34771633148193359 0.23737244307994843 0.00044979003723710775
0.38274216651916504 0.23612341284751892 0.00032966971048153937
0.41775235533714294 0.23399044573307037 0.00018852499488275498
0.45252430438995361 0.23273587226867676 1.2766928193741478e-05
0.4874957799911499 0.23058013617992401 0
0.52251958847045898 0.22904279828071594 0
0.55780208110809326 0.22724972665309906 0
0.59341138601303101 0.22530283033847809 0
0.62863439321517944 0.22386147081851959 0
0.66370058059692383 0.22157545387744904 0
0.69904768466949463 0.22049549221992493 0
0.73428249359130859 0.21810801327228546 0
0.76849377155303955 0.21710796654224396 0
0.80321580171585083 0.21516735851764679 0
0.83742588758468628 0.21355284750461578 0
0.87132316827774048 0.21223922073841095 0
0.90583014488220215 0.21018539369106293 0
0.93952852487564087 0.20914985239505768 0
0.97351974248886108 0.20722760260105133 0
0.99864464998245239 0.20566666126251221 0
1 0.20439058542251587 0
1 0.20234526693820953 0
1 0.20131400227546692 0
1 0.19947652518749237 0
0.17818118631839752 0.22282108664512634 0.12942524254322052
0.1960548609495163 0.22717677056789398 0.13295435905456543
0.20674307644367218 0.23443056643009186 0.12588551640510559
0.20174135267734528 0.25010028481483459 0.089325353503227234
0.19839678704738617 0.26414957642555237 0.045596130192279816
0.21344651281833649 0.27135378122329712 0.015495268628001213
0.23897416889667511 0.27426338195800781 0.0026591827627271414
0.27293309569358826 0.27305072546005249 0.00088019738905131817
0.30817791819572449 0.27132201194763184 0.00049389561172574759
0.34347879886627197 0.26934486627578735 0.00030825039721094072
0.37866061925888062 0.26745525002479553 7.702713628532365e-05
0.41412162780761719 0.26579111814498901 0
0.44836613535881042 0.26388010382652283 0
0.48324733972549438 0.2627093493938446 0
0.51789218187332153 0.26042467355728149 0
0.55269503593444824 0.25931143760681152 0
0.58751851320266724 0.25710490345954895 0
0.62321650981903076 0.25563296675682068 0
0.65805071592330933 0.2539404034614563 0
0.69315582513809204 0.25193363428115845 0
0.72802454233169556 0.25071036815643311 0
0.76302635669708252 0.24839401245117188 0
0.79835355281829834 0.24736930429935455 0
0.8332056999206543 0.24514767527580261 0
0.86772876977920532 0.24384486675262451 0
0.9022059440612793 0.24207839369773865 0
0.93617880344390869 0.24028584361076355 0
0.97017854452133179 0.23919422924518585 0
0.99742823839187622 0.23711270093917847 0
1 0.23595291376113892 0
1 0.23427528142929077 0
1 0.23241659998893738 0
1 0.231430783867836 0
0.18769830465316772 0.24056728184223175 0.13662293553352356
0.205841064453125 0.24481554329395294 0.14069963991641998
0.22204884886741638 0.25031909346580505 0.14145293831825256
0.22197657823562622 0.26435628533363342 0.11314522475004196
0.21363262832164764 0.28271248936653137 0.067731648683547974
0.21918512880802155 0.29692429304122925 0.028532290831208229
0.2411070317029953 0.30213063955307007 0.0074081295169889927
0.26932916045188904 0.30406507849693298 0.00075773021671921015
0.3043799102306366 0.30231353640556335 0.00030825039721094072
0.33912208676338196 0.3009340763092041 9.3340437160804868e-05
0.37424984574317932 0.29854884743690491 0
0.41033017635345459 0.29716888070106506 0
0.44494110345840454 0.29515090584754944 0
0.47916680574417114 0.29372373223304749 0
0.51378113031387329 0.2920815646648407 0
0.54833990335464478 0.29020833969116211 0
0.58284306526184082 0.28898036479949951 0
0.61750531196594238 0.2867749035358429 0
0.65245640277862549 0.28558528423309326 0
0.68745005130767822 0.28348052501678467 0
0.72259676456451416 0.28200095891952515 0
0.75711566209793091 0.28038415312767029 0
0.79232656955718994 0.27835381031036377 0
0.82740813493728638 0.27715075016021729 0
0.8625527024269104 0.27486288547515869 0
0.89764904975891113 0.27377417683601379 0
0.93193674087524414 0.27178606390953064 0
0.96631395816802979 0.27026134729385376 0
0.99590837955474854 0.26887509226799011 0
1 0.26682820916175842 0
1 0.26582875847816467 0
1 0.26386544108390808 0
1 0.26244902610778809 0
0.19721530377864838 0.25820437073707581 0.14385126531124115
0.2153906524181366 0.26249992847442627 0.14793242514133453
0.23179857432842255 0.26797813177108765 0.14916524291038513
0.23648765683174133 0.28065943717956543 0.13149239122867584
0.23185653984546661 0.29786902666091919 0.095176205039024353
0.23017552495002747 0.31768590211868286 0.046895571053028107
0.24101269245147705 0.33043709397315979 0.010496024042367935
0.26836922764778137 0.3336091935634613 0.001156019396148622
0.30079591274261475 0.33326494693756104 0.00012852041982114315
0.33516073226928711 0.33171722292900085 0
0.36976554989814758 0.32997679710388184 0
0.40571066737174988 0.32799208164215088 0
0.44093114137649536 0.32654517889022827 0
0.475669264793396 0.32447740435600281 0
0.5102614164352417 0.32333856821060181 0
0.54432821273803711 0.3213011622428894 0
0.57859480381011963 0.31988927721977234 0
0.61290842294692993 0.31825283169746399 0
0.64758908748626709 0.31632363796234131 0
0.68237292766571045 0.31518366932868958 0
0.7167593240737915 0.31292837858200073 0
0.75152254104614258 0.31182748079299927 0
0.78717315196990967 0.3097902238368988 0
0.82134014368057251 0.30823534727096558 0
0.85625898838043213 0.30672150850296021 0
0.89114779233932495 0.30459553003311157 0
0.9255601167678833 0.30361539125442505 0
0.96047502756118774 0.30133375525474548 0
0.99276924133300781 0.30023685097694397 0
1 0.29847171902656555 0
1 0.29660302400588989 0
1 0.29548019170761108 0
1 0.29337242245674133 0
0.20685803890228271 0.27620157599449158 0.15123268961906433
0.22491392493247986 0.28060412406921387 0.15519392490386963
0.24203164875507355 0.28585964441299438 0.15757578611373901
0.24819494783878326 0.29750797152519226 0.14288708567619324
0.24762177467346191 0.313894122838974 0.11688242852687836
0.24707062542438507 0.33346742391586304 0.075076811015605927
0.25033411383628845 0.35195320844650269 0.026026325300335884
0.2665233314037323 0.36320847272872925 0.0019785144831985235
0.29843693971633911 0.36392194032669067 0.00015036603144835681
0.33168229460716248 0.36298438906669617 0
0.36576804518699646 0.36181855201721191 0
0.40076661109924316 0.3596508800983429 0
0.43618488311767578 0.35822835564613342 0
0.47151258587837219 0.35623687505722046 0
0.50650495290756226 0.35460361838340759 0
0.54088765382766724 0.3532450795173645 0
0.57524198293685913 0.35121431946754456 0
0.60917073488235474 0.35017192363739014 0
0.64289587736129761 0.34819367527961731 0
0.67774248123168945 0.34664297103881836 0
0.7121732234954834 0.34516701102256775 0
0.74616014957427979 0.34315565228462219 0
0.78080075979232788 0.34206795692443848 0
0.81494987010955811 0.33982893824577332 0
0.85023349523544312 0.33866429328918457 0
0.88523751497268677 0.33683758974075317 0
0.91941243410110474 0.33507275581359863 0
0.95438718795776367 0.33379966020584106 0
0.9884190559387207 0.33161315321922302 0
1 0.33064711093902588 0
1 0.32848051190376282 0
1 0.32706412672996521 0
1 0.32562786340713501 0
0.21632903814315796 0.29409897327423096 0.15845616161823273
0.23452867567539215 0.29839441180229187 0.16244778037071228
0.25193530321121216 0.30327931046485901 0.16517801582813263
0.26270344853401184 0.3125702440738678 0.15862998366355896
0.26517000794410706 0.32701146602630615 0.13821183145046234
0.26303055882453918 0.34812381863594055 0.10063882172107697
0.26331380009651184 0.36870086193084717 0.053230036050081253
0.27337855100631714 0.38566285371780396 0.012823182158172131
0.29584777355194092 0.39439421892166138 0.00024963935720734298
0.32838240265846252 0.3938746452331543 0
0.36213743686676025 0.39246359467506409 0
0.39702454209327698 0.39089328050613403 0
0.43123123049736023 0.38900387287139893 0
0.46671298146247864 0.38765004277229309 0
0.50228577852249146 0.38548377156257629 0
0.53668308258056641 0.38426882028579712 0
0.57145583629608154 0.38240396976470947 0
0.60598838329315186 0.38084182143211365 0
0.63937199115753174 0.3794904351234436 0
0.67373883724212646 0.37753218412399292 0
0.70791393518447876 0.37638300657272339 0
0.7415880560874939 0.37442120909690857 0
0.77655231952667236 0.37291142344474792 0
0.8105393648147583 0.37145122885704041 0
0.84468954801559448 0.36942180991172791 0
0.87916684150695801 0.36832669377326965 0
0.91319364309310913 0.36622822284698486 0
0.94804513454437256 0.36492523550987244 0
0.98305577039718628 0.3632386326789856 0
0.99993199110031128 0.36139366030693054 0
1 0.36028572916984558 0
1 0.35811072587966919 0
1 0.35703828930854797 0
0.2259286642074585 0.31203782558441162 0.16577635705471039
0.24398112297058105 0.31628626585006714 0.16958943009376526
0.26164928078651428 0.32078278064727783 0.17296497523784637
0.27397644519805908 0.32912561297416687 0.16864022612571716
0.28163051605224609 0.34085831046104431 0.15745826065540314
0.28102192282676697 0.36080864071846008 0.12437247484922409
0.27820956707000732 0.38389745354652405 0.0795130655169487
0.28454104065895081 0.4032742977142334 0.037179227918386459
0.30070340633392334 0.41718778014183044 0.0059815286658704281
0.3254077136516571 0.42464452981948853 2.0568651962094009e-05
0.35903444886207581 0.42325320839881897 0
0.39315798878669739 0.42210358381271362 0
0.42717927694320679 0.42007043957710266 0
0.46177089214324951 0.41870379447937012 0
0.49746876955032349 0.41696324944496155 0
0.53241240978240967 0.41513168811798096 0
0.56742513179779053 0.41384372115135193 0
0.60196083784103394 0.41176080703735352 0
0.63599479198455811 0.41064736247062683 0
0.67018860578536987 0.4088720977306366 0
0.70371079444885254 0.40720266103744507 0
0.73744046688079834 0.40599352121353149 0
0.77140527963638306 0.40391263365745544 0
0.80539220571517944 0.40279453992843628 0
0.83954393863677979 0.40094396471977234 0
0.87405258417129517 0.39928916096687317 0
0.90809363126754761 0.39800283312797546 0
0.94265693426132202 0.39587166905403137 0
0.97714656591415405 0.39487487077713013 0
0.99937433004379272 0.39291787147521973 0
1 0.39137917757034302 0
1 0.39003720879554749 0
1 0.38794788718223572 0
0.23545226454734802 0.32998958230018616 0.17299774289131165
0.25374570488929749 0.33433219790458679 0.17696027457714081
0.27192351222038269 0.33858060836791992 0.1810338944196701
0.28866264224052429 0.34353318810462952 0.18309116363525391
0.298500657081604 0.3535635769367218 0.17552627623081207
0.2981145977973938 0.37335923314094543 0.14786067605018616
0.29450812935829163 0.39716321229934692 0.10527428984642029
0.29618406295776367 0.42001903057098389 0.061464473605155945
0.30780994892120361 0.43773829936981201 0.020502878352999687
0.32744771242141724 0.44983547925949097 0.001461038482375443
0.35546541213989258 0.4543800950050354 0
0.38975551724433899 0.45313069224357605 0
0.42346140742301941 0.45158421993255615 0
0.45759806036949158 0.44974938035011292 0
0.49224627017974854 0.44853448867797852 0
0.52732580900192261 0.44650807976722717 0
0.56282073259353638 0.44522553682327271 0
0.59771245718002319 0.44348549842834473 0
0.63196974992752075 0.441709965467453 0
0.66667848825454712 0.44053110480308533 0
0.70026880502700806 0.43862143158912659 0
0.73374974727630615 0.43742817640304565 0
0.76774042844772339 0.43567845225334167 0
0.80114388465881348 0.43390220403671265 0
0.83529418706893921 0.43276572227478027 0
0.86963516473770142 0.43069806694984436 0
0.90334987640380859 0.42952942848205566 0
0.9376634955406189 0.42779147624969482 0
0.97197717428207397 0.42598438262939453 0
0.99801194667816162 0.42490041255950928 0
1 0.42281201481819153 0
1 0.421642005443573 0
