Textures/13.cube
# Created by: G'MIC (https://gmic.eu)
TITLE "FoggyNight.cube"
# LUT size
LUT_3D_SIZE 33
# Data domain
DOMAIN_MIN 0.0 0.0 0.0
DOMAIN_MAX 1.0 1.0 1.0
# LUT data points
0.10402246564626694 0.13988745212554932 0.20299388468265533
0.10789215564727783 0.13796915113925934 0.20036482810974121
0.11214878410100937 0.13632106781005859 0.19952701032161713
0.12249165028333664 0.13344570994377136 0.19853824377059937
0.13482935726642609 0.13059051334857941 0.19687178730964661
0.14795564115047455 0.13147152960300446 0.19783225655555725
0.1601729542016983 0.13325150310993195 0.19841036200523376
0.16912092268466949 0.13164156675338745 0.19560907781124115
0.17946864664554596 0.12990060448646545 0.19203494489192963
0.18996728956699371 0.13090170919895172 0.18924731016159058
0.19921959936618805 0.13320042192935944 0.18690505623817444
0.20737239718437195 0.13333301246166229 0.18248759210109711
0.21491025388240814 0.13339230418205261 0.17823459208011627
0.22404813766479492 0.13525363802909851 0.17792879045009613
0.23380698263645172 0.13721209764480591 0.17718522250652313
0.24174501001834869 0.137254998087883 0.17338141798973083
0.24929723143577576 0.14011408388614655 0.17027896642684937
0.25676390528678894 0.14121970534324646 0.17033948004245758
0.26253587007522583 0.14131489396095276 0.17029654979705811
0.27142158150672913 0.14251615107059479 0.16987565159797668
0.28315752744674683 0.14472903311252594 0.17011244595050812
0.2936377227306366 0.14822967350482941 0.17207661271095276
0.30163112282752991 0.15199722349643707 0.17410466074943542
0.3111385703086853 0.15635402500629425 0.17676906287670135
0.32213988900184631 0.16218115389347076 0.18208488821983337
0.33460095524787903 0.16696929931640625 0.1840936541557312
0.34626641869544983 0.17123487591743469 0.18438561260700226
0.35880908370018005 0.1756470650434494 0.18720851838588715
0.3744487464427948 0.18178106844425201 0.191049724817276
0.38913804292678833 0.18933649361133575 0.19453853368759155
0.40245100855827332 0.197029709815979 0.19680012762546539
0.41800233721733093 0.20519299805164337 0.20074447989463806
0.43270257115364075 0.21517777442932129 0.20470419526100159
0.10137844830751419 0.14196206629276276 0.20036482810974121
0.1105351522564888 0.14120984077453613 0.19734330475330353
0.11608282476663589 0.14023759961128235 0.19646270573139191
0.12324339151382446 0.13850410282611847 0.1968521773815155
0.13447363674640656 0.13577543199062347 0.19479271769523621
0.14766305685043335 0.13542613387107849 0.19382500648498535
0.15959446132183075 0.13630229234695435 0.19467955827713013
0.16630317270755768 0.13499779999256134 0.19317460060119629
0.1757654994726181 0.13364340364933014 0.19016578793525696
0.18813046813011169 0.13296672701835632 0.18701419234275818
0.19864112138748169 0.13327513635158539 0.18384765088558197
0.20699054002761841 0.13333301246166229 0.1793125718832016
0.21479442715644836 0.13473241031169891 0.17566908895969391
0.2233659029006958 0.13796839118003845 0.17709849774837494
0.23184418678283691 0.14005039632320404 0.17696952819824219
0.23985405266284943 0.13895681500434875 0.1733439713716507
0.24773591756820679 0.14029106497764587 0.1703905463218689
0.25578466057777405 0.14264453947544098 0.17136210203170776
0.26253587007522583 0.14465633034706116 0.17194576561450958
0.27084356546401978 0.14580729603767395 0.17064684629440308
0.28136745095252991 0.14679162204265594 0.17021463811397552
0.29375001788139343 0.14969862997531891 0.17403332889080048
0.30472171306610107 0.15357598662376404 0.1775316447019577
0.31317123770713806 0.15758286416530609 0.17737613618373871
0.32253539562225342 0.16266331076622009 0.17894069850444794
0.33502572774887085 0.1681591272354126 0.18158984184265137
0.3473648726940155 0.17308692634105682 0.1826530247926712
0.35895729064941406 0.17692878842353821 0.18567471206188202
0.37124958634376526 0.18178106844425201 0.18946617841720581
0.38674134016036987 0.18933647871017456 0.19325584173202515
0.40239992737770081 0.197029709815979 0.19643580913543701
0.41930276155471802 0.20577006042003632 0.20211635529994965
0.43513888120651245 0.21629908680915833 0.20944558084011078
0.096690036356449127 0.14531610906124115 0.1976647675037384
0.10725072771310806 0.14450392127037048 0.19417819380760193
0.11844230443239212 0.14422227442264557 0.19134315848350525
0.1260676234960556 0.14294438064098358 0.19106744229793549
0.134095698595047 0.14110304415225983 0.19104619324207306
0.14708615839481354 0.14052595198154449 0.19070132076740265
0.15899965167045593 0.14053532481193542 0.19064514338970184
0.16578832268714905 0.13976429402828217 0.18934950232505798
0.17291921377182007 0.13829150795936584 0.18706284463405609
0.18519148230552673 0.13667581975460052 0.1834324449300766
0.19769775867462158 0.1352902352809906 0.18042255938053131
0.20638424158096313 0.13576054573059082 0.17805901169776917
0.21425287425518036 0.13800604641437531 0.17481543123722076
0.22285720705986023 0.14072996377944946 0.17510877549648285
0.23037305474281311 0.14358116686344147 0.17629833519458771
0.23829090595245361 0.14164499938488007 0.17350396513938904
0.24619795382022858 0.14128981530666351 0.17045648396015167
0.25431668758392334 0.14422938227653503 0.17131035029888153
0.2622983455657959 0.14781717956066132 0.17330455780029297
0.27154895663261414 0.14994548261165619 0.1731039434671402
0.28118196129798889 0.15024828910827637 0.17161722481250763
0.29185289144515991 0.15274834632873535 0.17470407485961914
0.30540600419044495 0.15637317299842834 0.17981739342212677
0.31488585472106934 0.15941914916038513 0.179369255900383
0.32328438758850098 0.16313314437866211 0.17787417769432068
0.3344271183013916 0.16864760220050812 0.17956455051898956
0.34756255149841309 0.17462915182113647 0.18154001235961914
0.36080101132392883 0.17997349798679352 0.18470072746276855
0.37073159217834473 0.18390363454818726 0.18851004540920258
0.38513079285621643 0.19084073603153229 0.19320806860923767
0.40236929059028625 0.19850161671638489 0.1970556378364563
0.41940867900848389 0.20678099989891052 0.20255281031131744
0.43639892339706421 0.21789319813251495 0.21150387823581696
0.089235655963420868 0.15073885023593903 0.19233252108097076
0.099725276231765747 0.14949144423007965 0.18883855640888214
0.11235374957323074 0.14869117736816406 0.18504506349563599
0.12358364462852478 0.14704214036464691 0.18173335492610931
0.13246788084506989 0.14545933902263641 0.18171915411949158
0.14523324370384216 0.14509943127632141 0.18321165442466736
0.15718075633049011 0.14531682431697845 0.18347631394863129
0.16414928436279297 0.14544804394245148 0.18340754508972168
0.17132648825645447 0.14389023184776306 0.18136152625083923
0.1814543753862381 0.14220370352268219 0.17759221792221069
0.19283109903335571 0.14054481685161591 0.17535692453384399
0.20334266126155853 0.14197789132595062 0.17687438428401947
0.21250107884407043 0.14355067908763885 0.17523665726184845
0.22290004789829254 0.14521148800849915 0.17392013967037201
0.23191477358341217 0.14717580378055573 0.17458102107048035
0.23839689791202545 0.14483673870563507 0.17228713631629944
0.24580708146095276 0.14296872913837433 0.16902311146259308
0.25506687164306641 0.14712916314601898 0.16992481052875519
0.26340889930725098 0.1516830176115036 0.17178429663181305
0.27357023954391479 0.15462930500507355 0.17437009513378143
0.28279560804367065 0.15533778071403503 0.17519114911556244
0.29108640551567078 0.15794980525970459 0.17670260369777679
0.302093505859375 0.16055683791637421 0.1804673969745636
0.3134104311466217 0.16250680387020111 0.179316446185112
0.32319077849388123 0.16533567011356354 0.17756527662277222
0.33358442783355713 0.17057611048221588 0.18074721097946167
0.34593403339385986 0.17667339742183685 0.18455277383327484
0.36044546961784363 0.1836993545293808 0.18710224330425262
0.37276178598403931 0.18962578475475311 0.19009928405284882
0.38568118214607239 0.19617186486721039 0.19575785100460052
0.40305736660957336 0.20386385917663574 0.2008073478937149
0.42141801118850708 0.21097467839717865 0.20491853356361389
0.43926173448562622 0.21890521049499512 0.21073713898658752
0.08495563268661499 0.15647721290588379 0.18748663365840912
0.095293052494525909 0.15510623157024384 0.18404887616634369
0.10688791424036026 0.15391343832015991 0.18039464950561523
0.11899429559707642 0.1522202342748642 0.17685706913471222
0.12983429431915283 0.15038760006427765 0.17371891438961029
0.14260378479957581 0.1497533917427063 0.17448900640010834
0.15503740310668945 0.14968819916248322 0.17627859115600586
0.16261221468448639 0.14970993995666504 0.17644006013870239
0.169552281498909 0.14966833591461182 0.17626622319221497
0.17964516580104828 0.14829596877098083 0.17359422147274017
0.18882472813129425 0.14681021869182587 0.17099910974502563
0.19932590425014496 0.14756116271018982 0.1726861298084259
0.21004392206668854 0.14920562505722046 0.17396156489849091
0.22065520286560059 0.14953157305717468 0.17340013384819031
0.23178811371326447 0.15173564851284027 0.17357802391052246
0.23928028345108032 0.15015926957130432 0.17182964086532593
0.24594628810882568 0.14722073078155518 0.16828550398349762
0.25567740201950073 0.15037402510643005 0.16871803998947144
0.26496440172195435 0.15561701357364655 0.17051184177398682
0.27408510446548462 0.15851259231567383 0.17256659269332886
0.28381833434104919 0.16032284498214722 0.17627568542957306
0.29296019673347473 0.16304272413253784 0.17856603860855103
0.3010772168636322 0.16529916226863861 0.18048182129859924
0.31175833940505981 0.16709256172180176 0.17986029386520386
0.32294619083404541 0.16925188899040222 0.1782020777463913
0.33447813987731934 0.17386823892593384 0.181439608335495
0.34618464112281799 0.17962631583213806 0.18694166839122772
0.35963854193687439 0.1863713264465332 0.19085566699504852
0.37351572513580322 0.19399185478687286 0.19323109090328217
0.38866379857063293 0.20154450833797455 0.19762641191482544
0.40588617324829102 0.20919361710548401 0.20342892408370972
0.42335915565490723 0.21749906241893768 0.2083023339509964
0.44035956263542175 0.22335699200630188 0.21226724982261658
0.08800061047077179 0.16263149678707123 0.18301209807395935
0.095218688249588013 0.16264286637306213 0.18039815127849579
0.1058204248547554 0.16173902153968811 0.17729352414608002
0.1175210252404213 0.16097146272659302 0.1756654679775238
0.12769414484500885 0.15943761169910431 0.17195324599742889
0.13779729604721069 0.15630944073200226 0.16665337979793549
0.15038755536079407 0.15523809194564819 0.16698569059371948
0.16126765310764313 0.15490204095840454 0.1685410737991333
0.1692417711019516 0.15520167350769043 0.16958695650100708
0.18030129373073578 0.15532797574996948 0.17057590186595917
0.18975423276424408 0.15403957664966583 0.16893728077411652
0.19820985198020935 0.15373963117599487 0.17028138041496277
0.20804938673973083 0.15472500026226044 0.17170900106430054
0.21584022045135498 0.15348745882511139 0.17177107930183411
0.22549577057361603 0.15428097546100616 0.17220330238342285
0.23668357729911804 0.15761008858680725 0.17368452250957489
0.24585328996181488 0.15681850910186768 0.17178340256214142
0.25663936138153076 0.15696004033088684 0.17092342674732208
0.26676046848297119 0.15982337296009064 0.17170284688472748
0.27357456088066101 0.16235150396823883 0.17256154119968414
0.28215351700782776 0.16440296173095703 0.17556291818618774
0.29383623600006104 0.16790209710597992 0.17768579721450806
0.30440044403076172 0.17063243687152863 0.17871616780757904
0.31460851430892944 0.17309695482254028 0.17952778935432434
0.32603153586387634 0.17524059116840363 0.17895887792110443
0.33808714151382446 0.17953298985958099 0.18224000930786133
0.34994512796401978 0.18508480489253998 0.18885527551174164
0.36266237497329712 0.19170661270618439 0.19376865029335022
0.37540748715400696 0.19924728572368622 0.19699880480766296
0.38946202397346497 0.20682615041732788 0.20067949593067169
0.40689593553543091 0.2148992121219635 0.20645718276500702
0.4234791100025177 0.22438257932662964 0.2117888480424881
0.44035956263542175 0.23247510194778442 0.21568731963634491
0.090891517698764801 0.16863098740577698 0.17792561650276184
0.096181340515613556 0.16838207840919495 0.17585703730583191
0.10359177738428116 0.16901871562004089 0.17356488108634949
0.11432458460330963 0.16928087174892426 0.17266988754272461
0.12552313506603241 0.16845598816871643 0.17087818682193756
0.13492877781391144 0.16482464969158173 0.16419081389904022
0.14573951065540314 0.16183821856975555 0.15926751494407654
0.15760891139507294 0.16143785417079926 0.16061499714851379
0.16871137917041779 0.16138778626918793 0.16225190460681915
0.17967230081558228 0.1610121876001358 0.16377164423465729
0.19081316888332367 0.16113552451133728 0.16548672318458557
0.19951190054416656 0.16123189032077789 0.16730426251888275
0.20731772482395172 0.16087652742862701 0.16920363903045654
0.2142309695482254 0.15948601067066193 0.16985781490802765
0.22081838548183441 0.15822789072990417 0.1700645387172699
0.23140551149845123 0.16087701916694641 0.1717296838760376
0.24455977976322174 0.16425928473472595 0.17362368106842041
0.25634688138961792 0.16535933315753937 0.17429892718791962
0.26738414168357849 0.16575361788272858 0.17413079738616943
0.27582037448883057 0.16743235290050507 0.17440153658390045
0.28171658515930176 0.16969943046569824 0.17656463384628296
0.29280999302864075 0.17308680713176727 0.17817211151123047
0.30638852715492249 0.17680835723876953 0.17829029262065887
0.31778207421302795 0.1798902302980423 0.17900094389915466
0.32911404967308044 0.18209438025951385 0.17916753888130188
0.34190499782562256 0.18574798107147217 0.18256062269210815
0.35371217131614685 0.19169041514396667 0.18987183272838593
0.36628496646881104 0.19807234406471252 0.19553963840007782
0.37832078337669373 0.20611284673213959 0.19942724704742432
0.39281237125396729 0.21336744725704193 0.2040601521730423
0.40997102856636047 0.22112599015235901 0.2098071277141571
0.42648014426231384 0.23042397201061249 0.21568788588047028
0.4415401816368103 0.24014519155025482 0.21988150477409363
0.091933436691761017 0.17611846327781677 0.17525561153888702
0.095258995890617371 0.17439596354961395 0.17261514067649841
0.10120853036642075 0.17493726313114166 0.16966433823108673
0.11141445487737656 0.17687934637069702 0.16662044823169708
0.12262177467346191 0.17596419155597687 0.16492274403572083
0.13202296197414398 0.1732880026102066 0.1610962301492691
0.14232021570205688 0.17053051292896271 0.15646342933177948
0.15538372099399567 0.16954120993614197 0.1564914733171463
0.16648992896080017 0.16856765747070312 0.15749585628509521
0.17573243379592896 0.16691330075263977 0.15780165791511536
0.18672527372837067 0.16673889756202698 0.1597093790769577
0.1999184638261795 0.16722430288791656 0.16270531713962555
0.2089812159538269 0.16705459356307983 0.16505447030067444
0.21645504236221313 0.16746832430362701 0.16674381494522095
0.22314140200614929 0.16717886924743652 0.1674579530954361
0.23108735680580139 0.1667943000793457 0.16943320631980896
0.24305136501789093 0.16889534890651703 0.17150688171386719
0.25464260578155518 0.17266978323459625 0.17475681006908417
0.26583746075630188 0.1747979074716568 0.17592929303646088
0.27603632211685181 0.17642928659915924 0.17639748752117157
0.28361836075782776 0.17854326963424683 0.17804594337940216
0.29338029026985168 0.18092712759971619 0.17892603576183319
0.30643373727798462 0.18322071433067322 0.17861047387123108
0.31838476657867432 0.18816109001636505 0.18074828386306763
0.32960134744644165 0.19241686165332794 0.18313674628734589
0.34415075182914734 0.19522163271903992 0.18450169265270233
0.35756611824035645 0.19930042326450348 0.18884769082069397
0.37042659521102905 0.20629101991653442 0.19535697996616364
0.38318890333175659 0.2142290472984314 0.19993945956230164
0.39733809232711792 0.22101017832756042 0.20529769361019135
0.41358315944671631 0.22869463264942169 0.21156823635101318
0.42956775426864624 0.23766618967056274 0.21883039176464081
0.44430392980575562 0.24642936885356903 0.22393782436847687
0.09352816641330719 0.18406040966510773 0.1736183762550354
0.096012488007545471 0.18257938325405121 0.1704147607088089
0.099727123975753784 0.18134024739265442 0.16678458452224731
0.10948861390352249 0.1828160285949707 0.1630825400352478
0.12088948488235474 0.18327656388282776 0.15934957563877106
0.12965300679206848 0.18176190555095673 0.15641441941261292
0.13882562518119812 0.18045291304588318 0.15523871779441833
0.15156014263629913 0.17887476086616516 0.15514715015888214
0.16444207727909088 0.17692005634307861 0.1549161821603775
0.17369617521762848 0.17512436211109161 0.15467901527881622
0.1824067234992981 0.17353639006614685 0.15506947040557861
0.19569465517997742 0.17414237558841705 0.15790942311286926
0.20942723751068115 0.17422278225421906 0.16133032739162445
0.21810385584831238 0.17474374175071716 0.1634320467710495
0.22620710730552673 0.17635887861251831 0.16539579629898071
0.23450398445129395 0.17564135789871216 0.16736510396003723
0.24305820465087891 0.174533411860466 0.16981811821460724
0.25349250435829163 0.1779567152261734 0.17285960912704468
0.26485848426818848 0.18313775956630707 0.17642807960510254
0.27479839324951172 0.18551142513751984 0.1779603511095047
0.2847602367401123 0.18760542571544647 0.18031157553195953
0.29567241668701172 0.19008955359458923 0.18143342435359955
0.30709078907966614 0.19064387679100037 0.17992390692234039
0.31910732388496399 0.19560521841049194 0.18211707472801208
0.33053329586982727 0.20258384943008423 0.18726906180381775
0.34441366791725159 0.20652894675731659 0.18975014984607697
0.36021193861961365 0.20871154963970184 0.19026559591293335
0.37393072247505188 0.21475175023078918 0.1947953999042511
0.38768446445465088 0.22165988385677338 0.20059376955032349
0.40301606059074402 0.22955524921417236 0.20639309287071228
0.41867956519126892 0.23739907145500183 0.21374021470546722
0.43419948220252991 0.2463817298412323 0.2209383100271225
0.44802606105804443 0.25443252921104431 0.22693884372711182
0.093362770974636078 0.1902812272310257 0.1732877790927887
0.097467184066772461 0.19151341915130615 0.17113280296325684
0.1003967821598053 0.19013987481594086 0.16777285933494568
0.10658889263868332 0.18927010893821716 0.16423855721950531
0.11724258959293365 0.18970575928688049 0.16011625528335571
0.12865309417247772 0.18937899172306061 0.15626399219036102
0.13778975605964661 0.1890522688627243 0.15512670576572418
0.14888313412666321 0.18847186863422394 0.15555906295776367
0.16267155110836029 0.18661662936210632 0.15550993382930756
0.17548179626464844 0.18466266989707947 0.15436443686485291
0.18403823673725128 0.18333336710929871 0.15437261760234833
0.19322022795677185 0.18333336710929871 0.15541674196720123
0.20609314739704132 0.18333336710929871 0.15803734958171844
0.21728390455245972 0.18333336710929871 0.16098864376544952
0.22655563056468964 0.18455034494400024 0.16348868608474731
0.23740065097808838 0.1845877468585968 0.16657276451587677
0.24642308056354523 0.18337079882621765 0.16908377408981323
0.255790114402771 0.18517152965068817 0.17106874287128448
0.2663256824016571 0.18948793411254883 0.17423157393932343
0.27636426687240601 0.19180110096931458 0.17796090245246887
0.28607356548309326 0.19412057101726532 0.18089532852172852
0.29722106456756592 0.19705280661582947 0.18471913039684296
0.30802622437477112 0.19841204583644867 0.18487633764743805
0.32134214043617249 0.20476402342319489 0.18644259870052338
0.33411118388175964 0.21279473602771759 0.19111765921115875
0.34655722975730896 0.21652014553546906 0.1945611834526062
0.36126422882080078 0.2186819314956665 0.19547878205776215
0.37467086315155029 0.22352449595928192 0.19980074465274811
0.39019870758056641 0.23026657104492188 0.20553502440452576
0.40685397386550903 0.23851244151592255 0.21061895787715912
0.42331820726394653 0.24648438394069672 0.21638029813766479
0.44055050611495972 0.255941241979599 0.22366888821125031
0.45766207575798035 0.26550039649009705 0.23016765713691711
0.094083972275257111 0.19654202461242676 0.1732877790927887
0.097896277904510498 0.19839441776275635 0.17154636979103088
0.10264191031455994 0.1995423436164856 0.16989032924175262
0.1070961058139801 0.1976424902677536 0.16650833189487457
0.11309511959552765 0.19586384296417236 0.16186961531639099
0.125015988945961 0.19575148820877075 0.15722031891345978
0.13741876184940338 0.19575150310993195 0.15512670576572418
0.14825902879238129 0.19575148820877075 0.15588247776031494
0.16055293381214142 0.19573104381561279 0.15744304656982422
0.17426674067974091 0.19413283467292786 0.15553782880306244
0.18672201037406921 0.19242160022258759 0.15443699061870575
0.19564685225486755 0.19224180281162262 0.15506544709205627
0.2040860503911972 0.19207875430583954 0.15511244535446167
0.2150837630033493 0.19182994961738586 0.15761220455169678
0.22660914063453674 0.19233538210391998 0.16126896440982819
0.23785552382469177 0.19272851943969727 0.16499452292919159
0.24927744269371033 0.19299222528934479 0.16877102851867676
0.25905758142471313 0.1947607547044754 0.17108222842216492
0.26873922348022461 0.19669662415981293 0.17334307730197906
0.27893736958503723 0.19879452884197235 0.17684273421764374
0.28858566284179688 0.20054280757904053 0.18069334328174591
0.29937967658042908 0.2035372257232666 0.18477056920528412
0.30955949425697327 0.20570547878742218 0.18843333423137665
0.32285052537918091 0.21213088929653168 0.19174449145793915
0.33776938915252686 0.22175510227680206 0.19552531838417053
0.35047045350074768 0.22637075185775757 0.198812335729599
0.36238884925842285 0.22845128178596497 0.20090818405151367
0.37664887309074402 0.23347128927707672 0.20541645586490631
0.39278098940849304 0.23951840400695801 0.21118554472923279
0.4095916748046875 0.24699226021766663 0.21629598736763
0.42687621712684631 0.25491335988044739 0.22030806541442871
0.44520735740661621 0.26432260870933533 0.22684699296951294
0.46580851078033447 0.27554899454116821 0.23423458635807037
0.099816255271434784 0.20442874729633331 0.1732877790927887
0.10182619839906693 0.20580372214317322 0.17154636979103088
0.10682756453752518 0.20752401649951935 0.17077711224555969
0.11292731761932373 0.20736505091190338 0.17055517435073853
0.11745394021272659 0.20570334792137146 0.16580460965633392
0.12401352822780609 0.20509105920791626 0.15789468586444855
0.13547675311565399 0.20538309216499329 0.15512670576572418
0.14601202309131622 0.204790860414505 0.15588247776031494
0.15741908550262451 0.20441901683807373 0.15778881311416626
0.17044702172279358 0.20378044247627258 0.15739141404628754
0.18414972722530365 0.20249837636947632 0.15691941976547241
0.19712509214878082 0.20355111360549927 0.15611971914768219
0.20591583847999573 0.20368912816047668 0.15557129681110382
0.21623960137367249 0.20271328091621399 0.1556745320558548
0.22785627841949463 0.20254479348659515 0.15890921652317047
0.23788854479789734 0.2041974812746048 0.16247506439685822
0.24849095940589905 0.20459567010402679 0.1661040335893631
0.26019567251205444 0.20521305501461029 0.17049582302570343
0.27078348398208618 0.20678152143955231 0.17377462983131409
0.28264704346656799 0.20858953893184662 0.17708736658096313
0.29298758506774902 0.21062065660953522 0.18108098208904266
0.30367317795753479 0.21333503723144531 0.18389290571212769
0.31477668881416321 0.21620887517929077 0.18734584748744965
0.32892543077468872 0.22226367890834808 0.19436918199062347
0.34468820691108704 0.23075909912586212 0.20080007612705231
0.35657137632369995 0.23740366101264954 0.20467767119407654
0.36761143803596497 0.2408839613199234 0.20730075240135193
0.38305544853210449 0.24632108211517334 0.2119433581829071
0.39930611848831177 0.25213783979415894 0.21782393753528595
0.41604098677635193 0.25994539260864258 0.22299022972583771
0.43339979648590088 0.26853138208389282 0.22699622809886932
0.45268610119819641 0.27755981683731079 0.23392380774021149
0.47346857190132141 0.28803059458732605 0.24161413311958313
0.10756591707468033 0.21272796392440796 0.17378945648670197
0.10915336757898331 0.21403361856937408 0.17204806208610535
0.11261329054832458 0.2153996080160141 0.1707271933555603
