Textures/13.cube
# Created by: G'MIC (https://gmic.eu)
TITLE "FoggyNight.cube"
# LUT size
LUT_3D_SIZE 5
# Data domain
DOMAIN_MIN 0.0 0.0 0.0
DOMAIN_MAX 1.0 1.0 1.0
# LUT data points
0.10402246564626694 0.13988745212554932 0.20299388468265533
0.17946864664554596 0.12990060448646545 0.19203494489192963
0.24929723143577576 0.14011408388614655 0.17027896642684937
0.32213988900184631 0.16218115389347076 0.18208488821983337
0.43270257115364075 0.21517777442932129 0.20470419526100159
0.09352816641330719 0.18406040966510773 0.1736183762550354
0.16444207727909088 0.17692005634307861 0.1549161821603775
0.24305820465087891 0.174533411860466 0.16981811821460724
0.33053329586982727 0.20258384943008423 0.18726906180381775
0.44802606105804443 0.25443252921104431 0.22693884372711182
0.1328648179769516 0.25927338004112244 0.18942956626415253
0.17044781148433685 0.26522642374038696 0.17292840778827667
0.27064454555511475 0.27399492263793945 0.17712719738483429
0.38555720448493958 0.30223429203033447 0.22150954604148865
0.52723228931427002 0.37166520953178406 0.28151586651802063
0.27842170000076294 0.44438701868057251 0.28204208612442017
0.31670087575912476 0.4598032534122467 0.27604633569717407
0.39867118000984192 0.48013293743133545 0.27843892574310303
0.54428952932357788 0.52739506959915161 0.31396692991256714
0.73579281568527222 0.62094682455062866 0.39865097403526306
0.64475345611572266 0.84289222955703735 0.53234606981277466
0.66127675771713257 0.8534858226776123 0.52952390909194946
0.73137491941452026 0.8887285590171814 0.52759897708892822
0.87290322780609131 0.93482255935668945 0.56387341022491455
0.99488353729248047 0.9629630446434021 0.58466649055480957
0.080314993858337402 0.13296546041965485 0.2896658182144165
0.16043218970298767 0.13325177133083344 0.25835627317428589
0.23273324966430664 0.14160738885402679 0.23968927562236786
0.30792301893234253 0.16455714404582977 0.23864515125751495
0.42467325925827026 0.21901386976242065 0.26484993100166321
0.089481770992279053 0.18291094899177551 0.23926606774330139
0.14519672095775604 0.1742442399263382 0.23646619915962219
0.22599750757217407 0.18115785717964172 0.24337035417556763
0.3212151825428009 0.20311886072158813 0.24756312370300293
0.45129328966140747 0.25645145773887634 0.27874889969825745
0.14352394640445709 0.25811794400215149 0.24980294704437256
0.17436407506465912 0.26324933767318726 0.24862219393253326
0.26852613687515259 0.27438828349113464 0.23721309006214142
0.37719231843948364 0.30800053477287292 0.27575337886810303
0.52260482311248779 0.37658804655075073 0.33407336473464966
0.29673022031784058 0.44705209136009216 0.34365037083625793
0.32062983512878418 0.45675614476203918 0.34448760747909546
0.39250603318214417 0.48392689228057861 0.32597649097442627
0.53892040252685547 0.52539569139480591 0.35948526859283447
0.73590636253356934 0.62680989503860474 0.44448238611221313
0.65045690536499023 0.84031391143798828 0.57579398155212402
0.67624074220657349 0.85678279399871826 0.57774108648300171
0.74431121349334717 0.89040464162826538 0.58294928073883057
0.86676830053329468 0.93684500455856323 0.60235249996185303
0.99401229619979858 0.96538472175598145 0.62769109010696411
0.089873045682907104 0.12631107866764069 0.36793842911720276
0.15178529918193817 0.13197125494480133 0.34628278017044067
0.21877461671829224 0.14844420552253723 0.30521026253700256
0.29715287685394287 0.17176824808120728 0.30811646580696106
0.41314598917961121 0.22726932168006897 0.34063771367073059
0.036482498049736023 0.17758253216743469 0.33119040727615356
0.1169646829366684 0.17701117694377899 0.32856371998786926
0.21693402528762817 0.18456870317459106 0.30584418773651123
0.30886873602867126 0.20800471305847168 0.31653785705566406
0.43530997633934021 0.26541951298713684 0.35309538245201111
0.13923166692256927 0.26130989193916321 0.31285414099693298
0.17714671790599823 0.26501014828681946 0.31710365414619446
0.25507733225822449 0.27917739748954773 0.33263266086578369
0.36955991387367249 0.31628870964050293 0.3626609742641449
0.52104532718658447 0.38814607262611389 0.40945714712142944
0.31192547082901001 0.45075127482414246 0.41204538941383362
0.3349359929561615 0.45508572459220886 0.42069816589355469
0.40741619467735291 0.48468425869941711 0.43559199571609497
0.54528766870498657 0.54604095220565796 0.45925083756446838
0.72914153337478638 0.63890725374221802 0.54047030210494995
0.68384313583374023 0.84002751111984253 0.65987199544906616
0.71472442150115967 0.85513359308242798 0.6764863133430481
0.77022111415863037 0.89337408542633057 0.68466639518737793
0.86962831020355225 0.94680541753768921 0.68509900569915771
0.99239104986190796 0.9651108980178833 0.70004260540008545
0.093447990715503693 0.12883636355400085 0.4399096667766571
0.14052806794643402 0.12992672622203827 0.42871972918510437
0.21668289601802826 0.14473362267017365 0.39667224884033203
0.29930561780929565 0.18096798658370972 0.37382122874259949
0.42029690742492676 0.2399604320526123 0.40632534027099609
0.054397128522396088 0.17672152817249298 0.41700279712677002
0.11706114560365677 0.17693541944026947 0.41536149382591248
0.21860109269618988 0.18158423900604248 0.40408334136009216
0.31274992227554321 0.21849964559078217 0.38902348279953003
0.44382184743881226 0.28115734457969666 0.42254120111465454
0.12663242220878601 0.26764029264450073 0.3951258659362793
0.15893729031085968 0.27186122536659241 0.41128751635551453
0.25336489081382751 0.28883400559425354 0.42736068367958069
0.37727713584899902 0.32739502191543579 0.43559738993644714
0.52437096834182739 0.4032931923866272 0.48246806859970093
0.33343502879142761 0.46131542325019836 0.4773191511631012
0.36084544658660889 0.46967092156410217 0.48261424899101257
0.4298718273639679 0.4962516725063324 0.50955480337142944
0.55163753032684326 0.55285543203353882 0.55479532480239868
0.73571771383285522 0.65817528963088989 0.64437669515609741
0.71144473552703857 0.86374735832214355 0.74666476249694824
0.73020786046981812 0.87488502264022827 0.75493931770324707
0.79027307033538818 0.89832347631454468 0.77380311489105225
0.88839036226272583 0.94802546501159668 0.81342285871505737
0.98366504907608032 0.96378409862518311 0.80005842447280884
0.089598849415779114 0.13203822076320648 0.51258498430252075
0.13398624956607819 0.13366411626338959 0.50556784868240356
0.21999619901180267 0.14682838320732117 0.487139493227005
0.31937262415885925 0.18308094143867493 0.47211667895317078
0.43549343943595886 0.2658810019493103 0.49067625403404236
0.064077988266944885 0.18049855530261993 0.5033530592918396
0.12477616220712662 0.17825023829936981 0.49563133716583252
0.22008685767650604 0.19175651669502258 0.4976411759853363
0.33398741483688354 0.22364553809165955 0.48912295699119568
0.4654923677444458 0.30724325776100159 0.50921541452407837
0.1104544922709465 0.28067305684089661 0.5105663537979126
0.15249261260032654 0.2838837206363678 0.51067870855331421
0.27117842435836792 0.30064597725868225 0.5246092677116394
0.39715582132339478 0.34026610851287842 0.54723948240280151
0.55179625749588013 0.42444422841072083 0.57458806037902832
0.35431632399559021 0.4864124059677124 0.57190817594528198
0.37636065483093262 0.49377650022506714 0.58106887340545654
0.44995585083961487 0.52504438161849976 0.6169356107711792
0.57722395658493042 0.58238077163696289 0.67279636859893799
0.77110564708709717 0.69033271074295044 0.72986841201782227
0.74371069669723511 0.88725495338439941 0.82488268613815308
0.77442449331283569 0.89818108081817627 0.83371102809906006
0.82951563596725464 0.92556959390640259 0.85599929094314575
0.9028053879737854 0.95139813423156738 0.88345640897750854
0.97911500930786133 0.96586114168167114 0.89574861526489258
