Textures/14.cube
# Created by: G'MIC (https://gmic.eu)
TITLE "FuturisticBleak1.cube"
# LUT size
LUT_3D_SIZE 33
# Data domain
DOMAIN_MIN 0.0 0.0 0.0
DOMAIN_MAX 1.0 1.0 1.0
# LUT data points
0.040595937520265579 0.053952790796756744 0.085532709956169128
0.056646626442670822 0.057329915463924408 0.087414383888244629
0.072748146951198578 0.06129610538482666 0.089742556214332581
0.086340084671974182 0.065230056643486023 0.09127333015203476
0.10204794257879257 0.070145174860954285 0.095809273421764374
0.125263512134552 0.077881991863250732 0.10635212808847427
0.15021070837974548 0.086644947528839111 0.11678704619407654
0.17229355871677399 0.097386963665485382 0.12187779694795609
0.19411242008209229 0.1086827740073204 0.12637588381767273
0.21910105645656586 0.1192798987030983 0.1331866979598999
0.24504798650741577 0.13036775588989258 0.1400797963142395
0.26888152956962585 0.14079120755195618 0.1435258686542511
0.29154834151268005 0.15031775832176208 0.146506667137146
0.31354829668998718 0.16229076683521271 0.15422247350215912
0.33518427610397339 0.17501106858253479 0.16309039294719696
0.35765993595123291 0.18367455899715424 0.16797783970832825
0.38061532378196716 0.19147840142250061 0.17207144200801849
0.40153765678405762 0.2017284631729126 0.17844854295253754
0.4224105179309845 0.21454647183418274 0.18531894683837891
0.44571444392204285 0.22571492195129395 0.19360038638114929
0.46840494871139526 0.23565173149108887 0.19954322278499603
0.4889075756072998 0.2465197741985321 0.20524358749389648
0.5123409628868103 0.25803837180137634 0.21323506534099579
0.53576737642288208 0.26905831694602966 0.22027334570884705
0.55645424127578735 0.2804168164730072 0.22613875567913055
0.58205175399780273 0.29248270392417908 0.23350568115711212
0.60666382312774658 0.30388107895851135 0.24284049868583679
0.6286013126373291 0.31394878029823303 0.24872767925262451
0.64989376068115234 0.3236350417137146 0.25279581546783447
0.67544728517532349 0.33426624536514282 0.2587149441242218
0.70433026552200317 0.34711858630180359 0.26807859539985657
0.72925817966461182 0.35923615097999573 0.27704212069511414
0.75210905075073242 0.36934900283813477 0.284810870885849
0.055302087217569351 0.072294637560844421 0.093185253441333771
0.065352767705917358 0.073837295174598694 0.093806616961956024
0.080788210034370422 0.07626420259475708 0.095781430602073669
0.098423086106777191 0.079062759876251221 0.095891788601875305
0.11467636376619339 0.083300046622753143 0.098669782280921936
0.13446028530597687 0.091789625585079193 0.10774961113929749
0.15819722414016724 0.10103609412908554 0.11780360341072083
0.18119482696056366 0.11100657284259796 0.12532395124435425
0.20322743058204651 0.12117451429367065 0.13026255369186401
0.22494252026081085 0.1293850839138031 0.13497167825698853
0.24949529767036438 0.13956363499164581 0.14073550701141357
0.27357381582260132 0.15068089962005615 0.14581677317619324
0.29612508416175842 0.16088300943374634 0.1497669517993927
0.31687963008880615 0.17074303328990936 0.1554432213306427
0.3376312255859375 0.18234929442405701 0.16320115327835083
0.35968360304832458 0.19100058078765869 0.16837884485721588
0.38250812888145447 0.1986345499753952 0.17253366112709045
0.40307104587554932 0.20704615116119385 0.17844854295253754
0.42270228266716003 0.21880094707012177 0.18540473282337189
0.44778510928153992 0.23090972006320953 0.19524058699607849
0.47184514999389648 0.24134707450866699 0.20242723822593689
0.48879987001419067 0.25203081965446472 0.20739303529262543
0.50866490602493286 0.26342764496803284 0.21356269717216492
0.53339487314224243 0.27310922741889954 0.22058473527431488
0.55641347169876099 0.2825491726398468 0.22773478925228119
0.58210968971252441 0.2949676513671875 0.23431824147701263
0.60759502649307251 0.30632087588310242 0.24162355065345764
0.62982094287872314 0.31675013899803162 0.24777631461620331
0.65067499876022339 0.32745271921157837 0.25387516617774963
0.67581051588058472 0.33613595366477966 0.25908434391021729
0.70441174507141113 0.34610295295715332 0.26521098613739014
0.72899848222732544 0.35945531725883484 0.27392548322677612
0.75111246109008789 0.37242910265922546 0.28364944458007812
0.068922199308872223 0.092851579189300537 0.10215708613395691
0.077940277755260468 0.09322250634431839 0.10246796160936356
0.089874885976314545 0.094742700457572937 0.1034143939614296
0.10818635672330856 0.097449593245983124 0.10327499359846115
0.12596115469932556 0.10034926235675812 0.10262639075517654
0.14437095820903778 0.10821205377578735 0.11002463847398758
0.16532912850379944 0.11792565882205963 0.11781807243824005
0.18913526833057404 0.1269209235906601 0.12405433505773544
0.21158026158809662 0.13593289256095886 0.13125285506248474
0.23250986635684967 0.14323104918003082 0.1362745612859726
0.25437027215957642 0.1509353369474411 0.14079131186008453
0.27783858776092529 0.16123785078525543 0.14700016379356384
0.30034300684928894 0.17219316959381104 0.15237230062484741
0.3204982578754425 0.18156035244464874 0.15777964890003204
0.34044793248176575 0.19120244681835175 0.16367997229099274
0.36223229765892029 0.19953452050685883 0.16874787211418152
0.38484779000282288 0.20743638277053833 0.17349782586097717
0.40344735980033875 0.21679411828517914 0.18023991584777832
0.42267030477523804 0.22603303194046021 0.18720105290412903
0.44653710722923279 0.23575542867183685 0.19510653614997864
0.47271269559860229 0.24773988127708435 0.20448142290115356
0.49310302734375 0.2595546543598175 0.21193929016590118
0.5095597505569458 0.270973801612854 0.21590159833431244
0.5320402979850769 0.27929297089576721 0.22065922617912292
0.55678766965866089 0.28722125291824341 0.22859413921833038
0.58216935396194458 0.29844221472740173 0.23672063648700714
0.60912883281707764 0.30985340476036072 0.24252580106258392
0.63148140907287598 0.31990841031074524 0.24742372334003448
0.65098029375076294 0.33116620779037476 0.25478923320770264
0.67610955238342285 0.34029862284660339 0.26152583956718445
0.70490837097167969 0.34811162948608398 0.2656596302986145
0.7304571270942688 0.35991811752319336 0.27182042598724365
0.75158035755157471 0.37504807114601135 0.28268268704414368
0.07903299480676651 0.11462848633527756 0.1119132861495018
0.088852077722549438 0.1160149946808815 0.11207085847854614
0.10106354951858521 0.11831095069646835 0.11361493170261383
0.11749893426895142 0.1235581710934639 0.11654017865657806
0.13378982245922089 0.12616537511348724 0.11572084575891495
0.1475086510181427 0.13059616088867188 0.11681168526411057
0.16719929873943329 0.13828471302986145 0.12184188514947891
0.19530051946640015 0.14507490396499634 0.12193547189235687
0.21905925869941711 0.15305528044700623 0.12749965488910675
0.23946623504161835 0.15910586714744568 0.13220933079719543
0.26127368211746216 0.16620300710201263 0.13634300231933594
0.28491848707199097 0.17317479848861694 0.14438733458518982
0.30739513039588928 0.18247826397418976 0.15017451345920563
0.32728096842765808 0.19161237776279449 0.15607050061225891
0.34701064229011536 0.20112855732440948 0.16260570287704468
0.36685633659362793 0.21019379794597626 0.16913361847400665
0.38780796527862549 0.21859133243560791 0.17526866495609283
0.40570169687271118 0.22870135307312012 0.1830814927816391
0.42402422428131104 0.23782859742641449 0.19013506174087524
0.4451042115688324 0.24552351236343384 0.19494812190532684
0.46942335367202759 0.25555437803268433 0.20311923325061798
0.49422359466552734 0.26907217502593994 0.21368679404258728
0.51506572961807251 0.28104415535926819 0.22023051977157593
0.53615975379943848 0.28850209712982178 0.22325755655765533
0.55936604738235474 0.2964230477809906 0.22984130680561066
0.58346432447433472 0.30678319931030273 0.23950739204883575
0.60947716236114502 0.31729522347450256 0.24633613228797913
0.63227134943008423 0.32688388228416443 0.25090426206588745
0.65250867605209351 0.33805397152900696 0.25854796171188354
0.67779016494750977 0.34681043028831482 0.26533102989196777
0.70682752132415771 0.35387054085731506 0.26943749189376831
0.73292559385299683 0.36516532301902771 0.27451425790786743
0.75529855489730835 0.37899661064147949 0.28304204344749451
0.089889444410800934 0.13746441900730133 0.12427698820829391
0.10021637380123138 0.13933493196964264 0.12424773722887039
0.11280365288257599 0.1419750303030014 0.12439242005348206
0.1279357522726059 0.1471763551235199 0.12754015624523163
0.14272250235080719 0.15194670855998993 0.13028465211391449
0.15481288731098175 0.15539035201072693 0.13063803315162659
0.16903764009475708 0.16023626923561096 0.13103403151035309
0.19620609283447266 0.16601821780204773 0.13020803034305573
0.22481673955917358 0.17147199809551239 0.12959124147891998
0.24623924493789673 0.17699931561946869 0.13212727010250092
0.26790788769721985 0.18271879851818085 0.13427357375621796
0.2915593683719635 0.18837939202785492 0.13993717730045319
0.31436949968338013 0.19456768035888672 0.1468595415353775
0.33517414331436157 0.2028467208147049 0.15317684412002563
0.35418149828910828 0.21236473321914673 0.16097874939441681
0.37330183386802673 0.2209097146987915 0.16816410422325134
0.3925325870513916 0.23046523332595825 0.17590945959091187
0.41144204139709473 0.23979079723358154 0.18385009467601776
0.4285813570022583 0.24924026429653168 0.19088068604469299
0.44807025790214539 0.25711110234260559 0.1963370144367218
0.4692375659942627 0.26523309946060181 0.20255465805530548
0.49253985285758972 0.27651256322860718 0.21254256367683411
0.51768964529037476 0.2895449697971344 0.22180953621864319
0.54068917036056519 0.2981221079826355 0.2271563857793808
0.56206512451171875 0.30585300922393799 0.23280775547027588
0.58559513092041016 0.31573668122291565 0.24089984595775604
0.61030608415603638 0.32534778118133545 0.24834902584552765
0.6336093544960022 0.33513331413269043 0.25507029891014099
0.65510433912277222 0.34633973240852356 0.262412428855896
0.67966675758361816 0.35516402125358582 0.26892265677452087
0.70854270458221436 0.36123019456863403 0.27303352952003479
0.73378252983093262 0.37104779481887817 0.27811938524246216
0.75658410787582397 0.3841673731803894 0.28510192036628723
0.10453847795724869 0.16591621935367584 0.1429046243429184
0.11504819244146347 0.16652274131774902 0.13953852653503418
0.12708911299705505 0.16821280121803284 0.13784110546112061
0.13986803591251373 0.17088119685649872 0.13871411979198456
0.15379607677459717 0.17536504566669464 0.14188975095748901
0.16596084833145142 0.18000936508178711 0.14466306567192078
0.17903906106948853 0.18463703989982605 0.14627118408679962
0.1976734846830368 0.1902935653924942 0.14823518693447113
0.22459611296653748 0.19536846876144409 0.1470891535282135
0.24680149555206299 0.19861218333244324 0.14608985185623169
0.26852816343307495 0.20314542949199677 0.14613623917102814
0.29282566905021667 0.20711104571819305 0.14512249827384949
0.31625476479530334 0.21258530020713806 0.14982956647872925
0.33998951315879822 0.21989676356315613 0.15481668710708618
0.36072906851768494 0.2287786602973938 0.16145364940166473
0.37908235192298889 0.23509286344051361 0.16733253002166748
0.3995530903339386 0.24271582067012787 0.1731366366147995
0.42260122299194336 0.25061234831809998 0.18081121146678925
0.44189894199371338 0.25930312275886536 0.18798728287220001
0.45773786306381226 0.26802724599838257 0.19446994364261627
0.47591763734817505 0.27560979127883911 0.20135748386383057
0.49703320860862732 0.28485652804374695 0.21190749108791351
0.52066779136657715 0.29706722497940063 0.2231113463640213
0.54451316595077515 0.30660131573677063 0.22945570945739746
0.56674742698669434 0.31441798806190491 0.23430980741977692
0.58929431438446045 0.32359209656715393 0.2411833256483078
0.61242687702178955 0.33308884501457214 0.24957087635993958
0.63650476932525635 0.34342974424362183 0.25729227066040039
0.65902829170227051 0.35479485988616943 0.26514580845832825
0.68285930156707764 0.36350294947624207 0.27217322587966919
0.7106248140335083 0.37075158953666687 0.27778562903404236
0.73439294099807739 0.37912258505821228 0.2820097804069519
0.75601273775100708 0.39039850234985352 0.28627154231071472
0.1217573806643486 0.19392471015453339 0.16080853343009949
0.13164564967155457 0.19410727918148041 0.15653671324253082
0.1427912563085556 0.19489841163158417 0.15233603119850159
0.15408614277839661 0.19665512442588806 0.15298496186733246
0.16532637178897858 0.19884741306304932 0.15462690591812134
0.17677026987075806 0.20341356098651886 0.15718932449817657
0.18916669487953186 0.2090059220790863 0.1613662987947464
0.20557674765586853 0.21450573205947876 0.16411255300045013
0.22466649115085602 0.22010631859302521 0.16567280888557434
0.24563831090927124 0.22322958707809448 0.16440550982952118
0.26689624786376953 0.22548548877239227 0.16226565837860107
0.29124590754508972 0.22857776284217834 0.15977883338928223
0.31557187438011169 0.23279978334903717 0.15904723107814789
0.33952414989471436 0.23914560675621033 0.16188068687915802
0.36431711912155151 0.24675995111465454 0.16571056842803955
0.38611075282096863 0.25243431329727173 0.16874590516090393
0.40739256143569946 0.25669112801551819 0.17196166515350342
0.4304870069026947 0.26286306977272034 0.1774611622095108
0.45433753728866577 0.27055692672729492 0.18480929732322693
0.47230410575866699 0.27818295359611511 0.19133681058883667
0.48664996027946472 0.28594779968261719 0.19907845556735992
0.50623029470443726 0.29499402642250061 0.20874194800853729
0.52796357870101929 0.30624508857727051 0.22193002700805664
0.55078893899917603 0.31544816493988037 0.23013192415237427
0.57388341426849365 0.32317608594894409 0.23430246114730835
0.59580153226852417 0.33228370547294617 0.24104213714599609
0.61679673194885254 0.34171801805496216 0.25020337104797363
0.63932681083679199 0.3516409695148468 0.25802788138389587
0.66243380308151245 0.36287403106689453 0.26603856682777405
0.68727713823318481 0.37240740656852722 0.27367991209030151
0.71384936571121216 0.38044655323028564 0.28122583031654358
0.73724007606506348 0.38949310779571533 0.28778508305549622
0.75810408592224121 0.39902129769325256 0.29011258482933044
0.14615389704704285 0.22240601480007172 0.17496494948863983
0.15163911879062653 0.22047774493694305 0.17385734617710114
0.16095015406608582 0.22122494876384735 0.17049762606620789
0.16877886652946472 0.22319836914539337 0.17047020792961121
0.17827826738357544 0.22441822290420532 0.17099367082118988
0.18682937324047089 0.2269548773765564 0.16990560293197632
0.19884927570819855 0.2317742258310318 0.17381691932678223
0.21378515660762787 0.23514237999916077 0.17798231542110443
0.23094630241394043 0.24072137475013733 0.17997829616069794
0.24815072119235992 0.24629099667072296 0.1808561384677887
0.26819157600402832 0.24885904788970947 0.1794363409280777
0.29014226794242859 0.25173443555831909 0.17702551186084747
0.31350266933441162 0.25526520609855652 0.17549023032188416
0.33638975024223328 0.25849103927612305 0.17456531524658203
0.36171263456344604 0.26476797461509705 0.17659038305282593
0.38988587260246277 0.27159249782562256 0.17715641856193542
0.41319063305854797 0.27633658051490784 0.17842881381511688
0.43336603045463562 0.27935582399368286 0.18069879710674286
0.45604458451271057 0.28500983119010925 0.18625806272029877
0.4800821840763092 0.29209139943122864 0.1926276832818985
0.49879312515258789 0.29973843693733215 0.1993221789598465
0.51876431703567505 0.30727711319923401 0.20451489090919495
0.54094988107681274 0.31675714254379272 0.21389132738113403
0.56350839138031006 0.32583829760551453 0.22483840584754944
0.58645099401473999 0.33372163772583008 0.23139490187168121
0.60673069953918457 0.34225204586982727 0.23875637352466583
0.6267474889755249 0.35162508487701416 0.24889715015888214
0.64818555116653442 0.36055183410644531 0.2556588351726532
0.67199540138244629 0.371113121509552 0.26178953051567078
0.69562482833862305 0.3817194402217865 0.27119994163513184
0.71842664480209351 0.3916359543800354 0.28261685371398926
0.74111485481262207 0.40057662129402161 0.29160583019256592
0.76152622699737549 0.40923890471458435 0.29701828956604004
0.17065174877643585 0.25054207444190979 0.18874496221542358
0.17406970262527466 0.24900437891483307 0.18875467777252197
0.17971134185791016 0.24790170788764954 0.18825139105319977
0.18598079681396484 0.24962443113327026 0.18800406157970428
0.19258302450180054 0.2515004575252533 0.18777701258659363
0.20044344663619995 0.25273343920707703 0.18596047163009644
0.20983920991420746 0.25530451536178589 0.18604181706905365
0.22407679259777069 0.25823730230331421 0.19033652544021606
0.24055388569831848 0.26104503870010376 0.19351260364055634
0.25647994875907898 0.26670742034912109 0.19536674022674561
0.27196890115737915 0.27170684933662415 0.19664542376995087
0.2916373610496521 0.27552446722984314 0.19557394087314606
0.31274303793907166 0.27896621823310852 0.19360150396823883
0.33510524034500122 0.28167799115180969 0.19181984663009644
0.35898888111114502 0.28422024846076965 0.19031420350074768
0.38680800795555115 0.29061248898506165 0.19010832905769348
0.41468068957328796 0.29708981513977051 0.18997344374656677
0.43591797351837158 0.30040428042411804 0.19077686965465546
0.45537289977073669 0.30284008383750916 0.19307391345500946
0.47950300574302673 0.3090832531452179 0.1975555419921875
0.50584083795547485 0.31690105795860291 0.20321674644947052
0.52955156564712524 0.32301360368728638 0.20730707049369812
0.552806556224823 0.32923585176467896 0.20979388058185577
0.57578104734420776 0.33645856380462646 0.21730761229991913
0.5986819863319397 0.3440304696559906 0.22620885074138641
0.6193961501121521 0.35223254561424255 0.23449862003326416
0.6386452317237854 0.36158564686775208 0.24549643695354462
0.66072016954421997 0.37056916952133179 0.25347724556922913
0.68537920713424683 0.38030520081520081 0.25780972838401794
0.70789265632629395 0.3904794454574585 0.26665487885475159
0.72647380828857422 0.40200379490852356 0.28133812546730042
0.74766570329666138 0.41170230507850647 0.29243394732475281
0.76731246709823608 0.41976478695869446 0.30047181248664856
0.18933017551898956 0.27550208568572998 0.20464047789573669
0.19115744531154633 0.27516347169876099 0.20269200205802917
0.19533617794513702 0.2741665244102478 0.20179764926433563
0.20078985393047333 0.27362391352653503 0.19967888295650482
0.20714232325553894 0.27485653758049011 0.19919270277023315
0.21656465530395508 0.2762664258480072 0.20066143572330475
0.22593978047370911 0.27857273817062378 0.20086415112018585
0.23797659575939178 0.28234782814979553 0.20330001413822174
0.25331825017929077 0.28493675589561462 0.20660603046417236
0.27015605568885803 0.28892478346824646 0.20966698229312897
0.2849789559841156 0.2942555844783783 0.21255061030387878
0.29711320996284485 0.29980599880218506 0.21685388684272766
0.31611496210098267 0.3039095401763916 0.21679866313934326
0.33781108260154724 0.30688247084617615 0.21258538961410522
0.3612002432346344 0.30968672037124634 0.21013417840003967
0.38483273983001709 0.31360098719596863 0.20924149453639984
0.41130241751670837 0.31971839070320129 0.20883840322494507
0.43502429127693176 0.32301884889602661 0.20654198527336121
0.45543643832206726 0.32507827877998352 0.20690448582172394
0.47825905680656433 0.33018958568572998 0.20913086831569672
0.50404471158981323 0.3369910717010498 0.21328982710838318
0.53311753273010254 0.34196332097053528 0.21665115654468536
0.55980598926544189 0.34710878133773804 0.21857191622257233
0.58349984884262085 0.35308888554573059 0.22086060047149658
0.60712641477584839 0.36067277193069458 0.22733080387115479
0.62820225954055786 0.36706098914146423 0.23285306990146637
0.64756149053573608 0.37408822774887085 0.24109168350696564
0.6710546612739563 0.38224601745605469 0.24998585879802704
0.69591909646987915 0.39034545421600342 0.25443047285079956
0.71763032674789429 0.39978715777397156 0.26233553886413574
0.73754668235778809 0.409719318151474 0.27479037642478943
0.76176244020462036 0.41984063386917114 0.28667563199996948
0.78502035140991211 0.42921203374862671 0.29706564545631409
0.20833761990070343 0.3004734218120575 0.22125037014484406
0.20917032659053802 0.3006536066532135 0.21806493401527405
0.21134136617183685 0.30043908953666687 0.21538443863391876
0.21611671149730682 0.29875952005386353 0.21217656135559082
0.22117717564105988 0.2979201078414917 0.20970648527145386
0.23174569010734558 0.29954901337623596 0.21221064031124115
0.2430213987827301 0.30166804790496826 0.21523855626583099
0.25463691353797913 0.30554187297821045 0.2177308052778244
0.26682984828948975 0.30922859907150269 0.21982601284980774
0.28286531567573547 0.31327095627784729 0.22362968325614929
0.29906308650970459 0.31731343269348145 0.22732008993625641
0.31044775247573853 0.32271242141723633 0.23343653976917267
0.3220999538898468 0.32805454730987549 0.23932407796382904
0.34238442778587341 0.33157184720039368 0.23654468357563019
0.36526685953140259 0.3353348970413208 0.23099003732204437
0.38737013936042786 0.33882594108581543 0.22882881760597229
0.40944433212280273 0.34276962280273438 0.22867397964000702
0.43247327208518982 0.34584489464759827 0.22640746831893921
0.45498752593994141 0.34806671738624573 0.22312933206558228
0.47816705703735352 0.35284465551376343 0.22374497354030609
0.50185179710388184 0.35851141810417175 0.22583556175231934
0.5315508246421814 0.36319276690483093 0.22849488258361816
0.56335967779159546 0.36716377735137939 0.23020720481872559
0.58862406015396118 0.37233799695968628 0.23117567598819733
0.61336547136306763 0.37985649704933167 0.23339457809925079
0.63666439056396484 0.38520848751068115 0.23708665370941162
0.6559329628944397 0.3894895613193512 0.2412090003490448
0.67890465259552002 0.39569666981697083 0.24678948521614075
0.70382243394851685 0.40183791518211365 0.25106438994407654
0.72687447071075439 0.40986219048500061 0.25839182734489441
0.74967163801193237 0.41803139448165894 0.26809874176979065
0.77479159832000732 0.42631536722183228 0.27804246544837952
0.80136960744857788 0.43776106834411621 0.29075512290000916
0.22631816565990448 0.32412630319595337 0.23567678034305573
0.22924813628196716 0.32377448678016663 0.23330247402191162
0.23149004578590393 0.32377448678016663 0.23062410950660706
0.23561130464076996 0.32326892018318176 0.22902314364910126
0.24081724882125854 0.32287570834159851 0.22658525407314301
0.2494044303894043 0.32467305660247803 0.22643117606639862
0.26047122478485107 0.32684844732284546 0.22882810235023499
0.27198055386543274 0.32908153533935547 0.23129822313785553
0.28292831778526306 0.33279034495353699 0.23457111418247223
0.29385650157928467 0.33655187487602234 0.23859632015228271
0.30901983380317688 0.34054714441299438 0.24236911535263062
0.32274365425109863 0.34600034356117249 0.24700316786766052
0.33369550108909607 0.35124960541725159 0.25337180495262146
0.34918308258056641 0.35371780395507812 0.25517758727073669
0.37043946981430054 0.35646006464958191 0.250404953956604
0.38987568020820618 0.36026191711425781 0.24492849409580231
0.41096556186676025 0.36470878124237061 0.24407166242599487
0.43343669176101685 0.3688085675239563 0.24286478757858276
0.45625323057174683 0.3713761568069458 0.23986157774925232
0.47948583960533142 0.37601324915885925 0.23820012807846069
0.50326263904571533 0.3817654550075531 0.23945319652557373
0.53231960535049438 0.38643935322761536 0.24327287077903748
0.56467747688293457 0.39028242230415344 0.24584010243415833
0.59014922380447388 0.39365196228027344 0.242781862616539
0.61579769849777222 0.39992555975914001 0.24127544462680817
0.64406746625900269 0.40297436714172363 0.24469117820262909
0.66721510887145996 0.40627089142799377 0.24839259684085846
0.68898534774780273 0.41163203120231628 0.25046291947364807
0.7131384015083313 0.41664794087409973 0.25260284543037415
0.73909199237823486 0.42420652508735657 0.25906869769096375
0.7648589015007019 0.4324893057346344 0.26836699247360229
0.78794807195663452 0.43969079852104187 0.2764681875705719
0.81211942434310913 0.44834050536155701 0.28665119409561157
0.2416214793920517 0.34723260998725891 0.24937328696250916
0.24684888124465942 0.34681364893913269 0.24791824817657471
