Textures/14.cube
# Created by: G'MIC (https://gmic.eu)
TITLE "FuturisticBleak1.cube"
# LUT size
LUT_3D_SIZE 5
# Data domain
DOMAIN_MIN 0.0 0.0 0.0
DOMAIN_MAX 1.0 1.0 1.0
# LUT data points
0.040595937520265579 0.053952790796756744 0.085532709956169128
0.19411242008209229 0.1086827740073204 0.12637588381767273
0.38061532378196716 0.19147840142250061 0.17207144200801849
0.55645424127578735 0.2804168164730072 0.22613875567913055
0.75210905075073242 0.36934900283813477 0.284810870885849
0.17065174877643585 0.25054207444190979 0.18874496221542358
0.24055388569831848 0.26104503870010376 0.19351260364055634
0.41468068957328796 0.29708981513977051 0.18997344374656677
0.5986819863319397 0.3440304696559906 0.22620885074138641
0.76731246709823608 0.41976478695869446 0.30047181248664856
0.32266458868980408 0.44336000084877014 0.31261363625526428
0.36082988977432251 0.4521254301071167 0.30016106367111206
0.47120115160942078 0.4719177782535553 0.31614699959754944
0.63415396213531494 0.50968688726425171 0.31577512621879578
0.82859677076339722 0.53750687837600708 0.31939679384231567
0.52240544557571411 0.64297175407409668 0.42451596260070801
0.54803574085235596 0.65030652284622192 0.42522004246711731
0.61064416170120239 0.6656762957572937 0.43439877033233643
0.72048509120941162 0.68351846933364868 0.45546239614486694
0.85480082035064697 0.72144114971160889 0.46255356073379517
0.69823455810546875 0.84456777572631836 0.56582272052764893
0.70608347654342651 0.8470146656036377 0.56196743249893188
0.757060706615448 0.85660243034362793 0.55676537752151489
0.84428519010543823 0.87278056144714355 0.57747477293014526
0.9606856107711792 0.90693187713623047 0.61567950248718262
0.062114737927913666 0.07389657199382782 0.14497107267379761
0.17428402602672577 0.14113134145736694 0.20229014754295349
0.30795153975486755 0.23742242157459259 0.27177006006240845
0.49795302748680115 0.3157401978969574 0.33520084619522095
0.71331024169921875 0.38785424828529358 0.37816855311393738
0.16594019532203674 0.2511342465877533 0.24443104863166809
0.23348706960678101 0.26884996891021729 0.26796963810920715
0.37696313858032227 0.31011909246444702 0.30276003479957581
0.55535167455673218 0.36398333311080933 0.34474208950996399
0.76256150007247925 0.42899277806282043 0.38538190722465515
0.32798773050308228 0.44123822450637817 0.35746490955352783
0.36142095923423767 0.45237424969673157 0.3600485622882843
0.46990722417831421 0.47567388415336609 0.37315630912780762
0.6363525390625 0.51159512996673584 0.36973267793655396
0.82567471265792847 0.54348099231719971 0.38761338591575623
0.52559059858322144 0.64248365163803101 0.47564339637756348
0.5411531925201416 0.65016418695449829 0.46998029947280884
0.60970300436019897 0.66662681102752686 0.47139334678649902
0.72047138214111328 0.68375527858734131 0.49003437161445618
0.86402434110641479 0.72239041328430176 0.4970041811466217
0.69363778829574585 0.84484076499938965 0.59018486738204956
0.7094152569770813 0.84987443685531616 0.59764188528060913
0.76234787702560425 0.8600274920463562 0.59341210126876831
0.84065705537796021 0.87474262714385986 0.60329246520996094
0.95648008584976196 0.90978866815567017 0.64873290061950684
0.13621993362903595 0.12953606247901917 0.24607618153095245
0.18879887461662292 0.17608961462974548 0.27769601345062256
0.31459152698516846 0.25642713904380798 0.33820801973342896
0.45678254961967468 0.35087460279464722 0.40281137824058533
0.6360136866569519 0.44477435946464539 0.46982041001319885
0.19401681423187256 0.26443022489547729 0.32465127110481262
0.24433758854866028 0.28991299867630005 0.34323179721832275
0.35769689083099365 0.33005660772323608 0.3785957396030426
0.49317356944084167 0.40481692552566528 0.42770978808403015
0.67236500978469849 0.48394766449928284 0.48644709587097168
0.34599044919013977 0.45368257164955139 0.42213007807731628
0.38286140561103821 0.45984837412834167 0.42813581228256226
0.46779447793960571 0.48644500970840454 0.45175093412399292
0.61490947008132935 0.52473467588424683 0.4914802610874176
0.78019487857818604 0.56455445289611816 0.52350020408630371
0.54189085960388184 0.64813292026519775 0.53342455625534058
0.5566217303276062 0.65075355768203735 0.53924643993377686
0.61951643228530884 0.66978776454925537 0.55332756042480469
0.71662092208862305 0.69629514217376709 0.56514257192611694
0.87343746423721313 0.72046273946762085 0.56434851884841919
0.71090006828308105 0.84067779779434204 0.65501260757446289
0.73143154382705688 0.84485280513763428 0.66230231523513794
0.76608043909072876 0.86103856563568115 0.66482686996459961
0.84303450584411621 0.88051533699035645 0.66650921106338501
0.9504128098487854 0.90710842609405518 0.70927560329437256
0.19627094268798828 0.19263026118278503 0.34862279891967773
0.24051634967327118 0.2215140163898468 0.3685632050037384
0.33783772587776184 0.28926834464073181 0.42133325338363647
0.47421425580978394 0.37117746472358704 0.47581911087036133
0.63644814491271973 0.46170538663864136 0.52910882234573364
0.2425457239151001 0.29246604442596436 0.4040730893611908
0.28194612264633179 0.31020641326904297 0.42007121443748474
0.37271487712860107 0.35833299160003662 0.45411333441734314
0.5133470892906189 0.42495706677436829 0.49927207827568054
0.66662746667861938 0.50931209325790405 0.55557107925415039
0.37746623158454895 0.46444308757781982 0.49492970108985901
0.41122916340827942 0.47151967883110046 0.5054086446762085
0.48205962777137756 0.50180882215499878 0.52389532327651978
0.6014716625213623 0.54396528005599976 0.55829006433486938
0.72778230905532837 0.59803599119186401 0.60192722082138062
0.56059795618057251 0.65385431051254272 0.59465044736862183
0.57967031002044678 0.6592898964881897 0.60145628452301025
0.63596886396408081 0.67413896322250366 0.61210978031158447
0.7206805944442749 0.70149648189544678 0.64522558450698853
0.85318416357040405 0.73582285642623901 0.68081337213516235
0.73025977611541748 0.84684425592422485 0.71818315982818604
0.74246937036514282 0.84995537996292114 0.7224915623664856
0.78457695245742798 0.85813403129577637 0.7306477427482605
0.84632647037506104 0.87842679023742676 0.74952071905136108
0.95431196689605713 0.91773229837417603 0.79753679037094116
0.26459607481956482 0.25346577167510986 0.44805735349655151
0.2944980263710022 0.27487769722938538 0.46719053387641907
0.37654361128807068 0.32670053839683533 0.50350087881088257
0.51168602705001831 0.40135401487350464 0.55762553215026855
0.66040247678756714 0.49326217174530029 0.61440640687942505
0.30332550406455994 0.32990139722824097 0.49134618043899536
0.33444035053253174 0.34639003872871399 0.50598788261413574
0.4132099449634552 0.38901242613792419 0.53180694580078125
0.53113746643066406 0.45000064373016357 0.57647138833999634
0.68508821725845337 0.52329474687576294 0.6278490424156189
0.42129334807395935 0.48480570316314697 0.57601088285446167
0.4444940984249115 0.49463823437690735 0.58167099952697754
0.51600396633148193 0.52009475231170654 0.59687650203704834
0.61895185708999634 0.56090563535690308 0.63233447074890137
0.74103659391403198 0.61667859554290771 0.67556107044219971
0.58759003877639771 0.6690104603767395 0.67940372228622437
0.60232150554656982 0.67052757740020752 0.67572516202926636
0.65227961540222168 0.68229836225509644 0.69503653049468994
0.7251509428024292 0.7131151556968689 0.71533775329589844
0.83365017175674438 0.74943184852600098 0.74703973531723022
0.75087571144104004 0.85600590705871582 0.78017526865005493
0.7651827335357666 0.85751640796661377 0.77957189083099365
0.80749213695526123 0.86945903301239014 0.79735535383224487
0.87051498889923096 0.88589757680892944 0.81191009283065796
0.94649827480316162 0.93133747577667236 0.90256017446517944
