Textures/15.cube
# Created by: G'MIC (https://gmic.eu)
TITLE "FuturisticBleak2.cube"
# LUT size
LUT_3D_SIZE 5
# Data domain
DOMAIN_MIN 0.0 0.0 0.0
DOMAIN_MAX 1.0 1.0 1.0
# LUT data points
0 0.071244940161705017 0.098222285509109497
0.091413833200931549 0.10540314018726349 0.14150051772594452
0.25677618384361267 0.17889639735221863 0.16626773774623871
0.44063273072242737 0.28130984306335449 0.18336789309978485
0.71465474367141724 0.38779816031455994 0.19469641149044037
0.053362805396318436 0.21473927795886993 0.18176709115505219
0.14407457411289215 0.22832205891609192 0.17726036906242371
0.31459921598434448 0.2872326672077179 0.16592033207416534
0.50165092945098877 0.35600674152374268 0.17429268360137939
0.7219509482383728 0.45682749152183533 0.24566490948200226
0.27065038681030273 0.43121188879013062 0.34153959155082703
0.32323697209358215 0.43950685858726501 0.30382433533668518
0.4550832211971283 0.46699264645576477 0.31168082356452942
0.63548612594604492 0.52874958515167236 0.30929058790206909
0.81558150053024292 0.58820456266403198 0.291015625
0.57664626836776733 0.66245102882385254 0.45479843020439148
0.61879676580429077 0.66803693771362305 0.44811561703681946
0.70137119293212891 0.68378674983978271 0.44732370972633362
0.81025493144989014 0.70421296358108521 0.46931517124176025
0.93171221017837524 0.74278193712234497 0.45888975262641907
0.80619281530380249 0.8535199761390686 0.55744713544845581
0.81972354650497437 0.85392862558364868 0.55313915014266968
0.88036876916885376 0.85302293300628662 0.54339557886123657
0.9567950963973999 0.85614019632339478 0.54979056119918823
1 0.87190961837768555 0.57518559694290161
0 0.093906044960021973 0.12221013009548187
0.031546317040920258 0.1373087465763092 0.1670045405626297
0.1699262261390686 0.22385978698730469 0.23804843425750732
0.37061819434165955 0.32028171420097351 0.34564203023910522
0.64480894804000854 0.42011138796806335 0.39285761117935181
0.058235861361026764 0.21636994183063507 0.2098337858915329
0.13207846879959106 0.2401183694601059 0.22895590960979462
0.27223718166351318 0.29338729381561279 0.28095003962516785
0.46098646521568298 0.37542551755905151 0.33268004655838013
0.73366254568099976 0.46560171246528625 0.35749724507331848
0.26885524392127991 0.4297715425491333 0.37183040380477905
0.31395062804222107 0.44491362571716309 0.37258011102676392
0.44821438193321228 0.47655022144317627 0.36228713393211365
0.63292330503463745 0.53786313533782959 0.35890763998031616
0.81550002098083496 0.59942024946212769 0.36274617910385132
0.58334481716156006 0.66299045085906982 0.50123757123947144
0.59801673889160156 0.67027604579925537 0.48770195245742798
0.69435781240463257 0.68645584583282471 0.47675818204879761
0.801380455493927 0.70804941654205322 0.49487075209617615
0.93322354555130005 0.74752843379974365 0.48451024293899536
0.78998482227325439 0.85604584217071533 0.58188778162002563
0.8106498122215271 0.85762709379196167 0.58667886257171631
0.88083177804946899 0.85701006650924683 0.57211029529571533
0.95244938135147095 0.85996747016906738 0.57507824897766113
1 0.87574410438537598 0.60322290658950806
0 0.13989564776420593 0.17528882622718811
0 0.17749258875846863 0.2031722366809845
0.13052137196063995 0.25247222185134888 0.27700981497764587
0.32266229391098022 0.35603034496307373 0.38592833280563354
0.562408447265625 0.47612971067428589 0.50101774930953979
0.027697945013642311 0.23950308561325073 0.24147875607013702
0.075693286955356598 0.27058687806129456 0.26596233248710632
0.21930108964443207 0.32479435205459595 0.32675909996032715
0.41032868623733521 0.41574043035507202 0.40424692630767822
0.63790464401245117 0.51505374908447266 0.50781625509262085
0.29816251993179321 0.44650888442993164 0.40493306517601013
0.33861541748046875 0.4556007981300354 0.40696623921394348
0.43767082691192627 0.49115556478500366 0.43760788440704346
0.60521727800369263 0.5516287088394165 0.48264259099960327
0.7837446928024292 0.60748934745788574 0.52000522613525391
0.60215240716934204 0.67138361930847168 0.56175029277801514
0.61756771802902222 0.67411535978317261 0.5599372386932373
0.68545824289321899 0.69236540794372559 0.54605758190155029
0.79117763042449951 0.72540819644927979 0.55911886692047119
0.93151307106018066 0.74772602319717407 0.53079718351364136
0.8005034327507019 0.85212433338165283 0.65775620937347412
0.81949824094772339 0.85371953248977661 0.65113049745559692
0.8604433536529541 0.86112475395202637 0.6393696665763855
0.94400942325592041 0.86781060695648193 0.62957477569580078
0.99944698810577393 0.87712597846984863 0.64947569370269775
0 0.19885297119617462 0.23763589560985565
0.0015723496908321977 0.22897964715957642 0.26492127776145935
0.037431228905916214 0.30466055870056152 0.33686813712120056
0.32045575976371765 0.38993710279464722 0.42505574226379395
0.54926717281341553 0.50709593296051025 0.55798089504241943
0.030912477523088455 0.2861553430557251 0.29431092739105225
0.067745760083198547 0.31091874837875366 0.32009801268577576
0.17545449733734131 0.37027138471603394 0.37245362997055054
0.39767324924468994 0.44888806343078613 0.46292510628700256
0.62109220027923584 0.55633735656738281 0.5785554051399231
0.32695230841636658 0.46849316358566284 0.43745920062065125
0.35734808444976807 0.4808480441570282 0.44769424200057983
0.44403183460235596 0.51775234937667847 0.48218679428100586
0.58851182460784912 0.57343780994415283 0.5398290753364563
0.74076288938522339 0.64119446277618408 0.61334347724914551
0.6218218207359314 0.6801379919052124 0.60062038898468018
0.64181429147720337 0.68743437528610229 0.60645562410354614
0.69421464204788208 0.700794517993927 0.60645848512649536
0.79237335920333862 0.73644000291824341 0.63763797283172607
0.89870452880859375 0.76562726497650146 0.6528468132019043
0.8146403431892395 0.853515625 0.7255241870880127
0.82580029964447021 0.85563790798187256 0.7214621901512146
0.86550319194793701 0.85998189449310303 0.69905960559844971
0.92913800477981567 0.8723071813583374 0.70338433980941772
0.99976998567581177 0.88780021667480469 0.71942543983459473
0 0.27274137735366821 0.31433910131454468
4.6812069740553852e-06 0.2980702817440033 0.33759590983390808
0.051653895527124405 0.3599601686000824 0.39528548717498779
0.30413347482681274 0.44938379526138306 0.49026578664779663
0.56581205129623413 0.55660402774810791 0.61278611421585083
0.011446426622569561 0.34201887249946594 0.34822636842727661
0.025474216789007187 0.36097022891044617 0.36794149875640869
0.17114269733428955 0.42238184809684753 0.43335193395614624
0.35956138372421265 0.49746903777122498 0.51558071374893188
0.61504709720611572 0.58584356307983398 0.63574725389480591
0.33290314674377441 0.50252836942672729 0.47354221343994141
0.36157220602035522 0.51561665534973145 0.4860578179359436
0.44633832573890686 0.55463510751724243 0.5226205587387085
0.58298438787460327 0.60569262504577637 0.5902290940284729
0.73275220394134521 0.67176318168640137 0.68466430902481079
0.65410840511322021 0.70287555456161499 0.64103269577026367
0.6672477126121521 0.70439225435256958 0.64135634899139404
0.70411825180053711 0.71707618236541748 0.65838724374771118
0.78520065546035767 0.74902117252349854 0.69024258852005005
0.88348591327667236 0.77866905927658081 0.72662150859832764
0.83499795198440552 0.85994571447372437 0.76575881242752075
0.84655529260635376 0.86016052961349487 0.76252281665802002
0.88459569215774536 0.86781060695648193 0.76471066474914551
0.9452052116394043 0.87429225444793701 0.75319856405258179
0.99168884754180908 0.9000173807144165 0.81105178594589233
