Textures/15.cube
# Created by: G'MIC (https://gmic.eu)
TITLE "FuturisticBleak2.cube"
# LUT size
LUT_3D_SIZE 33
# Data domain
DOMAIN_MIN 0.0 0.0 0.0
DOMAIN_MAX 1.0 1.0 1.0
# LUT data points
0 0.071244940161705017 0.098222285509109497
0.0017929549794644117 0.072407305240631104 0.099541991949081421
0.0046863611787557602 0.073960669338703156 0.10382245481014252
0.0072783972136676311 0.075351759791374207 0.10767648369073868
0.015114978887140751 0.077989690005779266 0.1117001548409462
0.031302809715270996 0.083776272833347321 0.1194959357380867
0.049231071025133133 0.091611072421073914 0.12893189489841461
0.070556387305259705 0.099082000553607941 0.13480041921138763
0.091413833200931549 0.10540314018726349 0.14150051772594452
0.11388285458087921 0.11234227567911148 0.14628113806247711
0.13811282813549042 0.12047069519758224 0.14537246525287628
0.16271242499351501 0.12787285447120667 0.14125619828701019
0.18372084200382233 0.13618730008602142 0.14211654663085938
0.20152907073497772 0.14867210388183594 0.14981566369533539
0.21909891068935394 0.16187119483947754 0.16027438640594482
0.23898044228553772 0.17106333374977112 0.1660446971654892
0.25677618384361267 0.17889639735221863 0.16626773774623871
0.27355074882507324 0.1900085061788559 0.16866853833198547
0.29384186863899231 0.20557662844657898 0.17476551234722137
0.31888353824615479 0.21702076494693756 0.17718690633773804
0.34341272711753845 0.22796580195426941 0.17655749619007111
0.36567303538322449 0.24097846448421478 0.17660513520240784
0.38982492685317993 0.25478988885879517 0.18140728771686554
0.41473788022994995 0.26768910884857178 0.18496884405612946
0.44063273072242737 0.28130984306335449 0.18336789309978485
0.47430345416069031 0.29684102535247803 0.18247374892234802
0.51159030199050903 0.31043154001235962 0.18576620519161224
0.5440327525138855 0.32340225577354431 0.18650142848491669
0.57536029815673828 0.33344975113868713 0.17872247099876404
0.61290448904037476 0.34379842877388 0.17451789975166321
0.65337985754013062 0.35870236158370972 0.17724588513374329
0.68574714660644531 0.37365046143531799 0.18551486730575562
0.71465474367141724 0.38779816031455994 0.19469641149044037
0.0019255876541137695 0.079654619097709656 0.10134256631135941
0.0068305032327771187 0.080241642892360687 0.1019975021481514
0.012319104745984077 0.081601649522781372 0.10468503087759018
0.017973167821764946 0.081901952624320984 0.10884364694356918
0.031315773725509644 0.083794668316841125 0.11212721467018127
0.046059183776378632 0.090256586670875549 0.11879611760377884
0.063373260200023651 0.098406784236431122 0.12775547802448273
0.083312653005123138 0.10598267614841461 0.13499513268470764
0.10395702719688416 0.11248114705085754 0.1416565477848053
0.12479623407125473 0.11851626634597778 0.14302822947502136
0.1472492516040802 0.12651252746582031 0.14162136614322662
0.16887286305427551 0.13562797009944916 0.14008910953998566
0.18796637654304504 0.14487637579441071 0.14327345788478851
0.20367082953453064 0.15589332580566406 0.14795741438865662
0.21990516781806946 0.16852329671382904 0.15575619041919708
0.23970595002174377 0.1776224672794342 0.16141797602176666
0.25685957074165344 0.18589285016059875 0.16178430616855621
0.27432176470756531 0.19625949859619141 0.16611473262310028
0.29518383741378784 0.21027116477489471 0.17280071973800659
0.32167157530784607 0.22233025729656219 0.17700786888599396
0.34778168797492981 0.23370923101902008 0.17788802087306976
0.36655828356742859 0.24586161971092224 0.17675018310546875
0.38758692145347595 0.25942137837409973 0.17917704582214355
0.41366511583328247 0.27150294184684753 0.18474052846431732
0.44146952033042908 0.28416380286216736 0.1850372701883316
0.47562560439109802 0.29957979917526245 0.18185828626155853
0.51497668027877808 0.31255954504013062 0.18109247088432312
0.5480046272277832 0.3256380558013916 0.18118211627006531
0.57875961065292358 0.33682569861412048 0.17760886251926422
0.61373960971832275 0.34632396697998047 0.17442634701728821
0.65213662385940552 0.35812079906463623 0.17438134551048279
0.68350303173065186 0.37440592050552368 0.18431131541728973
0.71090024709701538 0.39316919445991516 0.1971999853849411
0.0085159996524453163 0.089857548475265503 0.10520049184560776
0.013497231528162956 0.090020984411239624 0.1057714968919754
0.019148727878928185 0.091128498315811157 0.10692785680294037
0.02919190376996994 0.091715842485427856 0.1095312237739563
0.046779196709394455 0.092254064977169037 0.11161268502473831
0.060773719102144241 0.098847642540931702 0.11770334094762802
0.077512659132480621 0.10653214156627655 0.12469679862260818
0.098710402846336365 0.114357590675354 0.13201577961444855
0.1174047514796257 0.12227760255336761 0.13798676431179047
0.13493373990058899 0.12856200337409973 0.13773670792579651
0.15318880975246429 0.13511976599693298 0.13642299175262451
0.17272458970546722 0.14392636716365814 0.13734662532806396
0.19101528823375702 0.1544920802116394 0.14295639097690582
0.20646125078201294 0.16521769762039185 0.14708386361598969
0.22171533107757568 0.1763293594121933 0.15129750967025757
0.23981568217277527 0.18579123914241791 0.15568006038665771
0.25891441106796265 0.1956346333026886 0.15853236615657806
0.27753162384033203 0.20686487853527069 0.16517569124698639
0.29586592316627502 0.21833080053329468 0.17222130298614502
0.32124859094619751 0.22833713889122009 0.17492498457431793
0.34997999668121338 0.24019205570220947 0.17743049561977386
0.3720049262046814 0.2536836564540863 0.17899736762046814
0.38985830545425415 0.2666548490524292 0.17892876267433167
0.4149041473865509 0.27797532081604004 0.18106310069561005
0.4443967342376709 0.28928712010383606 0.18351176381111145
0.47772318124771118 0.30346855521202087 0.18424370884895325
0.51835834980010986 0.31645655632019043 0.18033355474472046
0.55208319425582886 0.32824259996414185 0.17700293660163879
0.58090221881866455 0.34076017141342163 0.17820027470588684
0.61513257026672363 0.35115322470664978 0.17832513153553009
0.65228933095932007 0.36051589250564575 0.17588455975055695
0.68311953544616699 0.37666025757789612 0.18380983173847198
0.71006327867507935 0.39739316701889038 0.19931624829769135
0.013943875208497047 0.10195603966712952 0.10998143255710602
0.019046256318688393 0.10316035151481628 0.11079368740320206
0.025055393576622009 0.10473662614822388 0.1121780052781105
0.034344982355833054 0.10861394554376602 0.11376453936100006
0.050992541015148163 0.11034907400608063 0.11259613931179047
0.063510820269584656 0.1141529306769371 0.11505242437124252
0.081225425004959106 0.1214052215218544 0.12186591327190399
0.10804939270019531 0.12825436890125275 0.12585100531578064
0.12620289623737335 0.13519762456417084 0.12641371786594391
0.14154016971588135 0.14060939848423004 0.12495305389165878
0.15939973294734955 0.14659276604652405 0.12373155355453491
0.17881211638450623 0.15354794263839722 0.13001024723052979
0.19632859528064728 0.16372524201869965 0.13586607575416565
0.21138383448123932 0.17462649941444397 0.14003290235996246
0.22653169929981232 0.18609818816184998 0.14461007714271545
0.24441945552825928 0.19764184951782227 0.15118265151977539
0.26359647512435913 0.2085220068693161 0.15688158571720123
0.28045603632926941 0.2205270379781723 0.16461487114429474
0.29874587059020996 0.23171091079711914 0.17136707901954651
0.32150661945343018 0.23924264311790466 0.1715281754732132
0.34780734777450562 0.24891933798789978 0.17324469983577728
0.37480869889259338 0.2630620002746582 0.17694701254367828
0.39881506562232971 0.27787083387374878 0.17925404012203217
0.42402178049087524 0.28837525844573975 0.17838296294212341
0.45152369141578674 0.29924812912940979 0.17921583354473114
0.48358920216560364 0.31256893277168274 0.18342235684394836
0.52210319042205811 0.32403036952018738 0.1823306530714035
0.55557364225387573 0.33546280860900879 0.17971956729888916
0.58397722244262695 0.34888088703155518 0.18337410688400269
0.6180834174156189 0.3587806224822998 0.18460415303707123
0.6547505259513855 0.36721226572990417 0.18252986669540405
0.68587779998779297 0.38338941335678101 0.18968197703361511
0.71317845582962036 0.40405905246734619 0.20308889448642731
0.013858431950211525 0.1190008819103241 0.11964819580316544
0.018471650779247284 0.1202581599354744 0.12097541242837906
0.024016711860895157 0.12215261906385422 0.1224711686372757
0.033750642091035843 0.12680979073047638 0.12523195147514343
0.051653515547513962 0.13103993237018585 0.12421078979969025
0.067651301622390747 0.13449206948280334 0.12254557013511658
0.083227865397930145 0.13915784657001495 0.12402840703725815
0.10976406931877136 0.14499659836292267 0.12807540595531464
0.13291642069816589 0.1500927060842514 0.12271609902381897
0.14804379642009735 0.15461350977420807 0.11804527044296265
0.16493159532546997 0.15924379229545593 0.11353312432765961
0.18423107266426086 0.16575628519058228 0.11888837069272995
0.20182599127292633 0.17475168406963348 0.12574127316474915
0.21756750345230103 0.18550524115562439 0.12995685636997223
0.23375174403190613 0.19803355634212494 0.13652275502681732
0.25146332383155823 0.21056045591831207 0.14457286894321442
0.26971021294593811 0.22229607403278351 0.15297585725784302
0.28788933157920837 0.23374958336353302 0.16127318143844604
0.3050861656665802 0.2447698712348938 0.16760900616645813
0.32613644003868103 0.25274476408958435 0.16805753111839294
0.34918540716171265 0.25999107956886292 0.16845878958702087
0.37454181909561157 0.27157345414161682 0.17239239811897278
0.40570947527885437 0.28751501441001892 0.17769704759120941
0.43320190906524658 0.29946601390838623 0.17861062288284302
0.45907929539680481 0.31027358770370483 0.17847001552581787
0.49017494916915894 0.32264930009841919 0.18059581518173218
0.52647823095321655 0.33322122693061829 0.18317615985870361
0.55936449766159058 0.34468728303909302 0.18521727621555328
0.58751320838928223 0.35899007320404053 0.19064368307590485
0.62016081809997559 0.36928150057792664 0.193553626537323
0.65607982873916626 0.37695354223251343 0.19199454784393311
0.68646723031997681 0.39064416289329529 0.19643750786781311
0.71372175216674805 0.41064602136611938 0.20842696726322174
0.0087901894003152847 0.14118388295173645 0.137277752161026
0.014280376024544239 0.14152824878692627 0.13692592084407806
0.022889060899615288 0.14313319325447083 0.13742594420909882
0.037364397197961807 0.14589928090572357 0.13865953683853149
0.055122718214988708 0.15010266005992889 0.13810458779335022
0.070353470742702484 0.15430307388305664 0.13773386180400848
0.087673909962177277 0.15873529016971588 0.13566525280475616
0.10944097489118576 0.16423384845256805 0.13704381883144379
0.13484810292720795 0.17046833038330078 0.13793215155601501
0.15142855048179626 0.17313610017299652 0.1306128203868866
0.1668531596660614 0.17688290774822235 0.12291371822357178
0.18668892979621887 0.18140977621078491 0.11830452084541321
0.20511120557785034 0.19029800593852997 0.12214300036430359
0.2238427996635437 0.20151506364345551 0.12440768629312515
0.24191009998321533 0.21454070508480072 0.13039492070674896
0.25868603587150574 0.22535361349582672 0.13706715404987335
0.27765214443206787 0.23684737086296082 0.14376983046531677
0.30004072189331055 0.24718596041202545 0.15186743438243866
0.32087436318397522 0.25605317950248718 0.15588089823722839
0.3385060727596283 0.26440843939781189 0.15856705605983734
0.3582308292388916 0.2716825008392334 0.16127955913543701
0.38124588131904602 0.28075695037841797 0.16852550208568573
0.41150084137916565 0.29642978310585022 0.1765889972448349
0.4399702250957489 0.30917432904243469 0.17897115647792816
0.46574518084526062 0.32022011280059814 0.17934806644916534
0.49557000398635864 0.33148267865180969 0.18175877630710602
0.52968466281890869 0.34213393926620483 0.18592014908790588
0.56380361318588257 0.3543224036693573 0.19003310799598694
0.5915229320526123 0.37014296650886536 0.19783693552017212
0.62193167209625244 0.38104623556137085 0.2032029777765274
0.65674662590026855 0.38980451226234436 0.20358501374721527
0.68592119216918945 0.40118265151977539 0.2057616263628006
0.71115291118621826 0.41870549321174622 0.2146071195602417
0.0064959046430885792 0.16381685435771942 0.15497696399688721
0.016462668776512146 0.1640298068523407 0.15376996994018555
0.030100174248218536 0.16506785154342651 0.15327371656894684
0.044353023171424866 0.16718123853206635 0.15376204252243042
0.059857580810785294 0.16941295564174652 0.15191909670829773
0.074936017394065857 0.17388302087783813 0.1511719822883606
0.092027381062507629 0.1793791800737381 0.15097542107105255
0.11404147744178772 0.18507580459117889 0.14966563880443573
0.13578088581562042 0.19128388166427612 0.15104135870933533
0.15536007285118103 0.19522242248058319 0.1499691903591156
0.17100243270397186 0.19702000916004181 0.14072495698928833
0.18921053409576416 0.20129884779453278 0.13216358423233032
0.20843937993049622 0.20780965685844421 0.12766113877296448
0.22817766666412354 0.2180660218000412 0.12854649126529694
0.25084441900253296 0.23082904517650604 0.13315200805664062
0.27097615599632263 0.24211323261260986 0.13840974867343903
0.28863236308097839 0.2509632408618927 0.1403212696313858
0.3109779953956604 0.25920110940933228 0.1448720395565033
0.33660957217216492 0.26597973704338074 0.14747883379459381
0.35676226019859314 0.27333647012710571 0.150814488530159
0.37273123860359192 0.28125661611557007 0.15647493302822113
0.3947487473487854 0.29183313250541687 0.16350679099559784
0.42092189192771912 0.30726775527000427 0.17506009340286255
0.44711917638778687 0.31986075639724731 0.18013575673103333
0.47370272874832153 0.33097425103187561 0.17953674495220184
0.50399655103683472 0.34134450554847717 0.18289230763912201
0.53555166721343994 0.35191187262535095 0.18869505822658539
0.56659787893295288 0.36442670226097107 0.19411781430244446
0.59385532140731812 0.38121208548545837 0.20405291020870209
0.62471473217010498 0.39329436421394348 0.2113029956817627
0.65950566530227661 0.40341532230377197 0.21353833377361298
0.68883126974105835 0.41436603665351868 0.2173430323600769
0.71249574422836304 0.43000033497810364 0.22396135330200195
0.027327774092555046 0.1886092871427536 0.1686522364616394
0.034258533269166946 0.18851795792579651 0.16785508394241333
0.046173363924026489 0.18880124390125275 0.16704834997653961
0.055853482335805893 0.19097387790679932 0.16762419044971466
0.069371141493320465 0.19272400438785553 0.16578951478004456
0.082267835736274719 0.19521071016788483 0.16257879137992859
0.097933053970336914 0.200116366147995 0.16252449154853821
0.11697841435670853 0.20387007296085358 0.1637941300868988
0.1390061229467392 0.20993393659591675 0.16370327770709991
0.15963849425315857 0.21569851040840149 0.1639053076505661
0.1767391562461853 0.21841120719909668 0.15915681421756744
0.19334186613559723 0.22220872342586517 0.15153160691261292
0.21250207722187042 0.22770176827907562 0.14718689024448395
0.23197299242019653 0.23356164991855621 0.14448335766792297
0.25537171959877014 0.24463650584220886 0.14686502516269684
0.28289404511451721 0.25868597626686096 0.15075618028640747
0.30250370502471924 0.26900842785835266 0.15125454962253571
0.31872481107711792 0.27459654211997986 0.14944356679916382
0.34246283769607544 0.28014585375785828 0.15058441460132599
0.36909511685371399 0.28703323006629944 0.15214085578918457
0.389320969581604 0.29518389701843262 0.15611326694488525
0.4090481698513031 0.30638864636421204 0.16036181151866913
0.43154367804527283 0.32081747055053711 0.16844356060028076
0.4583720862865448 0.33342865109443665 0.17621424794197083
0.48769566416740417 0.34324264526367188 0.17808839678764343
0.51763004064559937 0.35309043526649475 0.18184596300125122
0.5467991828918457 0.36418953537940979 0.1894938200712204
0.57313740253448486 0.37872314453125 0.19635272026062012
0.5989755392074585 0.39461427927017212 0.20607195794582367
0.62900704145431519 0.40787580609321594 0.21622419357299805
0.65982425212860107 0.41921621561050415 0.22353006899356842
0.69145464897155762 0.42938116192817688 0.22874405980110168
0.71705341339111328 0.44238877296447754 0.23526695370674133
0.053362805396318436 0.21473927795886993 0.18176709115505219
0.057563222944736481 0.21401627361774445 0.18074023723602295
0.064496487379074097 0.21328563988208771 0.18032476305961609
0.07246553897857666 0.21543547511100769 0.18060357868671417
0.081677794456481934 0.2170141339302063 0.17918466031551361
0.093206487596035004 0.21880991756916046 0.17608439922332764
0.10577298700809479 0.22166350483894348 0.17495447397232056
0.1236053928732872 0.22476722300052643 0.17645163834095001
0.14407457411289215 0.22832205891609192 0.17726036906242371
0.16465926170349121 0.2343313992023468 0.17717805504798889
0.1836564689874649 0.23955492675304413 0.17671975493431091
0.20136013627052307 0.24476572871208191 0.17367850244045258
0.21902163326740265 0.24985623359680176 0.17000223696231842
0.23694553971290588 0.25416600704193115 0.16589410603046417
0.25953158736228943 0.26015126705169678 0.16276039183139801
0.28740724921226501 0.27348488569259644 0.16441495716571808
0.31459921598434448 0.2872326672077179 0.16592033207416534
0.33116403222084045 0.29400530457496643 0.16313381493091583
0.34718373417854309 0.29851523041725159 0.1607353538274765
0.37281027436256409 0.30452942848205566 0.16068185865879059
0.40112632513046265 0.31292197108268738 0.16182099282741547
0.42283645272254944 0.32442459464073181 0.16444703936576843
0.44261029362678528 0.33639025688171387 0.16626982390880585
0.4690595269203186 0.34732922911643982 0.16986969113349915
0.50165092945098877 0.35600674152374268 0.17429268360137939
0.52958238124847412 0.36734879016876221 0.17992988228797913
0.55636000633239746 0.38066089153289795 0.19072361290454865
0.58201217651367188 0.39515256881713867 0.20010189712047577
0.60773694515228271 0.40956255793571472 0.20773886144161224
0.63691902160644531 0.42196395993232727 0.21705521643161774
0.66424185037612915 0.43457251787185669 0.23034799098968506
0.69536507129669189 0.44576540589332581 0.23853503167629242
0.7219509482383728 0.45682749152183533 0.24566490948200226
0.072260044515132904 0.23852021992206573 0.19740696251392365
0.073848038911819458 0.23823738098144531 0.1961495578289032
0.079741597175598145 0.23791907727718353 0.1939462423324585
0.087264575064182281 0.23760035634040833 0.19109472632408142
0.095944769680500031 0.23913761973381042 0.18964707851409912
0.10831500589847565 0.24096179008483887 0.18976259231567383
0.1208203136920929 0.24381299316883087 0.18887098133563995
0.13647817075252533 0.24791158735752106 0.18987075984477997
0.15660481154918671 0.25116682052612305 0.19086168706417084
0.17893265187740326 0.25646451115608215 0.19184611737728119
0.19880744814872742 0.26357552409172058 0.19300393760204315
0.21345151960849762 0.27004590630531311 0.19693180918693542
0.23105740547180176 0.27522766590118408 0.19543936848640442
0.24963478744029999 0.27945661544799805 0.18988928198814392
0.26979705691337585 0.28435710072517395 0.18544867634773254
0.29400548338890076 0.29273867607116699 0.18401072919368744
0.32090219855308533 0.30534136295318604 0.18495392799377441
0.34255343675613403 0.3134397566318512 0.1829429417848587
0.35836693644523621 0.31864619255065918 0.1790744960308075
0.37778684496879578 0.32614496350288391 0.17627774178981781
0.40510916709899902 0.33387461304664612 0.17558923363685608
0.43424880504608154 0.34391525387763977 0.17565765976905823
0.45666450262069702 0.35569140315055847 0.17703764140605927
0.47956568002700806 0.36676961183547974 0.1781734824180603
0.51121556758880615 0.37735328078269958 0.18177542090415955
0.53584319353103638 0.3891139030456543 0.18638560175895691
0.56029397249221802 0.40088033676147461 0.19395717978477478
0.58764475584030151 0.41266936063766479 0.20480790734291077
0.61336785554885864 0.42539721727371216 0.21183778345584869
0.64105385541915894 0.4378514289855957 0.22153326869010925
0.67048907279968262 0.44975164532661438 0.23355554044246674
0.70444202423095703 0.46266013383865356 0.24341526627540588
0.73708570003509521 0.47680273652076721 0.25236892700195312
0.088461421430110931 0.26513215899467468 0.21906927227973938
0.089537173509597778 0.26524370908737183 0.21704266965389252
0.093426018953323364 0.26449558138847351 0.21419623494148254
0.10233038663864136 0.26289364695549011 0.20809280872344971
0.11254347860813141 0.26242285966873169 0.20221363008022308
0.12699329853057861 0.26461604237556458 0.20181925594806671
0.14156612753868103 0.26760104298591614 0.2032964676618576
0.15666273236274719 0.27166056632995605 0.20407658815383911
0.17336046695709229 0.27615240216255188 0.20522139966487885
0.19493094086647034 0.28174063563346863 0.20665965974330902
0.21678736805915833 0.28825953602790833 0.2082076370716095
0.23002508282661438 0.29535588622093201 0.2134837806224823
0.24321700632572174 0.3014850914478302 0.21876861155033112
0.26329696178436279 0.30567094683647156 0.21552108228206635
0.28395736217498779 0.31035700440406799 0.20959417521953583
0.30479848384857178 0.31629511713981628 0.20694273710250854
0.32796159386634827 0.32456791400909424 0.20569382607936859
0.35073712468147278 0.33238908648490906 0.20371398329734802
0.37036308646202087 0.33832439780235291 0.19962547719478607
0.39018887281417847 0.34595257043838501 0.19524642825126648
0.41151794791221619 0.3549007773399353 0.19300803542137146
0.4443632960319519 0.36483365297317505 0.19217252731323242
0.47240555286407471 0.37672543525695801 0.19283203780651093
0.49372795224189758 0.38884329795837402 0.1946110874414444
0.52037805318832397 0.4021376371383667 0.19704802334308624
0.54593026638031006 0.41358503699302673 0.19947211444377899
0.56732398271560669 0.42236092686653137 0.20295059680938721
0.59208464622497559 0.43241629004478455 0.21064414083957672
0.6180121898651123 0.44222337007522583 0.21685782074928284
0.64632642269134521 0.45462796092033386 0.22739474475383759
0.67748242616653442 0.46646398305892944 0.23697032034397125
0.71138238906860352 0.47947561740875244 0.24568586051464081
0.74874943494796753 0.4951290488243103 0.25686526298522949
0.10614462196826935 0.2891431450843811 0.23840618133544922
0.11127831041812897 0.28862017393112183 0.23539787530899048
0.11543017625808716 0.28859207034111023 0.23228767514228821
0.12340426445007324 0.28876438736915588 0.22787190973758698
0.13378970324993134 0.28833067417144775 0.221596360206604
0.14841838181018829 0.29045841097831726 0.21712332963943481
0.16336090862751007 0.29299184679985046 0.21720336377620697
0.17840352654457092 0.29612499475479126 0.21829316020011902
0.19339011609554291 0.30120110511779785 0.21964754164218903
0.20720553398132324 0.30651092529296875 0.22265671193599701
0.22768713533878326 0.31280434131622314 0.22451645135879517
0.24587823450565338 0.32020816206932068 0.22772543132305145
0.2589181661605835 0.32675814628601074 0.23369352519512177
0.27670702338218689 0.32967403531074524 0.2353997528553009
0.298747718334198 0.33344355225563049 0.23072904348373413
0.31767368316650391 0.33855551481246948 0.22587522864341736
0.34015241265296936 0.34644815325737 0.22447548806667328
0.36460977792739868 0.3539632260799408 0.22228066623210907
0.38668948411941528 0.35910326242446899 0.21927134692668915
0.40808051824569702 0.36692774295806885 0.21479129791259766
0.42964628338813782 0.37617352604866028 0.21170641481876373
0.45925047993659973 0.38875234127044678 0.21301122009754181
0.48962751030921936 0.40037953853607178 0.21388761699199677
0.51020216941833496 0.41045430302619934 0.21149979531764984
0.53549981117248535 0.422496497631073 0.21209880709648132
0.56396371126174927 0.43366190791130066 0.21287578344345093
0.58731818199157715 0.44145461916923523 0.21659770607948303
0.61038810014724731 0.44944185018539429 0.22009594738483429
0.63443595170974731 0.45810604095458984 0.22191864252090454
0.66507482528686523 0.47039568424224854 0.22807314991950989
0.69971930980682373 0.48422935605049133 0.23813129961490631
0.73071092367172241 0.49546188116073608 0.24619798362255096
0.76048290729522705 0.50661939382553101 0.25522932410240173
0.12322133034467697 0.31342789530754089 0.2574252188205719
0.13095670938491821 0.31307175755500793 0.25427061319351196
