Textures/16.cube
# Created by: G'MIC (https://gmic.eu)
TITLE "FuturisticBleak3.cube"
# LUT size
LUT_3D_SIZE 33
# Data domain
DOMAIN_MIN 0.0 0.0 0.0
DOMAIN_MAX 1.0 1.0 1.0
# LUT data points
0.10128267854452133 0.12024567276239395 0.14060784876346588
0.10478056967258453 0.12621156871318817 0.14398562908172607
0.10920937359333038 0.13105154037475586 0.14817886054515839
0.11505279690027237 0.13211418688297272 0.15111435949802399
0.1251806914806366 0.13519059121608734 0.15508605539798737
0.14184883236885071 0.14491145312786102 0.16466858983039856
0.16013211011886597 0.15480582416057587 0.1727282851934433
0.17793583869934082 0.15875981748104095 0.17227134108543396
0.19736292958259583 0.16328197717666626 0.16826747357845306
0.21692831814289093 0.170503169298172 0.16836908459663391
0.23478494584560394 0.17665676772594452 0.17148680984973907
0.25177904963493347 0.18168863654136658 0.17689350247383118
0.27114289999008179 0.18651342391967773 0.18178890645503998
0.29047638177871704 0.19202178716659546 0.18698516488075256
0.30816304683685303 0.19764630496501923 0.19124342501163483
0.32369625568389893 0.20211459696292877 0.19297786056995392
0.33921560645103455 0.20672884583473206 0.19511507451534271
0.35613849759101868 0.21471519768238068 0.19747605919837952
0.36997541785240173 0.22415576875209808 0.20192576944828033
0.38763603568077087 0.23185169696807861 0.20677947998046875
0.40351352095603943 0.23895888030529022 0.21246498823165894
0.41695088148117065 0.24827882647514343 0.21973538398742676
0.43235263228416443 0.25609394907951355 0.22476518154144287
0.45141837000846863 0.26194900274276733 0.22729092836380005
0.47283729910850525 0.26928415894508362 0.23089009523391724
0.49468043446540833 0.27936390042304993 0.23987767100334167
0.51309114694595337 0.28625911474227905 0.24769541621208191
0.53226912021636963 0.29111900925636292 0.25110259652137756
0.55381256341934204 0.29640674591064453 0.25146883726119995
0.57353866100311279 0.30343398451805115 0.2563244104385376
0.59342145919799805 0.31256145238876343 0.26597625017166138
0.61440789699554443 0.32279244065284729 0.27292761206626892
0.6360553503036499 0.33045867085456848 0.27632114291191101
0.11307913810014725 0.13844284415245056 0.15037722885608673
0.11369826644659042 0.14089135825634003 0.14995613694190979
0.11732876300811768 0.14457637071609497 0.15292178094387054
0.12704715132713318 0.14616644382476807 0.15547040104866028
0.13865633308887482 0.14926707744598389 0.15821307897567749
0.15230047702789307 0.15412747859954834 0.16159476339817047
0.17053857445716858 0.16220711171627045 0.16566373407840729
0.18739517033100128 0.16655586659908295 0.16746802628040314
0.20689332485198975 0.17128179967403412 0.16336341202259064
0.22429932653903961 0.17680090665817261 0.1650155633687973
0.24115517735481262 0.18252494931221008 0.17004270851612091
0.25625917315483093 0.18819442391395569 0.17601011693477631
0.27427566051483154 0.19378642737865448 0.18111173808574677
0.29199203848838806 0.19822423160076141 0.18686498701572418
0.3089868426322937 0.20441502332687378 0.19227401912212372
0.32586228847503662 0.21239349246025085 0.19532577693462372
0.34080812335014343 0.21737606823444366 0.19653470814228058
0.35653170943260193 0.22232308983802795 0.19926759600639343
0.37324410676956177 0.22971852123737335 0.20382492244243622
0.3908379077911377 0.23807619512081146 0.20883499085903168
0.40808764100074768 0.24608518183231354 0.21439468860626221
0.42114299535751343 0.25547921657562256 0.22141709923744202
0.43536752462387085 0.26291853189468384 0.22686077654361725
0.45117786526679993 0.26904261112213135 0.22940993309020996
0.47132322192192078 0.27622601389884949 0.23262587189674377
0.49378278851509094 0.28501927852630615 0.24052301049232483
0.51582556962966919 0.29437306523323059 0.25139215588569641
0.53541320562362671 0.29966983199119568 0.25481811165809631
0.5537569522857666 0.30442479252815247 0.25482505559921265
0.57531255483627319 0.30764353275299072 0.25582143664360046
0.59485942125320435 0.31610465049743652 0.26605209708213806
0.61566716432571411 0.32710948586463928 0.27556633949279785
0.63626331090927124 0.33565011620521545 0.27908369898796082
0.12204430997371674 0.15557211637496948 0.16009290516376495
0.12155435234308243 0.1572372168302536 0.15811306238174438
0.12291911989450455 0.15861749649047852 0.15767015516757965
0.13545890152454376 0.16106940805912018 0.15884044766426086
0.15078723430633545 0.16342815756797791 0.15746180713176727
0.16398438811302185 0.16676057875156403 0.15603283047676086
0.18112128973007202 0.17253942787647247 0.15757118165493011
0.19878749549388885 0.17764715850353241 0.15797285735607147
0.21703679859638214 0.18205812573432922 0.15744924545288086
0.23456570506095886 0.18517448008060455 0.15924331545829773
0.24923355877399445 0.19005386531352997 0.16734376549720764
0.26300612092018127 0.19554679095745087 0.17501227557659149
0.27860698103904724 0.20218682289123535 0.18017800152301788
0.29648157954216003 0.20712922513484955 0.18590359389781952
0.31122350692749023 0.2127910703420639 0.19115765392780304
0.32744565606117249 0.22012871503829956 0.19360974431037903
0.34504589438438416 0.22838245332241058 0.19445993006229401
0.36122089624404907 0.23269557952880859 0.19838619232177734
0.37385654449462891 0.2381918877363205 0.20475839078426361
0.39154908061027527 0.24568925797939301 0.20981276035308838
0.41150948405265808 0.25400161743164062 0.21512827277183533
0.42664751410484314 0.2631162703037262 0.22193478047847748
0.44041821360588074 0.27024030685424805 0.22695323824882507
0.45508375763893127 0.27755832672119141 0.23003998398780823
0.47214338183403015 0.2852117121219635 0.23259547352790833
0.49251210689544678 0.2910151481628418 0.23985807597637177
0.51593410968780518 0.29887095093727112 0.25125947594642639
0.53706872463226318 0.30658087134361267 0.25594460964202881
0.55323690176010132 0.31201958656311035 0.25760790705680847
0.57395219802856445 0.31530141830444336 0.25702685117721558
0.59636223316192627 0.32087334990501404 0.26432690024375916
0.61765283346176147 0.3321559727191925 0.27581724524497986
0.63869935274124146 0.34282213449478149 0.28117924928665161
0.12910822033882141 0.17173203825950623 0.17138855159282684
0.12919828295707703 0.17194074392318726 0.16870424151420593
0.13083145022392273 0.17341290414333344 0.16666500270366669
0.14216852188110352 0.17567238211631775 0.16593421995639801
0.15734371542930603 0.17754738032817841 0.16321597993373871
0.16899736225605011 0.18040694296360016 0.16128961741924286
0.18431153893470764 0.18572524189949036 0.16240942478179932
0.20237815380096436 0.19247265160083771 0.16535162925720215
0.22148184478282928 0.1967109888792038 0.16530059278011322
0.23962573707103729 0.1988418847322464 0.16414326429367065
0.25678613781929016 0.20199635624885559 0.16870459914207458
0.26958003640174866 0.20586748421192169 0.17710930109024048
0.2848670482635498 0.21059359610080719 0.17904520034790039
0.30353289842605591 0.21695235371589661 0.18241187930107117
0.31933802366256714 0.22323547303676605 0.18691729009151459
0.33235660195350647 0.22863131761550903 0.18926364183425903
0.34778988361358643 0.23519472777843475 0.19137224555015564
0.36629632115364075 0.24169044196605682 0.1944442093372345
0.37884140014648438 0.24863934516906738 0.20193357765674591
0.39142829179763794 0.25652581453323364 0.20965254306793213
0.41115200519561768 0.26415795087814331 0.21524536609649658
0.43004968762397766 0.27172526717185974 0.22187651693820953
0.4463411271572113 0.2791333794593811 0.22758923470973969
0.45980101823806763 0.28632670640945435 0.23058074712753296
0.47450542449951172 0.29552403092384338 0.23403944075107574
0.49343696236610413 0.30081012845039368 0.23970592021942139
0.51387357711791992 0.30414444208145142 0.24887877702713013
0.53470063209533691 0.31071311235427856 0.25512683391571045
0.55248051881790161 0.31803715229034424 0.25962769985198975
0.5729178786277771 0.32452818751335144 0.26341992616653442
0.59716308116912842 0.33002361655235291 0.26584523916244507
0.62005060911178589 0.33894890546798706 0.27412694692611694
0.64133894443511963 0.34761232137680054 0.28060895204544067
0.13652391731739044 0.18881127238273621 0.18427802622318268
0.13729113340377808 0.18941156566143036 0.18155059218406677
0.14009127020835876 0.18951031565666199 0.17775547504425049
0.15018758177757263 0.19157235324382782 0.17313081026077271
0.16246838867664337 0.19266633689403534 0.17077118158340454
0.17387650907039642 0.19580206274986267 0.17039044201374054
0.18741089105606079 0.19934955239295959 0.17123928666114807
0.20473869144916534 0.20623581111431122 0.17458085715770721
0.22182574868202209 0.2118065357208252 0.17767529189586639
0.23987255990505219 0.21344134211540222 0.17640259861946106
0.26034817099571228 0.21634101867675781 0.17568293213844299
0.27549466490745544 0.2187841385602951 0.18090195953845978
0.2914043664932251 0.22091285884380341 0.18102215230464935
0.30972000956535339 0.22553049027919769 0.18060971796512604
0.32742601633071899 0.23333887755870819 0.18354915082454681
0.3414439857006073 0.23839689791202545 0.18646045029163361
0.35394963622093201 0.24325054883956909 0.18838708102703094
0.37185573577880859 0.24985653162002563 0.19180257618427277
0.38660809397697449 0.25936326384544373 0.19818733632564545
0.39889118075370789 0.26797047257423401 0.20661798119544983
0.41356185078620911 0.2727915346622467 0.21232578158378601
0.43265038728713989 0.27965867519378662 0.21779172122478485
0.4508357048034668 0.28863301873207092 0.22755202651023865
0.46586397290229797 0.29726994037628174 0.23227529227733612
0.48014724254608154 0.30495631694793701 0.23519892990589142
0.49834227561950684 0.30977657437324524 0.23869322240352631
0.51584964990615845 0.31323042511940002 0.24756765365600586
0.53473162651062012 0.31794556975364685 0.25502878427505493
0.55328696966171265 0.32543483376502991 0.26054105162620544
0.57423585653305054 0.33302545547485352 0.26648175716400146
0.59807461500167847 0.34063011407852173 0.27039062976837158
0.62143850326538086 0.34835010766983032 0.27434048056602478
0.64256918430328369 0.3541111946105957 0.27998095750808716
0.14557856321334839 0.20606066286563873 0.19570693373680115
0.14783474802970886 0.20637476444244385 0.19332343339920044
0.15103787183761597 0.20638015866279602 0.18939146399497986
0.1600068211555481 0.20756617188453674 0.1816326379776001
0.17012870311737061 0.20942486822605133 0.17852504551410675
0.18018829822540283 0.21381425857543945 0.18063017725944519
0.19175262749195099 0.21700163185596466 0.18175871670246124
0.20548282563686371 0.22061489522457123 0.18468135595321655
0.22062841057777405 0.22630451619625092 0.18834537267684937
0.23536337912082672 0.23187440633773804 0.18971897661685944
0.25486084818840027 0.23474894464015961 0.19003261625766754
0.27484661340713501 0.23719215393066406 0.1883714497089386
0.29114675521850586 0.23731856048107147 0.18518760800361633
0.31073081493377686 0.23942229151725769 0.18173462152481079
0.33259281516075134 0.24348179996013641 0.18209105730056763
0.35053595900535583 0.24874112010002136 0.18592646718025208
0.36451905965805054 0.25408598780632019 0.18979732692241669
0.38160017132759094 0.2602677047252655 0.1932416707277298
0.39591735601425171 0.26894170045852661 0.20054666697978973
0.40862622857093811 0.2775130569934845 0.20758531987667084
0.4233742356300354 0.28207379579544067 0.21177013218402863
0.44080933928489685 0.28734123706817627 0.21578295528888702
0.45798370242118835 0.29662877321243286 0.22510118782520294
0.4750535786151886 0.3041386604309082 0.23069304227828979
0.49119427800178528 0.31159266829490662 0.23281712830066681
0.50883591175079346 0.31748420000076294 0.23583328723907471
0.52458250522613525 0.32403352856636047 0.24253816902637482
0.5434754490852356 0.32914596796035767 0.25137832760810852
0.56317859888076782 0.33673161268234253 0.26102536916732788
0.58207535743713379 0.34383317828178406 0.26793798804283142
0.60140246152877808 0.35046985745429993 0.27259325981140137
0.6237940788269043 0.35874184966087341 0.2759803831577301
0.64359736442565918 0.36623361706733704 0.2810930609703064
0.15673455595970154 0.22304430603981018 0.20588116347789764
0.15794801712036133 0.223048135638237 0.20415234565734863
0.16170839965343475 0.22304940223693848 0.20084479451179504
0.17011635005474091 0.22398903965950012 0.1935872882604599
0.17889802157878876 0.22659575939178467 0.18801276385784149
0.18741993606090546 0.23013842105865479 0.18909744918346405
0.19764445722103119 0.23427765071392059 0.19160690903663635
0.20983202755451202 0.23734235763549805 0.19494016468524933
0.2203991562128067 0.2421596497297287 0.20009367167949677
0.23364777863025665 0.24764621257781982 0.20282274484634399
0.24878734350204468 0.25345426797866821 0.20342206954956055
0.26863491535186768 0.25838318467140198 0.20311865210533142
0.28548330068588257 0.25837424397468567 0.19880317151546478
0.30428984761238098 0.25850993394851685 0.19471396505832672
0.32851850986480713 0.25965029001235962 0.19256407022476196
0.34792858362197876 0.26342645287513733 0.19371107220649719
0.36687630414962769 0.2685467004776001 0.19748973846435547
0.38808169960975647 0.27371492981910706 0.19930782914161682
0.40545433759689331 0.27928036451339722 0.20404735207557678
0.41910058259963989 0.28537982702255249 0.2097654789686203
0.43558892607688904 0.29071304202079773 0.21178960800170898
0.45198282599449158 0.29599961638450623 0.21576510369777679
0.46720659732818604 0.30510193109512329 0.22442993521690369
0.48443377017974854 0.31159308552742004 0.22886782884597778
0.50217503309249878 0.31797334551811218 0.23131702840328217
0.51985204219818115 0.32432964444160461 0.2339046448469162
0.53533267974853516 0.33235970139503479 0.23922044038772583
0.5532228946685791 0.33956775069236755 0.24640940129756927
0.57400238513946533 0.34731519222259521 0.25785145163536072
0.59338659048080444 0.35508373379707336 0.26776382327079773
0.60887855291366577 0.36030003428459167 0.2725183367729187
0.62731891870498657 0.36732697486877441 0.2759803831577301
0.64742553234100342 0.375823974609375 0.28112736344337463
0.16983148455619812 0.24003277719020844 0.21547031402587891
0.17035259306430817 0.24003277719020844 0.21339718997478485
0.17397482693195343 0.24090118706226349 0.21072044968605042
0.18043464422225952 0.2417590320110321 0.20530466735363007
0.1889335960149765 0.24353533983230591 0.19938628375530243
0.19554105401039124 0.24528776109218597 0.19893038272857666
0.20359404385089874 0.24918392300605774 0.20018754899501801
0.21472059190273285 0.25300797820091248 0.20315510034561157
0.22542178630828857 0.25773224234580994 0.2081822007894516
0.23562449216842651 0.26285547018051147 0.21366995573043823
0.2485467940568924 0.26895207166671753 0.2168678492307663
0.26607394218444824 0.2766818106174469 0.21740108728408813
0.28263553977012634 0.28003323078155518 0.21476808190345764
0.29966795444488525 0.27942779660224915 0.21054354310035706
0.3208622932434082 0.27933350205421448 0.20743308961391449
0.34279122948646545 0.28196355700492859 0.20731398463249207
0.36085927486419678 0.28587895631790161 0.20796328783035278
0.38377201557159424 0.29011797904968262 0.20813953876495361
0.40934056043624878 0.29335346817970276 0.20774047076702118
0.42859563231468201 0.29744303226470947 0.21123641729354858
0.44649350643157959 0.30242380499839783 0.21332016587257385
0.46237263083457947 0.30671775341033936 0.21632459759712219
0.47769612073898315 0.31346127390861511 0.22339531779289246
0.49551612138748169 0.31856682896614075 0.22783829271793365
0.51446020603179932 0.32388299703598022 0.2314496636390686
0.53116083145141602 0.33200126886367798 0.23511071503162384
0.54691338539123535 0.34066048264503479 0.24007074534893036
0.56437551975250244 0.34715253114700317 0.24696566164493561
0.58389186859130859 0.35444808006286621 0.25829100608825684
0.60212820768356323 0.36294776201248169 0.2664715051651001
0.61781448125839233 0.36977064609527588 0.27001705765724182
0.63430386781692505 0.37587070465087891 0.27458062767982483
0.65266460180282593 0.384269118309021 0.28087204694747925
0.183758944272995 0.25818651914596558 0.2254251092672348
0.18493109941482544 0.25967180728912354 0.22285656630992889
0.1897149384021759 0.26089608669281006 0.21888914704322815
0.19524426758289337 0.26091054081916809 0.21467594802379608
0.20130561292171478 0.26097363233566284 0.21009460091590881
0.2076793909072876 0.26263618469238281 0.20930758118629456
0.21428652107715607 0.26550132036209106 0.20996518433094025
0.22450517117977142 0.26920899748802185 0.21149221062660217
0.23431627452373505 0.27405998110771179 0.21541514992713928
0.24401596188545227 0.27922424674034119 0.22104905545711517
0.25449386239051819 0.28442478179931641 0.22672161459922791
0.26995328068733215 0.29092124104499817 0.22910164296627045
0.28572607040405273 0.29693722724914551 0.22856695950031281
0.29917541146278381 0.30022493004798889 0.22618813812732697
0.3176821768283844 0.30033624172210693 0.22248829901218414
0.33689939975738525 0.30342525243759155 0.22200551629066467
0.35474786162376404 0.30717414617538452 0.22214595973491669
0.37555679678916931 0.30911129713058472 0.22183403372764587
0.40167352557182312 0.31181347370147705 0.21942897140979767
0.4271380603313446 0.31535816192626953 0.21911577880382538
0.44982591271400452 0.31846398115158081 0.22009116411209106
0.46865442395210266 0.32120642066001892 0.22068755328655243
0.48750406503677368 0.32439565658569336 0.22248324751853943
0.50492823123931885 0.32842558622360229 0.22702275216579437
0.52558672428131104 0.33168426156044006 0.23238462209701538
0.54214084148406982 0.33947905898094177 0.23768846690654755
0.55844795703887939 0.3484179675579071 0.24338085949420929
0.57658094167709351 0.35447528958320618 0.249625563621521
0.59483432769775391 0.36105009913444519 0.26032593846321106
0.6116984486579895 0.3691839873790741 0.26585400104522705
0.62723398208618164 0.37683853507041931 0.26658651232719421
0.6435544490814209 0.38401240110397339 0.27033397555351257
0.66213935613632202 0.3918006420135498 0.27855920791625977
0.19644573330879211 0.2766316831111908 0.23543812334537506
0.19818967580795288 0.27826800942420959 0.2334170788526535
0.20295743644237518 0.2783200740814209 0.22957231104373932
0.20817138254642487 0.27899706363677979 0.22653877735137939
0.21438749134540558 0.28003975749015808 0.22263160347938538
0.22045522928237915 0.28216820955276489 0.22094148397445679
0.22723741829395294 0.28485006093978882 0.22134791314601898
0.23701593279838562 0.28746068477630615 0.2224656343460083
0.24574802815914154 0.29171958565711975 0.22558154165744781
0.25433248281478882 0.29636457562446594 0.22974273562431335
0.2640916109085083 0.30146396160125732 0.23535269498825073
0.27667766809463501 0.30707263946533203 0.23927439749240875
0.29184693098068237 0.31200441718101501 0.24013000726699829
0.30449926853179932 0.31681549549102783 0.2388361394405365
0.31699374318122864 0.32178419828414917 0.23947210609912872
0.33278748393058777 0.32586997747421265 0.24016791582107544
0.34972473978996277 0.32850852608680725 0.2392755001783371
0.37040954828262329 0.32969430088996887 0.23856222629547119
0.39404764771461487 0.33151659369468689 0.23513084650039673
0.4181639552116394 0.33345526456832886 0.23301698267459869
0.4414542019367218 0.33610016107559204 0.23181772232055664
0.46521732211112976 0.33865901827812195 0.23034748435020447
0.48666167259216309 0.34137293696403503 0.23004910349845886
0.50684505701065063 0.3456805944442749 0.2324792891740799
0.53052824735641479 0.34843003749847412 0.23711401224136353
0.55148321390151978 0.35162714123725891 0.24121566116809845
0.56791156530380249 0.35848549008369446 0.24685972929000854
0.58622288703918457 0.36270427703857422 0.25070673227310181
0.60432565212249756 0.36811444163322449 0.25906381011009216
0.62184023857116699 0.37635833024978638 0.26326659321784973
0.63945013284683228 0.38390907645225525 0.26513025164604187
0.65645790100097656 0.39131468534469604 0.27007836103439331
0.67573666572570801 0.39933991432189941 0.2800319492816925
0.20904158055782318 0.29462930560112 0.2455785721540451
0.21116694808006287 0.29526153206825256 0.24410007894039154
0.21582920849323273 0.2968808114528656 0.24111650884151459
0.22106760740280151 0.29886239767074585 0.23876358568668365
0.2273518294095993 0.29922321438789368 0.23578532040119171
0.23400294780731201 0.30171871185302734 0.23378682136535645
0.2399689108133316 0.30373331904411316 0.2330305278301239
0.24879077076911926 0.30694210529327393 0.23429730534553528
0.25723391771316528 0.31055146455764771 0.23724673688411713
0.26472741365432739 0.31452807784080505 0.24012814462184906
0.27166301012039185 0.31799784302711487 0.24200232326984406
0.28292673826217651 0.32300692796707153 0.24483349919319153
0.29596579074859619 0.3280981183052063 0.24718327820301056
0.31177851557731628 0.33402228355407715 0.25068515539169312
0.32394254207611084 0.34092435240745544 0.25383105874061584
0.33332660794258118 0.3455674946308136 0.25524941086769104
0.34660398960113525 0.348735511302948 0.25646746158599854
0.36625507473945618 0.34997466206550598 0.25557431578636169
0.39011681079864502 0.35020634531974792 0.25205984711647034
0.41359937191009521 0.353415846824646 0.24826551973819733
0.43390929698944092 0.35593077540397644 0.24700033664703369
0.45812395215034485 0.35810175538063049 0.24337531626224518
0.48341649770736694 0.35980260372161865 0.23930086195468903
0.50620019435882568 0.36387309432029724 0.24045267701148987
0.5337224006652832 0.36933016777038574 0.24424161016941071
0.55786633491516113 0.3706786036491394 0.24722594022750854
0.57570725679397583 0.37134596705436707 0.24974459409713745
0.59494578838348389 0.37399736046791077 0.25138494372367859
0.61370819807052612 0.37639376521110535 0.25602889060974121
0.63155478239059448 0.38324403762817383 0.2600809633731842
0.65152770280838013 0.39111772179603577 0.26421859860420227
0.67069500684738159 0.39883828163146973 0.2728656530380249
0.69123643636703491 0.40653792023658752 0.2837333083152771
0.2257237434387207 0.31419950723648071 0.25694262981414795
0.22675645351409912 0.31447333097457886 0.2563614547252655
0.23129153251647949 0.31622430682182312 0.25342053174972534
0.23761972784996033 0.31650319695472717 0.25011718273162842
0.24388617277145386 0.31734970211982727 0.24745398759841919
0.24903154373168945 0.31997856497764587 0.24495944380760193
0.25481119751930237 0.32252126932144165 0.24401125311851501
0.26085206866264343 0.3263835608959198 0.24476248025894165
0.2691626250743866 0.32983851432800293 0.24708810448646545
0.27698421478271484 0.33295989036560059 0.24952258169651031
0.28287875652313232 0.33575531840324402 0.24936811625957489
0.29121524095535278 0.3402692973613739 0.25262463092803955
0.30340078473091125 0.34550654888153076 0.25628110766410828
0.31903249025344849 0.35172608494758606 0.26138275861740112
0.33354401588439941 0.35765448212623596 0.26566234230995178
0.34225717186927795 0.36074674129486084 0.26720565557479858
0.35171961784362793 0.36533907055854797 0.2707773745059967
0.36700215935707092 0.36961829662322998 0.27529743313789368
0.38878577947616577 0.37089502811431885 0.27295193076133728
0.40905579924583435 0.37188988924026489 0.26637756824493408
0.42949384450912476 0.37564554810523987 0.26307886838912964
0.45261302590370178 0.37980625033378601 0.26141262054443359
0.47843837738037109 0.38063696026802063 0.2561001181602478
0.50338906049728394 0.38282245397567749 0.25202292203903198
0.53302544355392456 0.3889758288860321 0.25401878356933594
0.56121259927749634 0.39143547415733337 0.25575244426727295
0.58130258321762085 0.39081135392189026 0.25590470433235168
0.60299712419509888 0.39059019088745117 0.25523391366004944
0.62668526172637939 0.39028206467628479 0.2565644383430481
0.64667040109634399 0.39324158430099487 0.25959846377372742
0.66506093740463257 0.40001958608627319 0.26332834362983704
0.68593019247055054 0.40764293074607849 0.27267026901245117
0.7086179256439209 0.41550841927528381 0.28484302759170532
0.24426472187042236 0.33376994729042053 0.26672494411468506
0.24521653354167938 0.33357608318328857 0.26682949066162109
0.24734757840633392 0.33390066027641296 0.26593062281608582
