Textures/16.cube
# Created by: G'MIC (https://gmic.eu)
TITLE "FuturisticBleak3.cube"
# LUT size
LUT_3D_SIZE 5
# Data domain
DOMAIN_MIN 0.0 0.0 0.0
DOMAIN_MAX 1.0 1.0 1.0
# LUT data points
0.10128267854452133 0.12024567276239395 0.14060784876346588
0.19736292958259583 0.16328197717666626 0.16826747357845306
0.33921560645103455 0.20672884583473206 0.19511507451534271
0.47283729910850525 0.26928415894508362 0.23089009523391724
0.6360553503036499 0.33045867085456848 0.27632114291191101
0.183758944272995 0.25818651914596558 0.2254251092672348
0.23431627452373505 0.27405998110771179 0.21541514992713928
0.35474786162376404 0.30717414617538452 0.22214595973491669
0.52558672428131104 0.33168426156044006 0.23238462209701538
0.66213935613632202 0.3918006420135498 0.27855920791625977
0.32351779937744141 0.41324537992477417 0.31776055693626404
0.34529605507850647 0.42063260078430176 0.30027377605438232
0.41140148043632507 0.44949233531951904 0.31727093458175659
0.52679502964019775 0.48457062244415283 0.32889395952224731
0.73038947582244873 0.50005733966827393 0.31132727861404419
0.51244056224822998 0.58196479082107544 0.43648043274879456
0.52483338117599487 0.58968627452850342 0.42852705717086792
0.56436467170715332 0.60189783573150635 0.42368587851524353
0.63352847099304199 0.62691342830657959 0.44880905747413635
0.73479890823364258 0.66026675701141357 0.46360591053962708
0.68319964408874512 0.73810142278671265 0.56977128982543945
0.68735718727111816 0.74204736948013306 0.56066638231277466
0.70862263441085815 0.75597989559173584 0.54904359579086304
0.75844377279281616 0.76888585090637207 0.55511629581451416
0.83814704418182373 0.80627238750457764 0.59248852729797363
0.11426360160112381 0.14487729966640472 0.17157794535160065
0.16878144443035126 0.19816045463085175 0.20871974527835846
0.25386133790016174 0.27369007468223572 0.26583868265151978
0.41083827614784241 0.33225071430206299 0.30821067094802856
0.58261686563491821 0.38362044095993042 0.35265800356864929
0.19259041547775269 0.26203840970993042 0.24840475618839264
0.21962128579616547 0.2806706428527832 0.26436495780944824
0.32712161540985107 0.32042336463928223 0.28041109442710876
0.47246971726417542 0.35971325635910034 0.30548933148384094
0.63951343297958374 0.41011202335357666 0.35857605934143066
0.33007404208183289 0.41159552335739136 0.34909588098526001
0.34160274267196655 0.42307299375534058 0.34995725750923157
0.40664809942245483 0.45226916670799255 0.35086613893508911
0.52883946895599365 0.48940801620483398 0.35227742791175842
0.73348379135131836 0.50544029474258423 0.34075206518173218
0.51173031330108643 0.58194452524185181 0.46583864092826843
0.52535456418991089 0.58648574352264404 0.46083396673202515
0.56191396713256836 0.60492920875549316 0.44869965314865112
0.63366025686264038 0.63171136379241943 0.47559970617294312
0.73819077014923096 0.66335338354110718 0.48199442028999329
0.68545913696289062 0.74017858505249023 0.59152257442474365
0.69713383913040161 0.74625808000564575 0.58835691213607788
0.71644693613052368 0.75944697856903076 0.57566291093826294
0.75754553079605103 0.77338743209838867 0.57125002145767212
0.83481162786483765 0.80794841051101685 0.60887032747268677
0.1485629677772522 0.18700261414051056 0.21379175782203674
0.18347865343093872 0.22294177114963531 0.23831732571125031
0.25884786248207092 0.29089167714118958 0.29125517606735229
0.36216333508491516 0.37353202700614929 0.34378984570503235
0.50512754917144775 0.45986330509185791 0.39755305647850037
0.21076525747776031 0.27561578154563904 0.2701452374458313
0.23936782777309418 0.29728126525878906 0.29006072878837585
0.29683184623718262 0.34726274013519287 0.32408872246742249
0.39700663089752197 0.41297313570976257 0.36679121851921082
0.54107785224914551 0.47792726755142212 0.41298630833625793
0.3431113064289093 0.41999375820159912 0.37278789281845093
0.35774675011634827 0.43080803751945496 0.3792870044708252
0.40402975678443909 0.46220201253890991 0.40584215521812439
0.50821197032928467 0.50089913606643677 0.4267730712890625
0.67422336339950562 0.53938400745391846 0.45053794980049133
0.53350210189819336 0.58450740575790405 0.49504998326301575
0.54260194301605225 0.58978664875030518 0.49815350770950317
0.56415081024169922 0.60577738285064697 0.50230443477630615
0.62593233585357666 0.63758361339569092 0.51047098636627197
0.74079018831253052 0.66445678472518921 0.51396584510803223
0.6991456151008606 0.73459368944168091 0.62077456712722778
0.70485317707061768 0.74245887994766235 0.62474089860916138
0.72152084112167358 0.75821995735168457 0.6258811354637146
0.76269954442977905 0.78248482942581177 0.61249083280563354
0.83436071872711182 0.81037497520446777 0.64241200685501099
0.19758886098861694 0.24168914556503296 0.27015578746795654
0.21873179078102112 0.26477771997451782 0.28603628277778625
0.27702265977859497 0.3173428475856781 0.32620269060134888
0.36776044964790344 0.39010712504386902 0.37738990783691406
0.4841654896736145 0.47325211763381958 0.44207116961479187
0.24291001260280609 0.30373847484588623 0.3095129132270813
0.26388499140739441 0.32206213474273682 0.32467427849769592
0.31049677729606628 0.36689853668212891 0.35500895977020264
0.40527847409248352 0.43007636070251465 0.40160876512527466
0.51412653923034668 0.50405073165893555 0.45335698127746582
0.36515340209007263 0.43752238154411316 0.39991363883018494
0.37827417254447937 0.44875314831733704 0.40902900695800781
0.42071902751922607 0.47308143973350525 0.42796024680137634
0.50136494636535645 0.51656454801559448 0.45714157819747925
0.59821242094039917 0.57805401086807251 0.50424015522003174
0.54633712768554688 0.59200286865234375 0.51258045434951782
0.55649077892303467 0.59566426277160645 0.51605039834976196
0.57967537641525269 0.6118282675743103 0.52953845262527466
0.62976831197738647 0.64641749858856201 0.56120258569717407
0.71917355060577393 0.67977380752563477 0.58478277921676636
0.70775240659713745 0.74244588613510132 0.64138054847717285
0.71516567468643188 0.74699693918228149 0.64461064338684082
0.73185825347900391 0.7578856348991394 0.65232807397842407
0.76634073257446289 0.78114646673202515 0.66981935501098633
0.83449739217758179 0.81376475095748901 0.68138819932937622
0.24389660358428955 0.28950345516204834 0.31889572739601135
0.26196420192718506 0.30534690618515015 0.33276656270027161
0.30584517121315002 0.35123953223228455 0.36559322476387024
0.39718639850616455 0.42020326852798462 0.41376501321792603
0.50218713283538818 0.49571943283081055 0.4738273024559021
0.28510147333145142 0.34530258178710938 0.35918587446212769
0.29763329029083252 0.35870122909545898 0.37074989080429077
0.34436768293380737 0.39655616879463196 0.39522945880889893
0.42638593912124634 0.45510748028755188 0.43605706095695496
0.5375443696975708 0.52700942754745483 0.49678301811218262
0.39546447992324829 0.46092492341995239 0.42418044805526733
0.4099312424659729 0.46554931998252869 0.43286988139152527
0.45772683620452881 0.49463459849357605 0.45655438303947449
0.5257905125617981 0.5364566445350647 0.49031499028205872
0.60742056369781494 0.59294819831848145 0.54151028394699097
0.55909770727157593 0.60155230760574341 0.5387604832649231
0.56671488285064697 0.60567253828048706 0.54141515493392944
0.59501564502716064 0.62226814031600952 0.55631512403488159
0.64393842220306396 0.65504062175750732 0.58642321825027466
0.70914989709854126 0.69629126787185669 0.62046849727630615
0.72088629007339478 0.75045484304428101 0.66004866361618042
0.72956609725952148 0.75693321228027344 0.66582810878753662
0.75008940696716309 0.77022606134414673 0.67643284797668457
0.77957934141159058 0.7899971604347229 0.69741678237915039
0.85372138023376465 0.82958340644836426 0.751697838306427
