Textures/17.cube
# Created by: G'MIC (https://gmic.eu)
TITLE "FuturisticBleak4.cube"
# LUT size
LUT_3D_SIZE 33
# Data domain
DOMAIN_MIN 0.0 0.0 0.0
DOMAIN_MAX 1.0 1.0 1.0
# LUT data points
0.087964296340942383 0.090162195265293121 0.094324134290218353
0.093160487711429596 0.093210026621818542 0.097169972956180573
0.097757734358310699 0.095965556800365448 0.10005593299865723
0.10195080935955048 0.098411984741687775 0.10257241129875183
0.1063268780708313 0.10123731195926666 0.10550812631845474
0.11305788904428482 0.10587042570114136 0.11077769100666046
0.12031032890081406 0.11083214730024338 0.1159043163061142
0.12683825194835663 0.11618749052286148 0.12029822915792465
0.13722167909145355 0.12278404831886292 0.12584154307842255
0.14999900758266449 0.13043305277824402 0.13284771144390106
0.16348150372505188 0.13845378160476685 0.14007672667503357
0.17535261809825897 0.14555935561656952 0.14603994786739349
0.18670517206192017 0.15214541554450989 0.15138870477676392
0.19864162802696228 0.15949440002441406 0.15816275775432587
0.21066989004611969 0.1676400750875473 0.16536636650562286
0.22270570695400238 0.1753423660993576 0.17168264091014862
0.23489877581596375 0.18344855308532715 0.17795835435390472
0.24705886840820312 0.19297210872173309 0.18543103337287903
0.26043695211410522 0.20424693822860718 0.1950414776802063
0.27508902549743652 0.21525226533412933 0.20494528114795685
0.29192140698432922 0.22646287083625793 0.2149207592010498
0.31022247672080994 0.23840449750423431 0.22503067553043365
0.32877111434936523 0.25186529755592346 0.23651145398616791
0.34844896197319031 0.2646922767162323 0.2474488765001297
0.36597231030464172 0.27705308794975281 0.25710877776145935
0.38560354709625244 0.29021155834197998 0.26853466033935547
0.40564629435539246 0.30340871214866638 0.28090837597846985
0.42228272557258606 0.31438139081001282 0.29024219512939453
0.43856564164161682 0.32451841235160828 0.29852932691574097
0.45758306980133057 0.33654361963272095 0.30897247791290283
0.48024404048919678 0.35128501057624817 0.32238414883613586
0.50148820877075195 0.36514288187026978 0.33484095335006714
0.52429574728012085 0.37871325016021729 0.34776917099952698
0.094350099563598633 0.097224213182926178 0.10000108182430267
0.097620829939842224 0.098970972001552582 0.10143605619668961
0.10230807960033417 0.101441390812397 0.10417312383651733
0.10684016346931458 0.10362558811903 0.10642804950475693
0.11094892024993896 0.10638940334320068 0.10899640619754791
0.11688625812530518 0.11072961241006851 0.11352929472923279
0.12375587970018387 0.11602874100208282 0.11872708052396774
0.13166584074497223 0.12154314666986465 0.12391554564237595
0.14285431802272797 0.12841936945915222 0.12983092665672302
0.15442883968353271 0.13461816310882568 0.13548433780670166
0.16670909523963928 0.14195433259010315 0.14220122992992401
0.17887438833713531 0.14927232265472412 0.14842258393764496
0.19031636416912079 0.15587027370929718 0.15394163131713867
0.20110879838466644 0.16235020756721497 0.15960617363452911
0.21324874460697174 0.17096757888793945 0.1668192446231842
0.22545197606086731 0.17948178946971893 0.17347365617752075
0.23745740950107574 0.1874975711107254 0.17974421381950378
0.24882645905017853 0.19588609039783478 0.18671441078186035
0.26169475913047791 0.20643389225006104 0.19591325521469116
0.27702796459197998 0.21841074526309967 0.20699308812618256
0.29638814926147461 0.23106318712234497 0.21847580373287201
0.31167837977409363 0.24174714088439941 0.22718411684036255
0.32836401462554932 0.2537616491317749 0.23688626289367676
0.34815278649330139 0.26637351512908936 0.24802577495574951
0.3666439950466156 0.27852088212966919 0.25854068994522095
0.38661959767341614 0.29181590676307678 0.26948642730712891
0.40653210878372192 0.30470260977745056 0.28070163726806641
0.42387458682060242 0.31599962711334229 0.29071852564811707
0.43989646434783936 0.32702377438545227 0.29999980330467224
0.45862501859664917 0.33785927295684814 0.30953803658485413
0.47940632700920105 0.35017967224121094 0.32048308849334717
0.49989062547683716 0.36467668414115906 0.33305558562278748
0.52386951446533203 0.38037294149398804 0.34712681174278259
0.10063233971595764 0.10463763028383255 0.10586856305599213
0.1035485714673996 0.10596264153718948 0.10721529275178909
0.10692854225635529 0.10819427669048309 0.10911048203706741
0.11207595467567444 0.11038776487112045 0.111399807035923
0.1158437505364418 0.11235346645116806 0.11280383169651031
0.12110350281000137 0.11646243929862976 0.11673126369714737
0.12739771604537964 0.12127096205949783 0.12113217264413834
0.13699439167976379 0.12706366181373596 0.12659099698066711
0.14854568243026733 0.13384106755256653 0.13308000564575195
0.15918008983135223 0.13959695398807526 0.13857150077819824
0.17005568742752075 0.14561708271503448 0.14390884339809418
0.182236447930336 0.15274401009082794 0.15018850564956665
0.19389393925666809 0.15968398749828339 0.15635690093040466
0.20484369993209839 0.16724304854869843 0.16236197948455811
0.21632154285907745 0.1758490651845932 0.16896313428878784
0.22815608978271484 0.18402591347694397 0.17545256018638611
0.2402702122926712 0.19211812317371368 0.18176464736461639
0.25179588794708252 0.20105500519275665 0.18923899531364441
0.2636430561542511 0.21008068323135376 0.1978859007358551
0.27728813886642456 0.22073599696159363 0.2076711505651474
0.29913970828056335 0.23479029536247253 0.22103935480117798
0.31699639558792114 0.24768725037574768 0.23216947913169861
0.3309885561466217 0.25819516181945801 0.23991745710372925
0.34861230850219727 0.26935386657714844 0.24870739877223969
0.36826026439666748 0.28105822205543518 0.259804368019104
0.38853412866592407 0.29436209797859192 0.27172389626502991
0.40846461057662964 0.3069303035736084 0.28226938843727112
0.42547690868377686 0.31795305013656616 0.29137846827507019
0.44217434525489807 0.32975411415100098 0.30160337686538696
0.46058827638626099 0.34095302224159241 0.31188127398490906
0.4803307056427002 0.3515409529209137 0.32111379504203796
0.50051820278167725 0.36469194293022156 0.33201870322227478
0.52496510744094849 0.38163024187088013 0.34728989005088806
0.10598133504390717 0.11197537928819656 0.11159822344779968
0.10900659114122391 0.11353868246078491 0.11297658830881119
0.11282215267419815 0.11573883146047592 0.11515504866838455
0.11832147836685181 0.11924757063388824 0.11828574538230896
0.12225350737571716 0.12133379280567169 0.11955127120018005
0.12531919777393341 0.12325792759656906 0.12093344330787659
0.13096794486045837 0.12713877856731415 0.12438951432704926
0.14136408269405365 0.13232138752937317 0.12834504246711731
0.15339480340480804 0.13878308236598969 0.13462665677070618
0.16351646184921265 0.1441846638917923 0.13959111273288727
0.17421175539493561 0.14985467493534088 0.1448616087436676
0.18637670576572418 0.15668730437755585 0.15160693228244781
0.19849343597888947 0.16463074088096619 0.15824784338474274
0.20985586941242218 0.1730484664440155 0.16465634107589722
0.22136925160884857 0.18161663413047791 0.17135684192180634
0.23268832266330719 0.1900305300951004 0.17813995480537415
0.24445614218711853 0.19857753813266754 0.18500423431396484
0.25596126914024353 0.20790094137191772 0.19332912564277649
0.2674306333065033 0.21679775416851044 0.20167282223701477
0.27921462059020996 0.22522784769535065 0.20911523699760437
0.29818922281265259 0.23762266337871552 0.22089515626430511
0.32043063640594482 0.25304821133613586 0.2352088987827301
0.33807790279388428 0.26572909951210022 0.24537885189056396
0.35402750968933105 0.27533307671546936 0.25277915596961975
0.37198519706726074 0.28647693991661072 0.26267150044441223
0.39233741164207458 0.29995295405387878 0.27519476413726807
0.41185101866722107 0.31215453147888184 0.28603774309158325
0.42882022261619568 0.32284924387931824 0.29498684406280518
0.44579103589057922 0.33465328812599182 0.30528268218040466
0.46447187662124634 0.34584552049636841 0.31569129228591919
0.48393154144287109 0.3558344841003418 0.32479485869407654
0.50464123487472534 0.36867237091064453 0.33524525165557861
0.52934658527374268 0.385048508644104 0.34962648153305054
0.11169946938753128 0.11920780688524246 0.11756279319524765
0.11490242928266525 0.12095921486616135 0.11910568922758102
0.11876113712787628 0.12308791279792786 0.1209554597735405
0.12406208366155624 0.12648396193981171 0.12382882833480835
0.12830394506454468 0.12963695824146271 0.1263713538646698
0.13146236538887024 0.13157545030117035 0.1273178905248642
0.13512091338634491 0.13393084704875946 0.12901487946510315
0.14552360773086548 0.13886292278766632 0.13280116021633148
0.15852141380310059 0.14484883844852448 0.13760620355606079
0.16889958083629608 0.15043152868747711 0.14233836531639099
0.17945955693721771 0.1564815491437912 0.14717879891395569
0.19152756035327911 0.16369132697582245 0.1535753458738327
0.20386214554309845 0.17115834355354309 0.1603238582611084
0.21537531912326813 0.17921370267868042 0.16691845655441284
0.22657851874828339 0.18805430829524994 0.17381316423416138
0.23740966618061066 0.19630911946296692 0.18050359189510345
0.24918419122695923 0.20533540844917297 0.18821612000465393
0.26110613346099854 0.21444046497344971 0.19664020836353302
0.27218878269195557 0.22344291210174561 0.20487090945243835
0.28370961546897888 0.23171274363994598 0.21234108507633209
0.29987853765487671 0.242039754986763 0.22207045555114746
0.32056364417076111 0.25578993558883667 0.23526160418987274
0.34205031394958496 0.27098727226257324 0.24837663769721985
0.35998883843421936 0.28212711215019226 0.25771886110305786
0.37684869766235352 0.29257482290267944 0.26671573519706726
0.39604035019874573 0.30516898632049561 0.27801507711410522
0.41545817255973816 0.31749981641769409 0.28914070129394531
0.43313872814178467 0.32867348194122314 0.2992388904094696
0.45108327269554138 0.34068432450294495 0.30971249938011169
0.46915006637573242 0.35166281461715698 0.31997373700141907
0.48820927739143372 0.36124953627586365 0.32893788814544678
0.5078500509262085 0.37290322780609131 0.33875834941864014
0.53249293565750122 0.38867461681365967 0.35212546586990356
0.11952131241559982 0.12905400991439819 0.12590876221656799
0.12258120626211166 0.12994645535945892 0.12650661170482635
0.12591750919818878 0.13178223371505737 0.12786363065242767
0.13002347946166992 0.13421611487865448 0.12998294830322266
0.13430330157279968 0.13744528591632843 0.13230584561824799
0.1383480578660965 0.14098212122917175 0.13481149077415466
0.1434941291809082 0.14481489360332489 0.13716864585876465
0.15305161476135254 0.15076504647731781 0.14163060486316681
0.16527390480041504 0.15742871165275574 0.14642265439033508
0.17553901672363281 0.16250567138195038 0.15013256669044495
0.18576560914516449 0.16802355647087097 0.15432986617088318
0.19709981977939606 0.17384235560894012 0.15858511626720428
0.20900098979473114 0.18071848154067993 0.16466034948825836
0.22128987312316895 0.18894517421722412 0.1711256206035614
0.23300468921661377 0.19740791618824005 0.17796500027179718
0.24298921227455139 0.20404604077339172 0.18366952240467072
0.25438398122787476 0.21185949444770813 0.19035834074020386
0.26752501726150513 0.22086547315120697 0.19852060079574585
0.27943053841590881 0.22992917895317078 0.20713722705841064
0.29087761044502258 0.23874117434024811 0.21518473327159882
0.30662801861763 0.24867333471775055 0.22484162449836731
0.32506603002548218 0.26117777824401855 0.23746961355209351
0.34609133005142212 0.27563914656639099 0.25109091401100159
0.3650645911693573 0.28775542974472046 0.26139077544212341
0.38212588429450989 0.2984759509563446 0.27013871073722839
0.40034753084182739 0.31016415357589722 0.28033936023712158
0.41918352246284485 0.32240048050880432 0.29165792465209961
0.43813380599021912 0.33459311723709106 0.30283942818641663
0.45620781183242798 0.34677734971046448 0.31375521421432495
0.47404974699020386 0.35784235596656799 0.32398271560668945
0.49371194839477539 0.36800605058670044 0.33396205306053162
0.51184356212615967 0.37865650653839111 0.34292244911193848
0.53408437967300415 0.39209172129631042 0.3536948561668396
0.12966224551200867 0.1432289332151413 0.13594523072242737
0.13198398053646088 0.14457505941390991 0.1361297070980072
0.13523632287979126 0.14476589858531952 0.13692660629749298
0.13902048766613007 0.14771580696105957 0.13875673711299896
0.14239314198493958 0.14972013235092163 0.14057274162769318
0.14678697288036346 0.15377357602119446 0.14316622912883759
0.15374554693698883 0.1593203991651535 0.14729978144168854
0.16368715465068817 0.16576160490512848 0.15185268223285675
0.17319843173027039 0.17191992700099945 0.15622647106647491
0.18288858234882355 0.1769365668296814 0.15975061058998108
0.19227761030197144 0.18083938956260681 0.16290196776390076
0.20305399596691132 0.18605656921863556 0.1666359156370163
0.21421656012535095 0.19180977344512939 0.17081767320632935
0.22625449299812317 0.19915348291397095 0.17650657892227173
0.23908542096614838 0.2071588933467865 0.18300987780094147
0.25009098649024963 0.21389146149158478 0.18844206631183624
0.26065543293952942 0.21970443427562714 0.19320531189441681
0.27289816737174988 0.22731688618659973 0.20049011707305908
0.28736582398414612 0.23684969544410706 0.20953136682510376
0.3021182119846344 0.24657893180847168 0.21862930059432983
0.3149605393409729 0.25582060217857361 0.22763249278068542
0.33226567506790161 0.26743313670158386 0.23904381692409515
0.35218453407287598 0.28176802396774292 0.25340044498443604
0.37133383750915527 0.29400768876075745 0.26450124382972717
0.38851702213287354 0.30439469218254089 0.27307829260826111
0.40623441338539124 0.31582686305046082 0.28300109505653381
0.42412406206130981 0.32798352837562561 0.29454001784324646
0.44205990433692932 0.33960044384002686 0.30527767539024353
0.46072778105735779 0.35219249129295349 0.31652581691741943
0.47955650091171265 0.36374467611312866 0.32741427421569824
0.49910438060760498 0.37502124905586243 0.33844199776649475
0.51876622438430786 0.38651975989341736 0.34907993674278259
0.53928154706954956 0.3983873724937439 0.35842633247375488
0.14222250878810883 0.16115656495094299 0.14745493233203888
0.14355958998203278 0.16107618808746338 0.14766904711723328
0.14641855657100677 0.16160118579864502 0.14797218143939972
0.14896561205387115 0.16234751045703888 0.14930866658687592
0.1525271087884903 0.16544787585735321 0.15094815194606781
0.15667144954204559 0.16740694642066956 0.15226803719997406
0.16394589841365814 0.17279341816902161 0.15638166666030884
0.1726689487695694 0.17846362292766571 0.16149736940860748
0.18236380815505981 0.18502004444599152 0.16618762910366058
0.19176468253135681 0.19126224517822266 0.17057105898857117
0.20073898136615753 0.1954658180475235 0.17340157926082611
0.21011450886726379 0.19976356625556946 0.1763165295124054
0.22075815498828888 0.20505355298519135 0.17992371320724487
0.23114141821861267 0.2099701315164566 0.1836581826210022
0.24366268515586853 0.21724043786525726 0.18938352167606354
0.25722002983093262 0.22523710131645203 0.19513139128684998
0.26850941777229309 0.23142682015895844 0.20027507841587067
0.27836337685585022 0.23667994141578674 0.20521706342697144
0.29187697172164917 0.24474400281906128 0.21324785053730011
0.3104424774646759 0.25565662980079651 0.22336371243000031
0.32575181126594543 0.26576223969459534 0.23259536921977997
0.34154254198074341 0.27564424276351929 0.24103270471096039
0.36022287607192993 0.28804954886436462 0.25262162089347839
0.37983798980712891 0.30062669515609741 0.26560378074645996
0.39783522486686707 0.31183385848999023 0.27540087699890137
0.41442751884460449 0.32289403676986694 0.28542792797088623
0.43200451135635376 0.33488163352012634 0.29721826314926147
0.44910320639610291 0.34575414657592773 0.30707481503486633
0.46713855862617493 0.3573794960975647 0.31701785326004028
0.48647415637969971 0.37001040577888489 0.32956019043922424
0.50536471605300903 0.3823799192905426 0.34222069382667542
0.52635818719863892 0.39499923586845398 0.35485610365867615
0.54711508750915527 0.40686514973640442 0.36566245555877686
0.1569063812494278 0.17883999645709991 0.16149094700813293
0.15768258273601532 0.17883999645709991 0.16184981167316437
0.15994703769683838 0.17885366082191467 0.16250498592853546
0.16327179968357086 0.18080511689186096 0.16385948657989502
0.16680444777011871 0.18271355330944061 0.16545474529266357
0.17059944570064545 0.18493169546127319 0.16621403396129608
0.17565752565860748 0.18809376657009125 0.16823321580886841
0.18404704332351685 0.19323347508907318 0.17321169376373291
0.19325953722000122 0.19900447130203247 0.17836752533912659
0.20264239609241486 0.20523428916931152 0.18312916159629822
0.21119880676269531 0.21136412024497986 0.18726280331611633
0.22023148834705353 0.21592503786087036 0.19053797423839569
0.22961027920246124 0.22051230072975159 0.19338174164295197
0.23934450745582581 0.22478432953357697 0.19612997770309448
0.24987581372261047 0.22948962450027466 0.19958962500095367
0.2630465030670166 0.23685142397880554 0.20485799014568329
0.27644005417823792 0.24456460773944855 0.21049293875694275
0.28644558787345886 0.24971114099025726 0.21480792760848999
0.29692095518112183 0.25504735112190247 0.21988283097743988
0.31515750288963318 0.26507562398910522 0.22914740443229675
0.33508273959159851 0.27665215730667114 0.23927208781242371
0.35265636444091797 0.28662768006324768 0.24747879803180695
0.36923527717590332 0.2960321307182312 0.25478264689445496
0.38743484020233154 0.30704835057258606 0.26506784558296204
0.40626302361488342 0.31861233711242676 0.27661120891571045
0.42301353812217712 0.32985502481460571 0.28715136647224426
0.44083935022354126 0.34185290336608887 0.29937264323234558
0.45820364356040955 0.35289165377616882 0.30995747447013855
0.47610658407211304 0.36387890577316284 0.31879419088363647
0.49425613880157471 0.37590828537940979 0.3302270770072937
0.51235109567642212 0.3892732560634613 0.34493193030357361
0.53520822525024414 0.40328457951545715 0.35936951637268066
0.55607432126998901 0.41522681713104248 0.37133166193962097
0.17232321202754974 0.19591501355171204 0.17634692788124084
0.17238563299179077 0.19591501355171204 0.17650711536407471
0.17474910616874695 0.1962580531835556 0.1768682450056076
0.17721997201442719 0.19716313481330872 0.17684490978717804
0.18054039776325226 0.19888915121555328 0.17806428670883179
0.18591055274009705 0.20208841562271118 0.18045572936534882
0.19060607254505157 0.20512373745441437 0.1827479749917984
0.19788125157356262 0.20983511209487915 0.18682463467121124
0.20659631490707397 0.21500599384307861 0.19172638654708862
0.21613374352455139 0.22137968242168427 0.19701880216598511
0.2248922735452652 0.22784650325775146 0.20182815194129944
0.23282003402709961 0.23333345353603363 0.20733435451984406
0.24182292819023132 0.23847280442714691 0.21123771369457245
0.25098323822021484 0.24265824258327484 0.2120567262172699
0.26098725199699402 0.24721767008304596 0.2154192328453064
0.27199083566665649 0.25256332755088806 0.21935705840587616
0.28444865345954895 0.25992521643638611 0.22425644099712372
0.29476788640022278 0.264311283826828 0.2274964451789856
0.30520761013031006 0.26910018920898438 0.23141245543956757
0.32221123576164246 0.27801409363746643 0.2393220067024231
0.34156224131584167 0.28899121284484863 0.24882841110229492
0.36178547143936157 0.29913172125816345 0.25721299648284912
0.38044813275337219 0.30871769785881042 0.26463630795478821
0.3971613347530365 0.31810814142227173 0.27173653244972229
0.41540855169296265 0.3291795551776886 0.28154146671295166
0.43168720602989197 0.33885985612869263 0.29027619957923889
0.44775214791297913 0.34921199083328247 0.30036145448684692
0.46633964776992798 0.36042556166648865 0.31165066361427307
0.4838811457157135 0.37051156163215637 0.32039394974708557
0.50095570087432861 0.38179841637611389 0.33111578226089478
0.52091145515441895 0.39475491642951965 0.34511077404022217
0.54737329483032227 0.41025564074516296 0.36151048541069031
0.57259482145309448 0.42478099465370178 0.37633031606674194
0.18937277793884277 0.21561934053897858 0.19330908358097076
0.1893790066242218 0.21407985687255859 0.19237618148326874
0.18990926444530487 0.2136853039264679 0.19112303853034973
0.19132460653781891 0.21391089260578156 0.19059427082538605
0.1936546266078949 0.21439066529273987 0.19015976786613464
0.19957026839256287 0.21803134679794312 0.19340422749519348
0.20624493062496185 0.222181037068367 0.19741711020469666
0.21289850771427155 0.22673416137695312 0.20115965604782104
0.2201201468706131 0.2316005676984787 0.20518824458122253
0.22967469692230225 0.23786334693431854 0.21062718331813812
0.23908688127994537 0.24406349658966064 0.21612012386322021
0.2468540221452713 0.25027960538864136 0.22240482270717621
0.25478026270866394 0.25636348128318787 0.22832056879997253
0.26405069231987 0.26122903823852539 0.23094318807125092
0.27347072958946228 0.26521334052085876 0.23216824233531952
0.28320053219795227 0.27002567052841187 0.23499526083469391
0.29337519407272339 0.27532747387886047 0.23909732699394226
0.30342873930931091 0.27992346882820129 0.24182960391044617
0.31391453742980957 0.28438872098922729 0.24446398019790649
0.33050131797790527 0.29258435964584351 0.25130766630172729
0.34843316674232483 0.30200564861297607 0.25953701138496399
0.36885544657707214 0.31204012036323547 0.26784446835517883
0.39019316434860229 0.32227662205696106 0.27593344449996948
0.40756610035896301 0.33139076828956604 0.2823946475982666
0.42537927627563477 0.34167248010635376 0.28987571597099304
0.44201487302780151 0.35088607668876648 0.29768392443656921
0.4565160870552063 0.35887211561203003 0.30476698279380798
0.47339355945587158 0.36855998635292053 0.31377598643302917
0.49048271775245667 0.37752488255500793 0.32208454608917236
0.5084686279296875 0.3881264328956604 0.33241191506385803
0.53121650218963623 0.4009743332862854 0.3458409309387207
0.55742520093917847 0.41556301712989807 0.3608856201171875
0.58656865358352661 0.4327126145362854 0.37838318943977356
0.20586562156677246 0.23362272977828979 0.20870010554790497
0.20669552683830261 0.23400026559829712 0.2077682763338089
0.20683267712593079 0.23363982141017914 0.20677436888217926
0.21021336317062378 0.23361839354038239 0.20673224329948425
0.21106958389282227 0.23360200226306915 0.20670458674430847
0.21563577651977539 0.23596182465553284 0.20800140500068665
0.22179028391838074 0.23979321122169495 0.21176335215568542
0.22839923202991486 0.24378405511379242 0.21564772725105286
0.23550708591938019 0.24889412522315979 0.21982035040855408
0.24208691716194153 0.25378361344337463 0.22449120879173279
0.25114491581916809 0.25966018438339233 0.22987200319766998
0.25978654623031616 0.26607954502105713 0.2355819046497345
0.26768288016319275 0.2723272442817688 0.24191606044769287
0.27590936422348022 0.27722594141960144 0.24611799418926239
0.28480648994445801 0.2810005247592926 0.24708506464958191
0.29282522201538086 0.2847728431224823 0.24800284206867218
0.30262216925621033 0.29006075859069824 0.25157150626182556
0.31292071938514709 0.29530525207519531 0.25511586666107178
0.32357335090637207 0.29974311590194702 0.25784039497375488
0.33988338708877563 0.3076113760471344 0.26369267702102661
0.35776644945144653 0.31701201200485229 0.27155250310897827
0.379150390625 0.32754340767860413 0.28126078844070435
0.40068510174751282 0.33795160055160522 0.29002755880355835
0.41663840413093567 0.34521818161010742 0.29360508918762207
0.43362581729888916 0.35406056046485901 0.29866361618041992
0.45332026481628418 0.36376753449440002 0.30692344903945923
0.4693458080291748 0.37151071429252625 0.31445857882499695
0.48456332087516785 0.37970566749572754 0.32060912251472473
0.5007290244102478 0.3877946138381958 0.3274780809879303
0.52178722620010376 0.39949047565460205 0.33877548575401306
0.54817491769790649 0.41372263431549072 0.3532126247882843
0.57172060012817383 0.42609071731567383 0.36587619781494141
0.59732514619827271 0.44073504209518433 0.38103741407394409
0.21995607018470764 0.2499166876077652 0.22337763011455536
0.22306977212429047 0.25114378333091736 0.22369280457496643
0.22452303767204285 0.25114378333091736 0.22344082593917847
