Textures/17.cube
# Created by: G'MIC (https://gmic.eu)
TITLE "FuturisticBleak4.cube"
# LUT size
LUT_3D_SIZE 5
# Data domain
DOMAIN_MIN 0.0 0.0 0.0
DOMAIN_MAX 1.0 1.0 1.0
# LUT data points
0.087964296340942383 0.090162195265293121 0.094324134290218353
0.13722167909145355 0.12278404831886292 0.12584154307842255
0.23489877581596375 0.18344855308532715 0.17795835435390472
0.36597231030464172 0.27705308794975281 0.25710877776145935
0.52429574728012085 0.37871325016021729 0.34776917099952698
0.1569063812494278 0.17883999645709991 0.16149094700813293
0.19325953722000122 0.19900447130203247 0.17836752533912659
0.27644005417823792 0.24456460773944855 0.21049293875694275
0.40626302361488342 0.31861233711242676 0.27661120891571045
0.55607432126998901 0.41522681713104248 0.37133166193962097
0.29094308614730835 0.3235454261302948 0.28782081604003906
0.30817782878875732 0.33315899968147278 0.28864389657974243
0.37589678168296814 0.37628960609436035 0.32375192642211914
0.49782451987266541 0.44654223322868347 0.37346175312995911
0.65596264600753784 0.52600979804992676 0.43188521265983582
0.48490267992019653 0.53668177127838135 0.4422435462474823
0.50675177574157715 0.55021554231643677 0.45167756080627441
0.56046628952026367 0.58403515815734863 0.47834426164627075
0.65074282884597778 0.63505733013153076 0.52554875612258911
0.7853769063949585 0.71306180953979492 0.58252644538879395
0.72866737842559814 0.81135046482086182 0.66537588834762573
0.73485976457595825 0.81473445892333984 0.66498285531997681
0.78243863582611084 0.84090149402618408 0.68021887540817261
0.88645607233047485 0.90249127149581909 0.73785918951034546
0.99997282028198242 0.99270063638687134 0.82260006666183472
0.099866718053817749 0.10188472270965576 0.11093892157077789
0.14351919293403625 0.13778147101402283 0.15079237520694733
0.23620961606502533 0.21556727588176727 0.22644634544849396
0.36209195852279663 0.30421668291091919 0.31104007363319397
0.53045105934143066 0.4035186767578125 0.39989858865737915
0.1648152768611908 0.19051483273506165 0.18834720551967621
0.20636703073978424 0.21779718995094299 0.2174459844827652
0.28971153497695923 0.27164441347122192 0.2694166898727417
0.41464406251907349 0.34665817022323608 0.34058555960655212
0.58050352334976196 0.44050979614257812 0.42456761002540588
0.30142009258270264 0.33375918865203857 0.31087577342987061
0.32240003347396851 0.34769377112388611 0.32206413149833679
0.3894018828868866 0.39150506258010864 0.3555607795715332
0.51552444696426392 0.46199271082878113 0.40723469853401184
0.67638158798217773 0.54719656705856323 0.47510248422622681
0.50164401531219482 0.55204421281814575 0.47771018743515015
0.51370620727539062 0.56040710210800171 0.47924774885177612
0.57051932811737061 0.59501224756240845 0.50400352478027344
0.663138747215271 0.6472516655921936 0.55387234687805176
0.80845826864242554 0.72980457544326782 0.61646753549575806
0.73415029048919678 0.81845939159393311 0.68447881937026978
0.75099486112594604 0.83180886507034302 0.69721680879592896
0.80246144533157349 0.86100006103515625 0.71567022800445557
0.89276647567749023 0.91324472427368164 0.75988370180130005
1 0.99873751401901245 0.85303056240081787
0.13916866481304169 0.13801302015781403 0.16316741704940796
0.16654863953590393 0.16272489726543427 0.19079934060573578
0.25676491856575012 0.23832626640796661 0.26327589154243469
0.35688251256942749 0.32498520612716675 0.34153461456298828
0.51909369230270386 0.43717479705810547 0.44781184196472168
0.1929633617401123 0.21507349610328674 0.23153296113014221
0.22803433239459991 0.24254497885704041 0.25712931156158447
0.30169576406478882 0.29284331202507019 0.30732044577598572
0.40009009838104248 0.36856311559677124 0.37596213817596436
0.56246662139892578 0.48151782155036926 0.48259386420249939
0.32515868544578552 0.35841786861419678 0.34927669167518616
0.34796854853630066 0.3722260594367981 0.36236974596977234
0.40908381342887878 0.41706746816635132 0.40156275033950806
0.53807973861694336 0.49937170743942261 0.48335489630699158
0.69043904542922974 0.58930492401123047 0.56957608461380005
0.53521692752838135 0.58131837844848633 0.53125447034835815
0.54927492141723633 0.58989405632019043 0.54089796543121338
0.60682201385498047 0.62848985195159912 0.57489484548568726
0.69016766548156738 0.68137973546981812 0.61835604906082153
0.84390246868133545 0.75571548938751221 0.67902374267578125
0.7683182954788208 0.84238725900650024 0.74152266979217529
0.78910446166992188 0.85676878690719604 0.75513160228729248
0.83123749494552612 0.88810712099075317 0.77636468410491943
0.91965848207473755 0.94214051961898804 0.81521928310394287
1 1 0.90145808458328247
0.18526116013526917 0.1840921938419342 0.22657431662082672
0.21675917506217957 0.21089862287044525 0.25159412622451782
0.28894361853599548 0.2735288143157959 0.31166049838066101
0.39171737432479858 0.35550433397293091 0.39252570271492004
0.54372429847717285 0.46524915099143982 0.49767160415649414
0.23705050349235535 0.2529621422290802 0.28337553143501282
0.26449981331825256 0.2733900249004364 0.30333355069160461
0.32797041535377502 0.32334119081497192 0.35029029846191406
0.43950748443603516 0.4023641049861908 0.433442622423172
0.58988010883331299 0.5201336145401001 0.54231047630310059
0.36165648698806763 0.39118647575378418 0.40426746010780334
0.38501015305519104 0.40728715062141418 0.42167133092880249
0.44519779086112976 0.45494568347930908 0.46430012583732605
0.55806010961532593 0.53240686655044556 0.53936457633972168
0.67859715223312378 0.62260490655899048 0.62422674894332886
0.57004791498184204 0.61213392019271851 0.58646094799041748
0.58902311325073242 0.62435072660446167 0.59971916675567627
0.64086657762527466 0.65731030702590942 0.62936133146286011
0.72228372097015381 0.71420979499816895 0.68718832731246948
0.87259626388549805 0.80247849225997925 0.77505213022232056
0.80810326337814331 0.87723803520202637 0.80157631635665894
0.82259964942932129 0.88670998811721802 0.8107377290725708
0.87262266874313354 0.91675269603729248 0.8379976749420166
0.95299196243286133 0.97217494249343872 0.88973444700241089
1 1 0.99322664737701416
0.24875080585479736 0.24529038369655609 0.29875469207763672
0.27299267053604126 0.26678907871246338 0.32206618785858154
0.33494967222213745 0.31928345561027527 0.37750440835952759
0.44883045554161072 0.40407490730285645 0.46861597895622253
0.59950882196426392 0.5214160680770874 0.57975912094116211
0.29499131441116333 0.30358666181564331 0.35334771871566772
0.31895649433135986 0.32271745800971985 0.37444046139717102
0.37528538703918457 0.36743229627609253 0.41991332173347473
0.4801737368106842 0.4417375922203064 0.49983024597167969
0.63096606731414795 0.55653268098831177 0.60671156644821167
0.41278481483459473 0.43831086158752441 0.4772312343120575
0.42985051870346069 0.45246434211730957 0.48979297280311584
0.49760818481445312 0.49949169158935547 0.5326194167137146
0.59934329986572266 0.57138895988464355 0.60507732629776001
0.72105485200881958 0.66279333829879761 0.69117510318756104
0.61954504251480103 0.65877676010131836 0.66306173801422119
0.63158214092254639 0.66428488492965698 0.66649669408798218
0.68095821142196655 0.69532430171966553 0.70098030567169189
0.753836989402771 0.74853217601776123 0.74949073791503906
0.88447225093841553 0.83383995294570923 0.83256727457046509
0.85712975263595581 0.92171335220336914 0.87630385160446167
0.87365162372589111 0.92971587181091309 0.88315451145172119
0.93099111318588257 0.96825391054153442 0.92443114519119263
0.99915200471878052 0.99991565942764282 0.97140467166900635
1 1 1
