Textures/18.cube
# Created by: G'MIC (https://gmic.eu)
TITLE "HorrorBlue.cube"
# LUT size
LUT_3D_SIZE 5
# Data domain
DOMAIN_MIN 0.0 0.0 0.0
DOMAIN_MAX 1.0 1.0 1.0
# LUT data points
0 0.067442141473293304 0.11711294949054718
0.18169896304607391 0.018967771902680397 0.079999499022960663
0.39979210495948792 0 0.011339294724166393
0.67317414283752441 0 0.051672752946615219
0.99330061674118042 0 0.13701407611370087
0 0.18186293542385101 0.09850754588842392
0.16032944619655609 0.18945342302322388 0.091398060321807861
0.41728129982948303 0.20283700525760651 0.0041544511914253235
0.73607468605041504 0.19266064465045929 0.0021122628822922707
0.99727994203567505 0.26883804798126221 0.10635074973106384
0.004581136628985405 0.46643450856208801 0.24721872806549072
0.23420464992523193 0.47554081678390503 0.2386220246553421
0.46647459268569946 0.5030396580696106 0.26180726289749146
0.77576333284378052 0.54016768932342529 0.21569718420505524
1 0.50700801610946655 0.0042705656960606575
0.33418574929237366 0.77506488561630249 0.40754082798957825
0.45265412330627441 0.77531594038009644 0.40732231736183167
0.64234697818756104 0.76886087656021118 0.39485228061676025
0.85422414541244507 0.76251763105392456 0.40343403816223145
1 0.75284421443939209 0.33630013465881348
0.58591288328170776 0.96682333946228027 0.48391929268836975
0.63471323251724243 0.96089661121368408 0.46988499164581299
0.78401201963424683 0.9435427188873291 0.44901841878890991
0.94179445505142212 0.92908036708831787 0.44537210464477539
1 0.90253263711929321 0.4551297128200531
0 0.068458080291748047 0.22483797371387482
0.073259703814983368 0.082180991768836975 0.21578425168991089
0.22898881137371063 0.14422033727169037 0.24007484316825867
0.54346483945846558 0.19552513957023621 0.31262519955635071
0.94797974824905396 0.22267614305019379 0.383058100938797
0 0.18732321262359619 0.22413177788257599
0.0052584996446967125 0.21014000475406647 0.24170726537704468
0.30925339460372925 0.24582216143608093 0.28154617547988892
0.63625329732894897 0.28955098986625671 0.31952288746833801
0.98869329690933228 0.30683246254920959 0.36711156368255615
0 0.47233161330223083 0.37334164977073669
0.01086029689759016 0.49242714047431946 0.3608260452747345
0.39674043655395508 0.51712501049041748 0.38502606749534607
0.73699277639389038 0.5639801025390625 0.327463299036026
0.99929934740066528 0.53090614080429077 0.24105116724967957
0.19413229823112488 0.78640639781951904 0.49768936634063721
0.32572579383850098 0.78753429651260376 0.48050856590270996
0.58222776651382446 0.78082263469696045 0.47807797789573669
0.80322229862213135 0.77844297885894775 0.4848971962928772
1 0.76568204164505005 0.40856853127479553
0.49374550580978394 0.98107129335403442 0.50910019874572754
0.57199430465698242 0.97027218341827393 0.525687575340271
0.72923046350479126 0.95333117246627808 0.52350878715515137
0.91037893295288086 0.9387933611869812 0.51049435138702393
1 0.9069216251373291 0.51872909069061279
0 0.081393294036388397 0.3377387523651123
0.0018455014796927571 0.10380987823009491 0.33785426616668701
0.21194276213645935 0.17082643508911133 0.37261724472045898
0.43456092476844788 0.30249956250190735 0.47064974904060364
0.71690607070922852 0.45281851291656494 0.59060966968536377
0 0.20630243420600891 0.35808295011520386
0 0.23537212610244751 0.38238269090652466
0.21367077529430389 0.28818678855895996 0.41800722479820251
0.45726919174194336 0.40107157826423645 0.51113790273666382
0.77813708782196045 0.51302629709243774 0.62619620561599731
0 0.49054944515228271 0.50718235969543457
0 0.50763452053070068 0.51986497640609741
0.21537879109382629 0.56398558616638184 0.57488316297531128
0.58664131164550781 0.6109006404876709 0.6192280650138855
0.93552118539810181 0.60929131507873535 0.62524890899658203
0.14153401553630829 0.79031938314437866 0.65348732471466064
0.23910100758075714 0.79308319091796875 0.65903389453887939
0.42676609754562378 0.81310862302780151 0.65090286731719971
0.7181277871131897 0.81347966194152832 0.64054882526397705
0.99211490154266357 0.79197001457214355 0.54571974277496338
0.45547682046890259 0.97803175449371338 0.68236368894577026
0.49061959981918335 0.97761458158493042 0.67879414558410645
0.60287195444107056 0.97871726751327515 0.63542741537094116
0.83427244424819946 0.95729333162307739 0.64394092559814453
0.99732214212417603 0.92867010831832886 0.64009267091751099
0 0.11949964612722397 0.45793807506561279
0 0.13862146437168121 0.46455743908882141
0.19329103827476501 0.20673485100269318 0.51320368051528931
0.44022819399833679 0.32865175604820251 0.61522847414016724
0.70495760440826416 0.48522898554801941 0.73148345947265625
0 0.24018727242946625 0.50255471467971802
0 0.25735601782798767 0.51862847805023193
0.18558400869369507 0.32236954569816589 0.57228350639343262
0.46399566531181335 0.42791250348091125 0.66350418329238892
0.72775453329086304 0.55485957860946655 0.75553226470947266
0 0.5154302716255188 0.66120880842208862
0 0.53798383474349976 0.68456375598907471
0.23221276700496674 0.58678722381591797 0.71747982501983643
0.50809735059738159 0.64215254783630371 0.76092106103897095
0.76191139221191406 0.69181662797927856 0.79416239261627197
0.11888013035058975 0.79798609018325806 0.78718173503875732
0.21848799288272858 0.80309575796127319 0.79029989242553711
0.41100117564201355 0.81578850746154785 0.79395556449890137
0.60080146789550781 0.83519917726516724 0.80161017179489136
0.88685989379882812 0.82698416709899902 0.81118392944335938
0.43427497148513794 0.97906935214996338 0.81724631786346436
0.48639240860939026 0.9769287109375 0.81402426958084106
0.57065927982330322 0.9776146411895752 0.81188607215881348
0.70505034923553467 0.98539471626281738 0.81227058172225952
0.97829288244247437 0.94936209917068481 0.79716199636459351
0 0.1715671569108963 0.60032004117965698
0 0.19559910893440247 0.62125593423843384
0.22168624401092529 0.25803142786026001 0.66751807928085327
0.46913683414459229 0.3804132342338562 0.76901459693908691
0.73169946670532227 0.52392083406448364 0.8840673565864563
0 0.28352579474449158 0.65608865022659302
0 0.30658838152885437 0.66954904794692993
0.21468323469161987 0.37018230557441711 0.72910600900650024
0.47831177711486816 0.47603929042816162 0.82333159446716309
0.74389922618865967 0.57843464612960815 0.90244913101196289
0 0.55998915433883667 0.82139265537261963
0 0.56824296712875366 0.83121472597122192
0.2504960298538208 0.61147123575210571 0.87098956108093262
0.51808875799179077 0.66199862957000732 0.90559655427932739
0.77718198299407959 0.70347499847412109 0.94574040174484253
0.1206783726811409 0.81263178586959839 0.94236332178115845
0.21895477175712585 0.81281864643096924 0.94218403100967407
0.39774861931800842 0.82651311159133911 0.94724434614181519
0.6015399694442749 0.83962398767471313 0.94684332609176636
0.82491570711135864 0.852061927318573 0.94612950086593628
0.45054233074188232 0.97756028175354004 0.94172114133834839
0.49091821908950806 0.97854441404342651 0.94232034683227539
0.5757904052734375 0.98545759916305542 0.94502270221710205
0.71682858467102051 0.98706907033920288 0.95154941082000732
0.89532279968261719 0.96359366178512573 0.94781887531280518
