Textures/18.cube
# Created by: G'MIC (https://gmic.eu)
TITLE "HorrorBlue.cube"
# LUT size
LUT_3D_SIZE 33
# Data domain
DOMAIN_MIN 0.0 0.0 0.0
DOMAIN_MAX 1.0 1.0 1.0
# LUT data points
0 0.067442141473293304 0.11711294949054718
0 0.065439961850643158 0.11569660902023315
0.0046908315271139145 0.063612759113311768 0.11366850882768631
0.030487891286611557 0.059033326804637909 0.11324099451303482
0.063733994960784912 0.053659416735172272 0.11410442739725113
0.099484801292419434 0.048565760254859924 0.11027687042951584
0.13188226521015167 0.04220888763666153 0.10343638807535172
0.15665756165981293 0.031122062355279922 0.091719247400760651
0.18169896304607391 0.018967771902680397 0.079999499022960663
0.21277941763401031 0.011716880835592747 0.07556702196598053
0.24373440444469452 0.0049008345231413841 0.071443483233451843
0.26733946800231934 0.00010922815272351727 0.055071685463190079
0.28962847590446472 0 0.036707025021314621
0.3172343373298645 0 0.02456396073102951
0.34645712375640869 0 0.012411567382514477
0.37356123328208923 0 0.011870941147208214
0.39979210495948792 0 0.011339294724166393
0.4309917688369751 0 0.012677860446274281
0.46273881196975708 0 0.014581972733139992
0.49296000599861145 0 0.016215132549405098
0.52225297689437866 0 0.015029429458081722
0.55667620897293091 0 0.020959939807653427
0.59255528450012207 0 0.032032091170549393
0.6308712363243103 0 0.040585562586784363
0.67317414283752441 0 0.051672752946615219
0.71737396717071533 0 0.059561826288700104
0.76166409254074097 0 0.064016550779342651
0.8065304160118103 0 0.07305511087179184
0.85111504793167114 0 0.084395192563533783
0.89686208963394165 0 0.097089745104312897
0.9430580735206604 0 0.11589446663856506
0.97278290987014771 0 0.1290389746427536
0.99330061674118042 0 0.13701407611370087
0 0.078010581433773041 0.11318777501583099
0 0.072652906179428101 0.10942914336919785
0.0055181472562253475 0.069793321192264557 0.1058645024895668
0.034084133803844452 0.067318126559257507 0.097067616879940033
0.068106420338153839 0.062618963420391083 0.09497428685426712
0.10211804509162903 0.058177456259727478 0.095499895513057709
0.13327708840370178 0.052379406988620758 0.090494856238365173
0.15625892579555511 0.043314538896083832 0.079463660717010498
0.1804082840681076 0.032005850225687027 0.068128526210784912
0.20926833152770996 0.023026449605822563 0.056448847055435181
0.23958785831928253 0.014603097923099995 0.048119504004716873
0.26527801156044006 0.0056994296610355377 0.036807775497436523
0.28810179233551025 0.002939773490652442 0.022532487288117409
0.31126612424850464 0.00024682728690095246 0.017593683674931526
0.33814945816993713 0 0.011199633590877056
0.36813420057296753 0 0.013170468620955944
0.39636403322219849 0 0.012168101035058498
0.42678040266036987 0 0.010480931960046291
0.45777183771133423 0 0.01256849430501461
0.49020081758499146 0 0.018108420073986053
0.52205014228820801 0 0.020127927884459496
0.55854284763336182 0 0.025078615173697472
0.59392017126083374 0 0.034274201840162277
0.63157689571380615 0 0.041477270424365997
0.67181062698364258 0 0.050656259059906006
0.71540772914886475 0 0.057851850986480713
0.76021462678909302 0 0.063068278133869171
0.80555057525634766 0 0.073837190866470337
0.8489874005317688 0 0.086453907191753387
0.8965686559677124 0 0.096854597330093384
0.94526499509811401 0 0.1110571026802063
0.97402477264404297 0 0.12373664975166321
0.99330061674118042 0 0.13043825328350067
0 0.090643726289272308 0.10832107067108154
0 0.084258683025836945 0.1036718338727951
0.0040759975090622902 0.078653179109096527 0.099115379154682159
0.031651012599468231 0.07649664580821991 0.089294873178005219
0.068137124180793762 0.074084557592868805 0.077685348689556122
0.10234751552343369 0.070716992020606995 0.077114492654800415
0.13257461786270142 0.066313266754150391 0.074416168034076691
0.15643139183521271 0.058305360376834869 0.061161469668149948
0.17906169593334198 0.049342114478349686 0.05223572626709938
0.20662754774093628 0.040475901216268539 0.041696533560752869
0.2348640114068985 0.031405121088027954 0.027712598443031311
0.26120272278785706 0.02276134304702282 0.019446659833192825
0.28645762801170349 0.015976432710886002 0.011450909078121185
0.31050756573677063 0.01169873308390379 0.0095652015879750252
0.3330409824848175 0.0072356900200247765 0.009180653840303421
0.36138513684272766 0.0044440380297601223 0.009431830607354641
0.39216995239257812 0.0049366168677806854 0.010082661174237728
0.42251986265182495 0.0069824638776481152 0.011698098853230476
0.45283684134483337 0.0073961899615824223 0.012278221547603607
0.48583459854125977 0.0086460066959261894 0.016724662855267525
0.52044087648391724 0.0086484188213944435 0.022225068882107735
0.55683332681655884 0.0077547328546643257 0.026989497244358063
0.5943482518196106 0.0073625198565423489 0.034534566104412079
0.6334233283996582 0.0053331293165683746 0.041883118450641632
0.67183941602706909 0.0049683754332363605 0.049784708768129349
0.7149198055267334 0.0026882318779826164 0.056851115077733994
0.76055681705474854 0.0023190102074295282 0.062907986342906952
0.80554652214050293 0.004106573760509491 0.073336757719516754
0.8483891487121582 0.0042380155064165592 0.086741387844085693
0.89395272731781006 0.00048004803829826415 0.097571045160293579
0.94304710626602173 0.00013383997429627925 0.10901053249835968
0.97539675235748291 0.0047062179073691368 0.11832845211029053
0.99330061674118042 0.0057190833613276482 0.12455607205629349
0 0.10295417904853821 0.10262191295623779
0 0.098777666687965393 0.097502231597900391
0.0025532040745019913 0.093240879476070404 0.093778915703296661
0.020087823271751404 0.090141355991363525 0.091748103499412537
0.053939234465360641 0.088181599974632263 0.080633185803890228
0.092999853193759918 0.087005116045475006 0.069541610777378082
0.12526004016399384 0.084053494036197662 0.061886206269264221
0.15458427369594574 0.078132361173629761 0.037664063274860382
0.17890334129333496 0.070122227072715759 0.026331597939133644
0.20494171977043152 0.062020439654588699 0.025729166343808174
0.23257063329219818 0.053502999246120453 0.016691878437995911
0.2615605890750885 0.045898918062448502 0.01527534332126379
0.28888079524040222 0.038372136652469635 0.010626102797687054
0.31610602140426636 0.033100798726081848 0.010049189440906048
0.33973208069801331 0.02660934254527092 0.0091163832694292068
0.36440232396125793 0.019090045243501663 0.0068152132444083691
0.39258429408073425 0.018505465239286423 0.0079623255878686905
0.4205259382724762 0.028250264003872871 0.013032601214945316
0.44873082637786865 0.03546161949634552 0.013398543931543827
0.48259305953979492 0.039062310010194778 0.017239129170775414
0.51795041561126709 0.039047285914421082 0.023367607966065407
0.55476802587509155 0.035971499979496002 0.025573525577783585
0.59195202589035034 0.033632125705480576 0.030514378100633621
0.63251703977584839 0.030068010091781616 0.04035872220993042
0.6720130443572998 0.02934546209871769 0.051718004047870636
0.71562325954437256 0.020823892205953598 0.059273090213537216
0.76114511489868164 0.012370253913104534 0.064444191753864288
0.8053816556930542 0.017819546163082123 0.074425220489501953
0.84695887565612793 0.025444898754358292 0.087542220950126648
0.89032566547393799 0.013747937045991421 0.096760191023349762
0.93775367736816406 0.00087833160068839788 0.10452228784561157
0.97118401527404785 0.010714605450630188 0.11395615339279175
0.99309796094894409 0.021898722276091576 0.12280592322349548
0 0.11550503969192505 0.098699189722537994
0 0.11230077594518661 0.093439042568206787
0.0023597171530127525 0.10879702121019363 0.089557953178882599
0.016773980110883713 0.10504138469696045 0.089478060603141785
0.040588889271020889 0.1025855541229248 0.086972676217556
0.078560546040534973 0.10245096683502197 0.075638212263584137
0.11443758755922318 0.10191603004932404 0.061842668801546097
0.14487844705581665 0.097808219492435455 0.038041852414608002
0.17523747682571411 0.091852106153964996 0.012610930949449539
0.20221926271915436 0.083898477256298065 0.007047771941870451
0.22944138944149017 0.076003961265087128 0.0058967205695807934
0.26003411412239075 0.069332338869571686 0.0051216213032603264
0.29093277454376221 0.06045975536108017 0.0050258873961865902
0.32029259204864502 0.054192807525396347 0.0049684471450746059
0.34746992588043213 0.048949643969535828 0.004668121226131916
0.372793048620224 0.043330542743206024 0.0036920229904353619
0.39707735180854797 0.040366951376199722 0.0051298667676746845
0.4249519407749176 0.048134602606296539 0.0097558768466114998
0.45006191730499268 0.063830941915512085 0.010166643187403679
0.48182296752929688 0.070435658097267151 0.013209541328251362
0.5185123085975647 0.070706963539123535 0.020543899387121201
0.55428832769393921 0.069668754935264587 0.024469031020998955
0.59191173315048218 0.06683880090713501 0.026863951236009598
0.63269150257110596 0.066361233592033386 0.035700909793376923
0.67305481433868408 0.066322416067123413 0.050571121275424957
0.71615034341812134 0.062202248722314835 0.061616748571395874
0.76171481609344482 0.046676211059093475 0.066051431000232697
0.80522847175598145 0.046606048941612244 0.073422111570835114
0.84587007761001587 0.060477055609226227 0.086582660675048828
0.89055997133255005 0.056903213262557983 0.098666384816169739
0.9369775652885437 0.033699162304401398 0.10349491983652115
0.96788698434829712 0.033924128860235214 0.11039432883262634
0.99207526445388794 0.050586339086294174 0.12114054709672928
0 0.12920151650905609 0.096171244978904724
0 0.12739215791225433 0.092698700726032257
0.0023188558407127857 0.12393537908792496 0.089064449071884155
0.01972348615527153 0.1210491880774498 0.08872571587562561
0.040969032794237137 0.11960778385400772 0.088145241141319275
0.070054396986961365 0.11960778385400772 0.084659196436405182
0.10366946458816528 0.11969543248414993 0.074999116361141205
0.13289617002010345 0.12094426155090332 0.063301786780357361
0.16363810002803802 0.11652696132659912 0.037192746996879578
0.19312649965286255 0.11035165190696716 0.010235615074634552
0.2214227169752121 0.10385788232088089 0.0023702026810497046
0.25481212139129639 0.10145600885152817 1.361805698252283e-05
0.28704142570495605 0.094062432646751404 1.361805698252283e-05
0.31990042328834534 0.087149351835250854 1.3618058801512234e-05
0.34902110695838928 0.082473821938037872 1.361805698252283e-05
0.37808734178543091 0.079974919557571411 1.3618058801512234e-05
0.40487900376319885 0.076446369290351868 0.0017395592294633389
0.43847540020942688 0.072340868413448334 0.0076443213038146496
0.468340665102005 0.078618794679641724 0.007938469760119915
0.49641519784927368 0.088744580745697021 0.0071942820213735104
0.52898281812667847 0.093572340905666351 0.011496837250888348
0.56367588043212891 0.098265327513217926 0.016488775610923767
0.60038626194000244 0.10124761611223221 0.018307477235794067
0.64164316654205322 0.10758191347122192 0.023509686812758446
0.68207716941833496 0.11205265671014786 0.032107759267091751
0.72197800874710083 0.12058378010988235 0.049820922315120697
0.76238584518432617 0.12101887166500092 0.064475424587726593
0.80510115623474121 0.11760112643241882 0.067734584212303162
0.84542477130889893 0.12556149065494537 0.073174983263015747
0.89264696836471558 0.12971241772174835 0.091310523450374603
0.94232714176177979 0.11845045536756516 0.10855047404766083
0.97097808122634888 0.11337186396121979 0.1139831617474556
0.99233222007751465 0.12264760583639145 0.11928810179233551
0 0.1445469856262207 0.093601122498512268
0 0.14263840019702911 0.091515786945819855
0.0025015040300786495 0.14086960256099701 0.089436545968055725
0.01948080025613308 0.13819947838783264 0.088204793632030487
0.045036680996417999 0.13755911588668823 0.088265657424926758
0.072797313332557678 0.13774169981479645 0.087425924837589264
0.098137117922306061 0.1384112685918808 0.084550522267818451
0.12571719288825989 0.14077071845531464 0.07764308899641037
0.15479685366153717 0.1414358913898468 0.06504347175359726
0.18363240361213684 0.1367359459400177 0.038837682455778122
0.21354621648788452 0.1326657235622406 0.013009269721806049
0.2481066882610321 0.13196209073066711 0.0068448362872004509
0.28203454613685608 0.12928017973899841 0.0044833454303443432
0.31509950757026672 0.12342216819524765 0.00092917878646403551
0.34841683506965637 0.11919925361871719 0.00061307684518396854
0.38016289472579956 0.11756683140993118 0
0.41123178601264954 0.11222471296787262 0.00067818124080076814
0.44679480791091919 0.10503068566322327 0.0042928894981741905
0.48582401871681213 0.095414452254772186 0.0045302440412342548
0.51904195547103882 0.09942801296710968 0.003500339575111866
0.54677838087081909 0.11018531024456024 0.0037715698126703501
0.57983559370040894 0.11857610195875168 0.0062907552346587181
0.6152380108833313 0.12811143696308136 0.0067680813372135162
0.65564936399459839 0.1361849308013916 0.010269714519381523
0.69595551490783691 0.14584450423717499 0.011561173945665359
0.73331141471862793 0.157119020819664 0.026912210509181023
0.76810431480407715 0.17460587620735168 0.051966778934001923
0.80719906091690063 0.18178848922252655 0.062980182468891144
0.84777945280075073 0.18409387767314911 0.062021646648645401
0.89401930570602417 0.18803039193153381 0.077197723090648651
0.94533509016036987 0.1864180862903595 0.10504908859729767
0.9757353663444519 0.18737813830375671 0.11947018653154373
0.99330061674118042 0.19139671325683594 0.1206778809428215
0 0.16154192388057709 0.094934329390525818
0 0.16012682020664215 0.093402400612831116
0.0029188885819166899 0.15890441834926605 0.091276310384273529
0.021057493984699249 0.15688039362430573 0.084524266421794891
0.048383533954620361 0.15640389919281006 0.083163551986217499
0.081697769463062286 0.1583331823348999 0.085290871560573578
0.10678475350141525 0.15976710617542267 0.085525922477245331
0.12920121848583221 0.16280388832092285 0.087016783654689789
0.15601980686187744 0.16448475420475006 0.080350719392299652
0.1811787486076355 0.1632293313741684 0.071233205497264862
0.21092544496059418 0.16029703617095947 0.048840999603271484
0.24694477021694183 0.16273625195026398 0.031828969717025757
0.28039902448654175 0.16177687048912048 0.024071918800473213
0.31227952241897583 0.15789198875427246 0.0082377539947628975
0.34608903527259827 0.15441416203975677 0.0024666986428201199
0.38255822658538818 0.15944592654705048 3.6598528822651133e-05
0.41561487317085266 0.15742199122905731 0
0.44978302717208862 0.14880484342575073 1.9859668100252748e-05
0.48703056573867798 0.13844834268093109 3.4045140637317672e-05
0.52967202663421631 0.13531789183616638 1.6313297237502411e-05
0.5632404088973999 0.14171892404556274 0
0.59719318151473999 0.14884328842163086 2.3406038963003084e-05
0.63472682237625122 0.15413795411586761 0.00021107916836626828
0.67587029933929443 0.15977676212787628 0.0029533540364354849
0.71751773357391357 0.16617408394813538 0.0042613479308784008
0.75172168016433716 0.17687647044658661 0.013581456616520882
0.78460836410522461 0.19219385087490082 0.028282979503273964
0.82221972942352295 0.20263330638408661 0.04272129014134407
0.86345279216766357 0.20602545142173767 0.043268680572509766
0.90747904777526855 0.21713325381278992 0.059303965419530869
0.95401310920715332 0.22759422659873962 0.08921581506729126
0.98057019710540771 0.22885900735855103 0.10991676151752472
0.99363070726394653 0.23329238593578339 0.12214238196611404
0 0.18186293542385101 0.09850754588842392
0 0.18063896894454956 0.097348257899284363
0.0027480246499180794 0.17938266694545746 0.095517814159393311
0.021527545526623726 0.17792154848575592 0.08716757595539093
0.051330842077732086 0.17682060599327087 0.079108580946922302
0.086469486355781555 0.17932161688804626 0.081861093640327454
0.11578535288572311 0.18278075754642487 0.086516067385673523
0.13757894933223724 0.18634596467018127 0.089939862489700317
0.16032944619655609 0.18945342302322388 0.091398060321807861
0.18471825122833252 0.18820200860500336 0.087604962289333344
0.21017031371593475 0.18816889822483063 0.083420559763908386
0.24460044503211975 0.19211290776729584 0.069958731532096863
0.27815592288970947 0.19476138055324554 0.050708964467048645
0.30999603867530823 0.19236047565937042 0.030401039868593216
0.34404557943344116 0.18952004611492157 0.012754670344293118
0.38056847453117371 0.19555798172950745 0.0059293587692081928
0.41728129982948303 0.20283700525760651 0.0041544511914253235
0.45139968395233154 0.19767609238624573 0.00064834364457055926
0.48500889539718628 0.18877595663070679 0.00043471390381455421
0.52728855609893799 0.18632619082927704 4.2556428070383845e-07
0.5706670880317688 0.18506127595901489 0
0.60984116792678833 0.18856939673423767 0
0.65046995878219604 0.18774937093257904 4.42586861026939e-05
0.69216024875640869 0.19013088941574097 0.0013903997605666518
0.73607468605041504 0.19266064465045929 0.0021122628822922707
0.77447998523712158 0.19743481278419495 0.0069864378310739994
0.80546998977661133 0.20853735506534576 0.0084070060402154922
0.8429524302482605 0.21576553583145142 0.013563315384089947
0.88519155979156494 0.22008690237998962 0.015103188343346119
0.92709183692932129 0.2329496294260025 0.033038858324289322
0.96805864572525024 0.25470146536827087 0.064600244164466858
0.98827779293060303 0.26365408301353455 0.084907852113246918
0.99727994203567505 0.26883804798126221 0.10635074973106384
0 0.20976744592189789 0.10736811906099319
0 0.20871998369693756 0.10461810976266861
0.0024901682045310736 0.20805750787258148 0.10383377224206924
0.020481295883655548 0.20785519480705261 0.10178991407155991
0.050339695066213608 0.2062930166721344 0.093654409050941467
0.087774105370044708 0.20657067000865936 0.092630289494991302
0.11908166855573654 0.20999448001384735 0.096588127315044403
0.14010970294475555 0.21451523900032043 0.099922418594360352
0.16212774813175201 0.21758593618869781 0.10281315445899963
0.18949525058269501 0.21767957508563995 0.10114859789609909
0.21459312736988068 0.21812136471271515 0.101303331553936
0.24171008169651031 0.22366230189800262 0.1074356809258461
0.27353435754776001 0.22685414552688599 0.092559404671192169
0.30688494443893433 0.22949555516242981 0.069760411977767944
0.34139576554298401 0.22869798541069031 0.050149109214544296
0.37652009725570679 0.22963690757751465 0.032005582004785538
0.41262421011924744 0.23565295338630676 0.022880353033542633
0.45149475336074829 0.23632915318012238 0.0067762839607894421
0.4872383177280426 0.23113256692886353 0.001729379640892148
0.52670550346374512 0.23146745562553406 6.8090284912614152e-06
0.56909662485122681 0.23137061297893524 0
0.6123892068862915 0.23580668866634369 0
0.65436428785324097 0.23751667141914368 0
0.69556248188018799 0.23853689432144165 0
0.74045664072036743 0.2397226095199585 0
0.78695142269134521 0.23630981147289276 3.064062912017107e-05
0.82400029897689819 0.23996748030185699 5.4472235206048936e-05
0.86254668235778809 0.24270223081111908 8.1701400631573051e-05
0.90545743703842163 0.24387718737125397 0.00086463644402101636
0.94271302223205566 0.25530195236206055 0.01537884958088398
0.97972840070724487 0.27067479491233826 0.033881109207868576
0.99379080533981323 0.27964803576469421 0.048132117837667465
0.99798119068145752 0.28331005573272705 0.059531375765800476
0 0.24035342037677765 0.11906911432743073
0 0.23920424282550812 0.11552786827087402
0.0015590867260470986 0.23767049610614777 0.11178669333457947
0.018511081114411354 0.23757144808769226 0.1118350476026535
0.047961898148059845 0.23731361329555511 0.11039102077484131
0.08783576637506485 0.23699726164340973 0.10900698602199554
0.12239402532577515 0.23790644109249115 0.10905174165964127
0.14293457567691803 0.24215281009674072 0.1117827445268631
0.16342976689338684 0.24786278605461121 0.1152571514248848
0.19185924530029297 0.24914056062698364 0.11478326469659805
0.22006772458553314 0.25000259280204773 0.11514754593372345
0.24608038365840912 0.25474506616592407 0.12449502199888229
0.27101388573646545 0.25828635692596436 0.12892527878284454
0.30404466390609741 0.26227563619613647 0.11161287873983383
0.34085911512374878 0.26685589551925659 0.090879589319229126
0.37523084878921509 0.26800981163978577 0.070861615240573883
0.4091545045375824 0.26864591240882874 0.048891160637140274
0.44890487194061279 0.26958709955215454 0.029406378045678139
0.48992529511451721 0.26983341574668884 0.013709953986108303
0.53006124496459961 0.27270126342773438 0.0070040570572018623
0.5692591667175293 0.27447232604026794 0.0062534147873520851
0.61152410507202148 0.27950143814086914 0.0033327036071568727
0.65458160638809204 0.2865956723690033 0.0026922388933598995
0.69781047105789185 0.28840693831443787 4.0960563637781888e-05
0.74354583024978638 0.29056558012962341 0
0.78943806886672974 0.28761672973632812 0
0.83359503746032715 0.28241965174674988 0
0.87715649604797363 0.28077635169029236 0
0.92079466581344604 0.27762073278427124 0.00032276040292344987
0.95692682266235352 0.28355264663696289 0.0085753099992871284
0.98954766988754272 0.2902972400188446 0.011304363608360291
1 0.29080924391746521 0.014787428081035614
1 0.29227340221405029 0.015805602073669434
0 0.27374619245529175 0.1359841525554657
0 0.27631133794784546 0.13756102323532104
0 0.2745000422000885 0.13382755219936371
0.0049397051334381104 0.27228116989135742 0.1314028799533844
0.033952921628952026 0.27222245931625366 0.13059291243553162
0.088045306503772736 0.27222245931625366 0.12850140035152435
0.12644338607788086 0.27222245931625366 0.12713442742824554
0.14754419028759003 0.27358907461166382 0.12675100564956665
0.16845604777336121 0.27908411622047424 0.13046948611736298
0.1951482743024826 0.2831500768661499 0.13464882969856262
0.22280570864677429 0.28462588787078857 0.1354442834854126
0.25255990028381348 0.28950923681259155 0.14049236476421356
0.27849462628364563 0.29368221759796143 0.14819993078708649
0.30996766686439514 0.29685410857200623 0.14746451377868652
0.34602490067481995 0.30090764164924622 0.13097423315048218
0.38029596209526062 0.30487999320030212 0.11697820574045181
0.41401958465576172 0.30692273378372192 0.097722724080085754
0.45257818698883057 0.30903884768486023 0.077302716672420502
0.4936174750328064 0.31015878915786743 0.059726867824792862
0.53485214710235596 0.31618711352348328 0.044065326452255249
0.57423746585845947 0.31997725367546082 0.037138346582651138
0.61471790075302124 0.32382696866989136 0.024196634069085121
0.65720671415328979 0.32960465550422668 0.016417086124420166
0.70448249578475952 0.32982033491134644 0.003474661149084568
0.75170224905014038 0.33053606748580933 2.0427083654794842e-05
0.79468101263046265 0.33365520834922791 0
0.83801132440567017 0.33311870694160461 0
0.88570499420166016 0.32845214009284973 0
0.93124938011169434 0.3229239284992218 0
0.96259027719497681 0.32314035296440125 3.2768446544650942e-05
0.9904666543006897 0.32834574580192566 7.4899326136801392e-05
1 0.3183039128780365 0.00010297939297743142
1 0.30751022696495056 0.00014977953105699271
0 0.30471408367156982 0.15115153789520264
0 0.30957421660423279 0.15609575808048248
0.00024536374257877469 0.31209248304367065 0.15838930010795593
0.00065533071756362915 0.30849766731262207 0.15510167181491852
0.017141446471214294 0.30624386668205261 0.15257926285266876
0.07737017422914505 0.30620896816253662 0.14968647062778473
0.13235844671726227 0.30673649907112122 0.14634163677692413
0.15537728369235992 0.3080858588218689 0.1452760249376297
0.17553180456161499 0.31153291463851929 0.14718824625015259
0.20040459930896759 0.31592896580696106 0.1527666449546814
0.22541297972202301 0.31962448358535767 0.15774573385715485
0.25684559345245361 0.32457828521728516 0.16198761761188507
0.28869250416755676 0.3303246796131134 0.16597442328929901
0.32027176022529602 0.33274132013320923 0.1671997457742691
0.35368338227272034 0.33365711569786072 0.16355721652507782
0.38717207312583923 0.33821004629135132 0.15587949752807617
0.42039573192596436 0.34511110186576843 0.14597363770008087
0.45824411511421204 0.34830480813980103 0.12812015414237976
0.49798163771629333 0.35057729482650757 0.10810409486293793
