Textures/19.cube
# Created by: G'MIC (https://gmic.eu)
TITLE "LateSunset.cube"
# LUT size
LUT_3D_SIZE 33
# Data domain
DOMAIN_MIN 0.0 0.0 0.0
DOMAIN_MAX 1.0 1.0 1.0
# LUT data points
0.0025330388452857733 0.0010002119233831763 0.0029265915509313345
0.013093035668134689 0.00050557038048282266 0.0027319679502397776
0.025914501398801804 0.00060426589334383607 0.0041064932011067867
0.042411532253026962 0.00071154354372993112 0.0053139650262892246
0.059683956205844879 0.00091482151765376329 0.0096265310421586037
0.083001740276813507 0.0012256251648068428 0.019082976505160332
0.1046779677271843 0.0012256253976374865 0.028371881693601608
0.11386961489915848 0.0012256251648068428 0.043912094086408615
0.12142954766750336 0.0017941248370334506 0.060984466224908829
0.13439376652240753 0.0054429159499704838 0.078659556806087494
0.15019536018371582 0.0086997067555785179 0.09646344929933548
0.16475003957748413 0.0095082689076662064 0.11235208809375763
0.17871925234794617 0.0097329672425985336 0.1277405172586441
0.19750206172466278 0.0046795881353318691 0.13642507791519165
0.21497651934623718 0.00016015404253266752 0.14332284033298492
0.2339925616979599 0 0.14764054119586945
0.25277665257453918 0 0.15092428028583527
0.26709789037704468 0 0.15273365378379822
0.28249534964561462 0 0.1565626859664917
0.29774999618530273 0 0.1588287353515625
0.31098708510398865 0 0.15891315042972565
0.3266339898109436 0 0.16114845871925354
0.3440057635307312 0 0.16490155458450317
0.36269068717956543 0 0.16757193207740784
0.38041314482688904 5.3443778597284108e-05 0.16975237429141998
0.39892324805259705 0.001792313763871789 0.17185162007808685
0.416176438331604 0.0019901101477444172 0.17386162281036377
0.43333348631858826 0.0029828683473169804 0.17498818039894104
0.45049017667770386 0.0069655552506446838 0.17694742977619171
0.47099959850311279 0.019981496036052704 0.17956154048442841
0.49600896239280701 0.037192646414041519 0.18311145901679993
0.52107864618301392 0.052813418209552765 0.1858212947845459
0.54232025146484375 0.066342376172542572 0.18617582321166992
0.0020954334177076817 0.0064135524444282055 0.0035744272172451019
0.010171928443014622 0.0055574406869709492 0.003349729347974062
0.023127121850848198 0.0057493308559060097 0.0056475833989679813
0.042034309357404709 0.0069475150667130947 0.012555366382002831
0.059313841164112091 0.0074175838381052017 0.018535438925027847
0.080303311347961426 0.0066994591616094112 0.033481571823358536
0.10156901925802231 0.0064332596957683563 0.044192872941493988
0.11499408632516861 0.0068576973862946033 0.055735360831022263
0.12455699592828751 0.0077137164771556854 0.071622811257839203
0.1364845335483551 0.012045680545270443 0.087814889848232269
0.15035298466682434 0.015224667266011238 0.1043078675866127
0.1671483963727951 0.014515222981572151 0.11687680333852768
0.18187262117862701 0.013716308400034904 0.13019666075706482
0.19908756017684937 0.007495285477489233 0.13758081197738647
0.21767164766788483 0.0014603593153879046 0.14483463764190674
0.23339441418647766 0 0.14950138330459595
0.25085601210594177 0 0.15241657197475433
0.26603597402572632 0 0.15157796442508698
0.28104609251022339 0 0.15314614772796631
0.29663091897964478 0 0.15739880502223969
0.31119260191917419 0 0.15926380455493927
0.32637739181518555 0 0.16116717457771301
0.34311479330062866 0 0.16490155458450317
0.36167952418327332 0.00039751251460984349 0.16800446808338165
0.38169777393341064 0.0021583857014775276 0.17118518054485321
0.39918303489685059 0.0068257548846304417 0.17386710643768311
0.416176438331604 0.0092722568660974503 0.17553025484085083
0.43333351612091064 0.010347205214202404 0.17606820166110992
0.45049017667770386 0.015257686376571655 0.17707224190235138
0.47003179788589478 0.028188148513436317 0.17956152558326721
0.49442321062088013 0.043538141995668411 0.18309858441352844
0.52093964815139771 0.059748735278844833 0.18660634756088257
0.54580271244049072 0.076146490871906281 0.18870586156845093
0.002144757192581892 0.015699969604611397 0.010026086121797562
0.010198303498327732 0.013768057338893414 0.0096559152007102966
0.022650120779871941 0.014099592342972755 0.013083030469715595
0.04217500239610672 0.016674656420946121 0.021453462541103363
0.060153070837259293 0.017494324594736099 0.030339581891894341
0.079866640269756317 0.017039401456713676 0.045369837433099747
0.099231407046318054 0.014674032106995583 0.060618843883275986
0.11377487331628799 0.014818278141319752 0.071785293519496918
0.12758246064186096 0.015344058163464069 0.084068723022937775
0.1399836540222168 0.019447002559900284 0.099058985710144043
0.15222546458244324 0.022978009656071663 0.11288309097290039
0.16859503090381622 0.020856009796261787 0.12406661361455917
0.18614216148853302 0.018143719062209129 0.13362380862236023
0.20411369204521179 0.01157362200319767 0.13977935910224915
0.22079646587371826 0.0050562783144414425 0.1467200368642807
0.23593437671661377 0.003224716754630208 0.15112288296222687
0.25110223889350891 0.0019051950657740235 0.15441039204597473
0.26582777500152588 0.0017288761446252465 0.15356859564781189
0.2806532084941864 0.0015125186182558537 0.15239454805850983
0.29648864269256592 0.0009805003646761179 0.15555842220783234
0.31251004338264465 0.0011115740053355694 0.15923340618610382
0.32729575037956238 0.001935451989993453 0.16234086453914642
0.34331178665161133 0.0019953036680817604 0.16583001613616943
0.36207368969917297 0.0034934759605675936 0.16856637597084045
0.38136914372444153 0.0071336729452013969 0.17256440222263336
0.39926472306251526 0.011453078128397465 0.17536665499210358
0.41625815629959106 0.015371969901025295 0.17741310596466064
0.43337419629096985 0.020194584503769875 0.17771424353122711
0.45067793130874634 0.026219962164759636 0.17777590453624725
0.47167876362800598 0.037120863795280457 0.18064069747924805
0.49491491913795471 0.050917129963636398 0.18455597758293152
0.52086943387985229 0.066374428570270538 0.18781900405883789
0.54739969968795776 0.084997296333312988 0.19137829542160034
0.0024987317156046629 0.034165766090154648 0.031477738171815872
0.014904518611729145 0.030746221542358398 0.028951898217201233
0.028975158929824829 0.030555587261915207 0.032795809209346771
0.048446640372276306 0.030827948823571205 0.044798035174608231
0.065501712262630463 0.032159116119146347 0.05397418886423111
0.080339528620243073 0.031413525342941284 0.064086757600307465
0.097901523113250732 0.030504519119858742 0.077546313405036926
0.115610271692276 0.028742887079715729 0.087888330221176147
0.13091833889484406 0.028491687029600143 0.099243536591529846
0.1437734067440033 0.029309101402759552 0.11159282177686691
0.15609809756278992 0.031138218939304352 0.1242389976978302
0.17341960966587067 0.026274243369698524 0.13205777108669281
0.19180339574813843 0.022319510579109192 0.13945534825325012
0.21124720573425293 0.016126656904816628 0.14222545921802521
0.22851495444774628 0.010678891092538834 0.14749976992607117
0.2401389479637146 0.011361430399119854 0.15154218673706055
0.25330227613449097 0.011150266975164413 0.15489180386066437
0.26772236824035645 0.0099325664341449738 0.15530017018318176
0.28316998481750488 0.0088761020451784134 0.15459887683391571
0.29861629009246826 0.0066295303404331207 0.15791133046150208
0.31363010406494141 0.0063181822188198566 0.1623208075761795
0.33046582341194153 0.0090261334553360939 0.16539119184017181
0.34695973992347717 0.010628406889736652 0.16828705370426178
0.36586740612983704 0.013603555038571358 0.17005923390388489
0.38499125838279724 0.018325179815292358 0.172994464635849
0.40310460329055786 0.020324109122157097 0.17573718726634979
0.4201570451259613 0.021523019298911095 0.17775239050388336
0.43677902221679688 0.029718836769461632 0.17773376405239105
0.45351701974868774 0.039506908506155014 0.17780865728855133
0.47434154152870178 0.048059273511171341 0.18228676915168762
0.49866741895675659 0.05860573798418045 0.18820583820343018
0.52428746223449707 0.073582932353019714 0.19116672873497009
0.54984819889068604 0.089265577495098114 0.19265753030776978
0.0076234433799982071 0.051616016775369644 0.056464191526174545
0.022481624037027359 0.048002324998378754 0.05383574590086937
0.037559017539024353 0.045288823544979095 0.054295096546411514
0.055101927369832993 0.045016232877969742 0.066229782998561859
0.071054659783840179 0.045016232877969742 0.077634997665882111
0.084357567131519318 0.045016232877969742 0.086723066866397858
0.098991118371486664 0.044636707752943039 0.095869705080986023
0.11690112203359604 0.042950045317411423 0.10491827130317688
0.13502860069274902 0.041273556649684906 0.11385846138000488
0.14809444546699524 0.040421906858682632 0.12358952313661575
0.16063310205936432 0.039645720273256302 0.13361462950706482
0.17871449887752533 0.034747246652841568 0.13930009305477142
0.19724495708942413 0.029371568933129311 0.14464658498764038
0.21601977944374084 0.024819096550345421 0.14687281847000122
0.23403701186180115 0.020161064341664314 0.14880457520484924
0.24573205411434174 0.020364152267575264 0.15198396146297455
0.25627154111862183 0.021179087460041046 0.15520189702510834
0.27068021893501282 0.020707080140709877 0.15556071698665619
0.28525885939598083 0.018853355199098587 0.15584975481033325
0.30070701241493225 0.016669178381562233 0.15930531919002533
0.31620135903358459 0.015743590891361237 0.16484475135803223
0.33173668384552002 0.018036520108580589 0.16778625547885895
0.34936079382896423 0.022047402337193489 0.16996109485626221
0.36857706308364868 0.026166342198848724 0.17107117176055908
0.3870101273059845 0.031790904700756073 0.17315554618835449
0.40653607249259949 0.034459158778190613 0.17573718726634979
0.42360025644302368 0.03250519186258316 0.17779196798801422
0.44161385297775269 0.039021793752908707 0.17906805872917175
0.45735767483711243 0.051907669752836227 0.17916400730609894
0.47752240300178528 0.061503302305936813 0.18215583264827728
0.50220704078674316 0.069464154541492462 0.18932804465293884
0.52772980928421021 0.081695921719074249 0.19312176108360291
0.55265170335769653 0.095433615148067474 0.19344550371170044
0.021762683987617493 0.065070688724517822 0.084324225783348083
0.038051430135965347 0.061932437121868134 0.086131729185581207
0.052128862589597702 0.059124574065208435 0.086167871952056885
0.064514495432376862 0.058823730796575546 0.093044020235538483
0.079067803919315338 0.058823730796575546 0.10317389667034149
0.091275915503501892 0.058823730796575546 0.11023207753896713
0.10551687330007553 0.058187093585729599 0.11817050725221634
0.12217967957258224 0.056377716362476349 0.12460522353649139
0.13946950435638428 0.054076481610536575 0.13144829869270325
0.15434736013412476 0.050563361495733261 0.13386343419551849
0.16786731779575348 0.048888478428125381 0.14060249924659729
0.18634261190891266 0.045370325446128845 0.1450444757938385
0.20445992052555084 0.041082844138145447 0.14963433146476746
0.21846838295459747 0.040102414786815643 0.15127015113830566
0.23438365757465363 0.037161391228437424 0.15244804322719574
0.24702358245849609 0.035145800560712814 0.15499553084373474
0.25812134146690369 0.035622317343950272 0.15829341113567352
0.27384939789772034 0.035195957869291306 0.1587945967912674
0.28920772671699524 0.03348156064748764 0.15899154543876648
0.30420738458633423 0.032424550503492355 0.16089783608913422
0.31954267621040344 0.0299508236348629 0.16494917869567871
0.33496612310409546 0.034281354397535324 0.16815948486328125
0.35171517729759216 0.038858044892549515 0.17096671462059021
0.36878576874732971 0.043607156723737717 0.17126584053039551
0.38678005337715149 0.047926079481840134 0.1717180460691452
0.40702629089355469 0.051862061023712158 0.1750892698764801
0.42459201812744141 0.052327662706375122 0.17780900001525879
0.44615629315376282 0.056533198803663254 0.18180353939533234
0.4646466076374054 0.067420758306980133 0.18449881672859192
0.48372489213943481 0.075654707849025726 0.1843208372592926
0.50655126571655273 0.081393048167228699 0.18679958581924438
0.53131473064422607 0.092638649046421051 0.1902119368314743
0.55637431144714355 0.10601300746202469 0.19231292605400085
0.037633363157510757 0.078014232218265533 0.10965865850448608
0.053167577832937241 0.074881389737129211 0.11273685842752457
0.067488618195056915 0.072002634406089783 0.11624401062726974
0.078291773796081543 0.071731977164745331 0.12131727486848831
0.089992716908454895 0.071502029895782471 0.12625859677791595
0.10152722150087357 0.071241863071918488 0.13117542862892151
0.11446473747491837 0.070811271667480469 0.13667964935302734
0.12988218665122986 0.068598531186580658 0.1417672336101532
0.14514775574207306 0.066622249782085419 0.14678321778774261
0.15958033502101898 0.063681483268737793 0.14746174216270447
0.17484688758850098 0.059894151985645294 0.14825929701328278
0.19310323894023895 0.056639790534973145 0.15126542747020721
0.21086212992668152 0.054341614246368408 0.15474119782447815
0.22436736524105072 0.054299492388963699 0.15585649013519287
0.23657292127609253 0.053915262222290039 0.15628314018249512
0.24916473031044006 0.051212448626756668 0.15887172520160675
0.26092991232872009 0.050398886203765869 0.16209620237350464
0.27611532807350159 0.050038006156682968 0.16242501139640808
0.29264739155769348 0.050214402377605438 0.1626153439283371
0.30800554156303406 0.048679433763027191 0.16393022239208221
0.32339248061180115 0.046794846653938293 0.16606283187866211
0.33932644128799438 0.049969892948865891 0.16885600984096527
0.35474371910095215 0.055859651416540146 0.17267882823944092
0.37210926413536072 0.059860233217477798 0.17336580157279968
0.38977620005607605 0.06323203444480896 0.17174415290355682
0.40890580415725708 0.066204860806465149 0.17387261986732483
0.4281909167766571 0.068262986838817596 0.17762841284275055
0.44847151637077332 0.074353575706481934 0.18176393210887909
0.46989947557449341 0.084034673869609833 0.18726934492588043
0.4913390576839447 0.091950945556163788 0.18911199271678925
0.51250582933425903 0.096213497221469879 0.18754088878631592
0.53652048110961914 0.10495574772357941 0.18821558356285095
0.5612524151802063 0.11821287870407104 0.19180038571357727
0.063983514904975891 0.088061951100826263 0.13187527656555176
0.072472885251045227 0.086267337203025818 0.13162314891815186
0.08498980849981308 0.083588041365146637 0.13422328233718872
0.092101447284221649 0.082761555910110474 0.13697294890880585
0.10238175094127655 0.08213534951210022 0.14017926156520844
0.11454647779464722 0.079609476029872894 0.14096651971340179
0.12703263759613037 0.078699328005313873 0.14498621225357056
0.1400366872549057 0.077948890626430511 0.14882196485996246
0.15389339625835419 0.076703287661075592 0.15291570127010345
0.16754153370857239 0.07495502382516861 0.15258084237575531
0.18216374516487122 0.072029851377010345 0.15273864567279816
0.19606965780258179 0.07060706615447998 0.15476930141448975
0.21199525892734528 0.068335309624671936 0.1575503796339035
0.22840628027915955 0.068636454641819 0.16067206859588623
0.24214206635951996 0.068408660590648651 0.16229519248008728
0.2555675208568573 0.067357331514358521 0.16377966105937958
0.26779633760452271 0.065179571509361267 0.1661955714225769
0.28011471033096313 0.063607990741729736 0.16659842431545258
0.29501202702522278 0.063971057534217834 0.16659842431545258
0.31154486536979675 0.067111209034919739 0.16670879721641541
0.32730621099472046 0.067207068204879761 0.16787488758563995
0.34418925642967224 0.067429810762405396 0.1708867996931076
0.3609473705291748 0.071000859141349792 0.17454372346401215
0.37874829769134521 0.07436506450176239 0.17586454749107361
0.39598596096038818 0.077001579105854034 0.17500165104866028
0.41518884897232056 0.079401612281799316 0.17621712386608124
0.43507552146911621 0.081357166171073914 0.17886056005954742
0.45442414283752441 0.089125707745552063 0.18216103315353394
0.47484210133552551 0.10024736076593399 0.18696551024913788
0.49784359335899353 0.10964870452880859 0.190435990691185
0.52015763521194458 0.11512888222932816 0.19063621759414673
0.54385417699813843 0.12101126462221146 0.19089795649051666
0.56787264347076416 0.12946508824825287 0.19358888268470764
0.091108269989490509 0.098257645964622498 0.15043690800666809
0.096732258796691895 0.096651077270507812 0.1488107293844223
0.10329851508140564 0.09519185870885849 0.14839312434196472
0.10796400904655457 0.095137208700180054 0.15026406943798065
0.11437409371137619 0.094349734485149384 0.1518113911151886
0.12682920694351196 0.091172866523265839 0.15172244608402252
0.140138179063797 0.088859871029853821 0.15233293175697327
0.15230272710323334 0.088725671172142029 0.1552790105342865
0.16380064189434052 0.087576493620872498 0.15824419260025024
0.1767488420009613 0.085822619497776031 0.15753385424613953
0.18997044861316681 0.084389999508857727 0.15653659403324127
0.20251110196113586 0.084722273051738739 0.15821944177150726
0.21431022882461548 0.084722273051738739 0.16019101440906525
0.23005934059619904 0.084722273051738739 0.16376864910125732
0.24674426019191742 0.084722273051738739 0.16846869885921478
0.26058518886566162 0.082701064646244049 0.16942457854747772
0.27470934391021729 0.080841973423957825 0.16977240145206451
0.28773355484008789 0.080800727009773254 0.17033948004245758
0.29930484294891357 0.080800727009773254 0.1703866720199585
0.31407248973846436 0.083152517676353455 0.17063921689987183
0.33133998513221741 0.08668924868106842 0.17079408466815948
0.34845399856567383 0.088237732648849487 0.17297397553920746
0.36609870195388794 0.088393546640872955 0.17665061354637146
0.38442662358283997 0.089621312916278839 0.17836907505989075
0.40177461504936218 0.092581495642662048 0.17851300537586212
0.42119860649108887 0.09424203634262085 0.17966485023498535
0.44198149442672729 0.096690922975540161 0.18167489767074585
0.46219760179519653 0.10368767380714417 0.18440404534339905
0.48147034645080566 0.11644012480974197 0.18811991810798645
0.50435912609100342 0.1277724951505661 0.1907961368560791
0.52777749300003052 0.13397216796875 0.19281092286109924
0.55215078592300415 0.13998343050479889 0.19401437044143677
0.57526040077209473 0.14444129168987274 0.19561690092086792
0.10489721596240997 0.10957388579845428 0.15633279085159302
0.11114350706338882 0.10760810226202011 0.15497380495071411
0.11691837012767792 0.10693800449371338 0.15408334136009216
0.12034394592046738 0.10714003443717957 0.15492023527622223
0.12614990770816803 0.10683427006006241 0.15657441318035126
0.13755890727043152 0.10583771020174026 0.158644899725914
0.15054865181446075 0.10278788954019547 0.15903457999229431
0.16243274509906769 0.102450892329216 0.15975692868232727
0.17385020852088928 0.10192500799894333 0.16221553087234497
0.18532758951187134 0.098746173083782196 0.16205450892448425
0.19795407354831696 0.097711682319641113 0.16121657192707062
0.20953221619129181 0.099629074335098267 0.16297399997711182
0.22125440835952759 0.099958918988704681 0.16499863564968109
0.23566465079784393 0.10104510933160782 0.16749221086502075
0.25174859166145325 0.10164759308099747 0.17119720578193665
0.26372185349464417 0.0992116779088974 0.17143148183822632
0.27660402655601501 0.097875840961933136 0.17156793177127838
0.29548332095146179 0.09811025857925415 0.17295946180820465
0.3096545934677124 0.099174909293651581 0.17376621067523956
0.32041028141975403 0.099868215620517731 0.1741957813501358
0.33453872799873352 0.10165240615606308 0.17440743744373322
0.35304713249206543 0.10237604379653931 0.1752515435218811
0.3720112144947052 0.10258550196886063 0.17777109146118164
0.390594482421875 0.10730591416358948 0.18068987131118774
0.40943732857704163 0.11216003447771072 0.18280814588069916
0.42837294936180115 0.11481628566980362 0.18449178338050842
0.44781136512756348 0.11692913621664047 0.18640142679214478
0.46902519464492798 0.12103115022182465 0.18797191977500916
0.48929545283317566 0.13017009198665619 0.19031582772731781
0.51214045286178589 0.142560213804245 0.19254197180271149
0.53561222553253174 0.15151107311248779 0.19429008662700653
0.56067788600921631 0.15862582623958588 0.19485875964164734
0.58564811944961548 0.16444505751132965 0.19496810436248779
0.11726254224777222 0.12181367725133896 0.16247394680976868
0.12398034334182739 0.11979161947965622 0.16121411323547363
0.1302868127822876 0.11918773502111435 0.15972444415092468
0.13286587595939636 0.11939839273691177 0.15975445508956909
0.13788884878158569 0.11923416703939438 0.16048121452331543
0.14876346290111542 0.11910390853881836 0.163558229804039
0.1602867990732193 0.11879078298807144 0.16592155396938324
0.17186376452445984 0.11879078298807144 0.16596017777919769
0.183360755443573 0.11788063496351242 0.16619120538234711
0.19445377588272095 0.11420336365699768 0.16626822948455811
0.20570047199726105 0.11126614362001419 0.16666954755783081
0.21759392321109772 0.11387600004673004 0.16856673359870911
0.22928598523139954 0.11490285396575928 0.17036792635917664
0.24345101416110992 0.11562260985374451 0.1717953234910965
0.25841304659843445 0.11825799942016602 0.17370496690273285
0.26959440112113953 0.11572454124689102 0.17391698062419891
0.2804526686668396 0.11486922949552536 0.17400598526000977
0.29897814989089966 0.11510248482227325 0.17530339956283569
0.31895336508750916 0.11766266077756882 0.17711836099624634
0.33118650317192078 0.1184939369559288 0.17815086245536804
0.33985400199890137 0.11646369844675064 0.17828245460987091
0.35656693577766418 0.11701671034097672 0.17880548536777496
0.37774637341499329 0.11737050861120224 0.17908553779125214
0.39767062664031982 0.1221645399928093 0.18177483975887299
0.41840866208076477 0.13118337094783783 0.1868644505739212
0.43798545002937317 0.13509894907474518 0.18990112841129303
0.4556712806224823 0.13757134974002838 0.19160585105419159
0.47668412327766418 0.14159399271011353 0.19298681616783142
0.49781322479248047 0.14625886082649231 0.19332881271839142
0.52049374580383301 0.15512058138847351 0.19377973675727844
0.54390734434127808 0.16678977012634277 0.19567880034446716
0.56967079639434814 0.17569828033447266 0.196653813123703
0.59658282995223999 0.18323743343353271 0.19522546231746674
0.13333848118782043 0.13578417897224426 0.16902299225330353
0.13933315873146057 0.1356344074010849 0.1699112206697464
0.14483092725276947 0.13404297828674316 0.16826033592224121
0.14635078608989716 0.13398681581020355 0.16751247644424438
0.15116885304450989 0.13465620577335358 0.16797859966754913
0.16447131335735321 0.13526846468448639 0.16868995130062103
0.17548540234565735 0.13479390740394592 0.17091482877731323
0.18316324055194855 0.13399462401866913 0.17177808284759521
0.19379974901676178 0.13311038911342621 0.1719459593296051
0.20325092971324921 0.13004803657531738 0.17194810509681702
0.21404656767845154 0.12800629436969757 0.17234288156032562
0.2259526401758194 0.12959921360015869 0.17500174045562744
0.23778040707111359 0.13215272128582001 0.17661930620670319
0.25269374251365662 0.13194020092487335 0.17513124644756317
0.26785403490066528 0.1320771723985672 0.17579479515552521
0.27798670530319214 0.13186611235141754 0.17753641307353973
0.28803488612174988 0.13034616410732269 0.17787325382232666
0.30434274673461914 0.13017767667770386 0.17813928425312042
0.32369691133499146 0.13189332187175751 0.17952150106430054
0.34113356471061707 0.13520552217960358 0.18171983957290649
0.35199210047721863 0.13573339581489563 0.18293429911136627
0.36609131097793579 0.1361859142780304 0.18421626091003418
0.38564631342887878 0.13681074976921082 0.18515694141387939
0.40696811676025391 0.14118236303329468 0.18608875572681427
0.42854872345924377 0.1491868644952774 0.18953654170036316
0.448964923620224 0.15434035658836365 0.19302156567573547
0.46730321645736694 0.15701401233673096 0.19573567807674408
0.48939767479896545 0.1622709333896637 0.19686169922351837
0.51147562265396118 0.16735590994358063 0.19689643383026123
0.5332990288734436 0.17375069856643677 0.19558736681938171
0.55726712942123413 0.18352231383323669 0.1957811564207077
0.58511984348297119 0.1939861923456192 0.19878290593624115
0.61372101306915283 0.20304352045059204 0.20053991675376892
0.15013255178928375 0.14918303489685059 0.17459991574287415
