Textures/19.cube
# Created by: G'MIC (https://gmic.eu)
TITLE "LateSunset.cube"
# LUT size
LUT_3D_SIZE 5
# Data domain
DOMAIN_MIN 0.0 0.0 0.0
DOMAIN_MAX 1.0 1.0 1.0
# LUT data points
0.0025330388452857733 0.0010002119233831763 0.0029265915509313345
0.12142954766750336 0.0017941248370334506 0.060984466224908829
0.25277665257453918 0 0.15092428028583527
0.38041314482688904 5.3443778597284108e-05 0.16975237429141998
0.54232025146484375 0.066342376172542572 0.18617582321166992
0.091108269989490509 0.098257645964622498 0.15043690800666809
0.16380064189434052 0.087576493620872498 0.15824419260025024
0.27470934391021729 0.080841973423957825 0.16977240145206451
0.40177461504936218 0.092581495642662048 0.17851300537586212
0.57526040077209473 0.14444129168987274 0.19561690092086792
0.21312639117240906 0.21345594525337219 0.18960852921009064
0.2600216269493103 0.21506646275520325 0.19043038785457611
0.35484769940376282 0.22323593497276306 0.1971776932477951
0.50246161222457886 0.25385180115699768 0.20981688797473907
0.70664149522781372 0.32387968897819519 0.20298224687576294
0.4673590362071991 0.4418146014213562 0.20772737264633179
0.52426522970199585 0.45485582947731018 0.19524025917053223
0.61760824918746948 0.47266149520874023 0.16352261602878571
0.78029376268386841 0.53102046251296997 0.093303382396697998
0.95561319589614868 0.63485449552536011 0.1885988712310791
0.77836096286773682 0.86357605457305908 0.38584348559379578
0.79842793941497803 0.86800956726074219 0.40534788370132446
0.85220766067504883 0.89291530847549438 0.45669379830360413
0.92794007062911987 0.93376308679580688 0.53713774681091309
1 0.97858119010925293 0.62192618846893311
0.017287455499172211 0.00022625834390055388 0.11719874292612076
0.11362062394618988 0.0056173312477767467 0.16366203129291534
0.2411358654499054 0 0.23262253403663635
0.37207752466201782 0 0.23995338380336761
0.53912121057510376 0.063010089099407196 0.25228756666183472
0.068975754082202911 0.095388568937778473 0.22248257696628571
0.1483180969953537 0.088804088532924652 0.2324051707983017
0.26262617111206055 0.08086598664522171 0.2404344379901886
0.3944728672504425 0.095407895743846893 0.24765072762966156
0.58200740814208984 0.14792264997959137 0.25130528211593628
0.20655328035354614 0.21688291430473328 0.24612617492675781
0.25094413757324219 0.21345476806163788 0.24533866345882416
0.35091403126716614 0.22696506977081299 0.25213167071342468
0.50279128551483154 0.2544482946395874 0.25856637954711914
0.71183615922927856 0.32857555150985718 0.2531457245349884
0.47786355018615723 0.45094156265258789 0.25203779339790344
0.51882529258728027 0.45545616745948792 0.24322189390659332
0.61745357513427734 0.47335454821586609 0.21018756926059723
0.78191280364990234 0.5293586254119873 0.16957755386829376
0.96299326419830322 0.63984203338623047 0.25073713064193726
0.77196145057678223 0.86566030979156494 0.42563077807426453
0.79506212472915649 0.87909173965454102 0.45440214872360229
0.85004627704620361 0.89953243732452393 0.50113183259963989
0.92444753646850586 0.93470108509063721 0.57243943214416504
1 0.97768068313598633 0.65658664703369141
0.052828554064035416 0.0033599836751818657 0.23511387407779694
0.0919027179479599 0.013398967683315277 0.28136962652206421
0.2266710102558136 4.42586861026939e-05 0.31808969378471375
0.36916038393974304 0.0019151450833305717 0.32819396257400513
0.55062603950500488 0.076294340193271637 0.34309583902359009
0.061464160680770874 0.091854192316532135 0.31482622027397156
0.14302268624305725 0.088731057941913605 0.32163015007972717
0.26020345091819763 0.084854409098625183 0.32249093055725098
0.39519438147544861 0.099606752395629883 0.32944595813751221
0.57992935180664062 0.16043809056282043 0.34391728043556213
0.2132808119058609 0.21821008622646332 0.32566222548484802
0.25728732347488403 0.21962359547615051 0.32643219828605652
0.35784602165222168 0.23141607642173767 0.3336549699306488
0.50207358598709106 0.25920820236206055 0.34145241975784302
0.72900879383087158 0.33665511012077332 0.32855749130249023
0.50155282020568848 0.45379671454429626 0.32628744840621948
0.53508454561233521 0.45743057131767273 0.32091397047042847
0.64088642597198486 0.48926344513893127 0.29225486516952515
0.80463272333145142 0.5455096960067749 0.2707902193069458
0.96261239051818848 0.65267950296401978 0.36655953526496887
0.77882581949234009 0.87074875831604004 0.52418303489685059
0.7967071533203125 0.880806565284729 0.54225242137908936
0.84402543306350708 0.9052426815032959 0.5892331600189209
0.92314743995666504 0.94385784864425659 0.66162145137786865
0.99979501962661743 0.97503560781478882 0.72747093439102173
0.001654017367400229 0.01550854928791523 0.39293134212493896
0.1080671101808548 0.0045298868790268898 0.40465861558914185
0.23302130401134491 0.003301441203802824 0.41250738501548767
0.37358328700065613 0.014373775571584702 0.41104260087013245
0.557792067527771 0.09833623468875885 0.42117372155189514
0.086506858468055725 0.088645674288272858 0.4089922308921814
0.14962585270404816 0.093584157526493073 0.41214472055435181
0.26001274585723877 0.09603341668844223 0.41125991940498352
0.41424426436424255 0.11160172522068024 0.41708526015281677
0.60266512632369995 0.17070648074150085 0.42581102252006531
0.24242396652698517 0.21979573369026184 0.41482728719711304
0.27475801110267639 0.22662948071956635 0.42017242312431335
0.3816046416759491 0.23879584670066833 0.42099273204803467
0.52942872047424316 0.27252817153930664 0.43414017558097839
0.75475990772247314 0.3486427366733551 0.40859308838844299
0.55039697885513306 0.46617123484611511 0.39960312843322754
0.58388197422027588 0.47442856431007385 0.39295095205307007
0.67901051044464111 0.50156253576278687 0.37351375818252563
0.82351332902908325 0.55877649784088135 0.37633240222930908
0.97568321228027344 0.67021858692169189 0.48915934562683105
0.78787773847579956 0.88935333490371704 0.6493651270866394
0.8033180832862854 0.89147740602493286 0.65754026174545288
0.85092437267303467 0.91766369342803955 0.70250022411346436
0.92658156156539917 0.94935351610183716 0.76605105400085449
0.99997144937515259 0.98135560750961304 0.84536319971084595
0.08349677175283432 0.0027319868095219135 0.48979336023330688
0.14863213896751404 0.0033732610754668713 0.49526157975196838
0.24957258999347687 0.011672382242977619 0.497781902551651
0.39931946992874146 0.028874067589640617 0.50260752439498901
0.59279686212539673 0.12158913165330887 0.51481056213378906
0.135634645819664 0.092509329319000244 0.49836727976799011
0.18252338469028473 0.091871865093708038 0.49261835217475891
0.28518182039260864 0.10400637239217758 0.50132060050964355
0.43368083238601685 0.12796834111213684 0.50962454080581665
0.64792323112487793 0.1982831209897995 0.51699709892272949
0.28588733077049255 0.23153594136238098 0.50889158248901367
0.31780382990837097 0.23287512362003326 0.50881773233413696
0.42071530222892761 0.25306230783462524 0.51546382904052734
0.57553690671920776 0.29252204298973083 0.51957482099533081
0.80778193473815918 0.37544408440589905 0.4771277904510498
0.62040364742279053 0.48529350757598877 0.47714033722877502
0.64937227964401245 0.49074921011924744 0.47014588117599487
0.7362326979637146 0.52331018447875977 0.4658755362033844
0.86522948741912842 0.59621280431747437 0.50246536731719971
0.99242979288101196 0.69828641414642334 0.62394946813583374
0.80784308910369873 0.90213632583618164 0.77400940656661987
0.82096165418624878 0.91583156585693359 0.79717886447906494
0.86056429147720337 0.93204951286315918 0.82670217752456665
0.92752134799957275 0.95943230390548706 0.87803179025650024
0.99881553649902344 0.99038666486740112 0.96159458160400391
