Textures/2.cube
# Created by: G'MIC (https://gmic.eu)
TITLE "BleachBypass1.cube"
# LUT size
LUT_3D_SIZE 33
# Data domain
DOMAIN_MIN 0.0 0.0 0.0
DOMAIN_MAX 1.0 1.0 1.0
# LUT data points
0.030332427471876144 0.030332427471876144 0.030332427471876144
0.042576033622026443 0.034743662923574448 0.034743666648864746
0.053831808269023895 0.038462799042463303 0.038462799042463303
0.065177090466022491 0.042255911976099014 0.042255911976099014
0.076613418757915497 0.046050798147916794 0.046050805598497391
0.095035366714000702 0.05199001356959343 0.051990006119012833
0.11361412703990936 0.057154599577188492 0.057154607027769089
0.13179908692836761 0.06196039542555809 0.061960399150848389
0.15012682974338531 0.066968195140361786 0.066968202590942383
0.17025159299373627 0.072304435074329376 0.072304435074329376
0.19691008329391479 0.079516343772411346 0.079516351222991943
0.22320832312107086 0.085650138556957245 0.085650146007537842
0.24898092448711395 0.091649867594242096 0.091649867594242096
0.27469539642333984 0.097733989357948303 0.097733981907367706
0.30525219440460205 0.10516859591007233 0.10516858100891113
0.33986929059028625 0.11312101036310196 0.11312101036310196
0.37418302893638611 0.12041833251714706 0.12041833251714706
0.40842381119728088 0.12773759663105011 0.12773759663105011
0.44213190674781799 0.13486795127391815 0.13486793637275696
0.48305222392082214 0.14458036422729492 0.14458037912845612
0.52561521530151367 0.15336023271083832 0.15336024761199951
0.56736397743225098 0.16159957647323608 0.16159957647323608
0.60986834764480591 0.17016454041004181 0.17016454041004181
0.65325385332107544 0.17911824584007263 0.17911824584007263
0.70459455251693726 0.1900145560503006 0.1900145560503006
0.75588119029998779 0.19990909099578857 0.19990909099578857
0.80631303787231445 0.20952239632606506 0.20952241122722626
0.85643714666366577 0.21932972967624664 0.21932972967624664
0.91183912754058838 0.2303975373506546 0.23039750754833221
0.97124999761581421 0.2423851490020752 0.24238517880439758
0.9995238184928894 0.25333720445632935 0.25333720445632935
1 0.26424351334571838 0.26424351334571838
1 0.27539917826652527 0.27539917826652527
0.034743666648864746 0.042576029896736145 0.034743666648864746
0.049170073121786118 0.049170073121786118 0.039666332304477692
0.060988035053014755 0.053505528718233109 0.043560881167650223
0.072352953255176544 0.057324860244989395 0.047355741262435913
0.083882354199886322 0.06110931932926178 0.051204569637775421
0.10337202996015549 0.068291567265987396 0.057411652058362961
0.12407077103853226 0.075482003390789032 0.06305839866399765
0.14249283075332642 0.080536678433418274 0.067969471216201782
0.16097478568553925 0.085369661450386047 0.072841756045818329
0.18101383745670319 0.090988375246524811 0.07830365002155304
0.20989950001239777 0.10032086074352264 0.086014062166213989
0.23756809532642365 0.10786501318216324 0.092578470706939697
0.26331150531768799 0.11387030780315399 0.098594523966312408
0.28903612494468689 0.11986963450908661 0.10452450811862946
0.32005506753921509 0.1278337687253952 0.11215829104185104
0.35682380199432373 0.13832201063632965 0.1207738071680069
0.39121934771537781 0.14631810784339905 0.12832935154438019
0.42549023032188416 0.15360186994075775 0.13547796010971069
0.45947721600532532 0.16080045700073242 0.1426703929901123
0.50248885154724121 0.17173255980014801 0.15257935225963593
0.54715824127197266 0.18273831903934479 0.16182230412960052
0.58919918537139893 0.19136157631874084 0.1702246218919754
0.63175809383392334 0.19990277290344238 0.17870612442493439
0.6753050684928894 0.20899379253387451 0.1877882182598114
0.72894054651260376 0.22199903428554535 0.19938227534294128
0.78139132261276245 0.23345541954040527 0.20958688855171204
0.83208328485488892 0.24320182204246521 0.21932351589202881
0.88225656747817993 0.2528669536113739 0.22900985181331635
0.93803960084915161 0.26452991366386414 0.24029460549354553
0.99144631624221802 0.27882325649261475 0.25275030732154846
1 0.29088914394378662 0.26410871744155884
1 0.30192595720291138 0.27506932616233826
1 0.31280407309532166 0.28602170944213867
0.038462802767753601 0.053831804543733597 0.038462795317173004
0.053505532443523407 0.060988035053014755 0.043560881167650223
0.067566327750682831 0.067566327750682831 0.04805365577340126
0.079478643834590912 0.071859158575534821 0.051890362054109573
0.090971417725086212 0.075753703713417053 0.055795889347791672
0.1105831041932106 0.08290998637676239 0.061998635530471802
0.13256093859672546 0.091379605233669281 0.067915327847003937
0.15289284288883209 0.098400384187698364 0.073393955826759338
0.17149454355239868 0.10363436490297318 0.078288786113262177
0.19164377450942993 0.10924720764160156 0.083835035562515259
0.22073067724704742 0.11841722577810287 0.091563746333122253
0.25041899085044861 0.12813661992549896 0.098522797226905823
0.27756577730178833 0.13559494912624359 0.10485554486513138
0.30331996083259583 0.14165344834327698 0.11098241060972214
0.33421143889427185 0.14971025288105011 0.11857262998819351
0.37209513783454895 0.16067446768283844 0.1272846907377243
0.40864244103431702 0.1711154580116272 0.13545370101928711
0.4429747462272644 0.17909587919712067 0.14277657866477966
0.47685295343399048 0.18636046350002289 0.15006828308105469
0.52029567956924438 0.19725710153579712 0.15992079675197601
0.56662666797637939 0.20951077342033386 0.16963095963001251
0.61090731620788574 0.22051230072975159 0.17846781015396118
0.65361219644546509 0.22931757569313049 0.18712896108627319
0.69720220565795898 0.23836572468280792 0.19620640575885773
0.75092566013336182 0.25150474905967712 0.20771296322345734
0.80564188957214355 0.26510202884674072 0.21853718161582947
0.85783123970031738 0.27631634473800659 0.2284616082906723
0.90804839134216309 0.28615736961364746 0.23826669156551361
0.9634547233581543 0.29776400327682495 0.24945299327373505
0.99888396263122559 0.31263604760169983 0.26218369603157043
1 0.32726839184761047 0.27408710122108459
1 0.33909913897514343 0.28530585765838623
1 0.34997639060020447 0.29623526334762573
0.042255911976099014 0.065177090466022491 0.042255911976099014
0.057324860244989395 0.072352953255176544 0.047355741262435913
0.071859158575534821 0.079478643834590912 0.051890358328819275
0.086070016026496887 0.086070016026496887 0.056432679295539856
0.098026782274246216 0.090396873652935028 0.060360841453075409
0.11760816723108292 0.09750821441411972 0.06654348224401474
0.1397373229265213 0.1060856506228447 0.072631895542144775
0.16130450367927551 0.1145823672413826 0.07829468697309494
0.18209564685821533 0.12161534279584885 0.083821482956409454
0.20238472521305084 0.12733034789562225 0.089323133230209351
0.23145687580108643 0.13683958351612091 0.097035795450210571
0.26133516430854797 0.1465337723493576 0.1041184589266777
0.29041212797164917 0.15609718859195709 0.11096268892288208
0.31767997145652771 0.16358818113803864 0.11731889843940735
0.34865465760231018 0.17154820263385773 0.12495208531618118
0.38655194640159607 0.18267902731895447 0.13378904759883881
0.42412135004997253 0.19374839961528778 0.14190167188644409
0.46086087822914124 0.20409086346626282 0.14995154738426208
0.49542829394340515 0.21213299036026001 0.15732349455356598
0.53869426250457764 0.22297525405883789 0.16733023524284363
0.58471661806106567 0.2352776974439621 0.17689487338066101
0.63037914037704468 0.24746149778366089 0.18635451793670654
0.67547726631164551 0.25862932205200195 0.19566084444522858
0.71923303604125977 0.26794317364692688 0.20456969738006592
0.77297508716583252 0.28110301494598389 0.21600694954395294
0.82784438133239746 0.29480752348899841 0.22684898972511292
0.881844162940979 0.30826398730278015 0.23744073510169983
0.93405389785766602 0.31961578130722046 0.24757902324199677
0.98489409685134888 0.33134904503822327 0.25879719853401184
1 0.34629055857658386 0.27149268984794617
1 0.36122170090675354 0.28357955813407898
1 0.37575685977935791 0.29545912146568298
1 0.38755431771278381 0.30655407905578613
0.046050801873207092 0.0766134113073349 0.046050798147916794
0.061109326779842377 0.083882354199886322 0.051204569637775421
0.075753696262836456 0.090971417725086212 0.055795889347791672
0.090396881103515625 0.098026782274246216 0.060360848903656006
0.10461791604757309 0.10461792349815369 0.064860828220844269
0.12480698525905609 0.11264647543430328 0.071263156831264496
0.14692659676074982 0.12107838690280914 0.077205777168273926
0.16855224967002869 0.12929973006248474 0.082983456552028656
0.19056965410709381 0.13762202858924866 0.088711470365524292
0.21277791261672974 0.14569287002086639 0.094847582280635834
0.24212861061096191 0.15510672330856323 0.10261711478233337
0.27200117707252502 0.16502039134502411 0.10961441695690155
0.30132624506950378 0.17449986934661865 0.1165066659450531
0.33056727051734924 0.18409880995750427 0.12339746952056885
0.36300903558731079 0.19353951513767242 0.13148579001426697
0.40082770586013794 0.20453684031963348 0.14020358026027679
0.43851494789123535 0.21577626466751099 0.14832179248332977
0.47617381811141968 0.22669330239295959 0.1566026508808136
0.51308858394622803 0.23700441420078278 0.16463677585124969
0.5569799542427063 0.24870647490024567 0.1745593249797821
0.60270792245864868 0.26102334260940552 0.18443207442760468
0.64819681644439697 0.27325481176376343 0.19363151490688324
0.69487833976745605 0.28567606210708618 0.20324109494686127
0.74111002683639526 0.29729297757148743 0.21289615333080292
0.79493182897567749 0.31071051955223083 0.22437693178653717
0.84980982542037964 0.32442149519920349 0.23521773517131805
0.90392822027206421 0.33793532848358154 0.24591180682182312
0.95821243524551392 0.3513106107711792 0.25648775696754456
0.99679529666900635 0.3647095263004303 0.26816004514694214
1 0.37971040606498718 0.28084459900856018
1 0.39472103118896484 0.29290080070495605
1 0.40973156690597534 0.30489158630371094
1 0.42393258213996887 0.31659421324729919
0.051990009844303131 0.095035366714000702 0.051990006119012833
0.068291574716567993 0.10337202996015549 0.057411652058362961
0.082910001277923584 0.1105831041932106 0.061998631805181503
0.097508229315280914 0.11760818213224411 0.06654348224401474
0.11264647543430328 0.12480698525905609 0.071263164281845093
0.13494330644607544 0.13494330644607544 0.078306220471858978
0.15789242088794708 0.14415305852890015 0.084408819675445557
0.1794794499874115 0.15262016654014587 0.090159140527248383
0.20132921636104584 0.16098709404468536 0.095949932932853699
0.22510702908039093 0.17017337679862976 0.10227862745523453
0.25653380155563354 0.18179985880851746 0.11052218824625015
0.28662395477294922 0.19197180867195129 0.1178058534860611
0.31608518958091736 0.20158012211322784 0.12460736185312271
0.34542906284332275 0.21124231815338135 0.13156455755233765
0.37995070219039917 0.22292309999465942 0.14001747965812683
0.41922634840011597 0.23555287718772888 0.14916296303272247
0.4569963812828064 0.24648420512676239 0.15727567672729492
0.49450227618217468 0.2576080858707428 0.16569070518016815
0.5320630669593811 0.26847600936889648 0.17386446893215179
0.57844293117523193 0.28286659717559814 0.18450711667537689
0.62527114152908325 0.29585275053977966 0.19437228143215179
0.67094969749450684 0.3080572783946991 0.20377743244171143
0.71735697984695435 0.32056161761283875 0.21332298219203949
0.76475983858108521 0.33334720134735107 0.22308649122714996
0.82121437788009644 0.34937593340873718 0.23539330065250397
0.8763006329536438 0.36337840557098389 0.24634583294391632
0.93039423227310181 0.37685486674308777 0.25685480237007141
0.98221111297607422 0.39041438698768616 0.26768201589584351
0.99993336200714111 0.40588429570198059 0.2797585129737854
1 0.42258438467979431 0.29292276501655579
1 0.4377346932888031 0.30500423908233643
1 0.4526960551738739 0.31699520349502563
1 0.46747803688049316 0.32891097664833069
0.057154599577188492 0.11361412703990936 0.057154607027769089
0.075482003390789032 0.12407077103853226 0.06305839866399765
0.091379605233669281 0.13256095349788666 0.067915327847003937
0.10608565807342529 0.1397373229265213 0.072631895542144775
0.12107838690280914 0.14692659676074982 0.077205777168273926
0.14415305852890015 0.15789242088794708 0.084408819675445557
0.16948887705802917 0.16948889195919037 0.091125845909118652
0.19149665534496307 0.17840714752674103 0.097030468285083771
0.21369442343711853 0.18678116798400879 0.10283692926168442
0.2374117523431778 0.19594232738018036 0.10927247256040573
0.27001956105232239 0.20924574136734009 0.11788628250360489
0.30249956250190735 0.2214103639125824 0.12558989226818085
0.33198288083076477 0.23131230473518372 0.13251219689846039
0.36132678389549255 0.24103160202503204 0.13950790464878082
0.39607822895050049 0.25280347466468811 0.14795243740081787
0.43774199485778809 0.26755720376968384 0.15769238770008087
0.47709506750106812 0.28025057911872864 0.16618916392326355
0.51475578546524048 0.29123270511627197 0.17454157769680023
0.55210393667221069 0.30228537321090698 0.18275628983974457
0.59930527210235596 0.31768983602523804 0.19349655508995056
0.64876049757003784 0.33299458026885986 0.20408119261264801
0.6950945258140564 0.34586146473884583 0.21361784636974335
0.74151670932769775 0.35837832093238831 0.22320981323719025
0.78888535499572754 0.37121361494064331 0.23318275809288025
0.8466489315032959 0.3882497251033783 0.24563905596733093
0.90439885854721069 0.4049021303653717 0.25712266564369202
0.95860964059829712 0.41875141859054565 0.26785451173782349
0.99687719345092773 0.4324096143245697 0.27835330367088318
1 0.44793611764907837 0.2906719446182251
1 0.46676823496818542 0.30444636940956116
1 0.48387977480888367 0.31694090366363525
1 0.49869954586029053 0.32893237471580505
1 0.51364558935165405 0.3408389687538147
0.06196039542555809 0.13179911673069 0.06196039542555809
0.080536678433418274 0.14249284565448761 0.067969471216201782
0.098400384187698364 0.15289284288883209 0.073393955826759338
0.1145823672413826 0.16130450367927551 0.07829468697309494
0.12929973006248474 0.16855224967002869 0.082983464002609253
0.15262016654014587 0.17947946488857269 0.090159140527248383
0.17840714752674103 0.19149665534496307 0.097030468285083771
0.20312114059925079 0.20312111079692841 0.10355509072542191
0.22577528655529022 0.2120334655046463 0.10952434688806534
0.24949026107788086 0.22136157751083374 0.1158863827586174
0.28231105208396912 0.23464161157608032 0.12461871653795242
0.31619870662689209 0.24820244312286377 0.13254882395267487
0.34776589274406433 0.26036244630813599 0.14004130661487579
0.37738373875617981 0.27015939354896545 0.14705711603164673
0.41229349374771118 0.28209152817726135 0.15576419234275818
0.45388513803482056 0.29705232381820679 0.1654088944196701
0.49541556835174561 0.31181871891021729 0.17446930706501007
0.53455770015716553 0.32438334822654724 0.18308666348457336
0.57192277908325195 0.33553281426429749 0.19138607382774353
0.61909538507461548 0.35065358877182007 0.20221638679504395
0.66910243034362793 0.36633509397506714 0.21282368898391724
0.71819025278091431 0.38196176290512085 0.22306831181049347
0.76546347141265869 0.39555954933166504 0.23268398642539978
0.81284427642822266 0.40851879119873047 0.24277283251285553
0.87051200866699219 0.42557299137115479 0.25530162453651428
0.92978638410568237 0.44331797957420349 0.26712632179260254
0.9833342432975769 0.45978826284408569 0.27833017706871033
0.99991708993911743 0.47364220023155212 0.28920537233352661
1 0.48928093910217285 0.30144602060317993
1 0.50827449560165405 0.31507769227027893
1 0.52752512693405151 0.32815992832183838
1 0.5441892147064209 0.34063982963562012
1 0.55889296531677246 0.35251033306121826
0.066968187689781189 0.1501268595457077 0.066968187689781189
0.085369661450386047 0.16097480058670044 0.072841763496398926
0.10363435745239258 0.17149454355239868 0.078288786113262177
0.12161534279584885 0.18209563195705414 0.083821475505828857
0.13762202858924866 0.19056965410709381 0.088711470365524292
0.16098709404468536 0.20132921636104584 0.095949932932853699
0.18678116798400879 0.21369442343711853 0.10283693671226501
0.21203345060348511 0.22577528655529022 0.10952434688806534
0.23734785616397858 0.23734785616397858 0.11595700681209564
0.26174774765968323 0.24711385369300842 0.12264466285705566
0.29471638798713684 0.26031583547592163 0.13129040598869324
0.32832959294319153 0.27407053112983704 0.13929605484008789
0.36127704381942749 0.28755873441696167 0.14717140793800354
0.39336386322975159 0.2996615469455719 0.15475113689899445
0.42843878269195557 0.31178054213523865 0.16331663727760315
0.47006717324256897 0.32674217224121094 0.17303164303302765
0.51174843311309814 0.34165295958518982 0.18224814534187317
0.55308276414871216 0.35652348399162292 0.19152063131332397
0.59207558631896973 0.36904799938201904 0.2001195102930069
0.63917291164398193 0.38355371356010437 0.21100060641765594
0.68935221433639526 0.399637371301651 0.22149232029914856
0.73899894952774048 0.41650331020355225 0.2320125550031662
0.78893554210662842 0.43287795782089233 0.24227461218833923
0.8370547890663147 0.44630953669548035 0.25241026282310486
0.89483767747879028 0.46364980936050415 0.26492887735366821
0.95398151874542236 0.48127108812332153 0.27683201432228088
0.99628573656082153 0.49868220090866089 0.28850638866424561
1 0.51524829864501953 0.29971736669540405
1 0.53121805191040039 0.31207066774368286
1 0.55024588108062744 0.32590600848197937
1 0.56932014226913452 0.33905225992202759
1 0.58845144510269165 0.3519950807094574
1 0.60514110326766968 0.36434867978096008
0.072304427623748779 0.17025160789489746 0.072304442524909973
0.090988375246524811 0.18101383745670319 0.07830365002155304
0.10924722254276276 0.19164377450942993 0.083835035562515259
0.12733033299446106 0.20238472521305084 0.089323140680789948
0.14569287002086639 0.21277794241905212 0.094847582280635834
0.17017337679862976 0.22510702908039093 0.10227862745523453
0.19594232738018036 0.2374117523431778 0.10927247256040573
0.22136157751083374 0.24949029088020325 0.11588636785745621
0.24711385369300842 0.26174774765968323 0.12264464795589447
0.27392098307609558 0.27392095327377319 0.12988659739494324
0.3072434663772583 0.28769397735595703 0.13859392702579498
0.34150323271751404 0.30153119564056396 0.14670108258724213
0.37514409422874451 0.31509020924568176 0.15451130270957947
0.40746480226516724 0.32867255806922913 0.16242767870426178
0.44490563869476318 0.34296742081642151 0.1716199517250061
0.48698219656944275 0.35802736878395081 0.18145564198493958
0.52855712175369263 0.37318167090415955 0.19055798649787903
0.57011079788208008 0.38800334930419922 0.19977246224880219
0.61144888401031494 0.4028317928314209 0.20894558727741241
0.66016620397567749 0.41884303092956543 0.22010669112205505
0.71029829978942871 0.4357026219367981 0.23090709745883942
0.75970661640167236 0.45246601104736328 0.24122299253940582
0.81041198968887329 0.469002366065979 0.25177252292633057
0.86122024059295654 0.48464754223823547 0.26244246959686279
0.91990470886230469 0.50298601388931274 0.27535980939865112
0.97700774669647217 0.52090394496917725 0.28720983862876892
0.99978476762771606 0.53826647996902466 0.29880228638648987
1 0.55561554431915283 0.31045171618461609
1 0.57462131977081299 0.32365420460700989
1 0.59359902143478394 0.33723488450050354
1 0.61324363946914673 0.350343257188797
1 0.63205790519714355 0.36332723498344421
1 0.65115648508071899 0.37638363242149353
0.079516343772411346 0.19691008329391479 0.079516351222991943
0.10032086819410324 0.20989948511123657 0.086014062166213989
0.11841721832752228 0.22073069214820862 0.091563738882541656
0.1368395984172821 0.23145687580108643 0.097035795450210571
0.15510672330856323 0.24212861061096191 0.10261711478233337
0.18179985880851746 0.25653380155563354 0.11052217334508896
0.20924574136734009 0.27001959085464478 0.11788628250360489
0.23464161157608032 0.28231105208396912 0.12461871653795242
0.26031583547592163 0.29471638798713684 0.13129040598869324
0.28769397735595703 0.3072434663772583 0.13859392702579498
0.32373446226119995 0.32373446226119995 0.14821366965770721
0.35849672555923462 0.33842748403549194 0.15631282329559326
0.39247915148735046 0.35203537344932556 0.16411101818084717
0.42552593350410461 0.36548277735710144 0.17217205464839935
0.46343478560447693 0.38107007741928101 0.18159057199954987
0.50791299343109131 0.39888697862625122 0.19201210141181946
0.54967802762985229 0.4139137864112854 0.2012990415096283
0.59123879671096802 0.42898586392402649 0.21039797365665436
0.63274198770523071 0.44376242160797119 0.21965028345584869
0.68366634845733643 0.46272659301757812 0.23148621618747711
0.73561114072799683 0.48074048757553101 0.24248950183391571
0.78498357534408569 0.49674159288406372 0.25295233726501465
0.83564746379852295 0.51333564519882202 0.26349523663520813
0.88711732625961304 0.53041702508926392 0.27448555827140808
0.9484330415725708 0.551502525806427 0.287894606590271
0.99487733840942383 0.57009804248809814 0.29987457394599915
1 0.58719253540039062 0.31152361631393433
1 0.60490947961807251 0.32335230708122253
1 0.62512862682342529 0.33669495582580566
1 0.64700531959533691 0.35095629096031189
1 0.66660690307617188 0.36421096324920654
1 0.68567854166030884 0.3771933913230896
1 0.70464020967483521 0.39022359251976013
0.085650138556957245 0.22320832312107086 0.085650146007537842
0.10786501318216324 0.23756812512874603 0.092578470706939697
0.12813660502433777 0.25041899085044861 0.098522812128067017
0.1465337872505188 0.26133513450622559 0.1041184589266777
0.16502039134502411 0.27200117707252502 0.10961441695690155
0.19197182357311249 0.28662398457527161 0.11780586093664169
0.2214103639125824 0.30249959230422974 0.12558989226818085
0.24820244312286377 0.31619864702224731 0.13254882395267487
0.27407053112983704 0.32832959294319153 0.13929605484008789
0.30153116583824158 0.34150323271751404 0.14670106768608093
0.33842748403549194 0.35849675536155701 0.15631285309791565
0.37571874260902405 0.37571871280670166 0.1652093380689621
0.40980395674705505 0.38952904939651489 0.17320831120014191
0.44393834471702576 0.40306809544563293 0.18111957609653473
0.48170629143714905 0.41916772723197937 0.19076326489448547
0.52717685699462891 0.43812021613121033 0.20148783922195435
0.57145261764526367 0.455781489610672 0.21124202013015747
0.61333519220352173 0.47094240784645081 0.2205737978219986
0.65469169616699219 0.48594072461128235 0.22972506284713745
0.70595592260360718 0.5048554539680481 0.2416393905878067
0.75999927520751953 0.52524638175964355 0.25325968861579895
0.81116014719009399 0.54320508241653442 0.26404166221618652
0.86192935705184937 0.55998283624649048 0.27460998296737671
0.91321033239364624 0.57680928707122803 0.28571012616157532
0.97426170110702515 0.59818863868713379 0.29918965697288513
0.99987137317657471 0.61984741687774658 0.31195220351219177
1 0.63854676485061646 0.323801189661026
1 0.65614914894104004 0.33553034067153931
1 0.67565351724624634 0.3488127589225769
1 0.69908982515335083 0.36362871527671814
1 0.72121042013168335 0.37748920917510986
1 0.7406812310218811 0.39050984382629395
1 0.75968891382217407 0.40347295999526978
0.091649867594242096 0.24898092448711395 0.091649867594242096
0.11387030780315399 0.26331150531768799 0.098594523966312408
0.13559494912624359 0.27756577730178833 0.10485554486513138
0.15609718859195709 0.29041212797164917 0.11096268892288208
0.17449988424777985 0.30132624506950378 0.11650668084621429
0.20158012211322784 0.31608518958091736 0.12460736185312271
0.23131231963634491 0.33198291063308716 0.13251219689846039
0.26036244630813599 0.34776589274406433 0.14004130661487579
0.28755873441696167 0.36127707362174988 0.14717140793800354
0.31509020924568176 0.37514409422874451 0.15451130270957947
0.35203537344932556 0.39247915148735046 0.16411101818084717
0.38952904939651489 0.40980395674705505 0.17320834100246429
0.42642131447792053 0.42642131447792053 0.181979700922966
0.46094778180122375 0.44044804573059082 0.18996782600879669
0.49897387623786926 0.45638513565063477 0.19952557981014252
0.5446246862411499 0.47508338093757629 0.21033678948879242
