Textures/2.cube
# Created by: G'MIC (https://gmic.eu)
TITLE "BleachBypass1.cube"
# LUT size
LUT_3D_SIZE 9
# Data domain
DOMAIN_MIN 0.0 0.0 0.0
DOMAIN_MAX 1.0 1.0 1.0
# LUT data points
0.030332427471876144 0.030332427471876144 0.030332427471876144
0.076613418757915497 0.046050798147916794 0.046050805598497391
0.15012682974338531 0.066968195140361786 0.066968202590942383
0.24898092448711395 0.091649867594242096 0.091649867594242096
0.37418302893638611 0.12041833251714706 0.12041833251714706
0.52561521530151367 0.15336023271083832 0.15336024761199951
0.70459455251693726 0.1900145560503006 0.1900145560503006
0.91183912754058838 0.2303975373506546 0.23039750754833221
1 0.27539917826652527 0.27539917826652527
0.046050801873207092 0.0766134113073349 0.046050798147916794
0.10461791604757309 0.10461792349815369 0.064860828220844269
0.19056965410709381 0.13762202858924866 0.088711470365524292
0.30132624506950378 0.17449986934661865 0.1165066659450531
0.43851494789123535 0.21577626466751099 0.14832179248332977
0.60270792245864868 0.26102334260940552 0.18443207442760468
0.79493182897567749 0.31071051955223083 0.22437693178653717
0.99679529666900635 0.3647095263004303 0.26816004514694214
1 0.42393258213996887 0.31659421324729919
0.066968187689781189 0.1501268595457077 0.066968187689781189
0.13762202858924866 0.19056965410709381 0.088711470365524292
0.23734785616397858 0.23734785616397858 0.11595700681209564
0.36127704381942749 0.28755873441696167 0.14717140793800354
0.51174843311309814 0.34165295958518982 0.18224814534187317
0.68935221433639526 0.399637371301651 0.22149232029914856
0.89483767747879028 0.46364980936050415 0.26492887735366821
1 0.53121805191040039 0.31207066774368286
1 0.60514110326766968 0.36434867978096008
0.091649867594242096 0.24898092448711395 0.091649867594242096
0.17449988424777985 0.30132624506950378 0.11650668084621429
0.28755873441696167 0.36127707362174988 0.14717140793800354
0.42642131447792053 0.42642131447792053 0.181979700922966
0.59035533666610718 0.49442741274833679 0.22054614126682281
0.78180360794067383 0.56666332483291626 0.26317158341407776
0.99154841899871826 0.64357471466064453 0.31008198857307434
1 0.7254260778427124 0.36085540056228638
1 0.81357669830322266 0.41658714413642883
0.12041833251714706 0.37418302893638611 0.12041833251714706
0.21577627956867218 0.43851491808891296 0.14832182228565216
0.34165295958518982 0.51174849271774292 0.18224817514419556
0.49442747235298157 0.59035533666610718 0.22054614126682281
0.67380982637405396 0.67380988597869873 0.26290485262870789
0.87976866960525513 0.76077604293823242 0.3093411922454834
1 0.85190606117248535 0.35984313488006592
1 0.94799065589904785 0.41396155953407288
1 0.99999380111694336 0.47346651554107666
0.15336023271083832 0.5256151556968689 0.15336024761199951
0.26102334260940552 0.60270792245864868 0.18443207442760468
0.399637371301651 0.68935227394104004 0.22149233520030975
0.56666332483291626 0.78180360794067383 0.26317158341407776
0.76077604293823242 0.87976866960525513 0.3093411922454834
0.98006588220596313 0.98006588220596313 0.3597758412361145
1 1 0.41377988457679749
1 1 0.47151860594749451
1 1 0.53481906652450562
0.1900145560503006 0.70459461212158203 0.1900145411491394
0.31071048974990845 0.79493188858032227 0.22437694668769836
0.46364980936050415 0.89483767747879028 0.26492887735366821
0.64357465505599976 0.99154841899871826 0.31008198857307434
0.85190606117248535 1 0.35984313488006592
1 1 0.41377988457679749
1 1 0.47210320830345154
1 1 0.53386884927749634
1 1 0.60105794668197632
0.2303975373506546 0.91183912754058838 0.2303975373506546
0.3647095263004303 0.99679529666900635 0.26816004514694214
0.53121811151504517 1 0.31207066774368286
0.7254260778427124 1 0.36085540056228638
0.94799065589904785 1 0.41396155953407288
1 1 0.47151860594749451
1 1 0.53386884927749634
1 1 0.59977996349334717
1 1 0.67090260982513428
0.27539920806884766 1 0.27539920806884766
0.42393261194229126 1 0.31659421324729919
0.6051410436630249 1 0.36434867978096008
0.81357663869857788 1 0.41658711433410645
0.99999380111694336 1 0.47346651554107666
1 1 0.53481906652450562
1 1 0.60105794668197632
1 1 0.67090260982513428
1 1 0.74570202827453613
0.046050801873207092 0.046050801873207092 0.0766134113073349
0.10461791604757309 0.064860828220844269 0.10461791604757309
0.19056965410709381 0.088711470365524292 0.13762202858924866
0.30132624506950378 0.11650668084621429 0.17449988424777985
0.43851491808891296 0.14832182228565216 0.21577627956867218
0.60270792245864868 0.18443207442760468 0.26102334260940552
0.79493188858032227 0.22437693178653717 0.31071048974990845
0.99679529666900635 0.26816004514694214 0.3647095263004303
1 0.31659421324729919 0.42393258213996887
0.064860828220844269 0.10461792349815369 0.10461792349815369
0.13579230010509491 0.13579230010509491 0.13579230010509491
0.23430925607681274 0.17208108305931091 0.17208109796047211
0.35684555768966675 0.21186698973178864 0.21186698973178864
0.50614547729492188 0.25594022870063782 0.25594022870063782
0.6831706166267395 0.30452489852905273 0.30452486872673035
0.88799881935119629 0.35741373896598816 0.35741373896598816
1 0.41494324803352356 0.41494324803352356
1 0.47770005464553833 0.47770008444786072
0.088711470365524292 0.19056965410709381 0.13762202858924866
0.17208106815814972 0.23430927097797394 0.17208106815814972
0.28380444645881653 0.28380444645881653 0.21168605983257294
0.42004218697547913 0.33699622750282288 0.25471532344818115
0.58256340026855469 0.39415836334228516 0.30217376351356506
0.77273637056350708 0.45616647601127625 0.35400193929672241
0.98623067140579224 0.52221053838729858 0.41016373038291931
1 0.59345012903213501 0.47083303332328796
1 0.67115616798400879 0.53773337602615356
0.11650665104389191 0.30132630467414856 0.17449988424777985
0.21186698973178864 0.35684558749198914 0.21186698973178864
0.33699625730514526 0.42004218697547913 0.25471529364585876
0.4877103865146637 0.4877103865146637 0.30152449011802673
0.66492259502410889 0.55904006958007812 0.35248765349388123
0.86823248863220215 0.63442546129226685 0.4078248143196106
1 0.71459871530532837 0.46704137325286865
1 0.79957699775695801 0.5317719578742981
1 0.8916165828704834 0.6018025279045105
0.14832180738449097 0.43851488828659058 0.21577626466751099
0.25594022870063782 0.50614547729492188 0.25594022870063782
0.39415839314460754 0.58256340026855469 0.30217376351356506
0.55904000997543335 0.66492259502410889 0.35248768329620361
0.75099694728851318 0.75099694728851318 0.40730860829353333
0.96876102685928345 0.84088033437728882 0.46625390648841858
1 0.9351467490196228 0.5293886661529541
1 0.99969708919525146 0.59686654806137085
1 1 0.67120057344436646
0.18443207442760468 0.60270792245864868 0.26102334260940552
0.30452489852905273 0.6831706166267395 0.30452486872673035
0.45616647601127625 0.77273637056350708 0.35400193929672241
0.63442546129226685 0.86823248863220215 0.4078248143196106
0.84088027477264404 0.96876102685928345 0.46625390648841858
1 1 0.52936804294586182
1 1 0.59618526697158813
1 1 0.6675904393196106
1 1 0.74484843015670776
0.22437693178653717 0.79493188858032227 0.31071045994758606
0.35741373896598816 0.88799881935119629 0.35741376876831055
0.52221047878265381 0.98623079061508179 0.4101637601852417
0.71459871530532837 1 0.46704137325286865
0.9351467490196228 1 0.52938860654830933
1 1 0.59618526697158813
1 1 0.6670035719871521
1 1 0.7424888014793396
1 1 0.82366681098937988
0.26816004514694214 0.99679529666900635 0.3647095263004303
0.41494324803352356 1 0.41494327783584595
0.59345018863677979 1 0.47083303332328796
0.79957699775695801 1 0.5317719578742981
0.99969708919525146 1 0.59686654806137085
1 1 0.6675904393196106
1 1 0.7424888014793396
1 1 0.82217758893966675
1 1 0.90741002559661865
0.31659424304962158 1 0.42393258213996887
0.47770008444786072 1 0.47770008444786072
0.67115616798400879 1 0.53773337602615356
0.8916165828704834 1 0.6018025279045105
1 1 0.67120057344436646
1 1 0.74484843015670776
1 1 0.82366681098937988
1 1 0.9074099063873291
1 1 0.99003666639328003
0.066968187689781189 0.066968187689781189 0.1501268595457077
0.13762202858924866 0.088711470365524292 0.19056963920593262
0.23734788596630096 0.11595700681209564 0.23734785616397858
0.36127707362174988 0.14717140793800354 0.28755870461463928
0.51174843311309814 0.18224814534187317 0.34165295958518982
0.68935221433639526 0.22149235010147095 0.399637371301651
0.89483767747879028 0.26492887735366821 0.46364980936050415
1 0.31207069754600525 0.53121811151504517
1 0.3643486499786377 0.60514110326766968
0.088711470365524292 0.13762202858924866 0.19056963920593262
0.17208106815814972 0.17208106815814972 0.23430927097797394
0.28380447626113892 0.21168607473373413 0.28380447626113892
0.42004215717315674 0.25471529364585876 0.33699619770050049
0.58256340026855469 0.30217376351356506 0.39415839314460754
0.77273643016815186 0.35400190949440002 0.45616647601127625
0.98623067140579224 0.41016373038291931 0.52221053838729858
1 0.47083309292793274 0.59345018863677979
1 0.53773343563079834 0.67115622758865356
0.11595700681209564 0.23734785616397858 0.23734785616397858
0.21168604493141174 0.28380447626113892 0.28380447626113892
0.33716601133346558 0.33716601133346558 0.33716601133346558
0.48649609088897705 0.39358451962471008 0.39358451962471008
0.66164571046829224 0.45442238450050354 0.45442244410514832
0.86583071947097778 0.51937413215637207 0.51937413215637207
1 0.58896529674530029 0.58896529674530029
1 0.66355562210083008 0.66355562210083008
1 0.7439882755279541 0.74398833513259888
0.14717139303684235 0.36127707362174988 0.28755873441696167
0.25471529364585876 0.42004215717315674 0.33699622750282288
0.39358451962471008 0.48649603128433228 0.39358454942703247
0.55759990215301514 0.55759990215301514 0.45354560017585754
0.74723130464553833 0.63225847482681274 0.51737594604492188
0.96436315774917603 0.71099555492401123 0.58640140295028687
1 0.79451072216033936 0.6594468355178833
1 0.88308876752853394 0.73748588562011719
1 0.97714519500732422 0.82224899530410767
0.18224816024303436 0.51174843311309814 0.34165295958518982
0.30217376351356506 0.58256334066390991 0.39415836334228516
0.45442238450050354 0.66164571046829224 0.45442238450050354
0.63225847482681274 0.74723130464553833 0.51737594604492188
0.83715331554412842 0.83715331554412842 0.58570778369903564
1 0.93052423000335693 0.65774285793304443
1 0.99922817945480347 0.73452180624008179
1 1 0.81613218784332275
1 1 0.90448826551437378
0.22149235010147095 0.68935221433639526 0.39963734149932861
0.35400190949440002 0.77273637056350708 0.45616641640663147
0.51937413215637207 0.86583077907562256 0.51937413215637207
0.71099555492401123 0.96436315774917603 0.58640140295028687
0.93052423000335693 1 0.65774285793304443
1 1 0.73389661312103271
1 1 0.81433719396591187
1 1 0.89979827404022217
1 1 0.98700708150863647
0.26492887735366821 0.89483755826950073 0.46364980936050415
0.41016373038291931 0.98623079061508179 0.52221059799194336
0.58896529674530029 1 0.58896529674530029
0.79451072216033936 1 0.6594468355178833
0.99922817945480347 1 0.73452186584472656
1 1 0.81433719396591187
1 1 0.89880204200744629
1 1 0.9841654896736145
1 1 1
0.31207069754600525 1 0.53121817111968994
0.47083303332328796 1 0.59345012903213501
0.66355562210083008 1 0.66355562210083008
0.88308876752853394 1 0.73748594522476196
1 1 0.81613218784332275
1 1 0.89979827404022217
1 1 0.98416537046432495
1 1 1
1 1 1
0.3643486499786377 1 0.60514110326766968
0.53773343563079834 1 0.67115622758865356
0.7439882755279541 1 0.7439882755279541
0.97714519500732422 1 0.82224899530410767
1 1 0.90448838472366333
1 1 0.98700708150863647
1 1 1
1 1 1
1 1 1
0.091649867594242096 0.091649867594242096 0.24898090958595276
0.17449989914894104 0.1165066659450531 0.30132624506950378
0.28755870461463928 0.14717140793800354 0.36127707362174988
0.42642125487327576 0.181979700922966 0.42642131447792053
0.59035539627075195 0.22054615616798401 0.49442741274833679
0.7818036675453186 0.26317155361175537 0.56666326522827148
0.99154841899871826 0.31008198857307434 0.64357477426528931
1 0.36085540056228638 0.7254260778427124
1 0.41658714413642883 0.81357669830322266
0.1165066659450531 0.17449989914894104 0.30132630467414856
0.21186698973178864 0.21186698973178864 0.35684555768966675
0.33699625730514526 0.25471532344818115 0.42004218697547913
0.4877103865146637 0.30152451992034912 0.4877103865146637
0.66492259502410889 0.352487713098526 0.55904006958007812
0.86823254823684692 0.40782478451728821 0.63442546129226685
1 0.46704137325286865 0.71459871530532837
1 0.53177189826965332 0.79957705736160278
1 0.6018025279045105 0.89161670207977295
0.14717139303684235 0.28755870461463928 0.36127707362174988
0.25471532344818115 0.33699625730514526 0.42004218697547913
0.39358451962471008 0.39358446002006531 0.48649609088897705
0.55759984254837036 0.45354560017585754 0.55759990215301514
0.74723136425018311 0.51737594604492188 0.63225847482681274
0.96436327695846558 0.58640146255493164 0.71099555492401123
1 0.6594468355178833 0.79451078176498413
1 0.73748594522476196 0.88308882713317871
1 0.82224899530410767 0.97714507579803467
0.18197967112064362 0.42642125487327576 0.42642128467559814
0.30152451992034912 0.48771044611930847 0.4877103865146637
0.45354554057121277 0.55759984254837036 0.55759984254837036
0.63231104612350464 0.63231110572814941 0.63231104612350464
0.83611434698104858 0.71030682325363159 0.71030682325363159
1 0.79265749454498291 0.79265743494033813
1 0.87949919700622559 0.87949925661087036
1 0.97104758024215698 0.97104746103286743
1 1 1
0.22054615616798401 0.59035533666610718 0.49442747235298157
0.352487713098526 0.66492259502410889 0.55904006958007812
0.51737594604492188 0.74723136425018311 0.63225847482681274
0.71030682325363159 0.83611434698104858 0.71030682325363159
0.92932587862014771 0.92932593822479248 0.79230231046676636
1 0.99903500080108643 0.87817513942718506
1 1 0.96833997964859009
1 1 1
1 1 1
0.26317155361175537 0.7818036675453186 0.56666332483291626
0.4078248143196106 0.86823254823684692 0.63442546129226685
0.58640134334564209 0.96436315774917603 0.71099555492401123
0.79265743494033813 1 0.79265749454498291
0.99903500080108643 1 0.87817513942718506
1 1 0.96772521734237671
1 1 1
1 1 1
1 1 1
0.31008198857307434 0.99154841899871826 0.64357477426528931
0.46704143285751343 1 0.71459871530532837
0.6594468355178833 1 0.79451066255569458
0.87949919700622559 1 0.87949907779693604
1 1 0.96833997964859009
1 1 1
1 1 1
1 1 1
1 1 1
0.36085540056228638 1 0.72542595863342285
0.53177189826965332 1 0.79957705736160278
0.73748588562011719 1 0.88308882713317871
0.97104758024215698 1 0.97104746103286743
1 1 1
1 1 1
1 1 1
1 1 1
1 1 1
0.41658714413642883 1 0.81357669830322266
0.6018025279045105 1 0.89161670207977295
0.82224899530410767 1 0.97714507579803467
1 1 1
1 1 1
1 1 1
1 1 1
1 1 1
1 1 1
0.12041831761598587 0.12041831761598587 0.37418302893638611
0.21577626466751099 0.14832179248332977 0.43851491808891296
0.34165289998054504 0.18224814534187317 0.51174843311309814
0.49442741274833679 0.22054614126682281 0.59035539627075195
0.67380988597869873 0.2629048228263855 0.67380994558334351
0.87976855039596558 0.3093411922454834 0.7607761025428772
1 0.35984313488006592 0.85190600156784058
1 0.41396152973175049 0.94799065589904785
1 0.47346651554107666 0.99999380111694336
0.14832179248332977 0.21577626466751099 0.43851491808891296
0.25594022870063782 0.25594022870063782 0.50614547729492188
0.39415836334228516 0.30217376351356506 0.58256340026855469
0.55904006958007812 0.35248768329620361 0.66492259502410889
0.75099688768386841 0.40730860829353333 0.75099694728851318
0.96876102685928345 0.46625390648841858 0.84088039398193359
1 0.5293886661529541 0.9351467490196228
1 0.59686648845672607 0.99969708919525146
1 0.67120063304901123 1
0.18224814534187317 0.34165292978286743 0.51174849271774292
0.30217376351356506 0.39415833353996277 0.58256334066390991
0.45442244410514832 0.45442244410514832 0.66164565086364746
0.63225847482681274 0.51737594604492188 0.74723142385482788
0.83715331554412842 0.58570772409439087 0.83715325593948364
1 0.65774279832839966 0.93052434921264648
1 0.73452192544937134 0.99922817945480347
1 0.81613224744796753 1
1 0.90448826551437378 1
0.22054615616798401 0.49442741274833679 0.59035539627075195
0.35248768329620361 0.55904000997543335 0.66492259502410889
0.51737600564956665 0.63225847482681274 0.74723142385482788
0.71030688285827637 0.71030688285827637 0.83611422777175903
0.92932593822479248 0.79230231046676636 0.92932593822479248
1 0.87817513942718506 0.99903500080108643
1 0.96834009885787964 1
1 1 1
1 1 1
0.26290488243103027 0.67380988597869873 0.67380994558334351
0.40730860829353333 0.75099688768386841 0.75099694728851318
0.58570778369903564 0.83715331554412842 0.83715325593948364
0.79230231046676636 0.92932593822479248 0.92932587862014771
0.99912869930267334 0.99912869930267334 0.99912869930267334
1 1 1
1 1 1
1 1 1
1 1 1
0.3093411922454834 0.87976855039596558 0.7607761025428772
0.46625390648841858 0.96876102685928345 0.84088027477264404
0.65774279832839966 1 0.93052434921264648
0.87817513942718506 1 0.99903500080108643
1 1 1
1 1 1
1 1 1
1 1 1
1 1 1
0.35984313488006592 1 0.85190600156784058
0.52938860654830933 1 0.9351467490196228
0.73452186584472656 1 0.99922817945480347
0.96834009885787964 1 1
1 1 1
1 1 1
1 1 1
1 1 1
1 1 1
0.41396152973175049 1 0.94799071550369263
0.59686648845672607 1 0.99969708919525146
0.81613224744796753 1 1
1 1 1
1 1 1
1 1 1
1 1 1
1 1 1
1 1 1
0.47346657514572144 1 0.99999380111694336
0.67120063304901123 1 1
0.90448826551437378 1 1
1 1 1
1 1 1
1 1 1
1 1 1
1 1 1
1 1 1
0.15336024761199951 0.15336024761199951 0.52561521530151367
0.26102334260940552 0.18443208932876587 0.60270792245864868
0.399637371301651 0.22149233520030975 0.68935221433639526
0.56666332483291626 0.26317155361175537 0.7818036675453186
0.76077604293823242 0.30934116244316101 0.87976861000061035
0.98006588220596313 0.3597758412361145 0.98006588220596313
1 0.41377988457679749 1
1 0.47151860594749451 1
1 0.53481900691986084 1
0.18443208932876587 0.26102334260940552 0.60270792245864868
0.30452486872673035 0.30452486872673035 0.6831706166267395
0.45616647601127625 0.35400190949440002 0.7727363109588623
0.63442540168762207 0.4078248143196106 0.86823248863220215
0.84088033437728882 0.46625396609306335 0.968761146068573
1 0.52936804294586182 1
1 0.59618526697158813 1
1 0.6675904393196106 1
1 0.74484843015670776 1
0.22149233520030975 0.39963734149932861 0.68935221433639526
0.35400193929672241 0.45616647601127625 0.77273643016815186
0.51937407255172729 0.51937407255172729 0.86583083868026733
0.71099549531936646 0.58640140295028687 0.96436315774917603
0.93052434921264648 0.65774291753768921 1
1 0.73389661312103271 1
1 0.81433713436126709 1
1 0.89979827404022217 1
1 0.98700708150863647 1
0.26317155361175537 0.56666332483291626 0.7818036675453186
0.4078248143196106 0.63442546129226685 0.86823248863220215
0.58640140295028687 0.71099549531936646 0.96436315774917603
0.79265743494033813 0.79265743494033813 1
0.99903500080108643 0.87817502021789551 1
1 0.96772521734237671 1
1 1 1
1 1 1
1 1 1
0.30934116244316101 0.76077604293823242 0.87976861000061035
0.46625396609306335 0.84088033437728882 0.968761146068573
0.65774291753768921 0.93052434921264648 1
0.87817513942718506 0.99903500080108643 1
1 1 1
1 1 1
1 1 1
1 1 1
1 1 1
0.3597758412361145 0.98006588220596313 0.98006588220596313
0.52936804294586182 1 1
0.73389661312103271 1 1
0.96772533655166626 1 1
1 1 1
1 1 1
1 1 1
1 1 1
1 1 1
0.41377988457679749 1 1
0.59618526697158813 1 1
0.81433713436126709 1 1
1 1 1
1 1 1
1 1 1
1 1 1
1 1 1
1 1 1
0.47151860594749451 1 1
0.6675904393196106 1 1
0.89979815483093262 1 1
1 1 1
1 1 1
1 1 1
1 1 1
1 1 1
1 1 1
0.53481900691986084 1 1
0.74484843015670776 1 1
0.98700708150863647 1 1
1 1 1
1 1 1
1 1 1
1 1 1
1 1 1
1 1 1
0.1900145560503006 0.1900145560503006 0.70459455251693726
0.31071048974990845 0.22437693178653717 0.79493182897567749
0.46364986896514893 0.26492887735366821 0.89483767747879028
0.64357465505599976 0.31008198857307434 0.99154841899871826
0.85190606117248535 0.35984313488006592 1
1 0.41377988457679749 1
1 0.47210320830345154 1
1 0.53386878967285156 1
1 0.60105794668197632 1
0.22437694668769836 0.31071048974990845 0.79493176937103271
0.35741376876831055 0.35741376876831055 0.88799881935119629
0.52221047878265381 0.41016373038291931 0.98623079061508179
0.71459871530532837 0.46704131364822388 1
0.9351467490196228 0.52938860654830933 1
1 0.59618526697158813 1
1 0.6670035719871521 1
1 0.7424888014793396 1
1 0.82366681098937988 1
0.26492887735366821 0.46364986896514893 0.89483767747879028
0.41016373038291931 0.52221047878265381 0.98623079061508179
0.58896535634994507 0.58896535634994507 1
0.79451072216033936 0.6594468355178833 1
0.99922806024551392 0.73452186584472656 1
1 0.81433713436126709 1
1 0.89880204200744629 1
1 0.9841654896736145 1
1 1 1
0.31008198857307434 0.64357465505599976 0.99154841899871826
0.46704137325286865 0.71459871530532837 1
0.65944689512252808 0.79451078176498413 1
0.87949913740158081 0.87949925661087036 1
1 0.96833997964859009 1
1 1 1
1 1 1
1 1 1
1 1 1
0.35984313488006592 0.85190606117248535 1
0.52938860654830933 0.9351467490196228 1
0.73452186584472656 0.99922806024551392 1
0.96833997964859009 1 1
1 1 1
1 1 1
1 1 1
1 1 1
1 1 1
0.41377988457679749 1 1
0.59618526697158813 1 1
0.81433707475662231 1 1
1 1 1
1 1 1
1 1 1
1 1 1
1 1 1
1 1 1
0.47210314869880676 1 1
0.6670035719871521 1 1
0.89880204200744629 1 1
1 1 1
1 1 1
1 1 1
1 1 1
1 1 1
1 1 1
0.53386878967285156 1 1
0.7424888014793396 1 1
0.9841654896736145 1 1
1 1 1
1 1 1
1 1 1
1 1 1
1 1 1
1 1 1
0.60105794668197632 1 1
0.82366681098937988 1 1
1 1 1
1 1 1
1 1 1
1 1 1
1 1 1
1 1 1
1 1 1
0.23039750754833221 0.23039750754833221 0.91183912754058838
0.3647095263004303 0.26816004514694214 0.99679529666900635
0.53121811151504517 0.31207069754600525 1
0.7254260778427124 0.36085540056228638 1
0.94799071550369263 0.41396158933639526 1
1 0.47151860594749451 1
1 0.53386884927749634 1
1 0.59977996349334717 1
1 0.67090260982513428 1
0.26816004514694214 0.36470955610275269 0.99679529666900635
0.41494324803352356 0.41494324803352356 1
0.59345018863677979 0.47083309292793274 1
0.79957699775695801 0.5317719578742981 1
0.99969708919525146 0.59686654806137085 1
1 0.6675904393196106 1
1 0.7424888014793396 1
1 0.82217752933502197 1
1 0.9074099063873291 1
0.31207069754600525 0.53121817111968994 1
0.47083309292793274 0.59345018863677979 1
0.66355562210083008 0.66355562210083008 1
0.88308876752853394 0.73748594522476196 1
1 0.81613218784332275 1
1 0.89979827404022217 1
1 0.9841654896736145 1
1 1 1
1 1 1
0.36085537075996399 0.7254260778427124 1
0.5317719578742981 0.79957699775695801 1
0.73748594522476196 0.88308876752853394 1
0.97104758024215698 0.97104758024215698 1
1 1 1
1 1 1
1 1 1
1 1 1
1 1 1
0.41396158933639526 0.94799065589904785 1
0.59686654806137085 0.99969708919525146 1
0.81613212823867798 1 1
1 1 1
1 1 1
1 1 1
1 1 1
1 1 1
1 1 1
0.47151866555213928 1 1
0.6675904393196106 1 1
0.89979827404022217 1 1
1 1 1
1 1 1
1 1 1
1 1 1
1 1 1
1 1 1
0.53386878967285156 1 1
0.7424888014793396 1 1
0.98416537046432495 1 1
1 1 1
1 1 1
1 1 1
1 1 1
1 1 1
1 1 1
0.59977996349334717 1 1
0.82217752933502197 1 1
1 1 1
1 1 1
1 1 1
1 1 1
1 1 1
1 1 1
1 1 1
0.67090260982513428 1 1
0.9074099063873291 1 1
1 1 1
1 1 1
1 1 1
1 1 1
1 1 1
1 1 1
1 1 1
0.27539917826652527 0.27539920806884766 1
0.42393258213996887 0.31659424304962158 1
0.60514110326766968 0.36434867978096008 1
0.81357669830322266 0.41658714413642883 1
0.99999392032623291 0.47346645593643188 1
1 0.53481906652450562 1
1 0.60105800628662109 1
1 0.67090260982513428 1
1 0.74570196866989136 1
0.31659424304962158 0.42393258213996887 1
0.47770005464553833 0.47770008444786072 1
0.67115616798400879 0.53773337602615356 1
0.89161664247512817 0.6018025279045105 1
1 0.67120057344436646 1
1 0.74484843015670776 1
1 0.82366681098937988 1
1 0.9074099063873291 1
1 0.99003666639328003 1
0.36434867978096008 0.60514110326766968 1
0.53773337602615356 0.67115616798400879 1
0.7439882755279541 0.74398833513259888 1
0.97714507579803467 0.82224899530410767 1
1 0.90448838472366333 1
1 0.98700696229934692 1
1 1 1
1 1 1
1 1 1
0.41658714413642883 0.81357669830322266 1
0.6018025279045105 0.89161664247512817 1
0.82224899530410767 0.97714507579803467 1
1 1 1
1 1 1
1 1 1
1 1 1
1 1 1
1 1 1
0.47346657514572144 0.99999392032623291 1
0.67120057344436646 1 1
0.90448838472366333 1 1
1 1 1
1 1 1
1 1 1
1 1 1
1 1 1
1 1 1
0.53481906652450562 1 1
0.74484837055206299 1 1
0.98700696229934692 1 1
1 1 1
1 1 1
1 1 1
1 1 1
1 1 1
1 1 1
0.60105800628662109 1 1
0.82366675138473511 1 1
1 1 1
1 1 1
1 1 1
1 1 1
1 1 1
1 1 1
1 1 1
0.67090260982513428 1 1
0.9074099063873291 1 1
1 1 1
1 1 1
1 1 1
1 1 1
1 1 1
1 1 1
1 1 1
0.74570202827453613 1 1
0.99003666639328003 1 1
1 1 1
1 1 1
1 1 1
1 1 1
1 1 1
1 1 1
1 1 1
