Textures/2.cube
# Created by: G'MIC (https://gmic.eu)
TITLE "BleachBypass1.cube"
# LUT size
LUT_3D_SIZE 5
# Data domain
DOMAIN_MIN 0.0 0.0 0.0
DOMAIN_MAX 1.0 1.0 1.0
# LUT data points
0.030332427471876144 0.030332427471876144 0.030332427471876144
0.15012682974338531 0.066968195140361786 0.066968202590942383
0.37418302893638611 0.12041833251714706 0.12041833251714706
0.70459455251693726 0.1900145560503006 0.1900145560503006
1 0.27539917826652527 0.27539917826652527
0.066968187689781189 0.1501268595457077 0.066968187689781189
0.23734785616397858 0.23734785616397858 0.11595700681209564
0.51174843311309814 0.34165295958518982 0.18224814534187317
0.89483767747879028 0.46364980936050415 0.26492887735366821
1 0.60514110326766968 0.36434867978096008
0.12041833251714706 0.37418302893638611 0.12041833251714706
0.34165295958518982 0.51174849271774292 0.18224817514419556
0.67380982637405396 0.67380988597869873 0.26290485262870789
1 0.85190606117248535 0.35984313488006592
1 0.99999380111694336 0.47346651554107666
0.1900145560503006 0.70459461212158203 0.1900145411491394
0.46364980936050415 0.89483767747879028 0.26492887735366821
0.85190606117248535 1 0.35984313488006592
1 1 0.47210320830345154
1 1 0.60105794668197632
0.27539920806884766 1 0.27539920806884766
0.6051410436630249 1 0.36434867978096008
0.99999380111694336 1 0.47346651554107666
1 1 0.60105794668197632
1 1 0.74570202827453613
0.066968187689781189 0.066968187689781189 0.1501268595457077
0.23734788596630096 0.11595700681209564 0.23734785616397858
0.51174843311309814 0.18224814534187317 0.34165295958518982
0.89483767747879028 0.26492887735366821 0.46364980936050415
1 0.3643486499786377 0.60514110326766968
0.11595700681209564 0.23734785616397858 0.23734785616397858
0.33716601133346558 0.33716601133346558 0.33716601133346558
0.66164571046829224 0.45442238450050354 0.45442244410514832
1 0.58896529674530029 0.58896529674530029
1 0.7439882755279541 0.74398833513259888
0.18224816024303436 0.51174843311309814 0.34165295958518982
0.45442238450050354 0.66164571046829224 0.45442238450050354
0.83715331554412842 0.83715331554412842 0.58570778369903564
1 0.99922817945480347 0.73452180624008179
1 1 0.90448826551437378
0.26492887735366821 0.89483755826950073 0.46364980936050415
0.58896529674530029 1 0.58896529674530029
0.99922817945480347 1 0.73452186584472656
1 1 0.89880204200744629
1 1 1
0.3643486499786377 1 0.60514110326766968
0.7439882755279541 1 0.7439882755279541
1 1 0.90448838472366333
1 1 1
1 1 1
0.12041831761598587 0.12041831761598587 0.37418302893638611
0.34165289998054504 0.18224814534187317 0.51174843311309814
0.67380988597869873 0.2629048228263855 0.67380994558334351
1 0.35984313488006592 0.85190600156784058
1 0.47346651554107666 0.99999380111694336
0.18224814534187317 0.34165292978286743 0.51174849271774292
0.45442244410514832 0.45442244410514832 0.66164565086364746
0.83715331554412842 0.58570772409439087 0.83715325593948364
1 0.73452192544937134 0.99922817945480347
1 0.90448826551437378 1
0.26290488243103027 0.67380988597869873 0.67380994558334351
0.58570778369903564 0.83715331554412842 0.83715325593948364
0.99912869930267334 0.99912869930267334 0.99912869930267334
1 1 1
1 1 1
0.35984313488006592 1 0.85190600156784058
0.73452186584472656 1 0.99922817945480347
1 1 1
1 1 1
1 1 1
0.47346657514572144 1 0.99999380111694336
0.90448826551437378 1 1
1 1 1
1 1 1
1 1 1
0.1900145560503006 0.1900145560503006 0.70459455251693726
0.46364986896514893 0.26492887735366821 0.89483767747879028
0.85190606117248535 0.35984313488006592 1
1 0.47210320830345154 1
1 0.60105794668197632 1
0.26492887735366821 0.46364986896514893 0.89483767747879028
0.58896535634994507 0.58896535634994507 1
0.99922806024551392 0.73452186584472656 1
1 0.89880204200744629 1
1 1 1
0.35984313488006592 0.85190606117248535 1
0.73452186584472656 0.99922806024551392 1
1 1 1
1 1 1
1 1 1
0.47210314869880676 1 1
0.89880204200744629 1 1
1 1 1
1 1 1
1 1 1
0.60105794668197632 1 1
1 1 1
1 1 1
1 1 1
1 1 1
0.27539917826652527 0.27539920806884766 1
0.60514110326766968 0.36434867978096008 1
0.99999392032623291 0.47346645593643188 1
1 0.60105800628662109 1
1 0.74570196866989136 1
0.36434867978096008 0.60514110326766968 1
0.7439882755279541 0.74398833513259888 1
1 0.90448838472366333 1
1 1 1
1 1 1
0.47346657514572144 0.99999392032623291 1
0.90448838472366333 1 1
1 1 1
1 1 1
1 1 1
0.60105800628662109 1 1
1 1 1
1 1 1
1 1 1
1 1 1
0.74570202827453613 1 1
1 1 1
1 1 1
1 1 1
1 1 1
