Textures/20.cube
# Created by: G'MIC (https://gmic.eu)
TITLE "Moonlight.cube"
# LUT size
LUT_3D_SIZE 33
# Data domain
DOMAIN_MIN 0.0 0.0 0.0
DOMAIN_MAX 1.0 1.0 1.0
# LUT data points
0.0003557717427611351 0.0012256251648068428 0.0051575959660112858
0.0043234606273472309 0.0012256251648068428 0.0058008101768791676
0.011063136160373688 0.0012256253976374865 0.0068724509328603745
0.019558580592274666 0.0012256251648068428 0.010400693863630295
0.029846247285604477 0.0013414850691333413 0.015154498629271984
0.042687561362981796 0.0025292641948908567 0.023831058293581009
0.054748870432376862 0.0042111761868000031 0.031571365892887115
0.067969456315040588 0.0057426681742072105 0.033787336200475693
0.084334827959537506 0.0069169397465884686 0.036512788385152817
0.098153598606586456 0.0059468145482242107 0.041726049035787582
0.11322417110204697 0.0061336969956755638 0.04839145764708519
0.12411215901374817 0.011781763285398483 0.050391335040330887
0.1330140233039856 0.017303232103586197 0.050425522029399872
0.14235681295394897 0.023767530918121338 0.050510630011558533
0.15149591863155365 0.030984861776232719 0.050966586917638779
0.16117343306541443 0.033747691661119461 0.054649613797664642
0.17276477813720703 0.036054253578186035 0.059978917241096497
0.18204750120639801 0.038915079087018967 0.063667565584182739
0.1899675726890564 0.042424339801073074 0.067555412650108337
0.19997444748878479 0.047022320330142975 0.071887575089931488
0.2095734179019928 0.052560776472091675 0.07564833015203476
0.21941471099853516 0.054635558277368546 0.077344119548797607
0.22935526072978973 0.053142648190259933 0.075928613543510437
0.23923532664775848 0.05299270898103714 0.079374246299266815
0.25054135918617249 0.054886713624000549 0.086658507585525513
0.26144567131996155 0.05912620946764946 0.092151634395122528
0.27117273211479187 0.064683876931667328 0.095902219414710999
0.28039830923080444 0.069142661988735199 0.099794767796993256
0.29084986448287964 0.07283058762550354 0.10547100007534027
0.3009505569934845 0.074578076601028442 0.10968195647001266
0.31275823712348938 0.077120602130889893 0.11340862512588501
0.32398307323455811 0.080308713018894196 0.11801266670227051
0.33741015195846558 0.084349855780601501 0.12187450379133224
0.0003557717427611351 0.0065134307369589806 0.010801095515489578
0.0043234606273472309 0.0063726254738867283 0.011453256011009216
0.01060057245194912 0.0067606824450194836 0.012631399556994438
0.018647821620106697 0.0084304250776767731 0.016424519941210747
0.029644960537552834 0.0088236471638083458 0.020816762000322342
0.04650527611374855 0.0091095529496669769 0.027178158983588219
0.059390902519226074 0.0098781883716583252 0.033867262303829193
0.07114902138710022 0.0094301775097846985 0.036814209073781967
0.085022374987602234 0.009771338663995266 0.038589738309383392
0.098954863846302032 0.010718679986894131 0.041696805506944656
0.11320273578166962 0.011548632755875587 0.047161225229501724
0.12489698082208633 0.018632460385560989 0.049349002540111542
0.13474388420581818 0.024637294933199883 0.05044112354516983
0.14311780035495758 0.029011929407715797 0.050735332071781158
0.15150646865367889 0.034536343067884445 0.051034856587648392
0.15919111669063568 0.037826042622327805 0.052990596741437912
0.16939471662044525 0.039782896637916565 0.056945521384477615
0.18044982850551605 0.042638491839170456 0.061375759541988373
0.18996091187000275 0.046480201184749603 0.06608155369758606
0.20093628764152527 0.049643669277429581 0.072379864752292633
0.21139620244503021 0.054426752030849457 0.07786356657743454
0.22106932103633881 0.059016544371843338 0.081841066479682922
0.23088626563549042 0.060272175818681717 0.082963176071643829
0.23950494825839996 0.059181366115808487 0.084284625947475433
0.24915863573551178 0.059200916439294815 0.088674463331699371
0.25979903340339661 0.063102886080741882 0.094304189085960388
0.27038231492042542 0.068809583783149719 0.098971329629421234
0.28039208054542542 0.071701288223266602 0.10233356803655624
0.29084992408752441 0.074315927922725677 0.10682705044746399
0.30106210708618164 0.07707977294921875 0.1108187735080719
0.31290844082832336 0.078571334481239319 0.11346711218357086
0.32295766472816467 0.082521460950374603 0.11841639876365662
0.33401757478713989 0.086393505334854126 0.12251336127519608
0.00017242446483578533 0.01443574670702219 0.016691708937287331
0.0039158789440989494 0.014379189349710941 0.016906622797250748
0.010764509439468384 0.013755854219198227 0.017527211457490921
0.019051294773817062 0.014625704847276211 0.02059563435614109
0.029044331982731819 0.016552137210965157 0.024712372571229935
0.045846622437238693 0.017112623900175095 0.030049493536353111
0.062350243330001831 0.017045486718416214 0.035044483840465546
0.074432052671909332 0.015884550288319588 0.037337947636842728
0.086483299732208252 0.015194508247077465 0.039444401860237122
0.10022149235010147 0.017058154568076134 0.042536608874797821
0.11305683851242065 0.019037548452615738 0.046326152980327606
0.12423112243413925 0.026171013712882996 0.04900825023651123
0.13533872365951538 0.032576069235801697 0.050432369112968445
0.14409653842449188 0.036335885524749756 0.050735335797071457
0.151595339179039 0.039733219891786575 0.051446299999952316
0.15953925251960754 0.041855763643980026 0.053398452699184418
0.1679500937461853 0.044147860258817673 0.055783223360776901
0.17827916145324707 0.047612983733415604 0.060589499771595001
0.18919067084789276 0.050881117582321167 0.065991178154945374
0.20007985830307007 0.053734324872493744 0.071939066052436829
0.21159529685974121 0.05747506394982338 0.078954882919788361
0.22233548760414124 0.061385713517665863 0.083872705698013306
0.23202836513519287 0.065181747078895569 0.087537840008735657
0.24044187366962433 0.065619826316833496 0.089324094355106354
0.24877442419528961 0.064064130187034607 0.091367624700069427
0.25930294394493103 0.066238559782505035 0.095702171325683594
0.27048805356025696 0.072201773524284363 0.10134102404117584
0.28109893202781677 0.074932597577571869 0.10476387292146683
0.29086163640022278 0.077222466468811035 0.10884770750999451
0.30109161138534546 0.079292982816696167 0.11282913386821747
0.31302070617675781 0.081310279667377472 0.11513325572013855
0.32356494665145874 0.085038281977176666 0.1186114177107811
0.33324134349822998 0.088995851576328278 0.12262067943811417
0 0.025326792150735855 0.024059455841779709
0.0023008154239505529 0.025326788425445557 0.023590583354234695
0.0094546806067228317 0.024526428431272507 0.023590583354234695
0.019095810130238533 0.021841054782271385 0.02440931648015976
0.028843263164162636 0.022809445858001709 0.027404710650444031
0.042739808559417725 0.026681559160351753 0.030495209619402885
0.059028159826993942 0.027838317677378654 0.034744542092084885
0.073699936270713806 0.025441482663154602 0.037829041481018066
0.086526595056056976 0.024757949635386467 0.040387105196714401
0.10025190562009811 0.029109420254826546 0.041823949664831161
0.11299676448106766 0.032608408480882645 0.044904060661792755
0.12284279614686966 0.036725681275129318 0.049252606928348541
0.13338080048561096 0.042497333139181137 0.050604261457920074
0.14299465715885162 0.044738862663507462 0.050735332071781158
0.15155215561389923 0.047174472361803055 0.051668033003807068
0.16013072431087494 0.04788937047123909 0.053758226335048676
0.1686272919178009 0.049446694552898407 0.056692585349082947
0.17823232710361481 0.053869862109422684 0.063410483300685883
0.18905577063560486 0.057180717587471008 0.069982074201107025
0.19828416407108307 0.058898977935314178 0.073696300387382507
0.20852863788604736 0.061840079724788666 0.079529367387294769
0.22063083946704865 0.065140314400196075 0.084758177399635315
0.23204746842384338 0.068706028163433075 0.089461304247379303
0.24045826494693756 0.06976020336151123 0.091394327580928802
0.24877442419528961 0.069134645164012909 0.094152703881263733
0.25972247123718262 0.070273280143737793 0.097184106707572937
0.27083349227905273 0.073905132710933685 0.10010490566492081
0.28157171607017517 0.077713310718536377 0.10395964980125427
0.29096564650535583 0.080473154783248901 0.10883093625307083
0.30148926377296448 0.083013445138931274 0.11409059166908264
0.31411930918693542 0.085085131227970123 0.11719144135713577
0.32505127787590027 0.088899925351142883 0.12052862346172333
0.33377417922019958 0.092847190797328949 0.12522530555725098
0 0.037913259118795395 0.031878713518381119
0.0014145047171041369 0.037866052240133286 0.031706314533948898
0.0076700262725353241 0.037650786340236664 0.032017193734645844
0.017458895221352577 0.034803304821252823 0.032417770475149155
0.028530176728963852 0.032219137996435165 0.032512791454792023
0.042163718491792679 0.036067556589841843 0.033534940332174301
0.056548964232206345 0.040085271000862122 0.036698721349239349
0.071454368531703949 0.038502756506204605 0.040631882846355438
0.08630901575088501 0.036087404936552048 0.043501462787389755
0.099487751722335815 0.03957657516002655 0.043690420687198639
0.11205790936946869 0.044842731207609177 0.044474609196186066
0.1217215433716774 0.048716515302658081 0.048095244914293289
0.13140721619129181 0.051890015602111816 0.051085967570543289
0.14088816940784454 0.053715351969003677 0.052016623318195343
0.15058332681655884 0.055679343640804291 0.052867453545331955
0.15946756303310394 0.0567811019718647 0.055040121078491211
0.16782282292842865 0.056951329112052917 0.057775642722845078
0.178232342004776 0.059805557131767273 0.06335032731294632
0.18929752707481384 0.063364297151565552 0.071932904422283173
0.19919659197330475 0.064908832311630249 0.076440185308456421
0.20730289816856384 0.066741161048412323 0.080190420150756836
0.2172410786151886 0.069308944046497345 0.084442608058452606
0.23065407574176788 0.07295285165309906 0.089934825897216797
0.24101686477661133 0.075006484985351562 0.093511782586574554
0.24888239800930023 0.07524167001247406 0.097114339470863342
0.25887811183929443 0.076049424707889557 0.10034490376710892
0.26993641257286072 0.077815026044845581 0.10081083327531815
0.28187638521194458 0.080964960157871246 0.10447162389755249
0.29112708568572998 0.084722459316253662 0.11021559685468674
0.30165311694145203 0.087081961333751678 0.11447003483772278
0.31507030129432678 0.088875390589237213 0.11840793490409851
0.32564377784729004 0.092253819108009338 0.12220664322376251
0.333505779504776 0.096346504986286163 0.12768159806728363
0 0.052938103675842285 0.038111384958028793
2.4966439013951458e-05 0.052234858274459839 0.03835788369178772
0.004662354476749897 0.052481543272733688 0.039152815937995911
0.015337366610765457 0.053053677082061768 0.042705152183771133
0.02723226323723793 0.0503343865275383 0.042598873376846313
0.041681025177240372 0.050443064421415329 0.038299798965454102
0.056382793933153152 0.054597727954387665 0.03981621190905571
0.071405217051506042 0.05599680170416832 0.046241488307714462
0.08616916835308075 0.053245466202497482 0.049451213330030441
0.09805414080619812 0.053133547306060791 0.048948034644126892
0.10984712839126587 0.05638112872838974 0.049171134829521179
0.11943773925304413 0.058818608522415161 0.051028180867433548
0.12910418212413788 0.061468318104743958 0.054411478340625763
0.13858899474143982 0.063038825988769531 0.056845497339963913
0.14839150011539459 0.065248027443885803 0.057987011969089508
0.15827836096286774 0.067386925220489502 0.06123901903629303
0.16752623021602631 0.067728713154792786 0.063613571226596832
0.17823232710361481 0.068048737943172455 0.066458307206630707
0.1894301176071167 0.070323772728443146 0.073271207511425018
0.20179340243339539 0.071873210370540619 0.078283198177814484
0.21152941882610321 0.072741277515888214 0.082889437675476074
0.21760731935501099 0.074222803115844727 0.085626907646656036
0.22757531702518463 0.077125668525695801 0.089566998183727264
0.23963548243045807 0.080027654767036438 0.094228453934192657
0.24919377267360687 0.08093608170747757 0.097986705601215363
0.25755402445793152 0.081540033221244812 0.10175148397684097
0.26855269074440002 0.083694383502006531 0.10397163033485413
0.28098452091217041 0.086974360048770905 0.10863278061151505
0.29274731874465942 0.090719006955623627 0.1146671324968338
0.30257514119148254 0.092157013714313507 0.11703862994909286
0.31403297185897827 0.092691503465175629 0.1188800260424614
0.32416200637817383 0.096039645373821259 0.12265466153621674
0.33281737565994263 0.10024967044591904 0.1281573623418808
0 0.068038694560527802 0.043683949857950211
0 0.066580630838871002 0.043729588389396667
0.0026884048711508512 0.065761640667915344 0.044828049838542938
0.01373676210641861 0.067489869892597198 0.049535606056451797
0.026170689612627029 0.067813470959663391 0.052766155451536179
0.041659798473119736 0.066906772553920746 0.047394726425409317
0.056420654058456421 0.067585296928882599 0.04322810098528862
0.071214176714420319 0.0691971555352211 0.049374841153621674
0.085546515882015228 0.070432290434837341 0.054736360907554626
0.096946723759174347 0.069423943758010864 0.054689235985279083
0.10825851559638977 0.068567566573619843 0.055324271321296692
0.11793948709964752 0.070084534585475922 0.057530023157596588
0.12753273546695709 0.071713253855705261 0.059361070394515991
0.13748824596405029 0.072874583303928375 0.061205785721540451
0.14699462056159973 0.074774786829948425 0.063361078500747681
0.15677131712436676 0.077034078538417816 0.066851839423179626
0.16694216430187225 0.078906990587711334 0.070265941321849823
0.17801354825496674 0.079084858298301697 0.072804398834705353
0.18910878896713257 0.079084858298301697 0.076492071151733398
0.20151339471340179 0.07959187775850296 0.080600343644618988
0.2145063579082489 0.07989867776632309 0.085988186299800873
0.22222216427326202 0.081129513680934906 0.089073233306407928
0.22690868377685547 0.08302336186170578 0.091149784624576569
0.23724763095378876 0.08509429544210434 0.094390735030174255
0.24844284355640411 0.086968638002872467 0.098217681050300598
0.25847256183624268 0.088471010327339172 0.10229743272066116
0.26813215017318726 0.090148933231830597 0.10616257786750793
0.27960410714149475 0.093032345175743103 0.11158092319965363
0.29296493530273438 0.096930332481861115 0.11730793118476868
0.30393180251121521 0.098642148077487946 0.12017878890037537
0.31387335062026978 0.098738811910152435 0.12046798318624496
0.32319596409797668 0.10059916228055954 0.12377408891916275
0.33288639783859253 0.10421084612607956 0.12927410006523132
0 0.081244058907032013 0.049477066844701767
0 0.080948777496814728 0.049225460737943649
0.0029412503354251385 0.079307816922664642 0.050239041447639465
0.015550187788903713 0.079322613775730133 0.053355101495981216
0.028218666091561317 0.079496540129184723 0.056963216513395309
0.044618934392929077 0.07783161848783493 0.055577803403139114
0.059035953134298325 0.077824465930461884 0.051514673978090286
0.070051968097686768 0.079345293343067169 0.054673153907060623
0.083403810858726501 0.08116554468870163 0.060013376176357269
0.094133049249649048 0.081214986741542816 0.061243157833814621
0.10513250529766083 0.080467388033866882 0.062530770897865295
0.11539461463689804 0.081374436616897583 0.066118404269218445
0.12511797249317169 0.082711607217788696 0.067753851413726807
0.13682632148265839 0.082186535000801086 0.068336538970470428
0.14725470542907715 0.083219528198242188 0.07009829580783844
0.15633165836334229 0.085457399487495422 0.072640359401702881
0.16629718244075775 0.087681382894515991 0.075512081384658813
0.177287757396698 0.08750741183757782 0.077319346368312836
0.18777234852313995 0.087140001356601715 0.080262765288352966
0.19866040349006653 0.088902212679386139 0.083663694560527802
0.21039305627346039 0.090310923755168915 0.088340334594249725
0.22216397523880005 0.090810798108577728 0.091913051903247833
0.23005498945713043 0.092440217733383179 0.094471052289009094
0.23859976232051849 0.093630284070968628 0.096710816025733948
0.24848029017448425 0.094613999128341675 0.099630177021026611
0.26008197665214539 0.096563585102558136 0.10404796153306961
0.27115052938461304 0.099347233772277832 0.1081632524728775
0.28097179532051086 0.10144288837909698 0.11278102546930313
0.29265373945236206 0.10407091677188873 0.11755305528640747
0.30408498644828796 0.10648030042648315 0.12181643396615982
0.31388866901397705 0.10773784667253494 0.12491599470376968
0.3236503005027771 0.10883746296167374 0.12855574488639832
0.33356040716171265 0.11023100465536118 0.13442394137382507
0.00010415686119813472 0.094340793788433075 0.056056443601846695
0.00037449659430421889 0.094444572925567627 0.055962439626455307
0.0037077562883496284 0.094369269907474518 0.056651439517736435
0.016761256381869316 0.092736728489398956 0.058613669127225876
0.03032246045768261 0.090894587337970734 0.060023795813322067
0.04631303995847702 0.089134342968463898 0.060208063572645187
0.062055420130491257 0.087798357009887695 0.060416471213102341
0.072225794196128845 0.089061029255390167 0.063072368502616882
0.082451947033405304 0.090380191802978516 0.066123530268669128
0.092352062463760376 0.090732395648956299 0.067286275327205658
0.10201602429151535 0.090898878872394562 0.069857850670814514
0.11213967204093933 0.092444613575935364 0.073772609233856201
0.12183637917041779 0.094135083258152008 0.076984293758869171
0.13384395837783813 0.093175120651721954 0.077379398047924042
0.14675359427928925 0.091903671622276306 0.077561855316162109
0.15699376165866852 0.094240389764308929 0.079425536096096039
0.16649812459945679 0.097553491592407227 0.081283152103424072
0.17694762349128723 0.096871227025985718 0.082770831882953644
0.18603117763996124 0.095260702073574066 0.084749393165111542
0.19613485038280487 0.097208656370639801 0.087435074150562286
0.20603375136852264 0.10077217221260071 0.091094702482223511
0.2175656259059906 0.10201280564069748 0.094287261366844177
0.23082570731639862 0.10212257504463196 0.097893178462982178
0.24073632061481476 0.10298875719308853 0.1008545458316803
0.24883958697319031 0.1032441183924675 0.10288672894239426
0.25984683632850647 0.10459910333156586 0.10673978924751282
0.27296456694602966 0.10814207792282104 0.11057665944099426
0.2836030125617981 0.11107112467288971 0.11473315209150314
0.29328897595405579 0.11312058568000793 0.11865910142660141
0.30376783013343811 0.11508730053901672 0.12302277237176895
0.31378528475761414 0.11695477366447449 0.12852759659290314
0.32359156012535095 0.11779212951660156 0.13323724269866943
0.33337616920471191 0.11781042814254761 0.13891366124153137
0.00069906027056276798 0.10607217997312546 0.067426003515720367
0.0051192254759371281 0.10637249797582626 0.066923655569553375
0.0093742534518241882 0.10608504712581635 0.066663108766078949
0.020408850163221359 0.10436825454235077 0.067281134426593781
0.033114627003669739 0.10256677120923996 0.068837843835353851
0.045908141881227493 0.10133575648069382 0.069717384874820709
0.061221897602081299 0.10013177245855331 0.070112526416778564
0.072712317109107971 0.099222145974636078 0.071917518973350525
0.082628749310970306 0.10010215640068054 0.074234895408153534
0.092677861452102661 0.10037223994731903 0.072572588920593262
0.10281515866518021 0.10058724135160446 0.074416197836399078
0.11246197670698166 0.1011601909995079 0.079709485173225403
0.12209998071193695 0.102438785135746 0.083206482231616974
0.13154007494449615 0.10312661528587341 0.083513863384723663
0.14402680099010468 0.10334967821836472 0.083756133913993835
0.15683038532733917 0.10457678139209747 0.086338765919208527
0.16687247157096863 0.10726089030504227 0.089037254452705383
0.17635670304298401 0.10606274753808975 0.090086393058300018
0.1855585128068924 0.10459606349468231 0.091141097247600555
0.19436259567737579 0.10509341210126877 0.092395782470703125
0.20344685018062592 0.10754881799221039 0.094864480197429657
0.21483303606510162 0.10899194329977036 0.097341477870941162
0.22716175019741058 0.11000294983386993 0.10050621628761292
0.23946171998977661 0.11206807196140289 0.10506440699100494
0.24941256642341614 0.11384180933237076 0.10841432958841324
0.25930619239807129 0.11401733756065369 0.11131693422794342
0.2703174352645874 0.1161392405629158 0.11433537304401398
0.28165349364280701 0.11959880590438843 0.11734160035848618
0.29217636585235596 0.12171874940395355 0.12055379152297974
0.30219057202339172 0.12364386767148972 0.1256660521030426
0.31234461069107056 0.1255134791135788 0.13132116198539734
0.3231474757194519 0.12643834948539734 0.13464917242527008
0.33497518301010132 0.12773020565509796 0.13921280205249786
0.0012475164839997888 0.11717508733272552 0.079885870218276978
0.0079488083720207214 0.11732017248868942 0.078998871147632599
0.015708411112427711 0.11691761761903763 0.077291540801525116
0.025398368015885353 0.11522572487592697 0.077109746634960175
0.036342985928058624 0.11351817846298218 0.077332481741905212
0.048288911581039429 0.11307166516780853 0.078959040343761444
0.059864941984415054 0.11291955411434174 0.080263800919055939
0.070609286427497864 0.11127935349941254 0.081743992865085602
0.082309253513813019 0.1101052388548851 0.083461657166481018
0.093367218971252441 0.11037550121545792 0.081088341772556305
0.10456206649541855 0.1103454977273941 0.078818626701831818
0.11454589664936066 0.11045046150684357 0.083347968757152557
0.12409647554159164 0.11093492805957794 0.088311128318309784
0.13279835879802704 0.11229921877384186 0.089447364211082458
0.14147594571113586 0.11385685205459595 0.089598327875137329
0.15350975096225739 0.11562654376029968 0.092656321823596954
0.16608527302742004 0.11721806228160858 0.097581803798675537
0.17626228928565979 0.11615081131458282 0.098606742918491364
0.18554602563381195 0.11430075764656067 0.09886576235294342
0.19436259567737579 0.11436626315116882 0.099479332566261292
0.20294138789176941 0.11469120532274246 0.099776238203048706
0.21318146586418152 0.11589672416448593 0.10171466320753098
0.2247641384601593 0.11761157214641571 0.10384891927242279
0.2372032105922699 0.12034278362989426 0.10828951001167297
0.25041112303733826 0.12380537390708923 0.11374460905790329
0.26089879870414734 0.12483667582273483 0.11701679229736328
0.26902198791503906 0.12500520050525665 0.11903306096792221
0.27866297960281372 0.12731301784515381 0.12146031111478806
0.29015636444091797 0.12946836650371552 0.12356717139482498
0.30104309320449829 0.13132795691490173 0.12791182100772858
0.31070521473884583 0.13331031799316406 0.1335822194814682
0.32225814461708069 0.13529522716999054 0.13744239509105682
0.33702713251113892 0.13703173398971558 0.14115285873413086
0.0074605569243431091 0.12561732530593872 0.087734177708625793
0.012701100669801235 0.12568596005439758 0.089275538921356201
0.019642902538180351 0.12484405189752579 0.087114870548248291
0.024987788870930672 0.12392108142375946 0.084466122090816498
0.035383846610784531 0.1233629509806633 0.084357522428035736
0.049972105771303177 0.12394794076681137 0.085194513201713562
0.061280805617570877 0.12325761467218399 0.086408436298370361
0.069266684353351593 0.12234485894441605 0.088602051138877869
0.080543532967567444 0.12163549661636353 0.090832866728305817
0.093556791543960571 0.12220987677574158 0.091113127768039703
0.10522866249084473 0.12202925235033035 0.088380418717861176
0.11608420312404633 0.12081386893987656 0.088765472173690796
0.12467329204082489 0.12068557739257812 0.093335419893264771
0.13478831946849823 0.12224364280700684 0.09608016163110733
0.14242386817932129 0.12406106293201447 0.096859239041805267
0.15070994198322296 0.12544810771942139 0.098192423582077026
0.16299350559711456 0.12723484635353088 0.10199730843305588
0.17436352372169495 0.12721110880374908 0.10445693135261536
0.1841842383146286 0.12617895007133484 0.10522220283746719
0.19400687515735626 0.12504303455352783 0.10629066824913025
0.20294138789176941 0.12440550327301025 0.10709474980831146
0.21372444927692413 0.12609364092350006 0.10942064225673676
0.22609782218933105 0.12871694564819336 0.11226009577512741
0.23820057511329651 0.12998609244823456 0.1155548095703125
0.2515350878238678 0.13240563869476318 0.12003631144762039
