Textures/20.cube
# Created by: G'MIC (https://gmic.eu)
TITLE "Moonlight.cube"
# LUT size
LUT_3D_SIZE 5
# Data domain
DOMAIN_MIN 0.0 0.0 0.0
DOMAIN_MAX 1.0 1.0 1.0
# LUT data points
0.0003557717427611351 0.0012256251648068428 0.0051575959660112858
0.084334827959537506 0.0069169397465884686 0.036512788385152817
0.17276477813720703 0.036054253578186035 0.059978917241096497
0.25054135918617249 0.054886713624000549 0.086658507585525513
0.33741015195846558 0.084349855780601501 0.12187450379133224
0.00010415686119813472 0.094340793788433075 0.056056443601846695
0.082451947033405304 0.090380191802978516 0.066123530268669128
0.16649812459945679 0.097553491592407227 0.081283152103424072
0.24883958697319031 0.1032441183924675 0.10288672894239426
0.33337616920471191 0.11781042814254761 0.13891366124153137
0.0082215694710612297 0.17505277693271637 0.12425612658262253
0.080283448100090027 0.17524471879005432 0.12256841361522675
0.16367435455322266 0.17543093860149384 0.13122072815895081
0.24828062951564789 0.18327370285987854 0.15275661647319794
0.33929437398910522 0.19517973065376282 0.17568403482437134
0.026359336450695992 0.26889005303382874 0.191266268491745
0.087375804781913757 0.27409389615058899 0.19757638871669769
0.17237502336502075 0.27519041299819946 0.2090020477771759
0.26640269160270691 0.28332531452178955 0.22010922431945801
0.35857981443405151 0.30072674155235291 0.24562202394008636
0.08535216748714447 0.394176185131073 0.29310798645019531
0.12424411624670029 0.39774522185325623 0.29678776860237122
0.20451273024082184 0.40114381909370422 0.30205753445625305
0.30197665095329285 0.41291534900665283 0.32606223225593567
0.40928468108177185 0.43451973795890808 0.34792026877403259
0 0.0018202670617029071 0.12167596817016602
0.067366056144237518 0.0088572185486555099 0.14050458371639252
0.1551906019449234 0.043247874826192856 0.15543560683727264
0.23926301300525665 0.063263796269893646 0.17367444932460785
0.32720726728439331 0.087938360869884491 0.19902443885803223
0 0.091623976826667786 0.14841368794441223
0.051331941038370132 0.090950325131416321 0.15862241387367249
0.14722016453742981 0.097801409661769867 0.17027270793914795
0.23886911571025848 0.10409186780452728 0.17787113785743713
0.32467496395111084 0.12111995369195938 0.20289090275764465
0 0.17623665928840637 0.18353578448295593
0.031217347830533981 0.1755615621805191 0.1835995614528656
0.14725838601589203 0.17604497075080872 0.19670724868774414
0.23926456272602081 0.18892134726047516 0.21223871409893036
0.3346017599105835 0.19523198902606964 0.23110611736774445
0 0.27433276176452637 0.24234376847743988
0.034010443836450577 0.27184176445007324 0.24608521163463593
0.1610713005065918 0.27871853113174438 0.25618314743041992
0.25548598170280457 0.28283339738845825 0.26580619812011719
0.35655853152275085 0.29956167936325073 0.28479385375976562
0.025004798546433449 0.3972238302230835 0.32707816362380981
0.097388401627540588 0.40387308597564697 0.33578634262084961
0.18410743772983551 0.40114381909370422 0.34087887406349182
0.28758937120437622 0.41294249892234802 0.36003819108009338
0.4028070867061615 0.43431386351585388 0.38564783334732056
0 0.012091636657714844 0.23787045478820801
0.010611795820295811 0.022148100659251213 0.2471558004617691
0.1245606392621994 0.051023349165916443 0.25805118680000305
0.21972768008708954 0.072674907743930817 0.27296000719070435
0.30870082974433899 0.098028667271137238 0.29886582493782043
0 0.094391003251075745 0.25572603940963745
5.872787005500868e-05 0.098180539906024933 0.26519662141799927
0.11590489000082016 0.098584264516830444 0.26695960760116577
0.21336978673934937 0.11317535489797592 0.28142565488815308
0.30921763181686401 0.12604916095733643 0.3055509626865387
0 0.17883411049842834 0.27722880244255066
0 0.17901784181594849 0.27873536944389343
0.10725533962249756 0.17982293665409088 0.29065626859664917
0.20667693018913269 0.18720540404319763 0.31216976046562195
0.31842392683029175 0.20209687948226929 0.32881209254264832
0 0.27511900663375854 0.32505619525909424
0 0.27588939666748047 0.32974609732627869
0.10695524513721466 0.27926871180534363 0.33890083432197571
0.23016761243343353 0.28365924954414368 0.35059002041816711
0.33663657307624817 0.30464088916778564 0.37608498334884644
0 0.39923137426376343 0.40664827823638916
0.0034360645804554224 0.40114381909370422 0.40846201777458191
0.14048972725868225 0.4089464545249939 0.41235265135765076
0.27032652497291565 0.42193549871444702 0.43764466047286987
0.38292229175567627 0.43456697463989258 0.45656731724739075
0 0.041528847068548203 0.35836318135261536
0 0.051196422427892685 0.35473781824111938
0.052993077784776688 0.067689873278141022 0.36596682667732239
0.18816976249217987 0.083058767020702362 0.37553232908248901
0.28544992208480835 0.10196100920438766 0.39473864436149597
0 0.10213077068328857 0.36317014694213867
0 0.10291785001754761 0.36409896612167358
0.022132579237222672 0.10738653689622879 0.36821594834327698
0.17772890627384186 0.11998450756072998 0.38827699422836304
0.28821632266044617 0.13639178872108459 0.4062652587890625
0 0.18050964176654816 0.38332423567771912
0 0.18017098307609558 0.39004594087600708
0.0024470521602779627 0.18398509919643402 0.39669901132583618
0.17953139543533325 0.19136913120746613 0.40818151831626892
0.28965204954147339 0.20603038370609283 0.42136272788047791
0 0.27536410093307495 0.41749170422554016
0 0.28228047490119934 0.43054065108299255
0.0059410878457129002 0.28603485226631165 0.43847662210464478
0.18745771050453186 0.29058590531349182 0.45159593224525452
0.30490931868553162 0.30615895986557007 0.48075211048126221
0 0.40507230162620544 0.50391644239425659
0 0.40822413563728333 0.50869864225387573
0.053391654044389725 0.40647077560424805 0.51198709011077881
0.22355397045612335 0.4256155788898468 0.52955639362335205
0.35084670782089233 0.44261616468429565 0.55626803636550903
0 0.066169224679470062 0.46483644843101501
0 0.072277531027793884 0.46635186672210693
0 0.082748599350452423 0.47541329264640808
0.11740242689847946 0.095204159617424011 0.48703226447105408
0.25162714719772339 0.1174512505531311 0.50446116924285889
0 0.11064364016056061 0.47372043132781982
0 0.11610464751720428 0.47426232695579529
0 0.12078056484460831 0.47877788543701172
0.10315047204494476 0.12865735590457916 0.49569392204284668
0.25272718071937561 0.14412201941013336 0.50964814424514771
0 0.18717324733734131 0.49325823783874512
0 0.18969553709030151 0.49606579542160034
0 0.19123931229114532 0.5043642520904541
0.088666468858718872 0.20235951244831085 0.51379859447479248
0.25466421246528625 0.21660013496875763 0.53566664457321167
0 0.28365388512611389 0.53688740730285645
0 0.28692883253097534 0.53985106945037842
0 0.28755486011505127 0.54672020673751831
0.075653403997421265 0.30139130353927612 0.56182849407196045
0.26634722948074341 0.31590008735656738 0.58412748575210571
0 0.4089597761631012 0.60265886783599854
0 0.40913850069046021 0.60746121406555176
0 0.41944143176078796 0.61434203386306763
0.14696340262889862 0.43016281723976135 0.63297820091247559
0.31920742988586426 0.4499790370464325 0.66687309741973877
