Textures/21.cube
# Created by: G'MIC (https://gmic.eu)
TITLE "NightFromDay.cube"
# LUT size
LUT_3D_SIZE 5
# Data domain
DOMAIN_MIN 0.0 0.0 0.0
DOMAIN_MAX 1.0 1.0 1.0
# LUT data points
0.00053131708409637213 0.0012256251648068428 0.0041914419271051884
0.096530072391033173 0.0015288678696379066 0.033222593367099762
0.18744240701198578 0.028320459648966789 0.036267645657062531
0.27868279814720154 0.050222624093294144 0.073391944169998169
0.37173426151275635 0.065794102847576141 0.10153863579034805
0.00043340056436136365 0.10174442082643509 0.04686008021235466
0.093423984944820404 0.094685763120651245 0.051038473844528198
0.1828112006187439 0.094567567110061646 0.062593273818492889
0.27528926730155945 0.10198601335287094 0.084316745400428772
0.37049493193626404 0.11503259092569351 0.11543918401002884
0.011784709990024567 0.18717329204082489 0.10503582656383514
0.08344084769487381 0.18711209297180176 0.10725495219230652
0.17705728113651276 0.18713584542274475 0.11394362896680832
0.27421030402183533 0.19363103806972504 0.13243955373764038
0.37792766094207764 0.20298783481121063 0.15306606888771057
0.03424660861492157 0.29468953609466553 0.17186224460601807
0.096183367073535919 0.29388448596000671 0.17363405227661133
0.18901100754737854 0.29892426729202271 0.18474370241165161
0.2914091944694519 0.30389702320098877 0.19829164445400238
0.39794054627418518 0.31919926404953003 0.21809127926826477
0.094749420881271362 0.4347471296787262 0.27303236722946167
0.14080794155597687 0.4362742006778717 0.2756161093711853
0.22177797555923462 0.43723249435424805 0.27887219190597534
0.33542594313621521 0.45016863942146301 0.30220144987106323
0.45584025979042053 0.47243505716323853 0.32850629091262817
0 0.0042544575408101082 0.13616503775119781
0.081961162388324738 0.0020913423504680395 0.15105468034744263
0.17516309022903442 0.035441581159830093 0.15544705092906952
0.26688247919082642 0.057565361261367798 0.17130865156650543
0.36382749676704407 0.067329004406929016 0.18197683990001678
0 0.09851391613483429 0.14544674754142761
0.062744937837123871 0.095324665307998657 0.15499855577945709
0.16667281091213226 0.098340980708599091 0.16381004452705383
0.26651886105537415 0.10010990500450134 0.17432571947574615
0.36313861608505249 0.11819881200790405 0.19140379130840302
0 0.18795201182365417 0.17872132360935211
0.041812755167484283 0.18747514486312866 0.17246361076831818
0.17230041325092316 0.1904132217168808 0.1875130832195282
0.26910829544067383 0.19501000642776489 0.19774883985519409
0.37077942490577698 0.20523779094219208 0.21742334961891174
0 0.29479721188545227 0.22721031308174133
0.031765110790729523 0.2961260974407196 0.22725951671600342
0.18038101494312286 0.29886943101882935 0.23221631348133087
0.28633683919906616 0.30416348576545715 0.25163295865058899
0.39265710115432739 0.31814056634902954 0.26940986514091492
0.016666961833834648 0.43543323874473572 0.31265619397163391
0.10281511396169662 0.43789330124855042 0.31472611427307129
0.2146020382642746 0.44178268313407898 0.3247520923614502
0.32531830668449402 0.45183825492858887 0.3415151834487915
0.45411458611488342 0.47224080562591553 0.37082889676094055
0 0.0070915250107645988 0.25770056247711182
0.013975006528198719 0.022487157955765724 0.26416927576065063
0.14160947501659393 0.044090788811445236 0.27093252539634705
0.24910233914852142 0.058572452515363693 0.27588576078414917
0.34825456142425537 0.072730660438537598 0.29631915688514709
0 0.099155843257904053 0.26748627424240112
0.00058517145225778222 0.10227101296186447 0.26891589164733887
0.139208123087883 0.099408484995365143 0.27198120951652527
0.24740500748157501 0.10945574939250946 0.2820172905921936
0.34826040267944336 0.12218749523162842 0.30273589491844177
0 0.18760517239570618 0.27841320633888245
0.00043892950634472072 0.19006170332431793 0.28200799226760864
0.13055683672428131 0.19125665724277496 0.29325684905052185
0.24052228033542633 0.19817188382148743 0.31163007020950317
0.36033275723457336 0.21002577245235443 0.32429522275924683
0 0.29546535015106201 0.32092547416687012
0 0.29627707600593567 0.32524821162223816
0.13471327722072601 0.30307686328887939 0.33231344819068909
0.26309248805046082 0.30869564414024353 0.34621596336364746
0.37731650471687317 0.32114419341087341 0.3656153678894043
0 0.43982487916946411 0.40296843647956848
0.016416110098361969 0.43916457891464233 0.40360903739929199
0.16719849407672882 0.44425767660140991 0.41202622652053833
0.30917441844940186 0.45521095395088196 0.42704802751541138
0.43145596981048584 0.47301307320594788 0.45182508230209351
0 0.036248799413442612 0.38164028525352478
0 0.050035670399665833 0.3857438862323761
0.067693315446376801 0.061197236180305481 0.39174419641494751
0.22247637808322906 0.066677309572696686 0.39196604490280151
0.32585880160331726 0.086883015930652618 0.40721017122268677
0 0.10622478276491165 0.38981088995933533
0 0.10613298416137695 0.39200824499130249
0.045053541660308838 0.10970307886600494 0.39051097631454468
0.21611939370632172 0.11420992761850357 0.39925113320350647
0.32872304320335388 0.12681499123573303 0.41039961576461792
0 0.19203686714172363 0.40234225988388062
0 0.19164299964904785 0.40529373288154602
0.016814850270748138 0.19514653086662292 0.40980210900306702
0.2148267924785614 0.20166988670825958 0.42495158314704895
0.33807343244552612 0.21403518319129944 0.43815532326698303
0 0.29959151148796082 0.43128535151481628
0 0.29999426007270813 0.43595218658447266
0.039651092141866684 0.30580100417137146 0.44136670231819153
0.22364296019077301 0.31135851144790649 0.46185514330863953
0.34776461124420166 0.32521927356719971 0.4824225902557373
0 0.44215691089630127 0.51046091318130493
0 0.44328489899635315 0.51444786787033081
0.097527444362640381 0.44430673122406006 0.51941782236099243
0.26767989993095398 0.46130108833312988 0.54337656497955322
0.40423554182052612 0.47787746787071228 0.56581497192382812
0 0.06033012643456459 0.50227516889572144
0 0.068247288465499878 0.50440806150436401
0 0.076035693287849426 0.50799447298049927
0.15668532252311707 0.081879839301109314 0.51559215784072876
0.29648703336715698 0.1043892502784729 0.52966773509979248
0 0.11462949961423874 0.50652903318405151
0 0.11411847919225693 0.50376534461975098
0 0.12074001878499985 0.51152873039245605
0.15678872168064117 0.12517882883548737 0.52280688285827637
0.29726475477218628 0.13970386981964111 0.53790789842605591
0 0.19942469894886017 0.5226750373840332
0 0.19956935942173004 0.52385848760604858
0 0.19945695996284485 0.5235600471496582
0.13921335339546204 0.2101580798625946 0.5418705940246582
0.30421960353851318 0.22134621441364288 0.56043338775634766
0 0.30889478325843811 0.5638241171836853
0 0.30645427107810974 0.56147140264511108
0 0.31048718094825745 0.56933677196502686
0.13397751748561859 0.32085716724395752 0.58648180961608887
0.32037049531936646 0.33824989199638367 0.60519963502883911
0 0.4490019679069519 0.62528610229492188
0 0.44786131381988525 0.6239006519317627
0.0013890002155676484 0.45502591133117676 0.63736367225646973
0.21244823932647705 0.46859636902809143 0.65242928266525269
0.37474519014358521 0.48799273371696472 0.68587237596511841
