Textures/21.cube
# Created by: G'MIC (https://gmic.eu)
TITLE "NightFromDay.cube"
# LUT size
LUT_3D_SIZE 33
# Data domain
DOMAIN_MIN 0.0 0.0 0.0
DOMAIN_MAX 1.0 1.0 1.0
# LUT data points
0.00053131708409637213 0.0012256251648068428 0.0041914419271051884
0.0051248571835458279 0.0012256251648068428 0.0036765625700354576
0.012930805794894695 0.0012256253976374865 0.0052077225409448147
0.026071434840559959 0.0012256251648068428 0.010138281621038914
0.040027741342782974 0.0012256253976374865 0.015231828205287457
0.055112257599830627 0.0012256251648068428 0.017924968153238297
0.0694565549492836 0.0012256253976374865 0.0208713598549366
0.082767896354198456 0.0012256251648068428 0.027062926441431046
0.096530072391033173 0.0015288678696379066 0.033222593367099762
0.11303998529911041 0.0041990634053945541 0.034966882318258286
0.12804365158081055 0.0083424858748912811 0.036768175661563873
0.13859333097934723 0.011540314182639122 0.036754492670297623
0.14817030727863312 0.013591970317065716 0.034606073051691055
0.1577727347612381 0.017779767513275146 0.032792054116725922
0.16739286482334137 0.023274177685379982 0.031264137476682663
0.17730829119682312 0.026425071060657501 0.034051384776830673
0.18744240701198578 0.028320459648966789 0.036267645657062531
0.19916044175624847 0.030706154182553291 0.040980502963066101
0.2121465653181076 0.03445851057767868 0.048230826854705811
0.2243109792470932 0.037413883954286575 0.053029805421829224
0.23578757047653198 0.039267715066671371 0.054649475961923599
0.24613524973392487 0.041831284761428833 0.059279222041368484
0.2557147741317749 0.045336313545703888 0.066535167396068573
0.26747614145278931 0.047933630645275116 0.071291729807853699
0.27868279814720154 0.050222624093294144 0.073391944169998169
0.2890264093875885 0.050065059214830399 0.074257150292396545
0.29866236448287964 0.050102934241294861 0.076213084161281586
0.30994847416877747 0.053558077663183212 0.080439947545528412
0.32334050536155701 0.057731993496417999 0.087651461362838745
0.33587592840194702 0.061204496771097183 0.092790275812149048
0.34726768732070923 0.06694725900888443 0.096749857068061829
0.35984081029891968 0.069039709866046906 0.1007738932967186
0.37173426151275635 0.065794102847576141 0.10153863579034805
0.00071154354372993112 0.0080560008063912392 0.0073035922832787037
0.0070095332339406013 0.0066177509725093842 0.0046592587605118752
0.014416920952498913 0.0064689661376178265 0.0055369273759424686
0.023648472502827644 0.0076526114717125893 0.0094057545065879822
0.037491787225008011 0.007768525741994381 0.01453011017292738
0.055608887225389481 0.0066994591616094112 0.01935955323278904
0.070408046245574951 0.0064170900732278824 0.022634239867329597
0.084285005927085876 0.0074940654449164867 0.027567889541387558
0.097692079842090607 0.0085009131580591202 0.033278763294219971
0.11141727119684219 0.0097065260633826256 0.034032922238111496
0.12558563053607941 0.012966318987309933 0.034175969660282135
0.1364581435918808 0.01833176426589489 0.035348743200302124
0.14612698554992676 0.021070020273327827 0.034596711397171021
0.15662065148353577 0.022885236889123917 0.031119827181100845
0.16716466844081879 0.026931814849376678 0.028684835880994797
0.17790704965591431 0.030918391421437263 0.031905815005302429
0.18853636085987091 0.03340158611536026 0.034450836479663849
0.19941866397857666 0.035728219896554947 0.038902055472135544
0.2110532820224762 0.038637205958366394 0.045448359102010727
0.22314126789569855 0.041479181498289108 0.051520265638828278
0.23424243927001953 0.043305829167366028 0.054769236594438553
0.24532043933868408 0.044637966901063919 0.058923050761222839
0.25576156377792358 0.047264747321605682 0.065676264464855194
0.26863771677017212 0.050607338547706604 0.071623243391513824
0.28102704882621765 0.05185525119304657 0.075438536703586578
0.29047662019729614 0.052326485514640808 0.076339080929756165
0.2999822199344635 0.052658423781394958 0.078035958111286163
0.31034082174301147 0.056504890322685242 0.081487700343132019
0.32167434692382812 0.060982551425695419 0.086866289377212524
0.33423599600791931 0.062991216778755188 0.090792372822761536
0.3457925021648407 0.065225988626480103 0.093673288822174072
0.35870674252510071 0.070839293301105499 0.099257655441761017
0.37041518092155457 0.074200935661792755 0.10436615347862244
0.00025902679772116244 0.017532959580421448 0.011825308203697205
0.0053908736445009708 0.015638647601008415 0.0083922296762466431
0.014455748721957207 0.014358663000166416 0.0072717084549367428
0.023508675396442413 0.015505949966609478 0.01102773379534483
0.034799337387084961 0.016861466690897942 0.014204845763742924
0.052972137928009033 0.016572913154959679 0.018282245844602585
0.070837587118148804 0.014769368804991245 0.023217517882585526
0.085727021098136902 0.016872715204954147 0.02806471474468708
0.098765067756175995 0.018153680488467216 0.032966271042823792
0.11181613802909851 0.018948450684547424 0.033147532492876053
0.12461261451244354 0.01945815421640873 0.030959406867623329
0.13487757742404938 0.023975463584065437 0.032929416745901108
0.14469265937805176 0.029370823875069618 0.034411974251270294
0.15574002265930176 0.032119188457727432 0.032489091157913208
0.16701017320156097 0.033947024494409561 0.027746330946683884
0.17815409600734711 0.036221843212842941 0.029904186725616455
0.18954691290855408 0.039908468723297119 0.033913303166627884
0.20078901946544647 0.042019009590148926 0.038656432181596756
0.21033790707588196 0.043936297297477722 0.044139575213193893
0.22080254554748535 0.045829113572835922 0.049222502857446671
0.23234909772872925 0.047866813838481903 0.054870914667844772
0.24326203763484955 0.049110978841781616 0.059890612959861755
0.25518408417701721 0.05102597177028656 0.065366953611373901
0.26781412959098816 0.053489159792661667 0.0702923983335495
0.28107699751853943 0.055628687143325806 0.07594878226518631
0.29191464185714722 0.056791208684444427 0.078089125454425812
0.30161243677139282 0.056817337870597839 0.080011412501335144
0.3125440776348114 0.058813821524381638 0.083540655672550201
0.3222084641456604 0.064413219690322876 0.087490387260913849
0.33318501710891724 0.068168163299560547 0.091476209461688995
0.34495514631271362 0.068541146814823151 0.093760780990123749
0.35695493221282959 0.070378251373767853 0.096219934523105621
0.36857497692108154 0.077454492449760437 0.10314898192882538
0 0.029248479753732681 0.017652504146099091
0.00047322743921540678 0.028892707079648972 0.015952641144394875
0.0081159826368093491 0.027103796601295471 0.015417893417179585
0.022651990875601768 0.025131968781352043 0.018354050815105438
0.035158950835466385 0.026287922635674477 0.020141864195466042
0.052325345575809479 0.028956562280654907 0.018621699884533882
0.070032410323619843 0.029057318344712257 0.021826151758432388
0.086875684559345245 0.030410204082727432 0.025347845628857613
0.10007023066282272 0.032308850437402725 0.029722373932600021
0.11156772822141647 0.034072183072566986 0.029579443857073784
0.12417290359735489 0.034477256238460541 0.028361469507217407
0.1357676237821579 0.034994721412658691 0.030584555119276047
0.14596906304359436 0.039042521268129349 0.0336187444627285
0.15620498359203339 0.043262958526611328 0.034762363880872726
0.16687752306461334 0.045200023800134659 0.031829517334699631
0.17776772379875183 0.045275058597326279 0.032967988401651382
0.18840482831001282 0.047320876270532608 0.036921143531799316
0.20103649795055389 0.04970882460474968 0.041367124766111374
0.21177446842193604 0.051469024270772934 0.04622352123260498
0.22062745690345764 0.052448682487010956 0.050927888602018356
0.23048588633537292 0.053384799510240555 0.056529637426137924
0.2415393739938736 0.054811775684356689 0.062496326863765717
0.2530784010887146 0.056780152022838593 0.068872064352035522
0.26516556739807129 0.059360478073358536 0.072660647332668304
0.27739155292510986 0.061160415410995483 0.077229678630828857
0.2904142439365387 0.064066842198371887 0.079971157014369965
0.3017822802066803 0.065810017287731171 0.081888400018215179
0.31336960196495056 0.065567053854465485 0.086042918264865875
0.32294228672981262 0.067966632544994354 0.0907621830701828
0.33448910713195801 0.073388934135437012 0.095925562083721161
0.34790492057800293 0.076960138976573944 0.10034117847681046
0.35920199751853943 0.076763272285461426 0.099958337843418121
0.36946582794189453 0.078546971082687378 0.10142690688371658
0 0.043627418577671051 0.023565338924527168
0 0.043627418577671051 0.022659547626972198
0.0033055767416954041 0.042816881090402603 0.023385142907500267
0.019378222525119781 0.039265409111976624 0.025398626923561096
0.036456096917390823 0.036622043699026108 0.027245175093412399
0.052974235266447067 0.039742134511470795 0.024910151958465576
0.06847960501909256 0.04277164489030838 0.022384684532880783
0.084443151950836182 0.043747778981924057 0.02489749900996685
0.1006014421582222 0.04530685767531395 0.028425697237253189
0.11224722862243652 0.04664171114563942 0.027969058603048325
0.12344466894865036 0.048801697790622711 0.026671957224607468
0.1347193568944931 0.048937875777482986 0.029180306941270828
0.1464470773935318 0.049341738224029541 0.032749690115451813
0.1572815328836441 0.052230332046747208 0.034179404377937317
0.16699302196502686 0.055728886276483536 0.03442319855093956
0.17665964365005493 0.0567811019718647 0.037150811403989792
0.18664433062076569 0.056581985205411911 0.040956225246191025
0.19889518618583679 0.057023774832487106 0.044580604881048203
0.2119753360748291 0.058951467275619507 0.048232510685920715
0.22251883149147034 0.06011711061000824 0.052566342055797577
0.23067982494831085 0.060195587575435638 0.057880904525518417
0.24036993086338043 0.060887530446052551 0.063442587852478027
0.2519131600856781 0.062680497765541077 0.070720359683036804
0.26360806822776794 0.065095044672489166 0.07537253201007843
0.27491602301597595 0.067176409065723419 0.079184301197528839
0.28732320666313171 0.070302963256835938 0.082179032266139984
0.30061724781990051 0.074026413261890411 0.084309443831443787
0.3128993809223175 0.075186945497989655 0.087921306490898132
0.3228110671043396 0.075246252119541168 0.093427293002605438
0.33450224995613098 0.077746249735355377 0.098076850175857544
0.34995076060295105 0.083243854343891144 0.10394543409347534
0.36229223012924194 0.085446029901504517 0.10660266876220703
0.3720538318157196 0.083725020289421082 0.10508929938077927
0 0.060784462839365005 0.026965226978063583
0 0.060784462839365005 0.028375763446092606
0.0029412503354251385 0.060781344771385193 0.02904185838997364
0.018790792673826218 0.059725157916545868 0.028520258143544197
0.035845667123794556 0.056714486330747604 0.03008902445435524
0.054008815437555313 0.056725706905126572 0.031672075390815735
0.069297417998313904 0.059024136513471603 0.029259601607918739
0.081932604312896729 0.059774748980998993 0.028114456683397293
0.097127281129360199 0.060727547854185104 0.030292471870779991
0.11051668226718903 0.059329207986593246 0.031970124691724777
0.12166671454906464 0.060415130108594894 0.031635750085115433
0.13135294616222382 0.06229594349861145 0.032889839261770248
0.14291460812091827 0.062629416584968567 0.035788211971521378
0.15623962879180908 0.06188669428229332 0.036501280963420868
0.16698209941387177 0.063910529017448425 0.037332594394683838
0.17581713199615479 0.06685648113489151 0.042861580848693848
0.18470317125320435 0.067542500793933868 0.047569230198860168
0.19668745994567871 0.065315574407577515 0.04895208403468132
0.2099541574716568 0.065063662827014923 0.051388852298259735
0.22389364242553711 0.067011632025241852 0.055582709610462189
0.23374524712562561 0.067880235612392426 0.060910098254680634
0.24245676398277283 0.067956238985061646 0.06380297988653183
0.25328043103218079 0.06880960613489151 0.069087617099285126
0.26399201154708862 0.071809723973274231 0.074211880564689636
0.27462798357009888 0.074494481086730957 0.078234061598777771
0.28653892874717712 0.077815137803554535 0.083670131862163544
0.29880085587501526 0.081827029585838318 0.089179828763008118
0.31120574474334717 0.08423227071762085 0.091111637651920319
0.32267510890960693 0.085044048726558685 0.093916215002536774
0.33455875515937805 0.085280895233154297 0.097398914396762848
0.34827300906181335 0.087846003472805023 0.1033332422375679
0.36201435327529907 0.090979337692260742 0.10870430618524551
0.37381535768508911 0.091375768184661865 0.11057370901107788
3.5109056625515223e-05 0.07594723254442215 0.030180415138602257
0.00011234897101530805 0.075934372842311859 0.03267354890704155
0.0032420114148408175 0.07573506236076355 0.03489825502038002
0.018444804474711418 0.075428873300552368 0.033314161002635956
0.035042256116867065 0.074723631143569946 0.0329790860414505
0.053204741328954697 0.074109762907028198 0.034649156033992767
0.070173852145671844 0.074383541941642761 0.035778708755970001
0.08188222348690033 0.074446722865104675 0.03462044894695282
0.094210267066955566 0.074634164571762085 0.034002829343080521
0.10709726810455322 0.073336102068424225 0.035872776061296463
0.11991587281227112 0.072218820452690125 0.037382345646619797
0.12975996732711792 0.073704123497009277 0.038943227380514145
0.13999806344509125 0.075468160212039948 0.040532730519771576
0.15349601209163666 0.074507057666778564 0.040903650224208832
0.1662055104970932 0.072794944047927856 0.041619155555963516
0.17523647844791412 0.074833132326602936 0.046905651688575745
0.18336412310600281 0.078232832252979279 0.053940866142511368
0.19510143995285034 0.076660074293613434 0.056233804672956467
0.20823568105697632 0.073367483913898468 0.056275811046361923
0.22159221768379211 0.073873817920684814 0.059033315628767014
0.23493978381156921 0.075695447623729706 0.06455596536397934
0.24550218880176544 0.076438762247562408 0.067587092518806458
0.25525140762329102 0.076560057699680328 0.069652758538722992
0.26553565263748169 0.078792981803417206 0.073265321552753448
0.27542471885681152 0.082291722297668457 0.077054463326931
0.28625309467315674 0.085199087858200073 0.082357026636600494
0.29734522104263306 0.089197129011154175 0.091214992105960846
0.30976772308349609 0.09214397519826889 0.095809653401374817
0.3214343786239624 0.093958072364330292 0.096169255673885345
0.33360481262207031 0.094771310687065125 0.098657168447971344
0.34698742628097534 0.094817265868186951 0.10426094383001328
0.36005493998527527 0.095915161073207855 0.10918049514293671
0.37352633476257324 0.09751332551240921 0.11321108788251877
0.00034796973341144621 0.08873593807220459 0.038131885230541229
0.0028082879725843668 0.08717675507068634 0.039162203669548035
0.0070999274030327797 0.086559072136878967 0.040596127510070801
0.016649449244141579 0.08568931370973587 0.038022499531507492
0.031621303409337997 0.085029557347297668 0.036604538559913635
0.052276182919740677 0.084480330348014832 0.038180708885192871
0.069746725261211395 0.08447720855474472 0.040081389248371124
0.081611916422843933 0.08447720855474472 0.041830558329820633
0.093364715576171875 0.085104294121265411 0.042194303125143051
0.10460244864225388 0.085163213312625885 0.042526789009571075
0.1167437955737114 0.083887070417404175 0.043734002858400345
0.1283530592918396 0.084698408842086792 0.046091396361589432
0.13871358335018158 0.086252227425575256 0.047992907464504242
0.1513536274433136 0.086495153605937958 0.048504237085580826
0.16437938809394836 0.085469529032707214 0.049727067351341248
0.17396871745586395 0.084065265953540802 0.052421040832996368
0.18321412801742554 0.086235642433166504 0.058112222701311111
0.19368043541908264 0.087571673095226288 0.062968194484710693
0.20573019981384277 0.086094930768013 0.064762987196445465
0.21801447868347168 0.084867708384990692 0.064172461628913879
0.23141835629940033 0.086105667054653168 0.068167440593242645
0.24471919238567352 0.087995395064353943 0.07214876264333725
0.25572651624679565 0.088113419711589813 0.074974462389945984
0.26580208539962769 0.088867992162704468 0.076942473649978638
0.27621760964393616 0.091801293194293976 0.079793550074100494
0.28526708483695984 0.093448862433433533 0.083189725875854492
0.29629641771316528 0.095127105712890625 0.089933156967163086
0.30917388200759888 0.099408276379108429 0.095147259533405304
0.32237085700035095 0.10299681127071381 0.096645951271057129
0.33306494355201721 0.10467614978551865 0.099526301026344299
0.34487521648406982 0.10498354583978653 0.10446925461292267
0.35807669162750244 0.10504312068223953 0.10891883820295334
0.37159687280654907 0.10539208352565765 0.11451815068721771
0.00043340056436136365 0.10174442082643509 0.04686008021235466
0.0044580260291695595 0.099623449146747589 0.046800002455711365
0.011844225227832794 0.098215065896511078 0.046741664409637451
0.019520295783877373 0.096775293350219727 0.043886438012123108
0.028722843155264854 0.095266886055469513 0.041654281318187714
0.049675159156322479 0.095218896865844727 0.043454188853502274
0.069614194333553314 0.094814851880073547 0.045076042413711548
0.081573285162448883 0.0945262610912323 0.047812040895223618
0.093423984944820404 0.094685763120651245 0.051038473844528198
0.10446513444185257 0.095293842256069183 0.050823777914047241
0.11404953151941299 0.095135070383548737 0.049765124917030334
0.1255071759223938 0.095932349562644958 0.051895409822463989
0.1367865651845932 0.09783664345741272 0.05507294088602066
0.14956386387348175 0.09828592836856842 0.05646514892578125
0.16239620745182037 0.098139673471450806 0.058281045407056808
0.17225059866905212 0.096061460673809052 0.060025472193956375
0.1828112006187439 0.094567567110061646 0.062593273818492889
0.19395384192466736 0.096736408770084381 0.067586801946163177
0.20363593101501465 0.098227344453334808 0.072576753795146942
0.21484324336051941 0.098113298416137695 0.072960615158081055
0.22824683785438538 0.098101608455181122 0.073164261877536774
0.24139063060283661 0.098571233451366425 0.075974136590957642
0.2546846866607666 0.098846420645713806 0.079741142690181732
0.26556304097175598 0.10022754222154617 0.082435742020606995
0.27528926730155945 0.10198601335287094 0.084316745400428772
0.28545749187469482 0.10229265689849854 0.086870662868022919
0.29556268453598022 0.10247556120157242 0.090806454420089722
0.30777361989021301 0.10572937875986099 0.094033077359199524
0.32318395376205444 0.11112426221370697 0.096101120114326477
0.33522790670394897 0.11382593959569931 0.099906168878078461
0.34513422846794128 0.1139402762055397 0.10395607352256775
0.35715734958648682 0.11497953534126282 0.10845727473497391
0.37049493193626404 0.11503259092569351 0.11543918401002884
0.0012248742859810591 0.1104147806763649 0.054893963038921356
0.0065807932987809181 0.10987842828035355 0.053168289363384247
0.015142758376896381 0.10849344730377197 0.053016923367977142
0.023096490651369095 0.10766428709030151 0.053083047270774841
0.031109688803553581 0.10671648383140564 0.051866065710783005
0.04829922690987587 0.10700588673353195 0.053025566041469574
0.067885763943195343 0.10660729557275772 0.054174229502677917
0.07958800345659256 0.10581345856189728 0.056667812168598175
0.091253213584423065 0.10580070316791534 0.059857606887817383
0.10579797625541687 0.10580070316791534 0.060302428901195526
0.11652372777462006 0.10580068826675415 0.058985993266105652
0.12568682432174683 0.10628741234540939 0.059754844754934311
0.13614048063755035 0.10783365368843079 0.062978267669677734
0.14798155426979065 0.10890578478574753 0.065072610974311829
0.16059212386608124 0.10887341946363449 0.066586904227733612
0.17035387456417084 0.1062559187412262 0.065950758755207062
0.18072304129600525 0.10466238856315613 0.067667730152606964
0.19550646841526031 0.10700166970491409 0.073004826903343201
0.20677438378334045 0.10925603657960892 0.077958814799785614
0.21508722007274628 0.10927498340606689 0.077907949686050415
0.22659951448440552 0.10866423696279526 0.077423974871635437
0.23939532041549683 0.10888496786355972 0.080156557261943817
0.2527768611907959 0.10954216867685318 0.084697827696800232
0.26368638873100281 0.11118760704994202 0.08760516345500946
0.2736072838306427 0.11281253397464752 0.089432410895824432
0.28513464331626892 0.11315855383872986 0.091541878879070282
0.29590323567390442 0.11323545873165131 0.094606652855873108
0.30796670913696289 0.11391115188598633 0.097013413906097412
0.32365718483924866 0.11742039769887924 0.099732406437397003
0.33615013957023621 0.12081947177648544 0.10346156358718872
0.34584978222846985 0.12217956036329269 0.1068020686507225
0.35762128233909607 0.12538118660449982 0.11128033697605133
0.37223091721534729 0.12839561700820923 0.11777940392494202
0.0027149568777531385 0.11870582401752472 0.064008623361587524
0.0092999525368213654 0.11870582401752472 0.06118345633149147
0.018442032858729362 0.1183309331536293 0.058822456747293472
0.0262168999761343 0.11821896582841873 0.060391273349523544
0.034207474440336227 0.11816243082284927 0.062203459441661835
0.049821522086858749 0.11849977821111679 0.062849335372447968
0.066205434501171112 0.11787804216146469 0.062987491488456726
0.077162168920040131 0.11748310923576355 0.065347865223884583
0.087775513529777527 0.11717520654201508 0.068422116339206696
0.10306879878044128 0.11719940602779388 0.068921938538551331
0.11878851801156998 0.11751694232225418 0.069117352366447449
0.12807548046112061 0.11789221316576004 0.070089399814605713
0.1364201158285141 0.11820565164089203 0.072219058871269226
0.14768593013286591 0.11955647170543671 0.074312247335910797
0.15880709886550903 0.12047195434570312 0.075686164200305939
0.16856580972671509 0.11783895641565323 0.074507027864456177
0.1790025532245636 0.11477433145046234 0.073482342064380646
0.19348457455635071 0.11648263782262802 0.077491134405136108
0.20774628221988678 0.12002577632665634 0.082841992378234863
0.21769148111343384 0.12044741958379745 0.083532929420471191
0.22601734101772308 0.11877792328596115 0.082095399498939514
0.23777502775192261 0.11898037046194077 0.084956787526607513
0.25153565406799316 0.12065724283456802 0.090195834636688232
0.26254579424858093 0.12242172658443451 0.09276348352432251
0.27256760001182556 0.12440919131040573 0.094710856676101685
0.28389072418212891 0.12496774643659592 0.096789851784706116
0.29565435647964478 0.12496774643659592 0.09882209450006485
0.3079775869846344 0.12551036477088928 0.10120490938425064
0.32366740703582764 0.12601268291473389 0.1048017218708992
0.33606860041618347 0.12791775166988373 0.10890967398881912
0.34576362371444702 0.12986011803150177 0.11109886318445206
0.35804140567779541 0.1334492564201355 0.11511433124542236
0.37354734539985657 0.13870659470558167 0.12074814736843109
0.0049398527480661869 0.13006535172462463 0.069771409034729004
0.011779041960835457 0.13006535172462463 0.070600546896457672
0.020529059693217278 0.13006533682346344 0.068168625235557556
0.029096532613039017 0.13006535172462463 0.068111680448055267
0.036549966782331467 0.1301179975271225 0.069527968764305115
0.050005283206701279 0.1303461492061615 0.070384889841079712
0.06536296010017395 0.12987536191940308 0.070173539221286774
0.075946420431137085 0.12828527390956879 0.070580318570137024
0.086262792348861694 0.12798523902893066 0.073257245123386383
0.098663724958896637 0.12862800061702728 0.076055951416492462
0.11448467522859573 0.12924975156784058 0.077252082526683807
0.12777432799339294 0.1300419420003891 0.077645950019359589
0.13643775880336761 0.13006535172462463 0.079064197838306427
0.14698544144630432 0.13044171035289764 0.081427842378616333
0.1576540470123291 0.13141724467277527 0.082700006663799286
0.16736604273319244 0.12969158589839935 0.081501655280590057
0.17683115601539612 0.12670551240444183 0.080256655812263489
0.18809701502323151 0.12624676525592804 0.079462140798568726
0.20227253437042236 0.12853597104549408 0.082610592246055603
0.2156359851360321 0.13018065690994263 0.087152808904647827
0.22539873421192169 0.12909984588623047 0.087848074734210968
0.23758856952190399 0.12993782758712769 0.091198228299617767
0.25148418545722961 0.13235108554363251 0.096413835883140564
0.26400476694107056 0.13426806032657623 0.09764476865530014
