Textures/22.cube
# Created by: G'MIC (https://gmic.eu)
TITLE "RedBlueYellow.cube"
# LUT size
LUT_3D_SIZE 33
# Data domain
DOMAIN_MIN 0.0 0.0 0.0
DOMAIN_MAX 1.0 1.0 1.0
# LUT data points
0.10615818947553635 0.0094312690198421478 0.003891452681273222
0.12149753421545029 0.0094312690198421478 0.0038910596631467342
0.13876219093799591 0.0086212772876024246 0.004033038392663002
0.16110411286354065 0.0079248556867241859 0.0045276321470737457
0.1869693398475647 0.006455480121076107 0.0059954314492642879
0.22256673872470856 0.0049340841360390186 0.0081932432949542999
0.25747689604759216 0.0043965945951640606 0.010160078294575214
0.28702518343925476 0.0036765625700354576 0.01303546316921711
0.31629207730293274 0.0036671999841928482 0.014952437020838261
0.34821534156799316 0.0034643479157239199 0.026187654584646225
0.37845978140830994 0.0034518649335950613 0.039787795394659042
0.40645119547843933 0.0036765625700354576 0.049634415656328201
0.43359142541885376 0.0035082020331174135 0.059525284916162491
0.46223050355911255 0.0032058574724942446 0.061380155384540558
0.49034178256988525 0.0030278863850980997 0.062328506261110306
0.51467829942703247 0.0031392122618854046 0.065407887101173401
0.53855299949645996 0.0024488347116857767 0.067344792187213898
0.56625813245773315 5.617449278361164e-05 0.070900753140449524
0.59428113698959351 0 0.07612156867980957
0.61984777450561523 0 0.076600655913352966
0.64483159780502319 0 0.073875740170478821
0.67280870676040649 0 0.079891189932823181
0.70176315307617188 0 0.09065420925617218
0.72735124826431274 0 0.092593550682067871
0.75235366821289062 0 0.090786315500736237
0.77969866991043091 0 0.089882709085941315
0.80631041526794434 0 0.089748673141002655
0.82888692617416382 0 0.087522916495800018
0.85010987520217896 0 0.085291527211666107
0.87589740753173828 0 0.083275683224201202
0.90501266717910767 0 0.081128612160682678
0.93491309881210327 0 0.078330136835575104
0.96553325653076172 0 0.07319004088640213
0.11070919781923294 0.036080408841371536 0.0059240334667265415
0.12673783302307129 0.036080412566661835 0.0066994586959481239
0.14423106610774994 0.034576714038848877 0.0066994600929319859
0.16537360846996307 0.032200135290622711 0.0066994600929319859
0.19083614647388458 0.029781218618154526 0.0073785651475191116
0.22451706230640411 0.024459511041641235 0.0092065567150712013
0.2589908242225647 0.022957071661949158 0.012263109907507896
0.28759235143661499 0.020160682499408722 0.018448201939463615
0.31639078259468079 0.019207639619708061 0.021494990214705467
0.34669506549835205 0.015850504860281944 0.029189141467213631
0.37711092829704285 0.014761481434106827 0.040167160332202911
0.40425696969032288 0.015972303226590157 0.047733042389154434
0.43173909187316895 0.016163496300578117 0.056437339633703232
0.46066445112228394 0.016365833580493927 0.059534132480621338
0.48928326368331909 0.017048520967364311 0.061374876648187637
0.51522809267044067 0.017496118322014809 0.068461015820503235
0.54047870635986328 0.016907196491956711 0.072954840958118439
0.567035973072052 0.0056645739823579788 0.072629950940608978
0.59428113698959351 6.8090281274635345e-05 0.07487449049949646
0.61911767721176147 0 0.077560693025588989
0.64289253950119019 0 0.077090330421924591
0.67180627584457397 0 0.082760706543922424
0.70176780223846436 0 0.09273364394903183
0.72731590270996094 0 0.094356358051300049
0.75125032663345337 0 0.091534323990345001
0.77782917022705078 0 0.089120551943778992
0.8054465651512146 0 0.088883928954601288
0.828349769115448 0 0.087666824460029602
0.84850418567657471 0 0.085678860545158386
0.87480002641677856 0 0.082320787012577057
0.90493237972259521 0 0.078169435262680054
0.93448400497436523 0 0.075316019356250763
0.96373575925827026 0 0.072312772274017334
0.11282651871442795 0.066135220229625702 0.0074339155107736588
0.12959389388561249 0.065907411277294159 0.0077241063117980957
0.14914971590042114 0.065146706998348236 0.0085265748202800751
0.17137859761714935 0.062899224460124969 0.0095095112919807434
0.19509580731391907 0.060288604348897934 0.010574388317763805
0.22742459177970886 0.055000931024551392 0.012673929333686829
0.26056057214736938 0.050524536520242691 0.016267623752355576
0.28854182362556458 0.047574501484632492 0.022667787969112396
0.31618908047676086 0.044178642332553864 0.028402073308825493
0.34577414393424988 0.041126508265733719 0.034940548241138458
0.37606349587440491 0.037588920444250107 0.04222613200545311
0.4032166600227356 0.037601899355649948 0.049091316759586334
0.43027573823928833 0.039344500750303268 0.055823910981416702
0.45838683843612671 0.039771817624568939 0.058233454823493958
0.4868965744972229 0.041032604873180389 0.060624521225690842
0.5129888653755188 0.041410587728023529 0.067430064082145691
0.53996443748474121 0.042154040187597275 0.075722597539424896
0.56678104400634766 0.031661804765462875 0.076573982834815979
0.59316533803939819 0.01666942797601223 0.075367145240306854
0.61781889200210571 0.01340729184448719 0.077216215431690216
0.64154934883117676 0.013189792633056641 0.079399019479751587
0.67088073492050171 0.012087793089449406 0.085387855768203735
0.70202851295471191 0.011759179644286633 0.094293877482414246
0.72731989622116089 0.010230368934571743 0.095243178308010101
0.7504962682723999 0.0099499756470322609 0.091834872961044312
0.77673941850662231 0.0069652525708079338 0.08959554135799408
0.80504345893859863 0.0062171597965061665 0.089268714189529419
0.82740700244903564 0.0012634105514734983 0.086619161069393158
0.84714239835739136 0.0008659678278490901 0.085242271423339844
0.87324953079223633 6.5535910835023969e-05 0.082634396851062775
0.90391111373901367 0 0.077296584844589233
0.93474459648132324 0 0.071485027670860291
0.96353906393051147 0 0.070083253085613251
0.11061052978038788 0.10315711051225662 0.0099181132391095161
0.12949880957603455 0.10374250262975693 0.0091503961011767387
0.15122047066688538 0.10319259762763977 0.010786094702780247
0.17912037670612335 0.10143863409757614 0.017024807631969452
0.20325501263141632 0.099441304802894592 0.018940577283501625
0.22999155521392822 0.097099900245666504 0.019952386617660522
0.26079285144805908 0.093222782015800476 0.022696442902088165
0.28972136974334717 0.090200409293174744 0.029449833557009697
0.31704804301261902 0.0872601717710495 0.035455446690320969
0.34495395421981812 0.086021363735198975 0.041052054613828659
0.37376481294631958 0.083127491176128387 0.047596678137779236
0.40375658869743347 0.079917259514331818 0.054460350424051285
0.43155825138092041 0.079265430569648743 0.060986112803220749
0.45734775066375732 0.078592203557491302 0.061702784150838852
0.48473086953163147 0.078879140317440033 0.062684983015060425
0.50993841886520386 0.079098425805568695 0.06725475937128067
0.53604000806808472 0.079921931028366089 0.074445784091949463
0.56202602386474609 0.074638135731220245 0.077167652547359467
0.58793234825134277 0.063303142786026001 0.077243492007255554
0.61418288946151733 0.057390343397855759 0.079168237745761871
0.63985747098922729 0.054430641233921051 0.081252269446849823
0.66975277662277222 0.05218774825334549 0.085843935608863831
0.70229429006576538 0.049940153956413269 0.09309832751750946
0.72735565900802612 0.04779592901468277 0.095242105424404144
0.75048333406448364 0.047877941280603409 0.09420119971036911
0.77672439813613892 0.038109444081783295 0.092654243111610413
0.80502802133560181 0.028707148507237434 0.091455064713954926
0.82590484619140625 0.016269035637378693 0.087283104658126831
0.84555435180664062 0.0095424726605415344 0.085018455982208252
0.87175214290618896 0.005093645304441452 0.082846574485301971
0.90241926908493042 0.00012936937855556607 0.077600859105587006
0.93366509675979614 0 0.070583142340183258
0.96382969617843628 0 0.069444462656974792
0.11055104434490204 0.13836055994033813 0.013412604108452797
0.13023193180561066 0.1387275755405426 0.012792792171239853
0.15302789211273193 0.1393992006778717 0.014141399413347244
0.18131905794143677 0.13804765045642853 0.021118156611919403
0.20992033183574677 0.13583610951900482 0.02719525434076786
0.23626717925071716 0.134306401014328 0.028404181823134422
0.26208537817001343 0.13243693113327026 0.029910067096352577
0.29017356038093567 0.12925614416599274 0.036772973835468292
0.31898599863052368 0.12630146741867065 0.042962905019521713
0.34602728486061096 0.12598693370819092 0.047767959535121918
0.37269684672355652 0.12514118850231171 0.053377650678157806
0.4016176164150238 0.12126739323139191 0.05971045047044754
0.4314519464969635 0.11830434203147888 0.06645376980304718
0.45808476209640503 0.11592146009206772 0.067138530313968658
0.48373916745185852 0.11470580101013184 0.066295765340328217
0.50809001922607422 0.1146734431385994 0.070489183068275452
0.5334199070930481 0.11524299532175064 0.075426183640956879
0.55926346778869629 0.1105651929974556 0.077106304466724396
0.5845305323600769 0.10570826381444931 0.079188622534275055
0.6110188364982605 0.10246574133634567 0.081588618457317352
0.63785034418106079 0.096639640629291534 0.083531975746154785
0.66760128736495972 0.09189692884683609 0.08687310665845871
0.70017129182815552 0.087828852236270905 0.092407181859016418
0.7264067530632019 0.0867275670170784 0.094153068959712982
0.74950248003005981 0.088019043207168579 0.09626440703868866
0.77562433481216431 0.078274212777614594 0.094855941832065582
0.80374717712402344 0.062006570398807526 0.092971920967102051
0.82697373628616333 0.050403062254190445 0.089212574064731598
0.84525638818740845 0.038700122386217117 0.085184410214424133
0.87091267108917236 0.029108941555023193 0.082541964948177338
0.9020082950592041 0.018198587000370026 0.077217772603034973
0.93208760023117065 0.014705835841596127 0.071759127080440521
0.96271246671676636 0.014705835841596127 0.069647341966629028
0.11639360338449478 0.17254899442195892 0.025532077997922897
0.13365378975868225 0.17191669344902039 0.024421950802206993
0.15505023300647736 0.17159336805343628 0.025184020400047302
0.18039743602275848 0.17033979296684265 0.031493313610553741
0.20918445289134979 0.16869693994522095 0.038058154284954071
0.23888690769672394 0.16826502978801727 0.040603514760732651
0.2652834951877594 0.16529062390327454 0.042294695973396301
0.29113727807998657 0.16418932378292084 0.047670990228652954
0.3194805383682251 0.16169095039367676 0.053372304886579514
0.34718775749206543 0.16079074144363403 0.054849185049533844
0.37355378270149231 0.15990522503852844 0.059196282178163528
0.39924249053001404 0.15653577446937561 0.062842316925525665
0.42805364727973938 0.1527392566204071 0.068267464637756348
0.45655152201652527 0.15140961110591888 0.071218296885490417
0.4830855131149292 0.14999435842037201 0.072140298783779144
0.50785315036773682 0.1487932950258255 0.076021529734134674
0.53333324193954468 0.14767864346504211 0.080175705254077911
0.55969524383544922 0.14330171048641205 0.080868989229202271
0.58529198169708252 0.13900233805179596 0.082800649106502533
0.61313706636428833 0.13976216316223145 0.087017565965652466
0.64042878150939941 0.13584858179092407 0.090843997895717621
0.66688227653503418 0.12956951558589935 0.091359563171863556
0.69714617729187012 0.12560026347637177 0.09470067173242569
0.72461706399917603 0.12557648122310638 0.096146531403064728
0.74865484237670898 0.12597565352916718 0.096488781273365021
0.77293157577514648 0.11744364351034164 0.094447702169418335
0.79881024360656738 0.10290764272212982 0.092807181179523468
0.82506257295608521 0.099592112004756927 0.089387454092502594
0.84690409898757935 0.096801578998565674 0.085488483309745789
0.8728487491607666 0.083950020372867584 0.082822434604167938
0.90327644348144531 0.06905471533536911 0.079360410571098328
0.93306905031204224 0.064706005156040192 0.074414730072021484
0.96226465702056885 0.062084734439849854 0.069284498691558838
0.12252049148082733 0.20627813041210175 0.039096951484680176
0.13861201703548431 0.20427688956260681 0.037819754332304001
0.15656664967536926 0.20290519297122955 0.037422172725200653
0.18052911758422852 0.20271313190460205 0.04326348751783371
0.2067420482635498 0.20190641283988953 0.04915667325258255
0.23700810968875885 0.19963058829307556 0.051186371594667435
0.26634997129440308 0.19793395698070526 0.053964734077453613
0.29198959469795227 0.19683942198753357 0.059186846017837524
0.31835570931434631 0.19653941690921783 0.064362145960330963
0.34690377116203308 0.19510062038898468 0.065364092588424683
0.37473282217979431 0.19339935481548309 0.065899044275283813
0.39959904551506042 0.1901395171880722 0.068179376423358917
0.42494529485702515 0.18667028844356537 0.070025131106376648
0.45256343483924866 0.18510645627975464 0.072632864117622375
0.4814789891242981 0.18478596210479736 0.076776899397373199
0.50765669345855713 0.18246905505657196 0.081388950347900391
0.53319519758224487 0.1791871041059494 0.084927432239055634
0.56017500162124634 0.17567344009876251 0.08618493378162384
0.58657509088516235 0.171904057264328 0.087607085704803467
0.61394971609115601 0.17206621170043945 0.09041101485490799
0.64233100414276123 0.17154203355312347 0.097172439098358154
0.66898345947265625 0.16681782901287079 0.098677493631839752
0.69626981019973755 0.16321027278900146 0.098652124404907227
0.72225660085678101 0.16329926252365112 0.098502412438392639
0.74729180335998535 0.16251726448535919 0.096557863056659698
0.77199679613113403 0.15346528589725494 0.093597136437892914
0.79498922824859619 0.14048410952091217 0.092536091804504395
0.81979423761367798 0.13860605657100677 0.089090831577777863
0.84501451253890991 0.14365509152412415 0.085104711353778839
0.87305533885955811 0.13704507052898407 0.082080617547035217
0.9039689302444458 0.12042926251888275 0.080409698188304901
0.93388372659683228 0.11247788369655609 0.077116601169109344
0.9621087908744812 0.10984066873788834 0.070130854845046997
0.12205551564693451 0.23731410503387451 0.05116807296872139
0.13944719731807709 0.23526650667190552 0.051360536366701126
0.15682363510131836 0.23349907994270325 0.050723090767860413
0.18045853078365326 0.23397833108901978 0.053561300039291382
0.20548859238624573 0.23339362442493439 0.057508174329996109
0.23236307501792908 0.23066951334476471 0.057671897113323212
0.26124393939971924 0.22857271134853363 0.060482792556285858
0.28774860501289368 0.22677032649517059 0.066785745322704315
0.3144879937171936 0.22643722593784332 0.072263613343238831
0.34472015500068665 0.22563347220420837 0.073724612593650818
0.37296110391616821 0.22412554919719696 0.073957718908786774
0.39839655160903931 0.2218029648065567 0.076025038957595825
0.42301073670387268 0.21851688623428345 0.077761188149452209
0.44788196682929993 0.21458049118518829 0.07883220911026001
0.47617661952972412 0.21268756687641144 0.082644574344158173
0.50483733415603638 0.21148519217967987 0.088630557060241699
0.53133690357208252 0.20934726297855377 0.092908889055252075
0.5595887303352356 0.20946422219276428 0.094635657966136932
0.58587503433227539 0.20635722577571869 0.095338515937328339
0.61102586984634399 0.20494133234024048 0.092404745519161224
0.6382337212562561 0.20446024835109711 0.095447137951850891
0.66558510065078735 0.20009638369083405 0.096761062741279602
0.69338822364807129 0.19518733024597168 0.09666704386472702
0.71863085031509399 0.19438661634922028 0.095892801880836487
0.74346399307250977 0.19389389455318451 0.094637826085090637
0.76952248811721802 0.1866069883108139 0.092812523245811462
0.79391342401504517 0.17611181735992432 0.091496117413043976
0.81787604093551636 0.17401885986328125 0.087676286697387695
0.84209007024765015 0.17827107012271881 0.081299714744091034
0.87106621265411377 0.1761137992143631 0.078113600611686707
0.90188276767730713 0.16317996382713318 0.076927296817302704
0.93131434917449951 0.15310278534889221 0.076404303312301636
0.95916712284088135 0.14795462787151337 0.073848821222782135
0.11927390098571777 0.26992028951644897 0.062431216239929199
0.13694249093532562 0.26679280400276184 0.062698028981685638
0.15513412654399872 0.26441079378128052 0.06305982917547226
0.17853423953056335 0.26548105478286743 0.064710259437561035
0.20415787398815155 0.26611369848251343 0.066455595195293427
0.23007632791996002 0.26272839307785034 0.066446222364902496
0.2558647096157074 0.25958773493766785 0.067583717405796051
0.28263905644416809 0.25771063566207886 0.073678091168403625
0.31034174561500549 0.25542336702346802 0.079748921096324921
0.34078538417816162 0.25455635786056519 0.080887466669082642
0.37014907598495483 0.25440618395805359 0.081329777836799622
0.39594584703445435 0.25263547897338867 0.083997160196304321
0.4206886887550354 0.25056642293930054 0.087203361093997955
0.4457041323184967 0.24642820656299591 0.088829375803470612
0.47133567929267883 0.24148736894130707 0.090690314769744873
0.49914702773094177 0.24032017588615417 0.094909131526947021
0.52807939052581787 0.24016733467578888 0.10015679895877838
0.55667340755462646 0.23979805409908295 0.10158516466617584
0.58314728736877441 0.239681676030159 0.10133238881826401
0.60769134759902954 0.23877261579036713 0.098020300269126892
0.63285785913467407 0.23825763165950775 0.094971701502799988
0.66059750318527222 0.23377662897109985 0.095004580914974213
0.68934166431427002 0.22663038969039917 0.094770945608615875
0.71428382396697998 0.22481204569339752 0.093451328575611115
0.73932409286499023 0.22440251708030701 0.093233108520507812
0.7659991979598999 0.21782319247722626 0.092040285468101501
0.79270786046981812 0.21041196584701538 0.091175734996795654
0.81802308559417725 0.20988760888576508 0.08707159012556076
0.84141099452972412 0.21336406469345093 0.078138597309589386
0.86903858184814453 0.21132978796958923 0.07440350204706192
0.90004152059555054 0.20211036503314972 0.074042655527591705
0.92997938394546509 0.19502338767051697 0.07178778201341629
0.95708352327346802 0.18761132657527924 0.073102749884128571
0.11511202156543732 0.29894053936004639 0.075359486043453217
0.1324426531791687 0.29682615399360657 0.073103621602058411
0.15026445686817169 0.29425317049026489 0.073382012546062469
0.17091740667819977 0.29377216100692749 0.075349532067775726
0.19646407663822174 0.29427340626716614 0.077657908201217651
0.22442443668842316 0.29311835765838623 0.079419165849685669
0.25068226456642151 0.29023855924606323 0.080004565417766571
0.27842968702316284 0.28830522298812866 0.084242075681686401
0.30640104413032532 0.28579458594322205 0.089683063328266144
0.33652347326278687 0.28261503577232361 0.087286435067653656
0.36600464582443237 0.28196629881858826 0.087207876145839691
0.39112672209739685 0.28063574433326721 0.092457272112369537
0.41586679220199585 0.27876043319702148 0.096760958433151245
0.44394955039024353 0.27802994847297668 0.098288282752037048
0.47009307146072388 0.27474644780158997 0.098970480263233185
0.49434566497802734 0.2741832435131073 0.099036291241645813
0.52211958169937134 0.27334579825401306 0.10334022343158722
0.55243194103240967 0.26974061131477356 0.10502409934997559
0.57958692312240601 0.26874798536300659 0.10536479204893112
0.60284990072250366 0.26787784695625305 0.10231052339076996
0.62693417072296143 0.26686960458755493 0.099107004702091217
0.65647643804550171 0.26353123784065247 0.099844343960285187
0.68575567007064819 0.25742596387863159 0.10025044530630112
0.7093997597694397 0.25461307168006897 0.096607476472854614
0.73375517129898071 0.25418713688850403 0.09410472959280014
0.76164692640304565 0.24897871911525726 0.092983931303024292
0.78855156898498535 0.24248608946800232 0.092238724231719971
0.81614416837692261 0.24250462651252747 0.087741099298000336
0.8415033221244812 0.24414587020874023 0.080880202353000641
0.86781007051467896 0.2441384494304657 0.076546981930732727
0.8974195122718811 0.23841369152069092 0.07444346696138382
0.92848789691925049 0.23337231576442719 0.067757800221443176
0.95880991220474243 0.22787316143512726 0.063732072710990906
0.11075414717197418 0.32670268416404724 0.089184723794460297
0.12800075113773346 0.32552257180213928 0.086452469229698181
0.14550191164016724 0.32385385036468506 0.084496796131134033
0.16518110036849976 0.32228365540504456 0.08587193489074707
0.18736428022384644 0.32060712575912476 0.08823259174823761
0.21580241620540619 0.32026129961013794 0.090469777584075928
0.24472582340240479 0.31969630718231201 0.091972790658473969
0.27315089106559753 0.31827822327613831 0.095740906894207001
0.30237802863121033 0.31610524654388428 0.10024154931306839
0.3326161801815033 0.31254580616950989 0.097161397337913513
0.36224713921546936 0.30963963270187378 0.093706883490085602
0.38745218515396118 0.30823329091072083 0.099072679877281189
0.41115260124206543 0.30600589513778687 0.10564841330051422
0.43998050689697266 0.3061290979385376 0.10733134299516678
0.46926841139793396 0.30708310008049011 0.10649588704109192
0.49314260482788086 0.30630692839622498 0.10560280829668045
0.51752293109893799 0.30382087826728821 0.10745596885681152
0.54726064205169678 0.30089542269706726 0.1084384098649025
0.57692337036132812 0.29767796397209167 0.10945667326450348
0.60013294219970703 0.29549449682235718 0.10749693214893341
0.62204015254974365 0.29362443089485168 0.10407140851020813
0.65074902772903442 0.290384441614151 0.104561448097229
0.68138265609741211 0.28656929731369019 0.10492568463087082
0.70651954412460327 0.28470459580421448 0.10213831067085266
0.7294885516166687 0.2843262255191803 0.096886508166790009
0.75711804628372192 0.27996480464935303 0.093462549149990082
0.78414219617843628 0.27439773082733154 0.092238724231719971
0.81121695041656494 0.27314221858978271 0.08711426705121994
0.8399275541305542 0.27352094650268555 0.083000786602497101
0.86763560771942139 0.2735123336315155 0.078820109367370605
0.8951946496963501 0.27114057540893555 0.073600061237812042
0.92538547515869141 0.26814013719558716 0.066664375364780426
0.95936697721481323 0.26445645093917847 0.057577844709157944
0.10331572592258453 0.35122552514076233 0.098492987453937531
0.12345633655786514 0.35066378116607666 0.10046688467264175
0.1415773332118988 0.35032674670219421 0.098674900829792023
0.15792074799537659 0.34909301996231079 0.097034990787506104
0.17925556004047394 0.34770262241363525 0.099096424877643585
0.20927086472511292 0.34722912311553955 0.098114542663097382
0.23937013745307922 0.34722906351089478 0.098722368478775024
0.26986226439476013 0.34677577018737793 0.10332202911376953
0.29933986067771912 0.34508082270622253 0.10822446644306183
0.32752728462219238 0.34236147999763489 0.10958561301231384
0.35644841194152832 0.33923831582069397 0.10721200704574585
0.38445320725440979 0.33902689814567566 0.10946689546108246
0.40916478633880615 0.33831870555877686 0.11542282253503799
0.43818077445030212 0.33497574925422668 0.11469655483961105
0.46754553914070129 0.33465138077735901 0.1127312034368515
0.4894733726978302 0.33287546038627625 0.10989440232515335
0.51276636123657227 0.33158445358276367 0.11044646054506302
0.5419386625289917 0.32902038097381592 0.10829143971204758
0.57164597511291504 0.32533201575279236 0.10845059156417847
0.59558659791946411 0.3224104642868042 0.10838814079761505
0.61795008182525635 0.32056787610054016 0.10595372319221497
0.64549976587295532 0.31761974096298218 0.10473846644163132
0.67591661214828491 0.31398701667785645 0.10465974360704422
0.70403593778610229 0.31330999732017517 0.10072077810764313
0.72906947135925293 0.31371134519577026 0.095158025622367859
0.75765430927276611 0.31153851747512817 0.093228310346603394
0.78491806983947754 0.3074297308921814 0.092285960912704468
0.81072378158569336 0.30492246150970459 0.085338681936264038
0.83862054347991943 0.30364462733268738 0.079559065401554108
0.86766749620437622 0.303508460521698 0.072363413870334625
0.89618116617202759 0.30336880683898926 0.06285521388053894
0.92573684453964233 0.30007940530776978 0.058733671903610229
0.95915049314498901 0.29568246006965637 0.053457081317901611
0.095772013068199158 0.3758169412612915 0.10623404383659363
0.11696980148553848 0.37581691145896912 0.11147782951593399
0.13833662867546082 0.37567105889320374 0.11371351778507233
0.15375871956348419 0.37555137276649475 0.11139630526304245
