Textures/22.cube
# Created by: G'MIC (https://gmic.eu)
TITLE "RedBlueYellow.cube"
# LUT size
LUT_3D_SIZE 5
# Data domain
DOMAIN_MIN 0.0 0.0 0.0
DOMAIN_MAX 1.0 1.0 1.0
# LUT data points
0.10615818947553635 0.0094312690198421478 0.003891452681273222
0.31629207730293274 0.0036671999841928482 0.014952437020838261
0.53855299949645996 0.0024488347116857767 0.067344792187213898
0.75235366821289062 0 0.090786315500736237
0.96553325653076172 0 0.07319004088640213
0.11927390098571777 0.26992028951644897 0.062431216239929199
0.31034174561500549 0.25542336702346802 0.079748921096324921
0.52807939052581787 0.24016733467578888 0.10015679895877838
0.73932409286499023 0.22440251708030701 0.093233108520507812
0.95708352327346802 0.18761132657527924 0.073102749884128571
0.018341826274991035 0.48440605401992798 0.12753899395465851
0.26441779732704163 0.47368991374969482 0.12043915688991547
0.48794016242027283 0.46359509229660034 0.10126553475856781
0.72245705127716064 0.45845687389373779 0.084526650607585907
0.95118463039398193 0.45611044764518738 0.01300706434994936
0 0.70175772905349731 0.017442680895328522
0.23815211653709412 0.70776379108428955 0.007039007730782032
0.47371336817741394 0.70862424373626709 0.0015528418589383364
0.71831393241882324 0.70948582887649536 0
0.96172964572906494 0.71746379137039185 0
0 0.96609503030776978 0
0.22092795372009277 0.96619206666946411 0
0.46402674913406372 0.96723955869674683 0
0.7181050181388855 0.9716610312461853 0
0.961162269115448 0.97729772329330444 0
0.13388141989707947 0.0068100085482001305 0.2411903440952301
0.32498729228973389 0.0032529265154153109 0.27239155769348145
0.53598815202713013 0.0020358366891741753 0.30966728925704956
0.74649077653884888 0 0.32281786203384399
0.95795410871505737 0 0.29297763109207153
0.12526960670948029 0.26306432485580444 0.29823470115661621
0.30527585744857788 0.25804486870765686 0.31842079758644104
0.51343244314193726 0.2407350093126297 0.3268505334854126
0.73156183958053589 0.21811145544052124 0.31579694151878357
0.95781874656677246 0.19414451718330383 0.28492027521133423
0.0010656121885403991 0.47853049635887146 0.32431012392044067
0.23899419605731964 0.47143679857254028 0.31653040647506714
0.48203805088996887 0.46307575702667236 0.30986398458480835
0.71733486652374268 0.45903494954109192 0.28773203492164612
0.95203661918640137 0.45546650886535645 0.24930636584758759
0 0.70468509197235107 0.25516712665557861
0.21313560009002686 0.70844101905822754 0.25358450412750244
0.47326156497001648 0.70558327436447144 0.23189008235931396
0.72102171182632446 0.70906680822372437 0.22143059968948364
0.96745455265045166 0.71873944997787476 0.1805512011051178
0.012564742937684059 0.96521782875061035 0.135247603058815
0.2331908643245697 0.97090834379196167 0.13338369131088257
0.47512039542198181 0.96660107374191284 0.11778610944747925
0.7180558443069458 0.97154992818832397 0.11196599155664444
0.9684177041053772 0.9751008152961731 0.11279358714818954
0.1875702291727066 0.0044203833676874638 0.51371878385543823
0.3189566433429718 0.0025073271244764328 0.52403753995895386
0.52263462543487549 0.001514282776042819 0.55762165784835815
0.73046392202377319 0 0.5746123194694519
0.95016390085220337 0 0.56067216396331787
0.14661532640457153 0.24998581409454346 0.53874003887176514
0.29570040106773376 0.2540600597858429 0.554146409034729
0.50411880016326904 0.24315676093101501 0.56894707679748535
0.71123594045639038 0.22110125422477722 0.56669634580612183
0.94603347778320312 0.20497281849384308 0.53920614719390869
0 0.47724640369415283 0.57103860378265381
0.1973196268081665 0.47114527225494385 0.56607216596603394
0.46603330969810486 0.46603608131408691 0.56658434867858887
0.7088017463684082 0.46212759613990784 0.54105681180953979
0.95682340860366821 0.45903727412223816 0.48672282695770264
2.212934305134695e-05 0.70739990472793579 0.49620011448860168
0.21052323281764984 0.70523393154144287 0.49505728483200073
0.47097623348236084 0.7089766263961792 0.47405299544334412
0.71936416625976562 0.71363651752471924 0.46193596720695496
0.96963596343994141 0.71666187047958374 0.43183493614196777
0.027190126478672028 0.96559453010559082 0.39940980076789856
0.26433676481246948 0.9676629900932312 0.39315333962440491
0.49355342984199524 0.97275674343109131 0.38880404829978943
0.73465907573699951 0.97108858823776245 0.381346195936203
0.97044193744659424 0.97426486015319824 0.37868714332580566
0.18130949139595032 0.0021730565931648016 0.77531760931015015
0.31245779991149902 0.004360932856798172 0.77966099977493286
0.50988912582397461 0.00056851515546441078 0.78683644533157349
0.71870088577270508 0 0.79337704181671143
0.93596500158309937 0 0.77980464696884155
0.12071450054645538 0.24746426939964294 0.78393477201461792
0.27229666709899902 0.24395336210727692 0.7844698429107666
0.48029372096061707 0.23923347890377045 0.79207390546798706
0.70545494556427002 0.21932007372379303 0.78429371118545532
0.94187623262405396 0.19742473959922791 0.77005058526992798
0 0.46873742341995239 0.78294044733047485
0.16321112215518951 0.46749883890151978 0.78773963451385498
0.46004357933998108 0.46318507194519043 0.78575980663299561
0.70391368865966797 0.45941850543022156 0.77039659023284912
0.95014506578445435 0.45601344108581543 0.72958022356033325
0.00038639354170300066 0.70567446947097778 0.73405963182449341
0.19660374522209167 0.70673739910125732 0.72532033920288086
0.47667014598846436 0.70892316102981567 0.71568268537521362
0.72648638486862183 0.708912193775177 0.68509727716445923
0.97710585594177246 0.71683007478713989 0.65390390157699585
0.16491129994392395 0.96682471036911011 0.62692511081695557
0.30152347683906555 0.96669435501098633 0.62131249904632568
0.5205085277557373 0.9670407772064209 0.61233812570571899
0.75165724754333496 0.97009044885635376 0.60355979204177856
0.98598361015319824 0.97245043516159058 0.59722524881362915
0.16625945270061493 0.001533636124804616 0.99632346630096436
0.28412491083145142 0.0021260087378323078 0.99356269836425781
0.49708819389343262 0 0.99529874324798584
0.70590060949325562 0 0.99508100748062134
0.94159215688705444 0 0.9918215274810791
0.072262555360794067 0.24448376893997192 0.99405628442764282
0.26401078701019287 0.23943896591663361 0.99404615163803101
0.47611275315284729 0.23168139159679413 0.99632346630096436
0.69887757301330566 0.20994946360588074 0.99330049753189087
0.94620627164840698 0.19425332546234131 0.98548811674118042
0 0.46608787775039673 0.99330049753189087
0.18496453762054443 0.46128889918327332 0.99265009164810181
0.45167514681816101 0.46160581707954407 0.99284118413925171
0.69473409652709961 0.45711207389831543 0.98397296667098999
0.9571148157119751 0.45912614464759827 0.96466517448425293
0.0020254559349268675 0.70898675918579102 0.96407514810562134
0.21379019320011139 0.70995378494262695 0.96209967136383057
0.48291200399398804 0.71229791641235352 0.95486223697662354
0.73124122619628906 0.71572297811508179 0.92990034818649292
0.98452562093734741 0.7200772762298584 0.89797347784042358
0.24120435118675232 0.96872228384017944 0.87033772468566895
0.35635805130004883 0.96942448616027832 0.86115449666976929
0.55915868282318115 0.96875083446502686 0.84522593021392822
0.77580392360687256 0.96997576951980591 0.83237940073013306
0.9928317666053772 0.97110980749130249 0.80705583095550537
