Textures/23.cube
# Created by: G'MIC (https://gmic.eu)
TITLE "Smokey.cube"
# LUT size
LUT_3D_SIZE 5
# Data domain
DOMAIN_MIN 0.0 0.0 0.0
DOMAIN_MAX 1.0 1.0 1.0
# LUT data points
0.013398542068898678 0.010376022197306156 0.0066994586959481239
0.2510242760181427 0.010376022197306156 0.0066994591616094112
0.43702679872512817 0.013398542068898678 0.0066994586959481239
0.61893105506896973 0.013398543931543827 0.0066994596272706985
0.80304569005966187 0.013398542068898678 0.0079248547554016113
0.014624082483351231 0.21196955442428589 0.0066994586959481239
0.26315462589263916 0.22033374011516571 0.0066994586959481239
0.46256795525550842 0.22832398116588593 0.0079248547554016113
0.65283364057540894 0.2438737154006958 0.0091503970324993134
0.84521514177322388 0.25219574570655823 0.010376022197306156
0.015849709510803223 0.39652273058891296 0.0079248547554016113
0.27874618768692017 0.41570290923118591 0.0091503961011767387
0.48627465963363647 0.43195816874504089 0.010376022197306156
0.68590861558914185 0.45026913285255432 0.010376022197306156
0.87963306903839111 0.46650797128677368 0.013398542068898678
0.017075251787900925 0.60010135173797607 0.009673059917986393
0.28835263848304749 0.62058931589126587 0.010376022197306156
0.50583535432815552 0.64353334903717041 0.013398543931543827
0.71361571550369263 0.66882932186126709 0.013398543931543827
0.91402453184127808 0.69332557916641235 0.013498955406248569
0.017075251787900925 0.8111884593963623 0.013398542068898678
0.30183982849121094 0.84254652261734009 0.013398542068898678
0.52818942070007324 0.87323510646820068 0.013398542068898678
0.74083691835403442 0.90057611465454102 0.01462408434599638
0.94743162393569946 0.92938774824142456 0.015849709510803223
0.013398542068898678 0.010376021265983582 0.10042480379343033
0.25124397873878479 0.011875352822244167 0.11487839370965958
0.44069561362266541 0.013398542068898678 0.1243741512298584
0.62849247455596924 0.013398544862866402 0.13972599804401398
0.81061184406280518 0.013398542068898678 0.15598936378955841
0.014624082483351231 0.21529082953929901 0.12431677430868149
0.26346611976623535 0.22774295508861542 0.13959166407585144
0.46691116690635681 0.23275406658649445 0.15531517565250397
0.66267669200897217 0.24740859866142273 0.16785416007041931
0.85224181413650513 0.25611263513565063 0.18561407923698425
0.015849709510803223 0.4019172191619873 0.15179151296615601
0.27956897020339966 0.42080628871917725 0.16756147146224976
0.49040216207504272 0.43933793902397156 0.18574057519435883
0.6931833028793335 0.45494326949119568 0.19904100894927979
0.88981086015701294 0.47400915622711182 0.21715559065341949
0.017075251787900925 0.60539698600769043 0.18570813536643982
0.29113069176673889 0.63133567571640015 0.19867278635501862
0.50911062955856323 0.65179699659347534 0.21476049721240997
0.7201000452041626 0.67782056331634521 0.23093211650848389
0.92152547836303711 0.70374679565429688 0.25055089592933655
0.017075251787900925 0.82067662477493286 0.21533781290054321
0.30562666058540344 0.85401958227157593 0.23120580613613129
0.52926188707351685 0.88419008255004883 0.25032579898834229
0.74439865350723267 0.91117870807647705 0.26647645235061646
0.95130020380020142 0.93807369470596313 0.28397330641746521
0.013398541137576103 0.010376022197306156 0.17918150126934052
0.25166714191436768 0.013398541137576103 0.1985677182674408
0.44737350940704346 0.013398541137576103 0.22176913917064667
0.63541620969772339 0.013398543931543827 0.24784247577190399
0.81880444288253784 0.013398541137576103 0.27838888764381409
0.014624082483351231 0.21925066411495209 0.22124432027339935
0.26748433709144592 0.22810459136962891 0.24835346639156342
0.47121095657348633 0.24279145896434784 0.27509576082229614
0.66731297969818115 0.25154221057891846 0.29863205552101135
0.8590538501739502 0.25958004593849182 0.32822379469871521
0.015849709510803223 0.40932422876358032 0.27434650063514709
0.28250136971473694 0.4280087947845459 0.29870119690895081
0.49457791447639465 0.446745365858078 0.32499060034751892
0.69420868158340454 0.46241357922554016 0.35207104682922363
0.89406007528305054 0.4813230037689209 0.37995770573616028
0.017075251787900925 0.61541187763214111 0.32432466745376587
0.29434370994567871 0.63828063011169434 0.35156679153442383
0.51351606845855713 0.66210281848907471 0.37916457653045654
0.72458863258361816 0.68845009803771973 0.41280347108840942
0.93113940954208374 0.71133148670196533 0.44058755040168762
0.017075251787900925 0.83464151620864868 0.37890145182609558
0.30652931332588196 0.86540138721466064 0.41269674897193909
0.53272438049316406 0.89589625597000122 0.44030195474624634
0.75083738565444946 0.92254811525344849 0.46778577566146851
0.95527476072311401 0.94592416286468506 0.49089562892913818
0.013398541137576103 0.010376023128628731 0.25744765996932983
0.2556304931640625 0.013398541137576103 0.28751799464225769
0.45166811347007751 0.013398541137576103 0.32182887196540833
0.64036893844604492 0.013398543931543827 0.35669323801994324
0.82594209909439087 0.013398541137576103 0.39362809062004089
0.014624082483351231 0.22350603342056274 0.32121816277503967
0.26854944229125977 0.23098428547382355 0.35639458894729614
0.47532251477241516 0.24640092253684998 0.39414757490158081
0.6716303825378418 0.25431665778160095 0.42883673310279846
0.86389243602752686 0.26264283061027527 0.46409952640533447
0.015849709510803223 0.41667041182518005 0.39090123772621155
0.28600740432739258 0.43251132965087891 0.42853304743766785
0.50099092721939087 0.45106261968612671 0.46017161011695862
0.70137619972229004 0.46989968419075012 0.50129258632659912
0.90113335847854614 0.48851814866065979 0.54304510354995728
0.017075251787900925 0.6239241361618042 0.46048390865325928
0.29472991824150085 0.64652925729751587 0.49836647510528564
0.51729333400726318 0.66963231563568115 0.54006242752075195
0.72851991653442383 0.69623619318008423 0.58492833375930786
0.93273341655731201 0.7222476601600647 0.62384539842605591
0.017075251787900925 0.84611934423446655 0.54064643383026123
0.30678120255470276 0.8763003945350647 0.58496791124343872
0.53640121221542358 0.90372419357299805 0.62314695119857788
0.75234377384185791 0.93097847700119019 0.65824258327484131
0.95940655469894409 0.95089387893676758 0.68639141321182251
0.014137257821857929 0.01242506131529808 0.34194585680961609
0.25869473814964294 0.013398541137576103 0.37804785370826721
0.45572191476821899 0.013398541137576103 0.42177262902259827
0.64449715614318848 0.013398544862866402 0.46783331036567688
0.83377087116241455 0.013398541137576103 0.51147961616516113
0.015262429602444172 0.22804844379425049 0.41946658492088318
0.27397656440734863 0.23935990035533905 0.46503943204879761
0.48169583082199097 0.24974295496940613 0.51050013303756714
0.67872756719589233 0.25809401273727417 0.55610525608062744
0.87313801050186157 0.26768860220909119 0.60217732191085815
0.01609313115477562 0.423664391040802 0.50791144371032715
0.28685370087623596 0.44012469053268433 0.5550798773765564
0.50198101997375488 0.45811745524406433 0.59813606739044189
0.70562875270843506 0.47703269124031067 0.65060114860534668
0.90839368104934692 0.49626892805099487 0.70131552219390869
0.017075251787900925 0.63425719738006592 0.59727120399475098
0.29848265647888184 0.65767055749893188 0.64774161577224731
0.52107495069503784 0.68103164434432983 0.70075076818466187
0.73570799827575684 0.70440828800201416 0.75424224138259888
0.93973958492279053 0.72739869356155396 0.8033447265625
0.017075251787900925 0.8579258918762207 0.70082879066467285
0.30698713660240173 0.88830000162124634 0.75410968065261841
0.54040896892547607 0.91263723373413086 0.80008649826049805
0.75564754009246826 0.93873727321624756 0.84280204772949219
0.96311789751052856 0.95526856184005737 0.87415570020675659
