Textures/23.cube
# Created by: G'MIC (https://gmic.eu)
TITLE "Smokey.cube"
# LUT size
LUT_3D_SIZE 33
# Data domain
DOMAIN_MIN 0.0 0.0 0.0
DOMAIN_MAX 1.0 1.0 1.0
# LUT data points
0.013398542068898678 0.010376022197306156 0.0066994586959481239
0.05073537677526474 0.010376022197306156 0.0066994586959481239
0.086274415254592896 0.010376022197306156 0.0066994596272706985
0.11470604687929153 0.010376022197306156 0.0066994591616094112
0.14354583621025085 0.010376022197306156 0.0066994591616094112
0.17058806121349335 0.010376022197306156 0.0066994586959481239
0.19763097167015076 0.010376022197306156 0.0066994591616094112
0.22385606169700623 0.010376022197306156 0.0066994586959481239
0.2510242760181427 0.010376022197306156 0.0066994591616094112
0.27398782968521118 0.010376022197306156 0.0066994586959481239
0.29723444581031799 0.011274595744907856 0.0066994586959481239
0.32274931669235229 0.01242506131529808 0.0066994586959481239
0.34684523940086365 0.012776069343090057 0.0066994586959481239
0.37057796120643616 0.013398543931543827 0.0066994596272706985
0.39354234933853149 0.013398543931543827 0.0066994591616094112
0.41552633047103882 0.013398542068898678 0.0066994591616094112
0.43702679872512817 0.013398542068898678 0.0066994586959481239
0.46002885699272156 0.013398542068898678 0.0066994591616094112
0.48302671313285828 0.013398542068898678 0.0066994586959481239
0.50609099864959717 0.013398542068898678 0.0066994591616094112
0.52929514646530151 0.013398542068898678 0.0066994586959481239
0.55201190710067749 0.013398542068898678 0.0066994586959481239
0.5755159854888916 0.013398542068898678 0.0066994586959481239
0.59775149822235107 0.013398542068898678 0.0066994586959481239
0.61893105506896973 0.013398543931543827 0.0066994596272706985
0.64191365242004395 0.013398543931543827 0.0066994591616094112
0.66667461395263672 0.013398542068898678 0.0066994591616094112
0.69072586297988892 0.013398542068898678 0.006978682242333889
0.71369373798370361 0.013398542068898678 0.0070823957212269306
0.73585927486419678 0.013398542068898678 0.007082394789904356
0.75735682249069214 0.013398542068898678 0.0070823957212269306
0.78015285730361938 0.013398542068898678 0.0075913812033832073
0.80304569005966187 0.013398542068898678 0.0079248547554016113
0.013398542068898678 0.043463964015245438 0.0066994586959481239
0.05073537677526474 0.043463964015245438 0.0066994586959481239
0.086274407804012299 0.043463964015245438 0.0066994600929319859
0.11470604687929153 0.043463964015245438 0.0066994600929319859
0.14354586601257324 0.043463964015245438 0.0066994586959481239
0.17058804631233215 0.043463964015245438 0.0066994586959481239
0.19763097167015076 0.043463964015245438 0.0066994586959481239
0.22385606169700623 0.043463964015245438 0.0066994586959481239
0.25118306279182434 0.043463964015245438 0.0066994586959481239
0.27433964610099792 0.043463964015245438 0.0066994586959481239
0.29762056469917297 0.043646529316902161 0.0066994586959481239
0.3228757381439209 0.044876817613840103 0.0066994586959481239
0.347169429063797 0.044989168643951416 0.0066994586959481239
0.37184607982635498 0.047271110117435455 0.0066994600929319859
0.39573800563812256 0.047903280705213547 0.0066994600929319859
0.41837215423583984 0.048039458692073822 0.0066994586959481239
0.44059094786643982 0.048039458692073822 0.0066994586959481239
0.46338692307472229 0.048039458692073822 0.0066994586959481239
0.48648229241371155 0.048039458692073822 0.0066994586959481239
0.50963032245635986 0.048039458692073822 0.0066994586959481239
0.53266441822052002 0.048039466142654419 0.0066994586959481239
0.55544155836105347 0.048039458692073822 0.0066994586959481239
0.57898610830307007 0.048039458692073822 0.0066994586959481239
0.60249835252761841 0.048039458692073822 0.0066994586959481239
0.62463217973709106 0.048039458692073822 0.0066994600929319859
0.64601916074752808 0.048039458692073822 0.0066994600929319859
0.66866374015808105 0.048039458692073822 0.0066994586959481239
0.69365853071212769 0.048039458692073822 0.0075929765589535236
0.71784853935241699 0.048039458692073822 0.0079248547554016113
0.74029731750488281 0.048039458692073822 0.0079248547554016113
0.7627331018447876 0.048039458692073822 0.0079248547554016113
0.7856677770614624 0.048039466142654419 0.0079248547554016113
0.80879807472229004 0.048039458692073822 0.0079248547554016113
0.013398541137576103 0.072875961661338806 0.0066994596272706985
0.05073537677526474 0.072875961661338806 0.0066994596272706985
0.086274415254592896 0.072875946760177612 0.0066994596272706985
0.11470604687929153 0.072875946760177612 0.0066994596272706985
0.1441824734210968 0.073250345885753632 0.0066994596272706985
0.17115315794944763 0.073852792382240295 0.0066994596272706985
0.19817043840885162 0.073856189846992493 0.0066994596272706985
0.22492338716983795 0.073856189846992493 0.0066994596272706985
0.25148728489875793 0.073856182396411896 0.0066994596272706985
0.27544313669204712 0.073856182396411896 0.0066994596272706985
0.29858487844467163 0.073920555412769318 0.0066994596272706985
0.32369562983512878 0.074272945523262024 0.0066994596272706985
0.34857749938964844 0.074410252273082733 0.0066994596272706985
0.37299132347106934 0.076753921806812286 0.0066994596272706985
0.39827921986579895 0.080293416976928711 0.0066994596272706985
0.4211311936378479 0.080718941986560822 0.0066994596272706985
0.44429126381874084 0.080965757369995117 0.0066994596272706985
0.46725571155548096 0.0816994309425354 0.0066994596272706985
0.49042648077011108 0.0816994309425354 0.0066994596272706985
0.51374489068984985 0.0816994309425354 0.0066994596272706985
0.53713959455490112 0.0816994309425354 0.0066994596272706985
0.56023329496383667 0.0816994309425354 0.0066994596272706985
0.58333653211593628 0.081774324178695679 0.0066994596272706985
0.60637760162353516 0.082598209381103516 0.0069096516817808151
0.62930428981781006 0.082598209381103516 0.0070058084093034267
0.65164661407470703 0.082598209381103516 0.0070058084093034267
0.67288094758987427 0.082598209381103516 0.0070058084093034267
0.69633841514587402 0.082598209381103516 0.0076759466901421547
0.72117525339126587 0.082598209381103516 0.0079248556867241859
0.74425417184829712 0.082598209381103516 0.0079248556867241859
0.76774537563323975 0.082598209381103516 0.0079248556867241859
0.79116612672805786 0.082598209381103516 0.008333100937306881
0.81409060955047607 0.082598209381103516 0.0084372144192457199
0.013398541137576103 0.095506586134433746 0.0066994591616094112
0.05073537677526474 0.09550660103559494 0.0066994591616094112
0.086274407804012299 0.09550660103559494 0.0066994596272706985
0.11470604687929153 0.09550660103559494 0.0066994591616094112
0.14444464445114136 0.096350908279418945 0.0066994596272706985
0.17305459082126617 0.098457872867584229 0.0066994591616094112
0.20013941824436188 0.098529353737831116 0.0066994596272706985
0.22694222629070282 0.098529361188411713 0.0066994591616094112
0.2533087432384491 0.098529353737831116 0.0066994596272706985
0.27838549017906189 0.098529361188411713 0.0066994591616094112
0.30211055278778076 0.099034912884235382 0.0066994591616094112
0.32714119553565979 0.10060416907072067 0.0066994591616094112
0.35208848118782043 0.10163392871618271 0.0066994591616094112
0.37715303897857666 0.10165096819400787 0.0066994596272706985
0.40182459354400635 0.10316238552331924 0.0066994591616094112
0.4247991144657135 0.10334958136081696 0.0066994596272706985
0.448221355676651 0.10407473891973495 0.0066994591616094112
0.47112277150154114 0.10767790675163269 0.0066994596272706985
0.4942927360534668 0.10947704315185547 0.0066994591616094112
0.51799827814102173 0.10947705060243607 0.0066994596272706985
0.54117536544799805 0.10947705060243607 0.0066994591616094112
0.5648956298828125 0.10947704315185547 0.0066994591616094112
0.58904373645782471 0.10947705060243607 0.0066994591616094112
0.61114376783370972 0.11038751155138016 0.0075402306392788887
0.63328903913497925 0.11078406125307083 0.0079248556867241859
0.65649032592773438 0.11078406125307083 0.0079248556867241859
0.67858010530471802 0.11078406125307083 0.0079248556867241859
0.7010951042175293 0.11078406125307083 0.0079248556867241859
0.72513991594314575 0.11078406125307083 0.0079248556867241859
0.74849563837051392 0.11078406125307083 0.0079248556867241859
0.77190715074539185 0.11078406125307083 0.0079248556867241859
0.79535681009292603 0.11078406125307083 0.0088712591677904129
0.81957036256790161 0.11078406125307083 0.0091503961011767387
0.013398542068898678 0.11905349045991898 0.0066994586959481239
0.05073537677526474 0.11928087472915649 0.0066994586959481239
0.087282128632068634 0.11933831870555878 0.0066994596272706985
0.11656444519758224 0.11951062083244324 0.0066994596272706985
0.14498583972454071 0.12029650807380676 0.0066994591616094112
0.17389039695262909 0.12189196050167084 0.0066994586959481239
0.20174625515937805 0.12323140352964401 0.0066994591616094112
0.22873269021511078 0.12343249469995499 0.0066994586959481239
0.25530022382736206 0.12346410751342773 0.0066994591616094112
0.2804756760597229 0.12393806129693985 0.0066994586959481239
0.30546015501022339 0.12425629794597626 0.0066994586959481239
0.33120235800743103 0.12568248808383942 0.0066994586959481239
0.35560661554336548 0.12712410092353821 0.0066994586959481239
0.38016757369041443 0.12712410092353821 0.0066994596272706985
0.40517261624336243 0.12712410092353821 0.0066994596272706985
0.42824247479438782 0.12732513248920441 0.0066994591616094112
0.4513191282749176 0.12763644754886627 0.0066994586959481239
0.47472301125526428 0.13069389760494232 0.0066994591616094112
0.4978126585483551 0.13408558070659637 0.0066994586959481239
0.52145719528198242 0.13551875948905945 0.0068858228623867035
0.54467660188674927 0.13570259511470795 0.0069292206317186356
0.56863510608673096 0.13570261001586914 0.0069292206317186356
0.59363734722137451 0.13577751815319061 0.0069292206317186356
0.61617773771286011 0.1373758465051651 0.0076123476028442383
0.63758891820907593 0.13918501138687134 0.0079248556867241859
0.66064625978469849 0.13962407410144806 0.0079248556867241859
0.68346339464187622 0.13962405920028687 0.0079248547554016113
0.70677757263183594 0.14048519730567932 0.0083284191787242889
0.73005157709121704 0.14052264392375946 0.0083606168627738953
0.75313794612884521 0.14052264392375946 0.0083606168627738953
0.77651917934417725 0.14052264392375946 0.0083606168627738953
0.79989349842071533 0.14052264392375946 0.0089579271152615547
0.82447922229766846 0.14052264392375946 0.0091503961011767387
0.013398541137576103 0.14157544076442719 0.0066994586959481239
0.050735380500555038 0.14446654915809631 0.0066994586959481239
0.088153667747974396 0.14503815770149231 0.0066994596272706985
0.11944946646690369 0.14518651366233826 0.0066994591616094112
0.14844931662082672 0.14523176848888397 0.0066994586959481239
0.17580851912498474 0.14681866765022278 0.0066994586959481239
0.20393706858158112 0.14879636466503143 0.0066994586959481239
0.23073075711727142 0.14910021424293518 0.0066994586959481239
0.25733780860900879 0.14914315938949585 0.0066994586959481239
0.28231385350227356 0.15069320797920227 0.0066994586959481239
0.30739197134971619 0.15098026394844055 0.0066994586959481239
0.33430862426757812 0.15098026394844055 0.0066994586959481239
0.35949921607971191 0.1525157243013382 0.0066994586959481239
0.38278704881668091 0.15277785062789917 0.0066994596272706985
0.40706366300582886 0.15284870564937592 0.0066994591616094112
0.43002453446388245 0.15299685299396515 0.0066994586959481239
0.45355141162872314 0.15304845571517944 0.0066994586959481239
0.47705885767936707 0.15446431934833527 0.0066994586959481239
0.50024604797363281 0.15759122371673584 0.0066994586959481239
0.52412152290344238 0.16112801432609558 0.0076934057287871838
0.54806298017501831 0.16274505853652954 0.0079248547554016113
0.57168251276016235 0.16274505853652954 0.0079248547554016113
0.59620463848114014 0.16275866329669952 0.0079248547554016113
0.61936742067337036 0.16423769295215607 0.0079248547554016113
0.64151191711425781 0.16626332700252533 0.0079248556867241859
0.66511350870132446 0.16666673123836517 0.0079248556867241859
0.68888646364212036 0.16669738292694092 0.0079248547554016113
0.71253544092178345 0.16793480515480042 0.009024452418088913
0.7358129620552063 0.16935759782791138 0.0091503961011767387
0.75928342342376709 0.16952607035636902 0.0091503961011767387
0.78343039751052856 0.16952607035636902 0.0091503961011767387
0.80668067932128906 0.16952607035636902 0.0091503961011767387
0.8302425742149353 0.16952607035636902 0.0091503961011767387
0.014188321307301521 0.16325321793556213 0.0066994586959481239
0.052161533385515213 0.16622959077358246 0.0066994586959481239
0.088352784514427185 0.16894187033176422 0.0066994596272706985
0.11993460357189178 0.16943247616291046 0.0066994596272706985
0.15125119686126709 0.1699318140745163 0.0066994586959481239
0.17840063571929932 0.17126907408237457 0.0066994586959481239
0.20530547201633453 0.17327231168746948 0.0066994586959481239
0.23254193365573883 0.17355997860431671 0.0066994586959481239
0.25937893986701965 0.17386661469936371 0.0066994586959481239
0.28446134924888611 0.17518557608127594 0.0066994586959481239
0.30913582444190979 0.17655923962593079 0.0066994586959481239
0.33626940846443176 0.17663414776325226 0.0066994586959481239
0.36192810535430908 0.17663414776325226 0.0066994586959481239
0.38585233688354492 0.17663414776325226 0.0066994596272706985
0.4093206524848938 0.1772114634513855 0.006703715305775404
0.43261173367500305 0.17815904319286346 0.006838593166321516
0.45574551820755005 0.17835989594459534 0.0068526328541338444
0.4793742299079895 0.17918877303600311 0.0068526328541338444
0.50237184762954712 0.18137253820896149 0.0068526328541338444
0.52681022882461548 0.1850217878818512 0.0077223358675837517
0.55169868469238281 0.188301682472229 0.0079248547554016113
0.57520461082458496 0.18978771567344666 0.0079248547554016113
0.59858381748199463 0.18984898924827576 0.0079513825476169586
0.62183701992034912 0.19125153124332428 0.0082780634984374046
0.6448591947555542 0.1928706169128418 0.0082840211689472198
0.66890472173690796 0.19370895624160767 0.0082840211689472198
0.69361221790313721 0.19384685158729553 0.0082840202376246452
0.71795320510864258 0.1951371431350708 0.00904877670109272
0.74112057685852051 0.19684621691703796 0.0091503961011767387
0.76469951868057251 0.19763097167015076 0.0091503961011767387
0.78967690467834473 0.19763097167015076 0.0091503961011767387
0.81380963325500488 0.19763097167015076 0.0094309858977794647
0.83652293682098389 0.19763097167015076 0.0095095746219158173
0.01462408434599638 0.18668237328529358 0.0066994586959481239
0.05539221316576004 0.18806378543376923 0.0066994586959481239
0.091013200581073761 0.19058576226234436 0.0066994596272706985
0.12087255716323853 0.19166664779186249 0.0066994591616094112
0.15138907730579376 0.19238150119781494 0.0066994591616094112
0.17843127250671387 0.1943729966878891 0.0066994586959481239
0.20547398924827576 0.19591733813285828 0.0066994591616094112
0.23404160141944885 0.19651752710342407 0.0066994586959481239
0.26147556304931641 0.19683267176151276 0.0066994591616094112
0.28683838248252869 0.19809365272521973 0.0066994586959481239
0.31169962882995605 0.20001541078090668 0.0066994586959481239
0.33645349740982056 0.20191816985607147 0.0066994586959481239
0.36192810535430908 0.20212410390377045 0.0066994586959481239
0.38744211196899414 0.20212410390377045 0.0066994596272706985
0.41149583458900452 0.20217640697956085 0.0067335045896470547
0.43604651093482971 0.20284964144229889 0.0078125344589352608
0.45955207943916321 0.20295800268650055 0.0079248547554016113
0.48258528113365173 0.2042553573846817 0.0079248547554016113
0.50559824705123901 0.20639477670192719 0.0079248547554016113
0.53068250417709351 0.20995037257671356 0.0079248547554016113
0.55540412664413452 0.21323706209659576 0.0079248547554016113
0.57872247695922852 0.21568286418914795 0.0079248547554016113
0.60191291570663452 0.21607078611850739 0.007999754510819912
0.62550628185272217 0.21715587377548218 0.0091027449816465378
0.64861607551574707 0.21810786426067352 0.0091503970324993134
0.67269200086593628 0.21956022083759308 0.0091503961011767387
0.69754219055175781 0.22010327875614166 0.0091503961011767387
0.72231572866439819 0.22174739837646484 0.0091503961011767387
0.74611425399780273 0.2236858606338501 0.0091503961011767387
0.76990759372711182 0.22385606169700623 0.0091503961011767387
0.79370653629302979 0.22389939427375793 0.0091503961011767387
0.81802278757095337 0.22495460510253906 0.010021952912211418
0.8409075140953064 0.22503574192523956 0.010376022197306156
0.014624082483351231 0.21196955442428589 0.0066994586959481239
0.056209295988082886 0.21220670640468597 0.0066994586959481239
0.094590842723846436 0.21229639649391174 0.0066994596272706985
0.12365523725748062 0.21399788558483124 0.0066994596272706985
0.1519438773393631 0.21576327085494995 0.0066994586959481239
0.17930282652378082 0.2175319492816925 0.0066994586959481239
0.20658700168132782 0.21953299641609192 0.0066994586959481239
0.23478198051452637 0.22005447745323181 0.0066994586959481239
0.26315462589263916 0.22033374011516571 0.0066994586959481239
0.28863614797592163 0.22212642431259155 0.0066994586959481239
0.313447505235672 0.2241811603307724 0.0067213042639195919
0.33876276016235352 0.22585853934288025 0.0068509452976286411
0.36327782273292542 0.22796805202960968 0.0068509452976286411
0.38849568367004395 0.22810459136962891 0.0068509457632899284
0.41355365514755249 0.22810459136962891 0.0068750614300370216
0.43797841668128967 0.22817531228065491 0.0078195547685027122
0.46256795525550842 0.22832398116588593 0.0079248547554016113
0.48647773265838623 0.22984951734542847 0.0079248547554016113
0.5094107985496521 0.23165000975131989 0.0079794693738222122
0.53409028053283691 0.23499289155006409 0.0082023190334439278
0.55915087461471558 0.23864896595478058 0.0082074236124753952
0.58235299587249756 0.24095527827739716 0.0082074236124753952
0.60589754581451416 0.24279855191707611 0.0082604773342609406
0.62957674264907837 0.24383769929409027 0.0091057233512401581
0.65283364057540894 0.2438737154006958 0.0091503970324993134
0.67690736055374146 0.24468584358692169 0.0091503970324993134
0.70160210132598877 0.24667076766490936 0.0091503961011767387
0.72631222009658813 0.24842730164527893 0.0096092270687222481
0.75126999616622925 0.25025886297225952 0.0096389446407556534
0.77531915903091431 0.25163409113883972 0.0096389446407556534
0.79850351810455322 0.25163412094116211 0.0096389446407556534
0.82222777605056763 0.25206786394119263 0.010112741030752659
0.84521514177322388 0.25219574570655823 0.010376022197306156
0.01462408434599638 0.23479151725769043 0.0066994586959481239
0.056209303438663483 0.23600216209888458 0.0066994586959481239
0.095098100602626801 0.23601466417312622 0.0066994596272706985
0.12542189657688141 0.23690097033977509 0.0066994591616094112
0.15445755422115326 0.23833318054676056 0.0066994591616094112
0.18257422745227814 0.23934894800186157 0.0066994586959481239
0.21007631719112396 0.24133297801017761 0.0066994591616094112
0.23694506287574768 0.24323837459087372 0.0066994586959481239
0.2649272084236145 0.24423918128013611 0.0066994591616094112
0.28993234038352966 0.24719724059104919 0.0066994586959481239
0.31521636247634888 0.24945899844169617 0.0067743575200438499
0.34197992086410522 0.25133010745048523 0.0079248547554016113
0.3673950731754303 0.25316187739372253 0.0079248547554016113
0.39216199517250061 0.25398299098014832 0.0079248556867241859
0.4168674647808075 0.25465691089630127 0.0079248556867241859
0.44045308232307434 0.25465691089630127 0.0079248547554016113
0.46482223272323608 0.25490027666091919 0.0079248547554016113
0.48864385485649109 0.25642010569572449 0.0079248547554016113
0.5119289755821228 0.25846618413925171 0.008112102746963501
0.53667265176773071 0.26050874590873718 0.0090687079355120659
0.56157958507537842 0.26355871558189392 0.0091503961011767387
0.58574050664901733 0.26572889089584351 0.0091503961011767387
0.60995709896087646 0.2676471471786499 0.0091503961011767387
0.63419294357299805 0.26959428191184998 0.0091503961011767387
0.65807986259460449 0.27034306526184082 0.0091503970324993134
0.68184727430343628 0.27043667435646057 0.0091503961011767387
0.70587337017059326 0.27153292298316956 0.0091503961011767387
0.72960543632507324 0.2734171450138092 0.01017515454441309
0.75382858514785767 0.27535751461982727 0.010376022197306156
0.77850914001464844 0.2772279679775238 0.010376022197306156
0.80270600318908691 0.27821090817451477 0.010376022197306156
0.82699018716812134 0.2788969874382019 0.010376022197306156
0.85087090730667114 0.2789267897605896 0.010376022197306156
0.01462408434599638 0.2580491304397583 0.0066994586959481239
0.056209295988082886 0.25986528396606445 0.0066994586959481239
0.095098100602626801 0.26138189435005188 0.0066994596272706985
0.12557169795036316 0.26143810153007507 0.0066994591616094112
0.15592823922634125 0.26171112060546875 0.0066994586959481239
0.18530595302581787 0.26197385787963867 0.0066994586959481239
0.21316380798816681 0.26264619827270508 0.0067088212817907333
0.23943361639976501 0.26500070095062256 0.0067743575200438499
0.26709389686584473 0.26730015873908997 0.0067743575200438499
0.29217904806137085 0.27080228924751282 0.0067743575200438499
0.317313551902771 0.27403652667999268 0.0068320930004119873
0.34428080916404724 0.27618888020515442 0.0079248547554016113
0.37046405673027039 0.27770498394966125 0.0079248547554016113
0.39551171660423279 0.27923423051834106 0.0079248556867241859
0.42057287693023682 0.28104585409164429 0.0079935137182474136
0.44399857521057129 0.2810458242893219 0.0081308279186487198
0.46733188629150391 0.28132671117782593 0.0081308279186487198
0.49118027091026306 0.28322124481201172 0.0081308279186487198
0.51437520980834961 0.28506091237068176 0.0082751652225852013
0.53906089067459106 0.28704720735549927 0.0090687079355120659
0.56395179033279419 0.28891801834106445 0.0091503961011767387
0.58843141794204712 0.29093828797340393 0.0091503961011767387
0.61371862888336182 0.29283773899078369 0.0091847255825996399
0.63795459270477295 0.29446670413017273 0.0095623433589935303
0.66280519962310791 0.29641374945640564 0.0095623442903161049
0.68709111213684082 0.29673206806182861 0.0095623442903161049
0.71008980274200439 0.29690060019493103 0.0095623442903161049
0.73385059833526611 0.29863673448562622 0.010192319750785828
0.75704646110534668 0.30059739947319031 0.010376022197306156
0.78099477291107178 0.30279436707496643 0.010376022197306156
0.80618131160736084 0.3046727180480957 0.010376022197306156
0.83054161071777344 0.30588966608047485 0.010376022197306156
0.85522031784057617 0.30598783493041992 0.010376022197306156
0.01462408434599638 0.28119894862174988 0.0066994586959481239
0.056209295988082886 0.28305083513259888 0.0066994586959481239
0.095098100602626801 0.28450274467468262 0.0066994596272706985
0.12557169795036316 0.28455895185470581 0.0066994591616094112
0.15620914101600647 0.28510192036628723 0.0066994591616094112
0.18676131963729858 0.28680559992790222 0.0066994586959481239
0.2150258868932724 0.28744557499885559 0.0068526333197951317
0.23989826440811157 0.28900158405303955 0.0079248547554016113
0.26821890473365784 0.29172837734222412 0.0079248547554016113
0.2955678403377533 0.29591569304466248 0.0079248547554016113
0.32079410552978516 0.29928281903266907 0.0079248547554016113
0.34655493497848511 0.30137228965759277 0.0079248547554016113
0.3724571168422699 0.30313846468925476 0.0079248547554016113
0.39782291650772095 0.30435696244239807 0.0079248556867241859
0.42279079556465149 0.30646607279777527 0.0082244528457522392
0.44749459624290466 0.30835026502609253 0.0091095529496669769
0.47110739350318909 0.30900049209594727 0.0091503961011767387
0.49556118249893188 0.31036201119422913 0.0091503961011767387
0.51961129903793335 0.31251528859138489 0.0091503961011767387
0.54335373640060425 0.31437072157859802 0.0091503961011767387
