Textures/24.cube
# Created by: G'MIC (https://gmic.eu)
TITLE "SoftWarming.cube"
# LUT size
LUT_3D_SIZE 5
# Data domain
DOMAIN_MIN 0.0 0.0 0.0
DOMAIN_MAX 1.0 1.0 1.0
# LUT data points
0.07365727424621582 0.050677947700023651 0.064472466707229614
0.28660112619400024 0.059809509664773941 0.074694804847240448
0.48499447107315063 0.068190447986125946 0.084804289042949677
0.67591983079910278 0.077463947236537933 0.095165185630321503
0.86214631795883179 0.086315758526325226 0.10531141608953476
0.095532543957233429 0.2484743744134903 0.084551155567169189
0.30605030059814453 0.25789833068847656 0.094785861670970917
0.50330650806427002 0.26738733053207397 0.10481573641300201
0.6939549446105957 0.27705004811286926 0.11503364890813828
0.87986218929290771 0.28690159320831299 0.12517786026000977
0.11677679419517517 0.45548835396766663 0.10435853153467178
0.32536345720291138 0.46518111228942871 0.11461185663938522
0.521872878074646 0.47503465414047241 0.12467993795871735
0.71205180883407593 0.48467743396759033 0.13476255536079407
0.89743345975875854 0.49463137984275818 0.14486093819141388
0.13767716288566589 0.66751384735107422 0.12424733489751816
0.34467914700508118 0.67735171318054199 0.134426549077034
0.54045897722244263 0.68746817111968994 0.14437948167324066
0.72972029447555542 0.6972624659538269 0.15431264042854309
0.91498303413391113 0.70724958181381226 0.16440644860267639
0.15860758721828461 0.88281029462814331 0.14390571415424347
0.36383223533630371 0.89252191781997681 0.15403315424919128
0.55871427059173584 0.90271580219268799 0.1640830785036087
0.74792855978012085 0.91294485330581665 0.17386172711849213
0.93264114856719971 0.92287898063659668 0.1839519739151001
0.07792963832616806 0.054085239768028259 0.26268589496612549
0.29037043452262878 0.063076242804527283 0.2723689079284668
0.48847091197967529 0.071849167346954346 0.28225049376487732
0.67944037914276123 0.080762863159179688 0.29190662503242493
0.86574071645736694 0.089593634009361267 0.30181515216827393
0.099697105586528778 0.25196310877799988 0.28200253844261169
0.3097262978553772 0.26144140958786011 0.29165321588516235
0.5068621039390564 0.27124497294425964 0.30152139067649841
0.697437584400177 0.28092294931411743 0.31110391020774841
0.8831905722618103 0.29071909189224243 0.32091537117958069
0.12085504084825516 0.45913562178611755 0.30107855796813965
0.32911592721939087 0.46886396408081055 0.31070607900619507
0.52550196647644043 0.47872477769851685 0.32050642371177673
0.71543091535568237 0.48844423890113831 0.33025050163269043
0.90095239877700806 0.49831393361091614 0.34003537893295288
0.14170816540718079 0.6712193489074707 0.3201688826084137
0.34845268726348877 0.68111389875411987 0.32992810010910034
0.54397302865982056 0.6912962794303894 0.33956652879714966
0.73330515623092651 0.70110517740249634 0.34932839870452881
0.91841858625411987 0.71110659837722778 0.35893347859382629
0.16255179047584534 0.88660818338394165 0.33911082148551941
0.36756923794746399 0.89649772644042969 0.3489689826965332
0.5622519850730896 0.90660697221755981 0.35855802893638611
0.75137162208557129 0.91667616367340088 0.36838850378990173
0.93605893850326538 0.9266926646232605 0.37788030505180359
0.082161828875541687 0.057491809129714966 0.45509198307991028
0.29413583874702454 0.066174305975437164 0.46470057964324951
0.49210196733474731 0.075497567653656006 0.47438502311706543
0.68286895751953125 0.083950012922286987 0.48396280407905579
0.86913633346557617 0.093254722654819489 0.49366727471351624
0.1039021834731102 0.25562494993209839 0.47411218285560608
0.31351432204246521 0.26527941226959229 0.48346224427223206
0.51052373647689819 0.27512472867965698 0.49322813749313354
0.70105212926864624 0.28461256623268127 0.50268036127090454
0.88654822111129761 0.29416739940643311 0.51230961084365845
0.12495934963226318 0.46287596225738525 0.49287581443786621
0.33292898535728455 0.47261837124824524 0.50228893756866455
0.52910524606704712 0.48250198364257812 0.51192528009414673
0.71886849403381348 0.49221184849739075 0.52152568101882935
0.9043651819229126 0.50207239389419556 0.53097200393676758
0.14573875069618225 0.67510896921157837 0.51160663366317749
0.35212874412536621 0.68490087985992432 0.52119904756546021
0.54755532741546631 0.69507527351379395 0.53058540821075439
0.73682945966720581 0.70490503311157227 0.54035753011703491
0.92177724838256836 0.71497368812561035 0.54964578151702881
0.16659027338027954 0.89043247699737549 0.53029137849807739
0.37120738625526428 0.90034472942352295 0.53996378183364868
0.56577074527740479 0.91052383184432983 0.54938995838165283
0.75477015972137451 0.92063891887664795 0.55901926755905151
0.93956476449966431 0.93059241771697998 0.56848907470703125
0.086353980004787445 0.060619097203016281 0.64471673965454102
0.29798099398612976 0.069706946611404419 0.65424740314483643
0.49557852745056152 0.078773215413093567 0.66359466314315796
0.68633526563644409 0.08758004754781723 0.67321634292602539
0.87261366844177246 0.096769504249095917 0.68250936269760132
0.10796691477298737 0.25947880744934082 0.66321361064910889
0.31732261180877686 0.26916691660881042 0.67289823293685913
0.51414620876312256 0.27879717946052551 0.68220555782318115
0.70463395118713379 0.288103848695755 0.69177639484405518
0.889942467212677 0.29760134220123291 0.70120739936828613
0.12907253205776215 0.46670261025428772 0.6818583607673645
0.33667534589767456 0.4765019416809082 0.69132763147354126
0.5326390266418457 0.48629525303840637 0.70092117786407471
0.72234052419662476 0.49610328674316406 0.71012544631958008
0.90784639120101929 0.50592911243438721 0.71983987092971802
0.14972363412380219 0.67883843183517456 0.70058757066726685
0.35584953427314758 0.68861645460128784 0.709869384765625
0.55103957653045654 0.69886857271194458 0.71942669153213501
0.74033570289611816 0.70872581005096436 0.7287936806678772
0.92507964372634888 0.71884948015213013 0.73819273710250854
0.17056456208229065 0.89433896541595459 0.71899396181106567
0.37476387619972229 0.90416175127029419 0.72857391834259033
0.56935107707977295 0.91439998149871826 0.73786914348602295
0.75822359323501587 0.92446911334991455 0.7474905252456665
0.94300174713134766 0.93445122241973877 0.75676798820495605
0.090561717748641968 0.064063318073749542 0.83221727609634399
0.30167824029922485 0.073114730417728424 0.84172588586807251
0.49920743703842163 0.081899411976337433 0.85093075037002563
0.6899561882019043 0.091337114572525024 0.86060148477554321
0.87604016065597534 0.099929876625537872 0.86988908052444458
0.1120811402797699 0.26336410641670227 0.85061442852020264
0.32113155722618103 0.27279311418533325 0.86019426584243774
0.51778531074523926 0.28227666020393372 0.86947476863861084
0.70805805921554565 0.29162421822547913 0.87877988815307617
0.8934665322303772 0.30109533667564392 0.88825684785842896
0.13311111927032471 0.47057116031646729 0.86920619010925293
0.34046289324760437 0.48037582635879517 0.87845325469970703
0.53627192974090576 0.49018451571464539 0.88801819086074829
0.7257620096206665 0.49997815489768982 0.89727026224136353
0.91111397743225098 0.5097804069519043 0.90663069486618042
0.15374620258808136 0.68254905939102173 0.8875504732131958
0.35960289835929871 0.69235974550247192 0.89693081378936768
0.55461961030960083 0.70266139507293701 0.90619176626205444
0.74393957853317261 0.71247917413711548 0.91580206155776978
0.92866772413253784 0.72267216444015503 0.92493522167205811
0.17452792823314667 0.89816641807556152 0.90588253736495972
0.37846314907073975 0.90808582305908203 0.91543453931808472
0.57291734218597412 0.91831731796264648 0.92466741800308228
0.76163625717163086 0.92832881212234497 0.9340021014213562
0.94621783494949341 0.93834668397903442 0.94350796937942505
