Textures/24.cube
# Created by: G'MIC (https://gmic.eu)
TITLE "SoftWarming.cube"
# LUT size
LUT_3D_SIZE 33
# Data domain
DOMAIN_MIN 0.0 0.0 0.0
DOMAIN_MAX 1.0 1.0 1.0
# LUT data points
0.07365727424621582 0.050677947700023651 0.064472466707229614
0.10079387575387955 0.05203641951084137 0.065683841705322266
0.12813788652420044 0.052698377519845963 0.067060045897960663
0.15588703751564026 0.05402829498052597 0.068417049944400787
0.18306981027126312 0.055250845849514008 0.069572798907756805
0.20930272340774536 0.056172937154769897 0.070900417864322662
0.23510092496871948 0.057327590882778168 0.072180204093456268
0.26062402129173279 0.058322645723819733 0.073339261114597321
0.28660112619400024 0.059809509664773941 0.074694804847240448
0.31214544177055359 0.060448639094829559 0.076010853052139282
0.33695006370544434 0.061765056103467941 0.07718968391418457
0.36221984028816223 0.062985546886920929 0.07864263653755188
0.38678640127182007 0.063991561532020569 0.079894289374351501
0.41164687275886536 0.065042294561862946 0.081123426556587219
0.43653732538223267 0.066079914569854736 0.082453645765781403
0.46054920554161072 0.067557863891124725 0.083712473511695862
0.48499447107315063 0.068190447986125946 0.084804289042949677
0.50914669036865234 0.069569677114486694 0.086241215467453003
0.53318899869918823 0.070686303079128265 0.087541565299034119
0.55732578039169312 0.071837179362773895 0.088736288249492645
0.58120006322860718 0.072809718549251556 0.090154647827148438
0.60477685928344727 0.0738687664270401 0.09132162481546402
0.62885457277297974 0.075409770011901855 0.092510886490345001
0.65248978137969971 0.076031103730201721 0.093846693634986877
0.67591983079910278 0.077463947236537933 0.095165185630321503
0.69951403141021729 0.078456707298755646 0.096388377249240875
0.72297674417495728 0.079684101045131683 0.097742646932601929
0.74631857872009277 0.080624401569366455 0.09894542396068573
0.76989281177520752 0.08171255886554718 0.10017796605825424
0.79276573657989502 0.08326026052236557 0.10142480581998825
0.81608623266220093 0.083862639963626862 0.10279598832130432
0.83921551704406738 0.085307560861110687 0.10402543097734451
0.86214631795883179 0.086315758526325226 0.10531141608953476
0.076414570212364197 0.074958533048629761 0.067048653960227966
0.10339874774217606 0.075903475284576416 0.068203374743461609
0.13070124387741089 0.077188514173030853 0.069371871650218964
0.15830379724502563 0.078102260828018188 0.070750176906585693
0.18550786375999451 0.079377874732017517 0.072063855826854706
0.21189495921134949 0.080373264849185944 0.073244981467723846
0.23759971559047699 0.081562228500843048 0.074667438864707947
0.26321589946746826 0.08276386559009552 0.075982488691806793
0.2890738844871521 0.083709120750427246 0.077194757759571075
0.31457710266113281 0.084959328174591064 0.078574970364570618
0.33932387828826904 0.085938461124897003 0.079733915627002716
0.36448785662651062 0.087280869483947754 0.080966450273990631
0.3890722393989563 0.08816230297088623 0.08231731504201889
0.41404327750205994 0.089438885450363159 0.083606898784637451
0.43871617317199707 0.090534895658493042 0.084806270897388458
0.46290707588195801 0.091529063880443573 0.086181275546550751
0.4870760440826416 0.092936903238296509 0.087475627660751343
0.51143872737884521 0.093761719763278961 0.088646583259105682
0.53560352325439453 0.095128476619720459 0.090022377669811249
0.55970549583435059 0.096070632338523865 0.091225586831569672
0.58336895704269409 0.09732171893119812 0.092426106333732605
0.60694783926010132 0.098456040024757385 0.093796528875827789
0.63121128082275391 0.099396064877510071 0.095067597925662994
0.65466725826263428 0.10078749060630798 0.096368946135044098
0.67808932065963745 0.10167063027620316 0.09763529896736145
0.70178991556167603 0.10302364826202393 0.098883718252182007
0.7249906063079834 0.10401074588298798 0.10006670653820038
0.74864703416824341 0.10518732666969299 0.10135626792907715
0.77203148603439331 0.10644140839576721 0.10266406089067459
0.79497438669204712 0.10724268108606339 0.10386835783720016
0.81836163997650146 0.10881955176591873 0.10517596453428268
0.84132552146911621 0.10962264239788055 0.1064474806189537
0.86447834968566895 0.11091333627700806 0.10771673917770386
0.079077064990997314 0.099133990705013275 0.069295227527618408
0.1060849204659462 0.10032647103071213 0.070715390145778656
0.13331958651542664 0.1013609915971756 0.072024069726467133
0.16085556149482727 0.1024373322725296 0.073243424296379089
0.18807749450206757 0.10358244180679321 0.074659951031208038
0.21445052325725555 0.10488946735858917 0.075977638363838196
0.24003657698631287 0.10570701211690903 0.07716011255979538
0.26555246114730835 0.10708311945199966 0.078497767448425293
0.29154855012893677 0.10824208706617355 0.079736575484275818
0.31705674529075623 0.1091952919960022 0.080843143165111542
0.34175851941108704 0.11039509624242783 0.082261599600315094
0.36679235100746155 0.11156139522790909 0.083565644919872284
0.39151313900947571 0.11288248002529144 0.084786519408226013
0.41624972224235535 0.11361798644065857 0.086179785430431366
0.44110304117202759 0.11499324440956116 0.087424792349338531
0.46516492962837219 0.11620848625898361 0.088584341108798981
0.48953607678413391 0.11710309982299805 0.089913800358772278
0.51377350091934204 0.11848992854356766 0.09120834618806839
0.5378984808921814 0.11941474676132202 0.092406965792179108
0.56184077262878418 0.12081345170736313 0.093779005110263824
0.58568990230560303 0.12165153026580811 0.095021486282348633
0.60942333936691284 0.12294022738933563 0.09622599184513092
0.63332056999206543 0.12427259236574173 0.097580142319202423
0.65698480606079102 0.12498241662979126 0.098819293081760406
0.68048876523971558 0.12648390233516693 0.10005655884742737
0.70388245582580566 0.12749110162258148 0.10134105384349823
0.72727954387664795 0.12872368097305298 0.10264098644256592
0.75077295303344727 0.12964609265327454 0.10387559235095978
0.77419131994247437 0.13090434670448303 0.10512309521436691
0.79729604721069336 0.13226974010467529 0.10642322897911072
0.82044523954391479 0.13299727439880371 0.10769882798194885
0.8436848521232605 0.13449043035507202 0.10890670120716095
0.86642485857009888 0.13553313910961151 0.11022777110338211
0.081915497779846191 0.12341934442520142 0.072061620652675629
0.10890014469623566 0.12471907585859299 0.073253452777862549
0.13592174649238586 0.12584502995014191 0.074675478041172028
0.16346211731433868 0.12711669504642487 0.075940102338790894
0.1906101256608963 0.12799350917339325 0.077112853527069092
0.21680948138237 0.12921884655952454 0.078381992876529694
0.24251434206962585 0.13057085871696472 0.079682596027851105
0.26800453662872314 0.13146074116230011 0.08085295557975769
0.29387775063514709 0.1327560693025589 0.082285784184932709
0.31940528750419617 0.1338081955909729 0.083588764071464539
0.3441576361656189 0.13503226637840271 0.084795750677585602
0.36924916505813599 0.13618572056293488 0.086209386587142944
0.39389520883560181 0.13723666965961456 0.087374009191989899
0.41861486434936523 0.13865064084529877 0.088489413261413574
0.44354546070098877 0.13939815759658813 0.089866355061531067
0.46755915880203247 0.14073804020881653 0.091160304844379425
0.49170291423797607 0.14198166131973267 0.092437848448753357
0.5160982608795166 0.14297391474246979 0.093790248036384583
0.54010862112045288 0.14426563680171967 0.095032326877117157
0.56436753273010254 0.145229771733284 0.096236027777194977
0.58801782131195068 0.14668570458889008 0.097474552690982819
0.61150443553924561 0.1475304514169693 0.098779827356338501
0.6357458233833313 0.14876104891300201 0.10008357465267181
0.65933150053024292 0.15009582042694092 0.10136201232671738
0.68256884813308716 0.15094292163848877 0.10260853171348572
0.7063259482383728 0.15234830975532532 0.10390593856573105
0.72944116592407227 0.15343336760997772 0.10514072328805923
0.75297689437866211 0.15468180179595947 0.10645280778408051
0.77649915218353271 0.15567660331726074 0.10769937187433243
0.79931694269180298 0.15676470100879669 0.10892956703901291
0.82279974222183228 0.15831618010997772 0.11023900657892227
0.84578841924667358 0.15900808572769165 0.11142808198928833
0.8689730167388916 0.16040600836277008 0.11263620108366013
0.084656909108161926 0.14757482707500458 0.07466994971036911
0.11167781054973602 0.14885379374027252 0.075821168720722198
0.1387358158826828 0.15011692047119141 0.076901406049728394
0.16607806086540222 0.15100660920143127 0.078344836831092834
0.19305895268917084 0.15240266919136047 0.07960694283246994
0.2193274199962616 0.1533847451210022 0.080847360193729401
0.24496433138847351 0.15463289618492126 0.082267530262470245
0.2704545259475708 0.15580524504184723 0.08351752907037735
0.29621812701225281 0.1568806916475296 0.084787867963314056
0.32171440124511719 0.1582053005695343 0.086077429354190826
0.34665542840957642 0.15909194946289062 0.087282292544841766
0.37155759334564209 0.16051129996776581 0.08848118782043457
0.3963325023651123 0.161630779504776 0.089846879243850708
0.42099842429161072 0.16260746121406555 0.091137208044528961
0.44572454690933228 0.16402888298034668 0.092424370348453522
0.46978068351745605 0.16494815051555634 0.093730002641677856
0.49417018890380859 0.16627879440784454 0.094967514276504517
0.51837128400802612 0.16735842823982239 0.096131093800067902
0.54248160123825073 0.16850483417510986 0.097403168678283691
0.56645190715789795 0.16988229751586914 0.098739594221115112
0.59023362398147583 0.17065940797328949 0.10005181282758713
0.61394804716110229 0.1722300797700882 0.1013021245598793
0.63790059089660645 0.17318759858608246 0.10259909927845001
0.6615261435508728 0.17428097128868103 0.10377296060323715
0.68508338928222656 0.17569482326507568 0.1049620509147644
0.70843827724456787 0.17658448219299316 0.10634626448154449
0.73177182674407959 0.17795452475547791 0.1076372042298317
0.75522541999816895 0.17897827923297882 0.10886537283658981
0.77857643365859985 0.18026387691497803 0.11023619771003723
0.80176162719726562 0.18152067065238953 0.11140085011720657
0.82476860284805298 0.18229979276657104 0.11254025250673294
0.84810894727706909 0.18391627073287964 0.11391521245241165
0.87095433473587036 0.18480245769023895 0.11516732722520828
0.087236575782299042 0.17256262898445129 0.076911911368370056
0.11415806412696838 0.17405900359153748 0.078322030603885651
0.14137463271617889 0.17474229633808136 0.079618170857429504
0.16871923208236694 0.17645490169525146 0.08085247129201889
0.19566550850868225 0.17728087306022644 0.082236677408218384
0.221932053565979 0.17844296991825104 0.083414092659950256
0.24754440784454346 0.17989271879196167 0.084574364125728607
0.27299600839614868 0.18054717779159546 0.085921555757522583
0.29891929030418396 0.18227922916412354 0.087216705083847046
0.32427695393562317 0.18314406275749207 0.088479697704315186
0.34882864356040955 0.18431372940540314 0.089821852743625641
0.37405475974082947 0.18566529452800751 0.091102428734302521
0.39862683415412903 0.18645618855953217 0.092303335666656494
0.42332732677459717 0.18816584348678589 0.093620121479034424
0.44817176461219788 0.18894658982753754 0.094890221953392029
0.47213271260261536 0.19019605219364166 0.096119880676269531
0.49649840593338013 0.1915399432182312 0.097392529249191284
0.52067559957504272 0.19229735434055328 0.09870089590549469
0.54470044374465942 0.19400654733181 0.099963575601577759
0.56886041164398193 0.19485151767730713 0.10118518769741058
0.59258925914764404 0.19607852399349213 0.10249841213226318
0.61616557836532593 0.19738659262657166 0.10374034196138382
0.64020085334777832 0.19815880060195923 0.10497398674488068
0.6638445258140564 0.19988493621349335 0.10629509389400482
0.68718183040618896 0.20065096020698547 0.10756461322307587
0.71078246831893921 0.2019609659910202 0.10877293348312378
0.73404639959335327 0.20329461991786957 0.11012693494558334
0.75737190246582031 0.20400634407997131 0.11135499179363251
0.78089010715484619 0.2057664692401886 0.1125485748052597
0.80373269319534302 0.20653504133224487 0.1139206662774086
0.82732659578323364 0.20784245431423187 0.1151871457695961
0.85012555122375488 0.20912966132164001 0.11634321510791779
0.87326502799987793 0.20988550782203674 0.1177176907658577
0.089996069669723511 0.19834041595458984 0.079636856913566589
0.11679853498935699 0.19915899634361267 0.080840088427066803
0.14374850690364838 0.20017312467098236 0.082140564918518066
0.17126533389091492 0.20181915163993835 0.083426497876644135
0.19815278053283691 0.20248731970787048 0.084541939198970795
0.22431705892086029 0.20405080914497375 0.085906773805618286
0.25000011920928955 0.20502926409244537 0.087208442389965057
0.27547329664230347 0.20620915293693542 0.08848416805267334
0.30129531025886536 0.20754429697990417 0.089834928512573242
0.32671782374382019 0.20827688276767731 0.091041907668113708
0.35124540328979492 0.21006837487220764 0.092180870473384857
0.37644889950752258 0.21093273162841797 0.093519464135169983
0.40092971920967102 0.21193835139274597 0.094834372401237488
0.42579403519630432 0.21361447870731354 0.096116974949836731
0.45038911700248718 0.21427819132804871 0.097414165735244751
0.47457486391067505 0.21579819917678833 0.098654031753540039
0.498647540807724 0.2168099582195282 0.099898874759674072
0.52301305532455444 0.21798327565193176 0.1011359766125679
0.54710471630096436 0.21935585141181946 0.10250302404165268
0.5711560845375061 0.22007603943347931 0.10375190526247025
0.59477436542510986 0.2218765914440155 0.10497491806745529
0.6184350848197937 0.22270634770393372 0.10628331452608109
0.64252668619155884 0.22371833026409149 0.10757793486118317
0.66606849431991577 0.22534152865409851 0.10873502492904663
0.68952524662017822 0.22604763507843018 0.11011321097612381
0.71305179595947266 0.22761429846286774 0.11131510138511658
0.73616570234298706 0.2286527156829834 0.11251644045114517
0.7598954439163208 0.22975338995456696 0.11392670124769211
0.78302270174026489 0.23112422227859497 0.11510152369737625
0.80614137649536133 0.23188073933124542 0.11627878248691559
0.8292384147644043 0.23364336788654327 0.11764848232269287
0.85250020027160645 0.23452724516391754 0.11887888610363007
0.87541741132736206 0.23545750975608826 0.11999763548374176
0.092724114656448364 0.22337284684181213 0.082086488604545593
0.11956553906202316 0.2241513729095459 0.083306267857551575
0.14645318686962128 0.22562791407108307 0.084516271948814392
0.17363359034061432 0.22662894427776337 0.085898883640766144
0.20065227150917053 0.22779199481010437 0.08718496561050415
0.22678877413272858 0.2292201966047287 0.088465720415115356
0.25242277979850769 0.22993817925453186 0.089733235538005829
0.2777840793132782 0.23166029155254364 0.09091544896364212
0.30357101559638977 0.23262268304824829 0.09218878298997879
0.32911869883537292 0.23352642357349396 0.093448378145694733
0.3537687361240387 0.23519483208656311 0.094773054122924805
0.37872284650802612 0.23601105809211731 0.0960712730884552
0.4033297598361969 0.23741832375526428 0.097307339310646057
0.42800086736679077 0.23851032555103302 0.098630562424659729
0.45276030898094177 0.23957957327365875 0.099829979240894318
0.47684311866760254 0.24106529355049133 0.10100556910037994
0.50109356641769409 0.24178570508956909 0.10238592326641083
0.52528411149978638 0.24346409738063812 0.10369063168764114
0.54931396245956421 0.24444347620010376 0.1048983559012413
0.57335132360458374 0.2453107088804245 0.10619600862264633
0.59722703695297241 0.24709939956665039 0.10745448619127274
0.62070143222808838 0.24787916243076324 0.10857649892568588
0.64466011524200439 0.24918307363986969 0.10997973382472992
0.66835755109786987 0.25042399764060974 0.11124840378761292
0.69171154499053955 0.25134879350662231 0.11237913370132446
0.71531820297241211 0.2529759407043457 0.11380140483379364
0.73864072561264038 0.25371789932250977 0.11500096321105957
0.76180988550186157 0.25522118806838989 0.11618493497371674
0.78543895483016968 0.25640597939491272 0.11758305132389069
0.80822211503982544 0.25714492797851562 0.11882574856281281
0.83162528276443481 0.25898492336273193 0.12000983208417892
0.85464143753051758 0.25976428389549255 0.12136461585760117
0.87763440608978271 0.26094788312911987 0.12259908765554428
0.095532543957233429 0.2484743744134903 0.084551155567169189
0.12217679619789124 0.24960412085056305 0.085881553590297699
0.14924168586730957 0.25124040246009827 0.087191522121429443
0.17628876864910126 0.25191015005111694 0.088362373411655426
0.20316344499588013 0.25348725914955139 0.089712947607040405
0.22925765812397003 0.2545771598815918 0.090941503643989563
0.2548103928565979 0.25557047128677368 0.092188596725463867
0.2802141010761261 0.25706267356872559 0.093462593853473663
0.30605030059814453 0.25789833068847656 0.094785861670970917
0.33146342635154724 0.25946775078773499 0.096033096313476562
0.35611274838447571 0.26044014096260071 0.097241789102554321
0.38118824362754822 0.26143732666969299 0.098558716475963593
0.40571737289428711 0.26313996315002441 0.099801361560821533
0.43041983246803284 0.26382020115852356 0.10102403908967972
0.45527932047843933 0.26527786254882812 0.10236243903636932
0.47923439741134644 0.26654547452926636 0.10362322628498077
0.50330650806427002 0.26738733053207397 0.10481573641300201
0.52760803699493408 0.26904496550559998 0.10619423538446426
0.55164867639541626 0.26985812187194824 0.10741979628801346
0.57586270570755005 0.27124112844467163 0.10860142111778259
0.59936338663101196 0.2724270224571228 0.10998863726854324
0.62291216850280762 0.27329686284065247 0.11124774068593979
0.64714038372039795 0.27509045600891113 0.11241283267736435
0.67053765058517456 0.2758101224899292 0.11377729475498199
0.6939549446105957 0.27705004811286926 0.11503364890813828
0.71761000156402588 0.27855348587036133 0.11620208621025085
0.74081826210021973 0.2793024480342865 0.11759164184331894
0.76430511474609375 0.2809288501739502 0.11883815377950668
0.78759163618087769 0.28193238377571106 0.12003892660140991
0.81063228845596313 0.28300797939300537 0.1213698536157608
0.83385193347930908 0.28450784087181091 0.12259902805089951
0.85682851076126099 0.28527066111564636 0.12378419935703278
0.87986218929290771 0.28690159320831299 0.12517786026000977
0.098151460289955139 0.27369183301925659 0.087094314396381378
0.12493900209665298 0.27516347169876099 0.088278211653232574
0.15181252360343933 0.27627331018447876 0.089557595551013947
0.17908547818660736 0.2773246169090271 0.090852104127407074
0.20579123497009277 0.27881044149398804 0.092165127396583557
0.23191042244434357 0.27961087226867676 0.093453682959079742
0.25752735137939453 0.2812093198299408 0.094711288809776306
0.28286406397819519 0.28225299715995789 0.095936879515647888
0.30849242210388184 0.28309831023216248 0.097169108688831329
0.33383142948150635 0.2849591076374054 0.09856019914150238
0.35857686400413513 0.2857186496257782 0.099798209965229034
0.38354474306106567 0.28692835569381714 0.10101939737796783
0.40813392400741577 0.28842508792877197 0.10234519839286804
0.43292105197906494 0.28920990228652954 0.10361677408218384
0.45746943354606628 0.29076391458511353 0.10481362044811249
0.48147508502006531 0.29171529412269592 0.10615672916173935
0.50576889514923096 0.29298016428947449 0.10742823779582977
0.52995312213897705 0.29436799883842468 0.10859716683626175
0.55406957864761353 0.29509294033050537 0.10996955633163452
0.57791465520858765 0.2968810498714447 0.11116134375333786
0.60172027349472046 0.29779264330863953 0.11239006370306015
0.62543904781341553 0.29870378971099854 0.11377441883087158
0.64918482303619385 0.30054664611816406 0.11498741805553436
0.67282944917678833 0.30124521255493164 0.11617892235517502
0.69632828235626221 0.30261436104774475 0.1175294890999794
0.71972513198852539 0.30389693379402161 0.11876475811004639
0.74310499429702759 0.3048052191734314 0.11987774819135666
0.76656645536422729 0.30638143420219421 0.12126306444406509
0.789836585521698 0.30726438760757446 0.12252523750066757
0.81286489963531494 0.30866008996963501 0.12371335923671722
0.83605426549911499 0.30985367298126221 0.12501156330108643
0.85920315980911255 0.31063777208328247 0.12627679109573364
0.88195043802261353 0.3124941885471344 0.1275019496679306
0.10072135925292969 0.29931065440177917 0.089492619037628174
0.12751036882400513 0.3006536066532135 0.090826287865638733
0.15436193346977234 0.30199944972991943 0.092110157012939453
0.1814492791891098 0.30287480354309082 0.093380346894264221
0.20829105377197266 0.30444636940956116 0.09469950944185257
0.23424918949604034 0.305379718542099 0.095876283943653107
0.2598876953125 0.3066992461681366 0.097052626311779022
0.28524905443191528 0.30802622437477112 0.098427526652812958
0.31102219223976135 0.30878931283950806 0.099738605320453644
0.33636850118637085 0.3105616569519043 0.10094483196735382
0.36080640554428101 0.31147909164428711 0.10223592817783356
0.3859412670135498 0.31244796514511108 0.10350900143384933
0.41044113039970398 0.31420290470123291 0.1046280562877655
0.4351155161857605 0.31486719846725464 0.10603456944227219
0.45989209413528442 0.31633985042572021 0.10732419043779373
0.48380208015441895 0.31753593683242798 0.10842515528202057
0.50808566808700562 0.31851330399513245 0.10985355079174042
0.53224635124206543 0.32006829977035522 0.11112198233604431
0.55616611242294312 0.32088756561279297 0.11222377419471741
0.58037322759628296 0.32238394021987915 0.1136355847120285
0.60402369499206543 0.32360026240348816 0.11486970633268356
0.62738698720932007 0.32436525821685791 0.11606667935848236
0.65160900354385376 0.32622566819190979 0.11741305887699127
0.67521047592163086 0.32705292105674744 0.11864764243364334
0.69834011793136597 0.32811197638511658 0.11985127627849579
0.72217088937759399 0.32977873086929321 0.12122597545385361
0.74519836902618408 0.33051422238349915 0.12245183438062668
0.76872670650482178 0.33200037479400635 0.12368824332952499
0.79211461544036865 0.3332008421421051 0.12499766796827316
0.81483644247055054 0.33416587114334106 0.12621936202049255
0.8383413553237915 0.33572298288345337 0.12739904224872589
0.86128532886505127 0.33654025197029114 0.128700852394104
0.88442879915237427 0.33806571364402771 0.13003405928611755
0.1035163551568985 0.32555967569351196 0.092105619609355927
0.12999840080738068 0.32679742574691772 0.093304507434368134
0.15699774026870728 0.32824650406837463 0.094618320465087891
0.18401423096656799 0.32891669869422913 0.095868058502674103
0.2107338011264801 0.33069318532943726 0.097079575061798096
0.23669366538524628 0.33165192604064941 0.098421208560466766
0.26216623187065125 0.33258292078971863 0.099694296717643738
0.28759211301803589 0.33433312177658081 0.10085882991552353
0.31338289380073547 0.33515188097953796 0.10224874317646027
0.33876928687095642 0.3364378809928894 0.10349613428115845
0.36335256695747375 0.33779719471931458 0.10464053601026535
0.38833525776863098 0.33872461318969727 0.10605906695127487
0.41283172369003296 0.34026938676834106 0.10731075704097748
0.43754920363426208 0.34114769101142883 0.10847563296556473
0.462169349193573 0.34249156713485718 0.10984022170305252
0.48620408773422241 0.34382963180541992 0.11109031736850739
0.51024812459945679 0.34455350041389465 0.11225392669439316
0.53457897901535034 0.34636655449867249 0.11366042494773865
0.55856728553771973 0.34732037782669067 0.11489186435937881
0.5825577974319458 0.34824231266975403 0.11608690768480301
0.60618609189987183 0.34996715188026428 0.11745759844779968
0.6298668384552002 0.3507729172706604 0.1186608299612999
0.65385955572128296 0.35212409496307373 0.11989743262529373
0.67724430561065674 0.35338509082794189 0.1212441697716713
0.70090794563293457 0.35436311364173889 0.12244708091020584
0.72415453195571899 0.35600289702415466 0.12363982945680618
0.74750930070877075 0.35684695839881897 0.12500511109828949
0.77098256349563599 0.35818162560462952 0.12623880803585052
0.794303297996521 0.3595413863658905 0.12742303311824799
0.81739252805709839 0.36027878522872925 0.12865424156188965
0.84034270048141479 0.36207437515258789 0.12996223568916321
0.86357426643371582 0.36300578713417053 0.13120807707309723
