Textures/25.cube
# Created by: G'MIC (https://gmic.eu)
TITLE "TealMagentaGold.cube"
# LUT size
LUT_3D_SIZE 33
# Data domain
DOMAIN_MIN 0.0 0.0 0.0
DOMAIN_MAX 1.0 1.0 1.0
# LUT data points
0.0041047143749892712 0.022950828075408936 0.016670374199748039
0.0074381139129400253 0.039578855037689209 0.016823291778564453
0.022904487326741219 0.055597234517335892 0.019110750406980515
0.073851019144058228 0.063637614250183105 0.029379358515143394
0.12496233731508255 0.069926939904689789 0.03938642144203186
0.17435798048973083 0.07566293329000473 0.052423752844333649
0.22176103293895721 0.082596458494663239 0.066005393862724304
0.26114523410797119 0.084427885711193085 0.068420454859733582
0.29963064193725586 0.085587665438652039 0.070594258606433868
0.33879584074020386 0.093800224363803864 0.074469625949859619
0.37802779674530029 0.10347437858581543 0.079147353768348694
0.414765864610672 0.10682207345962524 0.079599037766456604
0.45120027661323547 0.10896464437246323 0.079011633992195129
0.48686483502388 0.10864578187465668 0.074651159346103668
0.5249292254447937 0.10652913153171539 0.070256106555461884
0.55819821357727051 0.10184277594089508 0.071239456534385681
0.59183973073959351 0.096282392740249634 0.072685636579990387
0.62286192178726196 0.09462747722864151 0.072266772389411926
0.65191471576690674 0.097677908837795258 0.072507835924625397
0.68570220470428467 0.093322552740573883 0.070271559059619904
0.71991133689880371 0.084213219583034515 0.063708141446113586
0.75117135047912598 0.075645342469215393 0.067450128495693207
0.78215765953063965 0.065580762922763824 0.076035432517528534
0.81175041198730469 0.05127706378698349 0.074480026960372925
0.84211331605911255 0.033155545592308044 0.069043822586536407
0.87135863304138184 0.02186419814825058 0.065058633685112
0.89875584840774536 0.012474610470235348 0.059842485934495926
0.92869210243225098 0.0044308546930551529 0.060747832059860229
0.95931363105773926 0.0038607872556895018 0.066200725734233856
0.9812091588973999 0.00064061558805406094 0.066785812377929688
0.99705874919891357 0 0.068056240677833557
1 0.00082930340431630611 0.066699951887130737
1 0.0012731975875794888 0.061601176857948303
0.0074381139129400253 0.073047921061515808 0.038694910705089569
0.025236468762159348 0.075323246419429779 0.035885989665985107
0.042297076433897018 0.086072951555252075 0.03647584468126297
0.082693628966808319 0.090421274304389954 0.042297933250665665
0.13062317669391632 0.095708176493644714 0.050374925136566162
0.17869994044303894 0.09985698014497757 0.058454543352127075
0.22536848485469818 0.10586372762918472 0.069226652383804321
0.26358988881111145 0.10990715771913528 0.070931367576122284
0.30175751447677612 0.11127970367670059 0.072101682424545288
0.34092769026756287 0.11415676027536392 0.073148056864738464
0.37965291738510132 0.1207873672246933 0.075774669647216797
0.41727554798126221 0.1241932287812233 0.074567951261997223
0.4535548985004425 0.1264774352312088 0.073845155537128448
0.48512735962867737 0.12561172246932983 0.071036756038665771
0.52014493942260742 0.1231096088886261 0.067327007651329041
0.556293785572052 0.11868412047624588 0.069425508379936218
0.59089463949203491 0.11380183696746826 0.071584738790988922
0.62399464845657349 0.10949769616127014 0.069082140922546387
0.65566015243530273 0.10960385203361511 0.067925244569778442
0.68915873765945435 0.10639352351427078 0.069786742329597473
0.72330719232559204 0.099343001842498779 0.06739942729473114
0.75464290380477905 0.092812255024909973 0.070993654429912567
0.78547501564025879 0.084867320954799652 0.079581722617149353
0.81273365020751953 0.075093924999237061 0.076455846428871155
0.84056586027145386 0.063243471086025238 0.069252513349056244
0.87181377410888672 0.053380109369754791 0.066599644720554352
0.90136587619781494 0.042716138064861298 0.063851460814476013
0.92992925643920898 0.029567930847406387 0.064439944922924042
0.95920634269714355 0.025103051215410233 0.067848764359951019
0.98065179586410522 0.01443425752222538 0.066889174282550812
0.99704515933990479 0.0009344893041998148 0.064034931361675262
1 0.0031817976851016283 0.06238899752497673
1 0.010480576194822788 0.059131160378456116
0.0095798876136541367 0.12040693312883377 0.055923745036125183
0.032618314027786255 0.11920824646949768 0.052849907428026199
0.058888830244541168 0.1178896352648735 0.05083749070763588
0.097136601805686951 0.12119044363498688 0.054931044578552246
0.13687190413475037 0.12459865212440491 0.059914667159318924
0.18286456167697906 0.12817393243312836 0.065934285521507263
0.2290806770324707 0.13208901882171631 0.072367958724498749
0.26725319027900696 0.13562341034412384 0.074029348790645599
0.30437532067298889 0.13871188461780548 0.073849618434906006
0.34312617778778076 0.14015859365463257 0.073883213102817535
0.38216686248779297 0.14157089591026306 0.073695562779903412
0.41980409622192383 0.14312204718589783 0.072168700397014618
0.45752331614494324 0.14571286737918854 0.070519201457500458
0.48967963457107544 0.14478878676891327 0.06807023286819458
0.51887613534927368 0.14238768815994263 0.064778916537761688
0.55150014162063599 0.13883525133132935 0.066230393946170807
0.58824461698532104 0.13502682745456696 0.069689884781837463
0.62275898456573486 0.13117562234401703 0.069104306399822235
0.65677428245544434 0.12751753628253937 0.065653912723064423
0.69060647487640381 0.12343856692314148 0.066084511578083038
0.72487944364547729 0.11796224117279053 0.067895486950874329
0.75723409652709961 0.11214567720890045 0.072508305311203003
0.78830641508102417 0.10600028187036514 0.081119261682033539
0.81604897975921631 0.097513549029827118 0.078761577606201172
0.84147697687149048 0.091407224535942078 0.070036910474300385
0.86989337205886841 0.084545344114303589 0.06688622385263443
0.90279120206832886 0.073178745806217194 0.066701725125312805
0.93216162919998169 0.06215822696685791 0.067388258874416351
0.95915037393569946 0.055769115686416626 0.069270387291908264
0.97751367092132568 0.045195739716291428 0.068650253117084503
0.99444937705993652 0.021644733846187592 0.063439562916755676
1 0.01220899261534214 0.058908179402351379
1 0.023224279284477234 0.056656740605831146
0.011630323715507984 0.15522885322570801 0.06388111412525177
0.044237744063138962 0.15625172853469849 0.063911117613315582
0.072739757597446442 0.15557262301445007 0.061942324042320251
0.10771571099758148 0.15517246723175049 0.060209687799215317
0.14526797831058502 0.15775388479232788 0.063179329037666321
0.18775235116481781 0.16099876165390015 0.065999150276184082
0.2327362596988678 0.16423340141773224 0.071256369352340698
0.27312090992927551 0.16593535244464874 0.073786824941635132
0.31061047315597534 0.16791461408138275 0.074121557176113129
0.34597182273864746 0.16904629766941071 0.072514064610004425
0.38263398408889771 0.16940207779407501 0.072082683444023132
0.42161399126052856 0.1669899970293045 0.071981281042098999
0.46012118458747864 0.16792221367359161 0.07069888710975647
0.49676504731178284 0.1669030636548996 0.069339483976364136
0.52749687433242798 0.16459760069847107 0.066405020654201508
0.55300945043563843 0.16240100562572479 0.066247239708900452
0.58604186773300171 0.16013261675834656 0.069398447871208191
0.62287610769271851 0.15680041909217834 0.071525759994983673
0.65726542472839355 0.15316911041736603 0.06929469108581543
0.68786317110061646 0.14882366359233856 0.067133352160453796
0.71989291906356812 0.14316554367542267 0.067555397748947144
0.75416892766952515 0.13824558258056641 0.069639839231967926
0.78695368766784668 0.1328536719083786 0.074918240308761597
0.81695443391799927 0.12488266825675964 0.076273404061794281
0.84468448162078857 0.11902982741594315 0.073635190725326538
0.87154155969619751 0.11180048435926437 0.069723956286907196
0.90098893642425537 0.10068979859352112 0.066980965435504913
0.93133306503295898 0.092418350279331207 0.066991910338401794
0.95908766984939575 0.088226959109306335 0.068624146282672882
0.97749030590057373 0.081120230257511139 0.069638691842556
0.99428087472915649 0.063643686473369598 0.066695570945739746
1 0.045465715229511261 0.06177724152803421
1 0.038724109530448914 0.059469003230333328
0.017929853871464729 0.18921555578708649 0.070029191672801971
0.052376493811607361 0.19198545813560486 0.070771828293800354
0.087686523795127869 0.19248317182064056 0.071776576340198517
0.12104173004627228 0.18968559801578522 0.068637020885944366
0.1553928554058075 0.1895517110824585 0.066884338855743408
0.1963028758764267 0.19290558993816376 0.068423420190811157
0.23788294196128845 0.19624426960945129 0.070897758007049561
0.27743414044380188 0.19681239128112793 0.073135055601596832
0.3171466588973999 0.19607222080230713 0.074117228388786316
0.35173320770263672 0.19638299942016602 0.072262510657310486
0.38469550013542175 0.19750650227069855 0.071295604109764099
0.42267349362373352 0.19448862969875336 0.071820586919784546
0.4620048999786377 0.19106625020503998 0.070867449045181274
0.49747607111930847 0.18886391818523407 0.069357015192508698
0.53382593393325806 0.18733042478561401 0.067675285041332245
0.56082886457443237 0.18620799481868744 0.069186829030513763
0.58739989995956421 0.18576335906982422 0.070789702236652374
0.62308549880981445 0.18262146413326263 0.071845687925815582
0.65867358446121216 0.17875184118747711 0.071720041334629059
0.68942016363143921 0.17393429577350616 0.070510551333427429
0.71843522787094116 0.16818687319755554 0.068722054362297058
0.75125575065612793 0.16327552497386932 0.069185048341751099
0.7856522798538208 0.15908969938755035 0.070956923067569733
0.81606817245483398 0.15250852704048157 0.071936227381229401
0.84629291296005249 0.14667589962482452 0.075110867619514465
0.8748774528503418 0.14020369946956635 0.074518494307994843
0.90205448865890503 0.12915964424610138 0.069205686450004578
0.93035948276519775 0.12157212197780609 0.067012973129749298
0.95860964059829712 0.1190129742026329 0.068392463028430939
0.97749030590057373 0.11084254831075668 0.06962113082408905
0.99428087472915649 0.097969256341457367 0.068126216530799866
1 0.088179804384708405 0.064993910491466522
1 0.070252560079097748 0.062632247805595398
0.037829164415597916 0.22376781702041626 0.072108887135982513
0.069521062076091766 0.22443041205406189 0.070939026772975922
0.10283590853214264 0.2245757132768631 0.071416892111301422
0.13397812843322754 0.22328783571720123 0.070757441222667694
0.16800765693187714 0.22234831750392914 0.068930633366107941
0.2067105770111084 0.22413539886474609 0.06963946670293808
0.24658939242362976 0.22638879716396332 0.071531519293785095
0.28177091479301453 0.22640101611614227 0.073923438787460327
0.32028672099113464 0.22560584545135498 0.074501261115074158
0.35753488540649414 0.2228078693151474 0.071218736469745636
0.39122259616851807 0.22320260107517242 0.069663591682910919
0.42618659138679504 0.22153130173683167 0.071195386350154877
0.46312287449836731 0.21804697811603546 0.071176357567310333
0.49722248315811157 0.21483223140239716 0.068159185349941254
0.53172808885574341 0.21361809968948364 0.066921740770339966
0.56352394819259644 0.21338886022567749 0.069063447415828705
0.59158861637115479 0.21234551072120667 0.071113921701908112
0.62736189365386963 0.20938163995742798 0.07192472368478775
0.66348350048065186 0.20593275129795074 0.073202155530452728
0.69534718990325928 0.20019243657588959 0.073129914700984955
0.72481966018676758 0.19371730089187622 0.071922779083251953
0.75330466032028198 0.18826757371425629 0.071386039257049561
0.78562080860137939 0.18411287665367126 0.073143251240253448
0.81601309776306152 0.17878568172454834 0.072688005864620209
0.8464052677154541 0.17308767139911652 0.073058724403381348
0.87668681144714355 0.16950529813766479 0.075467608869075775
0.90557914972305298 0.1626732349395752 0.07495330274105072
0.93217712640762329 0.1557580977678299 0.070219680666923523
0.958698570728302 0.15239565074443817 0.06731715053319931
0.97749030590057373 0.14149646461009979 0.068796359002590179
0.99428087472915649 0.12664562463760376 0.069011509418487549
1 0.12487273663282394 0.065404906868934631
1 0.11923060566186905 0.059540089219808578
0.061416406184434891 0.25772738456726074 0.073267668485641479
0.089869387447834015 0.25732401013374329 0.071616567671298981
0.11904992908239365 0.25690373778343201 0.070610195398330688
0.14979058504104614 0.25480490922927856 0.070598497986793518
0.18098017573356628 0.25342470407485962 0.070147328078746796
0.21812984347343445 0.25519800186157227 0.069752521812915802
0.25666114687919617 0.25645416975021362 0.07132633775472641
0.2911207377910614 0.25645413994789124 0.074217654764652252
0.32445335388183594 0.25589928030967712 0.074985407292842865
0.36107096076011658 0.25233712792396545 0.071632876992225647
0.39785844087600708 0.24928930401802063 0.069065943360328674
0.43253102898597717 0.24752376973628998 0.070669926702976227
0.46679902076721191 0.24504570662975311 0.071510329842567444
0.49872657656669617 0.24209198355674744 0.068180099129676819
0.53189390897750854 0.24016948044300079 0.065806098282337189
0.56351619958877563 0.23925085365772247 0.068252339959144592
0.59491932392120361 0.23721633851528168 0.069427937269210815
0.63109815120697021 0.23464053869247437 0.071555733680725098
0.66825515031814575 0.23257562518119812 0.074375808238983154
0.69992566108703613 0.22731448709964752 0.073903493583202362
0.73058581352233887 0.21992911398410797 0.073882430791854858
0.7586662769317627 0.21369336545467377 0.073642522096633911
0.7866661548614502 0.21003864705562592 0.075782015919685364
0.81677728891372681 0.20587716996669769 0.075181320309638977
0.84737461805343628 0.20018045604228973 0.07210821658372879
0.87686407566070557 0.19525438547134399 0.072575829923152924
0.90719854831695557 0.19298982620239258 0.07770209014415741
0.93510133028030396 0.18944419920444489 0.076077587902545929
0.96033036708831787 0.18546745181083679 0.069287210702896118
0.97769260406494141 0.17649571597576141 0.067323319613933563
0.99428087472915649 0.15989041328430176 0.069332830607891083
1 0.15427833795547485 0.067490957677364349
1 0.15768910944461823 0.058818146586418152
0.087627395987510681 0.28871935606002808 0.069520995020866394
0.10976465791463852 0.28679963946342468 0.069423042237758636
0.13746184110641479 0.28579816222190857 0.068395175039768219
0.16582584381103516 0.28499442338943481 0.068363577127456665
0.1954968124628067 0.28369763493537903 0.067731171846389771
0.22759570181369781 0.28241962194442749 0.066177569329738617
0.26527130603790283 0.28316476941108704 0.067613594233989716
0.30289873480796814 0.28458046913146973 0.074374005198478699
0.33604651689529419 0.28427177667617798 0.076636932790279388
0.3669944703578949 0.28108504414558411 0.072889283299446106
0.40224722027778625 0.27784073352813721 0.069761067628860474
0.43757927417755127 0.27533483505249023 0.073035798966884613
0.47172614932060242 0.27323183417320251 0.074496686458587646
0.50281208753585815 0.26858901977539062 0.070698834955692291
0.53537559509277344 0.26564574241638184 0.068029657006263733
0.56720101833343506 0.26431778073310852 0.070422373712062836
0.59857010841369629 0.26290431618690491 0.07221183180809021
0.63262277841567993 0.2598821222782135 0.073718905448913574
0.66808861494064331 0.25713816285133362 0.076171070337295532
0.69948339462280273 0.25546532869338989 0.073758594691753387
0.73152804374694824 0.25028359889984131 0.072187826037406921
0.76025187969207764 0.24178744852542877 0.07169785350561142
0.78931277990341187 0.23517943918704987 0.072965368628501892
0.82030743360519409 0.23531731963157654 0.075199663639068604
0.85073035955429077 0.23224072158336639 0.074620865285396576
0.87852621078491211 0.22386136651039124 0.072780303657054901
0.90698152780532837 0.21858035027980804 0.074913151562213898
0.93612766265869141 0.21793507039546967 0.075378529727458954
0.96316123008728027 0.21750853955745697 0.070200838148593903
0.98060625791549683 0.21226565539836884 0.06780523806810379
0.99450385570526123 0.19959399104118347 0.07004295289516449
1 0.18935483694076538 0.070693053305149078
1 0.18694549798965454 0.066592998802661896
0.11345505714416504 0.32109403610229492 0.065595857799053192
0.13351850211620331 0.31796622276306152 0.065536990761756897
0.15631724894046783 0.31565222144126892 0.065759681165218353
0.18308992683887482 0.31552273035049438 0.066045545041561127
0.21079105138778687 0.31464716792106628 0.065923064947128296
0.24081054329872131 0.31283825635910034 0.064728379249572754
0.27360889315605164 0.31159290671348572 0.064166627824306488
0.31093671917915344 0.31251040101051331 0.071523696184158325
0.34800902009010315 0.31307762861251831 0.077923387289047241
0.37849771976470947 0.30966079235076904 0.074186928570270538
0.40816500782966614 0.30647984147071838 0.069963134825229645
0.4426119327545166 0.30418699979782104 0.07373916357755661
0.47774192690849304 0.30198171734809875 0.077874548733234406
0.50921022891998291 0.29756590723991394 0.075273863971233368
0.54047095775604248 0.29239898920059204 0.072227939963340759
0.57121270895004272 0.29032394289970398 0.073619887232780457
0.60222780704498291 0.28978878259658813 0.07524600625038147
0.63540190458297729 0.28697860240936279 0.075994618237018585
0.66734737157821655 0.28320935368537903 0.077709048986434937
0.69844144582748413 0.28134623169898987 0.074837423861026764
0.73016893863677979 0.28058925271034241 0.071731008589267731
0.76114189624786377 0.27357220649719238 0.071258261799812317
0.79197108745574951 0.26308155059814453 0.071295492351055145
0.82314538955688477 0.26118817925453186 0.073156878352165222
0.85367876291275024 0.26243531703948975 0.076562128961086273
0.88175839185714722 0.25612542033195496 0.076175004243850708
0.90858763456344604 0.24705894291400909 0.074464134871959686
0.93583118915557861 0.24373240768909454 0.071863710880279541
0.96454828977584839 0.24698370695114136 0.068463049829006195
0.98404663801193237 0.24597904086112976 0.068883121013641357
0.99681538343429565 0.23654578626155853 0.072153307497501373
1 0.22880011796951294 0.072290860116481781
1 0.2214425802230835 0.071964092552661896
0.13740073144435883 0.3504340648651123 0.068910911679267883
0.1538739800453186 0.34807494282722473 0.06577794998884201
0.17467626929283142 0.34548094868659973 0.065948829054832458
0.19658163189888 0.34542468190193176 0.068719126284122467
0.22338232398033142 0.34526827931404114 0.0698743537068367
0.25412732362747192 0.34473296999931335 0.071899175643920898
0.28525674343109131 0.3428901731967926 0.071466445922851562
0.31734570860862732 0.34168893098831177 0.074705459177494049
0.35452300310134888 0.34165000915527344 0.080582275986671448
0.38983529806137085 0.33716580271720886 0.076017133891582489
0.41979920864105225 0.33300477266311646 0.071442753076553345
0.4511854350566864 0.33102017641067505 0.075127378106117249
0.48555216193199158 0.32914793491363525 0.079944491386413574
0.51867526769638062 0.32685571908950806 0.08049725741147995
0.55014586448669434 0.32216095924377441 0.077747412025928497
0.57771885395050049 0.31829705834388733 0.077620387077331543
0.60728907585144043 0.31708139181137085 0.079017996788024902
0.6393694281578064 0.31356197595596313 0.078002624213695526
0.67094886302947998 0.31008291244506836 0.078082218766212463
0.69759494066238403 0.30597519874572754 0.075571544468402863
0.72750532627105713 0.30387893319129944 0.071917295455932617
0.76039755344390869 0.30165153741836548 0.073482967913150787
0.79191702604293823 0.29447028040885925 0.074766755104064941
0.82222819328308105 0.28965967893600464 0.075019910931587219
0.85348916053771973 0.28853991627693176 0.077271640300750732
0.8826218843460083 0.28529158234596252 0.078370332717895508
0.90959072113037109 0.27875423431396484 0.076560445129871368
0.93473857641220093 0.27193823456764221 0.072150245308876038
0.9611855149269104 0.2705988883972168 0.068470120429992676
0.98172664642333984 0.27437210083007812 0.070853866636753082
0.99705874919891357 0.27130892872810364 0.074052721261978149
1 0.26386234164237976 0.071689225733280182
1 0.25639590620994568 0.068725541234016418
0.16078513860702515 0.37877222895622253 0.07430914044380188
0.17551280558109283 0.37700021266937256 0.069889545440673828
0.19270919263362885 0.37607479095458984 0.066612698137760162
0.21289822459220886 0.37606191635131836 0.069700010120868683
0.2352384626865387 0.37506780028343201 0.073033280670642853
0.26643624901771545 0.37457451224327087 0.076357685029506683
0.29812580347061157 0.37383660674095154 0.078935645520687103
0.32852393388748169 0.37235188484191895 0.081344947218894958
0.36135861277580261 0.37005367875099182 0.084283404052257538
0.39744818210601807 0.36571863293647766 0.07951035350561142
0.43184104561805725 0.36062771081924438 0.074110552668571472
0.4623878002166748 0.35783073306083679 0.077442407608032227
0.4932495653629303 0.35613080859184265 0.082119040191173553
0.52646124362945557 0.35389178991317749 0.082688935101032257
0.56005489826202393 0.35139480233192444 0.082479000091552734
0.5874401330947876 0.34763321280479431 0.082770660519599915
0.61287283897399902 0.34383806586265564 0.083841800689697266
0.64371031522750854 0.34024879336357117 0.082239352166652679
0.67563700675964355 0.33656996488571167 0.080700159072875977
0.70290994644165039 0.33263123035430908 0.078072212636470795
0.72704321146011353 0.32732155919075012 0.073082797229290009
0.75790172815322876 0.32458513975143433 0.074066504836082458
0.79034721851348877 0.32375752925872803 0.077340185642242432
0.82138383388519287 0.32098883390426636 0.077951416373252869
0.85392642021179199 0.31561467051506042 0.07811756432056427
0.88236451148986816 0.31096640229225159 0.078041866421699524
0.90941429138183594 0.30861401557922363 0.077765665948390961
0.93550658226013184 0.30371740460395813 0.074761614203453064
0.95993512868881226 0.29657882452011108 0.070828408002853394
0.97869771718978882 0.29678106307983398 0.071142859756946564
0.99514895677566528 0.30024796724319458 0.073211245238780975
1 0.29741799831390381 0.071822322905063629
1 0.2899513840675354 0.066393069922924042
0.18134211003780365 0.40667462348937988 0.076700061559677124
0.19573384523391724 0.40561565756797791 0.078994303941726685
0.2120329886674881 0.40399354696273804 0.075402535498142242
0.22850164771080017 0.40332263708114624 0.074058651924133301
0.24987997114658356 0.4025617241859436 0.076489925384521484
0.2807953953742981 0.40130716562271118 0.076617740094661713
0.31225937604904175 0.40027400851249695 0.078560449182987213
0.34047695994377136 0.39839661121368408 0.081693090498447418
0.37211501598358154 0.39738571643829346 0.085244826972484589
0.40614444017410278 0.39603769779205322 0.08726995438337326
0.44000467658042908 0.39108657836914062 0.083599291741847992
0.46946850419044495 0.3869357705116272 0.083854056894779205
0.4999750554561615 0.38443166017532349 0.086794190108776093
0.53203058242797852 0.3802763819694519 0.083405748009681702
0.56523650884628296 0.37655258178710938 0.081995710730552673
0.59147864580154419 0.37382182478904724 0.083210110664367676
0.61699330806732178 0.3707689642906189 0.084370583295822144
0.6451149582862854 0.36584585905075073 0.080438479781150818
0.67624533176422119 0.36227875947952271 0.07817927747964859
0.7091403603553772 0.3619573712348938 0.080869205296039581
0.73487704992294312 0.35849350690841675 0.079174958169460297
0.76182985305786133 0.3536936342716217 0.078568406403064728
0.79317963123321533 0.35214126110076904 0.081593744456768036
0.82571130990982056 0.35080143809318542 0.080711819231510162
0.85850542783737183 0.34695222973823547 0.079271145164966583
0.88407200574874878 0.34075969457626343 0.077437534928321838
0.90930366516113281 0.33735242486000061 0.07732073962688446
0.93835186958312988 0.33507972955703735 0.078224830329418182
0.96639823913574219 0.32850730419158936 0.076285965740680695
0.98188984394073486 0.32576921582221985 0.070820637047290802
0.99468088150024414 0.32837069034576416 0.067606374621391296
1 0.32841718196868896 0.070505410432815552
1 0.3234400749206543 0.070768721401691437
0.20129139721393585 0.43302205204963684 0.076490215957164764
0.21532662212848663 0.43251654505729675 0.083092011511325836
