Textures/25.cube
# Created by: G'MIC (https://gmic.eu)
TITLE "TealMagentaGold.cube"
# LUT size
LUT_3D_SIZE 5
# Data domain
DOMAIN_MIN 0.0 0.0 0.0
DOMAIN_MAX 1.0 1.0 1.0
# LUT data points
0.0041047143749892712 0.022950828075408936 0.016670374199748039
0.29963064193725586 0.085587665438652039 0.070594258606433868
0.59183973073959351 0.096282392740249634 0.072685636579990387
0.84211331605911255 0.033155545592308044 0.069043822586536407
1 0.0012731975875794888 0.061601176857948303
0.11345505714416504 0.32109403610229492 0.065595857799053192
0.34800902009010315 0.31307762861251831 0.077923387289047241
0.60222780704498291 0.28978878259658813 0.07524600625038147
0.85367876291275024 0.26243531703948975 0.076562128961086273
1 0.2214425802230835 0.071964092552661896
0.25657752156257629 0.54022878408432007 0.085876181721687317
0.40676915645599365 0.53216612339019775 0.089655928313732147
0.64005559682846069 0.50876748561859131 0.084561273455619812
0.86286526918411255 0.48340523242950439 0.086245954036712646
1 0.47467321157455444 0.035414911806583405
0.28622445464134216 0.75536483526229858 0.018806230276823044
0.40952786803245544 0.75345134735107422 0.013157892972230911
0.61058950424194336 0.74179154634475708 0.026797622442245483
0.83540225028991699 0.73293906450271606 0.0031864077318459749
1 0.72351330518722534 0.00014877019566483796
0.18336327373981476 0.98747122287750244 0
0.30433410406112671 0.98367434740066528 0
0.52280449867248535 0.9743003249168396 0
0.75192683935165405 0.97347897291183472 0
0.98464399576187134 0.96475541591644287 0
0.0098213348537683487 0.068830825388431549 0.27848932147026062
0.30828055739402771 0.094558343291282654 0.31064733862876892
0.58836787939071655 0.096441932022571564 0.31477943062782288
0.84165751934051514 0.036926578730344772 0.30249011516571045
1 0 0.28609555959701538
0.13161125779151917 0.31186226010322571 0.30615025758743286
0.34675350785255432 0.30699428915977478 0.31106075644493103
0.59859186410903931 0.29001027345657349 0.30733349919319153
0.84825021028518677 0.25307145714759827 0.29479765892028809
1 0.22478257119655609 0.28242331743240356
0.27399453520774841 0.53710973262786865 0.29458907246589661
0.40383827686309814 0.52807527780532837 0.29220479726791382
0.64296746253967285 0.50544136762619019 0.29432746767997742
0.86560940742492676 0.48353961110115051 0.28146180510520935
1 0.47476655244827271 0.26619404554367065
0.30403494834899902 0.75389111042022705 0.26511678099632263
0.40426599979400635 0.75193506479263306 0.25173652172088623
0.61242872476577759 0.73878300189971924 0.2446124404668808
0.84053713083267212 0.72655171155929565 0.25097611546516418
1 0.72447472810745239 0.22199451923370361
0.1770278662443161 0.98514097929000854 0.19918496906757355
0.32118380069732666 0.98245322704315186 0.19314903020858765
0.52653205394744873 0.9784233570098877 0.1934761255979538
0.75238525867462158 0.97352498769760132 0.18827196955680847
0.99098378419876099 0.96570795774459839 0.18140643835067749
0.09196365624666214 0.0883621945977211 0.55826878547668457
0.32489082217216492 0.10455867648124695 0.56928610801696777
0.58759337663650513 0.10314289480447769 0.56644344329833984
0.84079533815383911 0.047918710857629776 0.55061149597167969
1 0 0.52771157026290894
0.20255689322948456 0.3073476254940033 0.55964446067810059
0.36812946200370789 0.30199253559112549 0.56129264831542969
0.60898464918136597 0.28018090128898621 0.55618560314178467
0.84750545024871826 0.25487110018730164 0.54149693250656128
1 0.22820967435836792 0.51832067966461182
0.31251820921897888 0.53186637163162231 0.54647481441497803
0.43157649040222168 0.51782149076461792 0.53443777561187744
0.65444022417068481 0.49766537547111511 0.53602796792984009
0.86244827508926392 0.48508235812187195 0.52349543571472168
1 0.47241756319999695 0.49559363722801208
0.32369127869606018 0.751495361328125 0.48989734053611755
0.42492884397506714 0.74307018518447876 0.4894537627696991
0.62101227045059204 0.74036478996276855 0.48404338955879211
0.83817398548126221 0.73178684711456299 0.47945192456245422
1 0.72799068689346313 0.47310352325439453
0.20417995750904083 0.98296904563903809 0.44499939680099487
0.33987662196159363 0.98261409997940063 0.44430509209632874
0.54821914434432983 0.97945135831832886 0.4384433925151825
0.76403456926345825 0.97554993629455566 0.43415406346321106
0.99070674180984497 0.96432787179946899 0.42974609136581421
0.20157386362552643 0.097084403038024902 0.81933557987213135
0.36049318313598633 0.097584821283817291 0.81934767961502075
0.59631216526031494 0.093088738620281219 0.81928038597106934
0.83881860971450806 0.012085861526429653 0.79037177562713623
1 0 0.76758003234863281
0.25335937738418579 0.29565241932868958 0.81276381015777588
0.39580664038658142 0.29380708932876587 0.81666845083236694
0.61313480138778687 0.27742919325828552 0.80201828479766846
0.84339803457260132 0.25225630402565002 0.78722399473190308
1 0.21958404779434204 0.76141947507858276
0.37518531084060669 0.51074963808059692 0.78346472978591919
0.4744752049446106 0.50649011135101318 0.7901490330696106
0.65828365087509155 0.48800203204154968 0.77887892723083496
0.8619500994682312 0.47583687305450439 0.76531928777694702
1 0.47454449534416199 0.73847067356109619
0.38418284058570862 0.74462193250656128 0.73748749494552612
0.45848429203033447 0.74394822120666504 0.7396550178527832
0.64308410882949829 0.73289978504180908 0.72900772094726562
0.85104727745056152 0.72801321744918823 0.71642154455184937
1 0.72467350959777832 0.68898814916610718
0.27898305654525757 0.98161333799362183 0.6727912425994873
0.37496563792228699 0.97528976202011108 0.66623795032501221
0.5672452449798584 0.97271513938903809 0.66371536254882812
0.77619004249572754 0.973582923412323 0.66321456432342529
0.99275720119476318 0.96332573890686035 0.65817791223526001
0.27210953831672668 0.088149726390838623 1
0.39658299088478088 0.086313888430595398 1
0.60244262218475342 0.067085810005664825 1
0.8332170844078064 0.0066848937422037125 1
1 0.0012256251648068428 0.99537712335586548
0.30918017029762268 0.28707790374755859 1
0.4219660758972168 0.27917993068695068 1
0.61727374792098999 0.26371702551841736 1
0.84360015392303467 0.24139262735843658 0.99877446889877319
1 0.23121823370456696 0.99479681253433228
0.42793476581573486 0.49748626351356506 0.9978058934211731
0.49665036797523499 0.48867908120155334 0.99649894237518311
0.65948301553726196 0.48714420199394226 0.9966503381729126
0.85319846868515015 0.47915807366371155 0.99395835399627686
1 0.47839638590812683 0.98723369836807251
0.41298913955688477 0.73690760135650635 0.98875099420547485
0.49480405449867249 0.73639065027236938 0.97972756624221802
0.65817135572433472 0.73183482885360718 0.98169881105422974
0.84311890602111816 0.72796034812927246 0.9666372537612915
1 0.72490274906158447 0.93744820356369019
0.32026651501655579 0.97855234146118164 0.91877210140228271
0.40970668196678162 0.97598600387573242 0.91754448413848877
0.58601272106170654 0.9722132682800293 0.90176880359649658
0.78441929817199707 0.97049856185913086 0.90032857656478882
0.99504721164703369 0.96574443578720093 0.88515138626098633
