Textures/26.cube
# Created by: G'MIC (https://gmic.eu)
TITLE "TealOrange.cube"
# LUT size
LUT_3D_SIZE 33
# Data domain
DOMAIN_MIN 0.0 0.0 0.0
DOMAIN_MAX 1.0 1.0 1.0
# LUT data points
0.00052348541794344783 0.0079048387706279755 0.078273780643939972
0.010354882106184959 0.0035605221055448055 0.072243668138980865
0.029997464269399643 0.00041730084922164679 0.069407843053340912
0.057432040572166443 0 0.072571873664855957
0.086749792098999023 0 0.072276167571544647
0.11536404490470886 0 0.062003005295991898
0.1405816525220871 0 0.047349929809570312
0.15954186022281647 0 0.025862133130431175
0.17793168127536774 0 0.0063349651172757149
0.19760866463184357 0 0.0012731880415230989
0.21784858405590057 0 0.00079927901970222592
0.24131588637828827 0 0
0.26518583297729492 0 0
0.2901381254196167 0 0
0.3148358166217804 0 0
0.34273314476013184 0 0
0.37075388431549072 0 0
0.40036875009536743 0 0
0.42738121747970581 0.00010142616520170122 0
0.46151691675186157 0.0010676418896764517 0
0.49763008952140808 0.0011982981814071536 0
0.53258073329925537 0.0012497914722189307 0
0.56818073987960815 0.0015879732090979815 0
0.60838186740875244 0.0050075151957571507 0
0.64866381883621216 0.0056167514994740486 0
0.68929767608642578 0.0056167514994740486 0
0.72977697849273682 0.005708030890673399 0
0.77239096164703369 0.0079540498554706573 0
0.81843537092208862 0.0085258688777685165 0
0.86554843187332153 0.014437007717788219 0
0.91373360157012939 0.039090558886528015 0
0.9522821307182312 0.081283576786518097 0
0.98660147190093994 0.13301408290863037 0
0 0.013617291115224361 0.069128409028053284
0.0013344736071303487 0.0094635067507624626 0.052332222461700439
0.017951712012290955 0.0046494151465594769 0.044747713953256607
0.046995878219604492 0.00073225423693656921 0.039177611470222473
0.076207131147384644 0 0.035659622400999069
0.10827488452196121 0 0.030126502737402916
0.13436004519462585 0 0.019609421491622925
0.15269516408443451 0 0.011509436182677746
0.17059347033500671 0 0.0010485730599611998
0.18963487446308136 0 0
0.20993779599666595 0 0
0.23166163265705109 0 0
0.25464022159576416 0 0
0.28067845106124878 0 0
0.30575558543205261 0 0
0.33416730165481567 0 0
0.36299914121627808 0 0
0.39563271403312683 0 0
0.42482373118400574 0.00029998735408298671 0
0.45722892880439758 0.0051819509826600552 0
0.49253156781196594 0.0097857760265469551 0
0.52785253524780273 0.010452129878103733 0
0.56329971551895142 0.011737275868654251 0
0.60486477613449097 0.023092402145266533 0
0.64605093002319336 0.03510550782084465 0
0.68613433837890625 0.03474251925945282 0
0.72905915975570679 0.034155506640672684 0
0.77080339193344116 0.041608896106481552 0
0.81083887815475464 0.052819486707448959 0
0.8581586480140686 0.054462365806102753 0
0.90857803821563721 0.06591401994228363 0
0.9481392502784729 0.10691538453102112 0
0.98632246255874634 0.15180855989456177 0
0 0.024799074977636337 0.061911486089229584
0 0.021109692752361298 0.041016053408384323
0.0056373211555182934 0.01715611107647419 0.021935103461146355
0.030800705775618553 0.012894065119326115 0.012693747878074646
0.060717552900314331 0.010295254178345203 0.0059076319448649883
0.0925731360912323 0.0089594582095742226 0.0037479626480489969
0.12225531786680222 0.0080805430188775063 0.0021707150153815746
0.14038494229316711 0.0086525315418839455 0.0002472523192409426
0.15854918956756592 0.009482458233833313 6.128125824034214e-05
0.17858751118183136 0.010657156817615032 0
0.19884364306926727 0.0099298004060983658 0
0.22065050899982452 0.0092337839305400848 0
0.24184618890285492 0.0095497425645589828 0
0.26839068531990051 0.010392662137746811 0
0.29389181733131409 0.0094956690445542336 0
0.32215747237205505 0.0076344921253621578 0
0.35158929228782654 0.0087521011009812355 0
0.38402882218360901 0.012173186987638474 0
0.41651326417922974 0.013444467447698116 0
0.45079973340034485 0.017466077581048012 0
0.48565024137496948 0.026839978992938995 0
0.52259290218353271 0.033018294721841812 0
0.55796480178833008 0.035254944115877151 0
0.59746080636978149 0.045595165342092514 0
0.63989204168319702 0.06833580881357193 0
0.68347132205963135 0.075997442007064819 0
0.72891604900360107 0.072929412126541138 0
0.77116501331329346 0.079019472002983093 0
0.80685883760452271 0.097957409918308258 0
0.85205626487731934 0.10385960340499878 0
0.90363949537277222 0.10620496422052383 0
0.94475466012954712 0.13463281095027924 0
0.98537600040435791 0.17362242937088013 0
0 0.046170540153980255 0.057350989431142807
0 0.043909508734941483 0.032336436212062836
0.0028595414478331804 0.040583744645118713 0.010565964505076408
0.01641128771007061 0.038048103451728821 0.0038979770615696907
0.042788133025169373 0.035666655749082565 0
0.075325466692447662 0.033184763044118881 0
0.10491938143968582 0.032580498605966568 0
0.12326501309871674 0.037861175835132599 0
0.14282353222370148 0.040222998708486557 0
0.16340509057044983 0.044236615300178528 0
0.18399205803871155 0.044785857200622559 0
0.20751293003559113 0.043418310582637787 0
0.22997255623340607 0.044025227427482605 0
0.25761735439300537 0.047847330570220947 0
0.2838568389415741 0.048215154558420181 0
0.3099769651889801 0.04731377586722374 0
0.3379993736743927 0.050497055053710938 0
0.36987122893333435 0.058019045740365982 0
0.40224540233612061 0.06197362020611763 0
0.43940088152885437 0.062390994280576706 0
0.47613382339477539 0.06894199550151825 0
0.51651126146316528 0.079822786152362823 0
0.55551564693450928 0.085632495582103729 0
0.59240329265594482 0.089644111692905426 0
0.63290369510650635 0.1032407209277153 0
0.6789126992225647 0.11527083069086075 0
0.72484934329986572 0.11776073276996613 0
0.76891738176345825 0.12042234838008881 0
0.80934602022171021 0.13318608701229095 0
0.85321813821792603 0.13743382692337036 0
0.9032132625579834 0.13828951120376587 0
0.94462990760803223 0.16005419194698334 0
0.98537600040435791 0.1879132091999054 0
0 0.068706296384334564 0.051980700343847275
0 0.066917300224304199 0.026085793972015381
0.0013010760303586721 0.064357034862041473 0.0038699309807270765
0.010627296753227711 0.061868581920862198 0
0.03113429993391037 0.060368217527866364 0
0.064780794084072113 0.057943146675825119 0
0.094303332269191742 0.055441815406084061 0
0.11429855972528458 0.060488563030958176 0
0.13420131802558899 0.067239925265312195 0
0.1539144366979599 0.072314143180847168 0
0.17386433482170105 0.077100589871406555 0
0.19701144099235535 0.077418670058250427 0
0.22077825665473938 0.07847779244184494 0
0.24800148606300354 0.083529554307460785 0
0.27493751049041748 0.088654264807701111 0
0.30088865756988525 0.091917715966701508 0
0.32725220918655396 0.097731836140155792 0
0.35882675647735596 0.10583501309156418 0
0.39133238792419434 0.1130598857998848 0
0.42769142985343933 0.1158568486571312 0
0.46618086099624634 0.11893654614686966 0
0.50690513849258423 0.12699674069881439 0
0.54948079586029053 0.13641434907913208 0
0.58963572978973389 0.14216749370098114 0
0.62831729650497437 0.14631347358226776 0
0.67215824127197266 0.15319719910621643 0
0.71820336580276489 0.16062988340854645 0
0.76453036069869995 0.16749922931194305 0
0.80907189846038818 0.17501883208751678 0
0.85505616664886475 0.17599406838417053 0
0.90354698896408081 0.1758040189743042 0
0.9445534348487854 0.18927566707134247 0
0.98537600040435791 0.20924152433872223 0
0 0.095181763172149658 0.036372225731611252
0 0.094774499535560608 0.021137494593858719
0.00024420296540483832 0.092315122485160828 0.0019503426738083363
0.0051826946437358856 0.087596982717514038 0
0.025774773210287094 0.086131520569324493 0
0.066389061510562897 0.085099630057811737 0
0.097799047827720642 0.082203209400177002 0
0.11945146322250366 0.081694222986698151 0
0.13914987444877625 0.086845904588699341 0
0.15910175442695618 0.091525591909885406 0
0.17902956902980804 0.096882045269012451 0
0.1993078887462616 0.1007196232676506 0
0.22197122871875763 0.10316627472639084 0
0.24691508710384369 0.11033473908901215 0
0.27271744608879089 0.11767493188381195 0
0.29833999276161194 0.12567359209060669 0
0.32464730739593506 0.13247095048427582 0
0.3582051694393158 0.14087289571762085 0
0.39152893424034119 0.14895892143249512 0
0.42561879754066467 0.15553531050682068 0
0.46287044882774353 0.15948443114757538 0
0.5019305944442749 0.16671602427959442 0
0.54351824522018433 0.17756158113479614 0
0.58558261394500732 0.18493153154850006 0
0.62437403202056885 0.19060668349266052 0
0.66629981994628906 0.19592024385929108 0
0.71143192052841187 0.20282170176506042 0
0.7600090503692627 0.21278606355190277 0
0.80569928884506226 0.22393481433391571 0
0.85272133350372314 0.22459594905376434 0
0.90258437395095825 0.22171592712402344 0
0.94428128004074097 0.22657421231269836 0
0.98537600040435791 0.24064832925796509 0
0 0.12075843662023544 0.022877737879753113
0 0.12075843662023544 0.013685542158782482
5.4223979532252997e-05 0.11981933563947678 0.0033713036682456732
0.0029749136883765459 0.11508774012327194 0
0.021148275583982468 0.11044023185968399 0
0.063627324998378754 0.10996725410223007 0
0.10058707743883133 0.11034675687551498 0
0.1236359179019928 0.10953158140182495 0
0.14571422338485718 0.10880469530820847 0
0.16756480932235718 0.11263015121221542 0
0.18902082741260529 0.11675374954938889 0
0.20987953245639801 0.12105672806501389 0
0.22898963093757629 0.12521108984947205 0
0.25165298581123352 0.13295431435108185 0
0.27560636401176453 0.14266856014728546 0
0.30093914270401001 0.15125039219856262 0
0.32701164484024048 0.15893930196762085 0
0.36067166924476624 0.16829767823219299 0
0.39608892798423767 0.17761263251304626 0
0.43091005086898804 0.18533432483673096 0
0.46538752317428589 0.19130399823188782 0
0.50189048051834106 0.20046679675579071 0
0.54121291637420654 0.21347591280937195 0
0.58280277252197266 0.22305548191070557 0
0.62166303396224976 0.23034805059432983 0
0.6632874608039856 0.23609517514705658 0
0.70737713575363159 0.24211536347866058 0
0.75383925437927246 0.25127688050270081 0
0.8002399206161499 0.26557150483131409 0
0.84783214330673218 0.27060922980308533 0
0.89941740036010742 0.26566734910011292 0
0.94345694780349731 0.26790398359298706 0
0.98466134071350098 0.27859944105148315 0
0 0.14281029999256134 0.019215386360883713
0 0.14281029999256134 0.01544656977057457
0 0.14234431087970734 0.00491696922108531
0.00022980473295319825 0.13981106877326965 0
0.016745598986744881 0.13588599860668182 0
0.062075011432170868 0.13545742630958557 0
0.10090218484401703 0.13581655919551849 0
0.12742432951927185 0.13730943202972412 0
0.15198564529418945 0.13686484098434448 0
0.17962729930877686 0.13836389780044556 0
0.203070268034935 0.14161241054534912 0
0.2271965891122818 0.14668384194374084 0
0.24699999392032623 0.15124897658824921 0
0.26512148976325989 0.15720078349113464 0
0.28801834583282471 0.16618144512176514 0
0.31270155310630798 0.17595890164375305 0
0.33844605088233948 0.18448799848556519 0
0.3695758581161499 0.19409714639186859 0
0.40329986810684204 0.20414629578590393 0
0.43871492147445679 0.21556372940540314 0
0.47379210591316223 0.22349089384078979 0
0.50601011514663696 0.23332624137401581 0
0.5422704815864563 0.24600589275360107 0
0.58475208282470703 0.25865983963012695 0
0.62494498491287231 0.26844504475593567 0
0.66610538959503174 0.27248695492744446 0
0.70915180444717407 0.27692097425460815 0
0.75270885229110718 0.2851184606552124 0
0.79637646675109863 0.29886117577552795 0
0.84286284446716309 0.30852684378623962 0
0.89187479019165039 0.31011614203453064 0
0.9374890923500061 0.30965232849121094 0
0.98027181625366211 0.31491270661354065 0
0 0.16642074286937714 0.01506651658564806
0 0.16658496856689453 0.013398542068898678
0 0.16650186479091644 0.0058789434842765331
0 0.16523365676403046 7.6601572800427675e-05
0.011365353129804134 0.16306617856025696 1.4256403119361494e-05
0.056039150804281235 0.16299541294574738 0
0.10050436109304428 0.1627994030714035 0
0.13025198876857758 0.16461081802845001 0
0.15825626254081726 0.16648375988006592 0
0.18739549815654755 0.16713422536849976 0
0.21527503430843353 0.16823026537895203 0
0.2412993311882019 0.17312376201152802 0
0.26539599895477295 0.17897939682006836 0
0.28554588556289673 0.18476930260658264 0
0.30613306164741516 0.19124855101108551 0
0.3297228217124939 0.20008990168571472 0
0.35382625460624695 0.20991368591785431 0
0.38420885801315308 0.22055025398731232 0
0.41448858380317688 0.23169241845607758 0
0.44791373610496521 0.24275827407836914 0
0.48405873775482178 0.25431665778160095 0
0.51756924390792847 0.2657204270362854 0
0.54943978786468506 0.27722731232643127 0
0.58828079700469971 0.28914165496826172 0
0.63045549392700195 0.30218040943145752 0
0.67146581411361694 0.30781611800193787 0
0.71350604295730591 0.31036925315856934 0
0.75595200061798096 0.31850475072860718 0
0.79693633317947388 0.33142897486686707 0
0.84196633100509644 0.34181785583496094 0
0.8887864351272583 0.34947377443313599 0
0.93232643604278564 0.35358688235282898 0
0.97594237327575684 0.35410431027412415 0
0 0.19819100201129913 0.024626726284623146
0 0.19967323541641235 0.014893481507897377
0 0.19967323541641235 0.0068104988895356655
0 0.19912740588188171 0.0012256251648068428
0.0092882746830582619 0.19670766592025757 0.00022810247901361436
0.051363933831453323 0.19787582755088806 0
0.098965078592300415 0.19660042226314545 0
0.13639381527900696 0.19612416625022888 0
0.16599565744400024 0.19863396883010864 0
0.19712473452091217 0.19827452301979065 0
0.22640162706375122 0.19861195981502533 0
0.25442123413085938 0.20327480137348175 0
0.28066638112068176 0.20907308161258698 0
0.30796703696250916 0.21595078706741333 0
0.33014288544654846 0.22208358347415924 0
0.35235133767127991 0.2280212938785553 0
0.37588456273078918 0.236418217420578 0
0.40587270259857178 0.24820014834403992 0
0.43636372685432434 0.25919508934020996 0
0.46420812606811523 0.2685776948928833 0
0.49626195430755615 0.27910742163658142 0
0.53194063901901245 0.29269701242446899 0
0.56472975015640259 0.3056185245513916 0
0.60004723072052002 0.31681883335113525 0
0.64018720388412476 0.32971301674842834 0
0.67862135171890259 0.33736670017242432 0
0.71738266944885254 0.34125450253486633 0
0.75959843397140503 0.35015380382537842 0
0.80111891031265259 0.36278116703033447 0
0.84648990631103516 0.37460300326347351 0
0.89340084791183472 0.38346165418624878 0
0.93625158071517944 0.389739990234375 0
0.97963541746139526 0.39340770244598389 0
0 0.22974666953086853 0.038010753691196442
0 0.23006528615951538 0.023650035262107849
0 0.23122704029083252 0.007947203703224659
0 0.23182886838912964 0.0019183721160516143
0.0071971616707742214 0.23232638835906982 0.00090373132843524218
0.047235265374183655 0.23268663883209229 3.1208046493702568e-06
0.097896881401538849 0.23178069293498993 0
0.13925784826278687 0.23084332048892975 0
0.17383784055709839 0.23158691823482513 0
0.20658776164054871 0.2311115562915802 0
0.238315150141716 0.23071330785751343 0
0.26771551370620728 0.23544727265834808 0
0.29644185304641724 0.24080806970596313 0
0.32570624351501465 0.24730494618415833 0
0.35394266247749329 0.25431200861930847 0
0.37731188535690308 0.25893044471740723 0
0.39952555298805237 0.26404699683189392 0
0.4289318323135376 0.27469447255134583 0
0.46046975255012512 0.28569167852401733 0
0.48788449168205261 0.29492998123168945 0
0.51263952255249023 0.30315518379211426 0
0.54565393924713135 0.31634962558746338 0
0.58087950944900513 0.33136719465255737 0
0.61615872383117676 0.34363499283790588 0
0.6544797420501709 0.35660392045974731 0
0.69132834672927856 0.36535513401031494 0
0.72675502300262451 0.37129300832748413 0
0.76672106981277466 0.38085275888442993 0
0.80908823013305664 0.39232274889945984 0
0.85251069068908691 0.40304931998252869 0
0.89908778667449951 0.41282328963279724 0
0.94105464220046997 0.42027565836906433 0
0.984000563621521 0.42733597755432129 0
0 0.26507186889648438 0.044625800102949142
0 0.26507186889648438 0.027555471286177635
0 0.26686161756515503 0.010244796983897686
0 0.26830059289932251 0.0036016637459397316
0.0042126188054680824 0.26861029863357544 0.0024057121481746435
0.036557484418153763 0.26830163598060608 0.0012256251648068428
0.090312130749225616 0.26809972524642944 0.00030470400815829635
0.14421439170837402 0.26809459924697876 0
0.18189123272895813 0.26809456944465637 0
0.21480505168437958 0.26777836680412292 0
0.24657383561134338 0.26746147871017456 0
0.28115785121917725 0.27364203333854675 0
0.31201690435409546 0.27890282869338989 0
0.34533563256263733 0.28213194012641907 0
0.37581729888916016 0.28726315498352051 0
0.4021681547164917 0.28885585069656372 0
0.42510852217674255 0.2929815948009491 0
0.45142024755477905 0.30201613903045654 0
0.48183467984199524 0.31262868642807007 0
0.51180630922317505 0.32321131229400635 0
0.53787475824356079 0.33254057168960571 0
0.56941825151443481 0.34426549077033997 0
0.60366392135620117 0.35911527276039124 0
0.63939887285232544 0.37129676342010498 0
0.67748302221298218 0.38310769200325012 0
0.7138824462890625 0.39528515934944153 0
0.74792677164077759 0.40489006042480469 0
0.78687316179275513 0.41316083073616028 0
0.82828253507614136 0.42266815900802612 0
0.8667493462562561 0.43218335509300232 0
0.90927863121032715 0.44236370921134949 0
0.94730138778686523 0.45020723342895508 0
0.98442953824996948 0.45683416724205017 0
0 0.30138659477233887 0.051337350159883499
0 0.30111667513847351 0.033266808837652206
0 0.30250087380409241 0.012559432536363602
0 0.30457264184951782 0.0058450237847864628
0.0029769276734441519 0.30605807900428772 0.0028014883864670992
0.032118216156959534 0.30451169610023499 0.00053762953029945493
0.083054117858409882 0.30328503251075745 0.00014547204773407429
0.14164134860038757 0.30301633477210999 0
0.18941521644592285 0.30308109521865845 0
0.22348730266094208 0.30339926481246948 0
0.25330504775047302 0.30435410141944885 0
0.28940016031265259 0.31054943799972534 0
0.32613769173622131 0.31692302227020264 0
0.36136290431022644 0.31894710659980774 0
0.39649859070777893 0.32180696725845337 0
0.42438754439353943 0.32279461622238159 0
0.45004960894584656 0.323956698179245 0
0.47739192843437195 0.33149585127830505 0
0.50433570146560669 0.3411310613155365 0
0.53466862440109253 0.35151055455207825 0
0.56483662128448486 0.36270591616630554 0
0.59593051671981812 0.3743617832660675 0
0.62928330898284912 0.38797429203987122 0
0.66493433713912964 0.39950186014175415 0
0.70306253433227539 0.40930002927780151 0
0.73852235078811646 0.42081734538078308 0
0.77146077156066895 0.43540725111961365 0
0.80912679433822632 0.44640800356864929 0
0.84939354658126831 0.45279327034950256 0
0.88611632585525513 0.46069753170013428 0
0.92457401752471924 0.47177156805992126 0
0.95767968893051147 0.47991934418678284 0
0.98877137899398804 0.48587879538536072 0
0 0.34239077568054199 0.054067477583885193
0 0.34313097596168518 0.041878722608089447
0 0.34396478533744812 0.020299855619668961
0 0.34549197554588318 0.010551450774073601
3.1598148780176416e-05 0.34602665901184082 0.0051544574089348316
0.010026982985436916 0.34472370147705078 9.646124453865923e-06
0.059693515300750732 0.34376353025436401 0
0.14141625165939331 0.34281155467033386 0
0.1980147659778595 0.34286218881607056 0
0.24030305445194244 0.34495794773101807 0
0.2715725302696228 0.34623333811759949 0
0.30799424648284912 0.34945365786552429 0
0.34548607468605042 0.35529607534408569 0
0.38057929277420044 0.35710352659225464 0
0.41557636857032776 0.359474778175354 0
0.44782525300979614 0.36305060982704163 0
0.47535356879234314 0.36403235793113708 0
0.50878840684890747 0.36860349774360657 0
0.5382581353187561 0.37707686424255371 0
0.56902009248733521 0.38568165898323059 0
0.59849727153778076 0.39545196294784546 0
0.62521219253540039 0.40340462327003479 0
0.65619134902954102 0.41485664248466492 0
0.69181066751480103 0.42660847306251526 0
0.72927069664001465 0.43734893202781677 0
0.76301354169845581 0.44680362939834595 0
0.79508906602859497 0.45932188630104065 0
0.83091861009597778 0.47301313281059265 0
0.87025904655456543 0.48184087872505188 0
0.9034382700920105 0.48839321732521057 0
0.93835967779159546 0.49752581119537354 0
0.96508276462554932 0.50584274530410767 0
0.98980617523193359 0.51226073503494263 0
0 0.38347816467285156 0.054506927728652954
0 0.38507276773452759 0.044371236115694046
0 0.38673275709152222 0.027468292042613029
0 0.38742154836654663 0.015580137260258198
0.00090028293197974563 0.3871283233165741 0.0066356109455227852
0.0019064040388911963 0.38653284311294556 0.0008493929635733366
0.029181323945522308 0.38663426041603088 0.00044416915625333786
0.12083161622285843 0.38543757796287537 0.00012766927829943597
0.20584629476070404 0.38425460457801819 3.1917319574858993e-05
0.25286304950714111 0.38664260506629944 0
0.29180106520652771 0.38978558778762817 0
0.32955807447433472 0.39233577251434326 0
0.36715781688690186 0.39437812566757202 0
0.40107429027557373 0.39596951007843018 0
0.43419831991195679 0.39821770787239075 0
0.46704322099685669 0.40233460068702698 0
0.49954277276992798 0.40538057684898376 0
0.53531306982040405 0.40985101461410522 0
0.57202827930450439 0.41551464796066284 0
0.60414320230484009 0.42274108529090881 0
0.63317376375198364 0.42896810173988342 0
0.660256028175354 0.43591979146003723 0
0.68629050254821777 0.44237270951271057 0
0.71893441677093506 0.45260190963745117 0
0.75516945123672485 0.46549114584922791 0
0.787894606590271 0.47483137249946594 0
0.8185616135597229 0.48270735144615173 0
0.85314565896987915 0.49482274055480957 0
0.89144682884216309 0.50783389806747437 0
0.92387741804122925 0.51584124565124512 0
0.95461148023605347 0.52192848920822144 0
0.97570621967315674 0.52938294410705566 0
0.99285805225372314 0.53688663244247437 0
0 0.42493698000907898 0.086373507976531982
0 0.42622709274291992 0.061953321099281311
0 0.4279559850692749 0.043139845132827759
0 0.42983081936836243 0.022926086559891701
0.0037538760807365179 0.4305662214756012 0.011070940643548965
0.021312344819307327 0.43120613694190979 0.0036581186577677727
0.04771098867058754 0.43090972304344177 0.0028217711951583624
0.12640643119812012 0.42914202809333801 0.0012476070551201701
0.2129032164812088 0.4271911084651947 0.00060054211644455791
0.26696750521659851 0.42671710252761841 0
0.30998566746711731 0.42926639318466187 0
0.35176590085029602 0.43083325028419495 0
0.38919126987457275 0.43286001682281494 0
0.42379099130630493 0.43569305539131165 0
0.45673173666000366 0.43801981210708618 0
0.48852452635765076 0.43976929783821106 0
0.52139931917190552 0.44299829006195068 0
0.55819416046142578 0.44534796476364136 0
0.59560924768447876 0.45016804337501526 0
0.63121068477630615 0.45444077253341675 0
0.66240155696868896 0.46012160181999207 0
0.6962888240814209 0.46791425347328186 0
0.7246282696723938 0.47439414262771606 0
0.75031453371047974 0.48072579503059387 0
0.78295886516571045 0.49143484234809875 0
0.81326627731323242 0.50117361545562744 0
0.84339594841003418 0.50914794206619263 0
0.87471330165863037 0.5181853175163269 0
0.90971803665161133 0.52965116500854492 0
0.94158905744552612 0.53792011737823486 0
0.9718812108039856 0.54480820894241333 0
0.98491120338439941 0.55315828323364258 0
0.99366647005081177 0.56041312217712402 0
0 0.46748104691505432 0.13124412298202515
0 0.46821784973144531 0.097024403512477875
0 0.46878156065940857 0.064996510744094849
0 0.47203388810157776 0.038085062056779861
0.0044577941298484802 0.47438329458236694 0.014231195673346519
0.034206967800855637 0.47456023097038269 0.0058348006568849087
0.081908755004405975 0.47483590245246887 0.0045544477179646492
0.15353409945964813 0.47355610132217407 0.0027129433583468199
0.22150464355945587 0.47197529673576355 0.0016899441834539175
0.2779480516910553 0.47007626295089722 0.00057763204677030444
0.33082428574562073 0.46919077634811401 0.00020008612773381174
0.37425512075424194 0.46999594569206238 0
0.41148388385772705 0.47211819887161255 0
0.44606176018714905 0.47498944401741028 0
0.48052936792373657 0.47846108675003052 0
0.51213806867599487 0.47985252737998962 0
0.54390102624893188 0.48016816377639771 0
0.58048087358474731 0.48215058445930481 0
