Textures/26.cube
# Created by: G'MIC (https://gmic.eu)
TITLE "TealOrange.cube"
# LUT size
LUT_3D_SIZE 5
# Data domain
DOMAIN_MIN 0.0 0.0 0.0
DOMAIN_MAX 1.0 1.0 1.0
# LUT data points
0.00052348541794344783 0.0079048387706279755 0.078273780643939972
0.17793168127536774 0 0.0063349651172757149
0.37075388431549072 0 0
0.64866381883621216 0.0056167514994740486 0
0.98660147190093994 0.13301408290863037 0
0 0.16642074286937714 0.01506651658564806
0.15825626254081726 0.16648375988006592 0
0.35382625460624695 0.20991368591785431 0
0.63045549392700195 0.30218040943145752 0
0.97594237327575684 0.35410431027412415 0
0 0.46748104691505432 0.13124412298202515
0.22150464355945587 0.47197529673576355 0.0016899441834539175
0.54390102624893188 0.48016816377639771 0
0.81435281038284302 0.51872038841247559 0
0.99909275770187378 0.58417922258377075 0
0.28180333971977234 0.80421328544616699 0.2365955263376236
0.38766530156135559 0.81338244676589966 0.079736702144145966
0.71848183870315552 0.78945749998092651 0.00041016744216904044
0.96661102771759033 0.77639424800872803 0
1 0.75935393571853638 0
0.43157640099525452 1 0.30092653632164001
0.43566733598709106 1 0.14250260591506958
0.6955597996711731 0.99788075685501099 0
0.9932715892791748 0.96530890464782715 0
1 0.91746997833251953 0
0 0.027638828381896019 0.20287373661994934
0.0010049507254734635 0.046027794480323792 0.22420184314250946
0.22337344288825989 0.085841275751590729 0.36166030168533325
0.5998690128326416 0.099561922252178192 0.339426189661026
0.98589503765106201 0.027816835790872574 0.24594399333000183
0 0.16621071100234985 0.17563571035861969
0.097535222768783569 0.18054692447185516 0.18127778172492981
0.36489155888557434 0.20754575729370117 0.20238460600376129
0.69948387145996094 0.22556504607200623 0.16645063459873199
0.99995678663253784 0.20128579437732697 0.037346694618463516
0 0.46776574850082397 0.35790663957595825
0.15412382781505585 0.47417411208152771 0.30265673995018005
0.51819097995758057 0.49173480272293091 0.22374583780765533
0.78429824113845825 0.54412657022476196 0.17169423401355743
0.99625682830810547 0.590903639793396 0.11172611266374588
0.29968440532684326 0.8019670844078064 0.49641251564025879
0.40131199359893799 0.80499088764190674 0.42954233288764954
0.65997934341430664 0.80257958173751831 0.2632918655872345
0.94574266672134399 0.78101027011871338 0.25197961926460266
1 0.77410757541656494 0.11206439882516861
0.45230394601821899 0.99899923801422119 0.52033448219299316
0.5172162652015686 1 0.45765545964241028
0.65514260530471802 0.99928933382034302 0.22946882247924805
0.9722629189491272 0.96979224681854248 0.12859398126602173
1 0.92496335506439209 0.036697469651699066
0 0.094475686550140381 0.36005690693855286
0 0.14064830541610718 0.34761166572570801
0.016272684559226036 0.18104751408100128 0.43687865138053894
0.42032885551452637 0.25630724430084229 0.66221070289611816
0.80968016386032104 0.34548661112785339 0.84562188386917114
0 0.20986741781234741 0.24721165001392365
0 0.24466215074062347 0.3238278329372406
0.1750270277261734 0.28627458214759827 0.43918600678443909
0.51307970285415649 0.34438440203666687 0.66138279438018799
0.89247828722000122 0.40609034895896912 0.77957737445831299
0.0094034355133771896 0.47451511025428772 0.4530789852142334
0.22148828208446503 0.48429673910140991 0.45620933175086975
0.47541594505310059 0.51556491851806641 0.47745341062545776
0.77177482843399048 0.54995989799499512 0.54178005456924438
0.99966669082641602 0.55168062448501587 0.51942616701126099
0.27353182435035706 0.80372428894042969 0.68863815069198608
0.39606693387031555 0.80310070514678955 0.67452836036682129
0.61414629220962524 0.810535728931427 0.60916602611541748
0.90627956390380859 0.80488097667694092 0.50484675168991089
1 0.80650609731674194 0.43928959965705872
0.42734214663505554 1 0.76538890600204468
0.50553625822067261 0.99797630310058594 0.74490869045257568
0.66510576009750366 0.99761539697647095 0.63324505090713501
0.89862328767776489 0.98846989870071411 0.43354088068008423
1 0.93517953157424927 0.39016932249069214
0 0.17694051563739777 0.52426266670227051
0 0.21723641455173492 0.54325407743453979
0 0.2875305712223053 0.56062889099121094
0.2636512815952301 0.35435998439788818 0.72870141267776489
0.70527714490890503 0.4438440203666687 0.97418272495269775
0 0.27933871746063232 0.45087143778800964
0 0.31399059295654297 0.50620836019515991
0 0.38881394267082214 0.59828507900238037
0.3982570469379425 0.43978035449981689 0.74024146795272827
0.77426546812057495 0.50231045484542847 0.973499596118927
0 0.52530330419540405 0.55046337842941284
0.01113920658826828 0.54433178901672363 0.54198098182678223
0.097322277724742889 0.59806740283966064 0.62557870149612427
0.62711572647094727 0.61829394102096558 0.7525448203086853
0.911601722240448 0.64181971549987793 0.9647287130355835
0.42661792039871216 0.79948031902313232 0.74428105354309082
0.4953497052192688 0.80862081050872803 0.74426186084747314
0.65956646203994751 0.81005245447158813 0.7450680136680603
0.86320662498474121 0.81573367118835449 0.75133210420608521
0.99997621774673462 0.80261170864105225 0.77485567331314087
0.43082025647163391 0.99877446889877319 0.92303049564361572
0.5125577449798584 0.99820202589035034 0.90474551916122437
0.66313493251800537 0.99669808149337769 0.86058682203292847
0.85461032390594482 0.99200195074081421 0.77872127294540405
1 0.94353604316711426 0.64106917381286621
0 0.2827763557434082 0.72063422203063965
0 0.31631386280059814 0.75469404458999634
0 0.3937741219997406 0.77654379606246948
0 0.48145896196365356 0.83697360754013062
0.60246342420578003 0.54942154884338379 0.99961709976196289
0 0.37801268696784973 0.67514735460281372
0 0.40580514073371887 0.71647804975509644
0 0.48724296689033508 0.81051164865493774
0.0024765594862401485 0.55809342861175537 0.85594379901885986
0.66257524490356445 0.59759080410003662 0.99818986654281616
0 0.60412412881851196 0.64895457029342651
0 0.62283360958099365 0.68578577041625977
0 0.67680656909942627 0.79548949003219604
0.0380074642598629 0.73694705963134766 0.9160844087600708
0.78945910930633545 0.72490060329437256 0.99803382158279419
0.31833618879318237 0.83283489942550659 0.87206387519836426
0.3820216953754425 0.83830791711807251 0.86175674200057983
0.50544643402099609 0.85979741811752319 0.83511972427368164
0.6233026385307312 0.89502257108688354 0.88383811712265015
0.93876367807388306 0.86792951822280884 0.97910332679748535
0.57014554738998413 0.99650061130523682 0.9381866455078125
0.62764376401901245 0.9966503381729126 0.93656301498413086
0.73591423034667969 0.99501746892929077 0.92237317562103271
0.88768512010574341 0.98154163360595703 0.90388888120651245
0.99954837560653687 0.95588815212249756 0.87422484159469604
