Textures/28.cube
# Created by: G'MIC (https://gmic.eu)
TITLE "TealOrange2.cube"
# LUT size
LUT_3D_SIZE 33
# Data domain
DOMAIN_MIN 0.0 0.0 0.0
DOMAIN_MAX 1.0 1.0 1.0
# LUT data points
0.0045612547546625137 0.034244783222675323 0.07565084844827652
0.031791940331459045 0.028029285371303558 0.07516053318977356
0.062791481614112854 0.026196731254458427 0.077308788895606995
0.087176039814949036 0.026427987962961197 0.065669961273670197
0.11151754856109619 0.026466606184840202 0.052232272922992706
0.13043768703937531 0.026981450617313385 0.042459785938262939
0.14558690786361694 0.027045799419283867 0.030574532225728035
0.16390617191791534 0.027078559622168541 0.033142607659101486
0.17982883751392365 0.027233000844717026 0.03444991260766983
0.1929408460855484 0.026969730854034424 0.033025730401277542
0.2103116512298584 0.024975527077913284 0.023223662748932838
0.22898223996162415 0.023338118568062782 0.018865872174501419
0.24717198312282562 0.02274131216108799 0.017867254093289375
0.26614037156105042 0.018272414803504944 0.0074454508721828461
0.28578734397888184 0.016190811991691589 0.0020192002411931753
0.30409616231918335 0.016240747645497322 0.0018910452490672469
0.32322055101394653 0.013582590967416763 0.0018910452490672469
0.34427744150161743 0.0083993654698133469 0.0018910452490672469
0.36336663365364075 0.0057697566226124763 0.0018910452490672469
0.38317283987998962 0.0048996810801327229 0.0018910452490672469
0.40337219834327698 0.0029171425849199295 0.0012080476153641939
0.424582839012146 0.0045340019278228283 1.2483218597481027e-05
0.44761526584625244 0.0049036946147680283 0
0.47267645597457886 0.0048912111669778824 0
0.49488532543182373 0.0043050232343375683 0
0.51485055685043335 0.0039863544516265392 0
0.53904634714126587 0.0039336914196610451 0
0.56535255908966064 0.0053116818889975548 0
0.58801960945129395 0.0070695490576326847 0
0.6097644567489624 0.0071027432568371296 0
0.63238894939422607 0.0071721794083714485 0
0.65845990180969238 0.0077545191161334515 0
0.68710827827453613 0.0078703686594963074 0
0.0020299698226153851 0.055192485451698303 0.063006721436977386
0.019125156104564667 0.05077400803565979 0.04424581304192543
0.049849379807710648 0.049564771354198456 0.045471243560314178
0.074399925768375397 0.050569724291563034 0.043877445161342621
0.098269954323768616 0.050983231514692307 0.033486269414424896
0.11684650927782059 0.051800493150949478 0.027407919988036156
0.13195444643497467 0.052682291716337204 0.025328030809760094
0.14940547943115234 0.053247217088937759 0.029324615374207497
0.16723728179931641 0.054209429770708084 0.031531013548374176
0.18268091976642609 0.054775353521108627 0.030242566019296646
0.20021574199199677 0.053148895502090454 0.020389795303344727
0.21884137392044067 0.050660207867622375 0.014845432713627815
0.23712286353111267 0.047904524952173233 0.014141909778118134
0.25683537125587463 0.045372948050498962 0.0047728540375828743
0.2772504985332489 0.044658847153186798 9.9298340501263738e-06
0.29742664098739624 0.045767821371555328 0
0.31801405549049377 0.042455803602933884 0
0.33850786089897156 0.036066561937332153 0
0.35657915472984314 0.027009831741452217 0
0.3761143684387207 0.022228382527828217 0
0.39626199007034302 0.020479822531342506 0
0.4163004457950592 0.025772614404559135 0
0.43799397349357605 0.030750185251235962 0
0.46406286954879761 0.030998654663562775 0
0.48711314797401428 0.029692741110920906 0
0.5081484317779541 0.027720732614398003 0
0.53175276517868042 0.027767514809966087 0
0.56003040075302124 0.030877038836479187 0
0.5876692533493042 0.039713844656944275 0
0.61140340566635132 0.043361425399780273 0
0.63465344905853271 0.044017717242240906 0
0.657795250415802 0.045986782759428024 0
0.68335807323455811 0.047696560621261597 0
0.0017868963768705726 0.074720695614814758 0.064319662749767303
0.016353460028767586 0.071308314800262451 0.037393029779195786
0.047323543578386307 0.069267146289348602 0.027052586898207664
0.072022944688796997 0.071736223995685577 0.026980768889188766
0.09308362752199173 0.072140507400035858 0.019104387611150742
0.11093544960021973 0.072260640561580658 0.013785861432552338
0.12487804144620895 0.074382796883583069 0.013324812054634094
0.1395285427570343 0.078511945903301239 0.011596954427659512
0.15706521272659302 0.079986356198787689 0.012476560659706593
0.17373238503932953 0.081294350326061249 0.011784725822508335
0.19251616299152374 0.080369137227535248 0.0068080667406320572
0.21140646934509277 0.078147031366825104 0.0029807204846292734
0.22991369664669037 0.075105741620063782 0.0029027070850133896
0.25348398089408875 0.079161398112773895 0.0016605978598818183
0.27565234899520874 0.083616301417350769 0
0.29628300666809082 0.08484380692243576 0
0.31843206286430359 0.08013317734003067 0
0.33876603841781616 0.075698770582675934 0
0.35686233639717102 0.066573016345500946 0
0.37726148962974548 0.06360568106174469 0
0.39815035462379456 0.066285654902458191 0
0.41840860247612 0.072545826435089111 0
0.43972626328468323 0.078119896352291107 0
0.46277853846549988 0.079858399927616119 0
0.48553648591041565 0.079177305102348328 0
0.50781083106994629 0.077478893101215363 0
0.52980720996856689 0.079922720789909363 0
0.55580532550811768 0.084245637059211731 0
0.58467310667037964 0.093722887337207794 0
0.60974937677383423 0.1001567617058754 0
0.63454824686050415 0.10361982136964798 0
0.65850913524627686 0.10543324053287506 0
0.68322914838790894 0.10773561149835587 0
0.00031463385676033795 0.090545900166034698 0.063233107328414917
0.01189070288091898 0.086717218160629272 0.038568630814552307
0.045522790402173996 0.085457578301429749 0.023251652717590332
0.073865659534931183 0.085901588201522827 0.022325951606035233
0.09486832469701767 0.086946405470371246 0.015190358273684978
0.1132364422082901 0.087689042091369629 0.010145826265215874
0.12809687852859497 0.089414171874523163 0.0093053681775927544
0.14188709855079651 0.094376690685749054 0.0058709029108285904
0.15608038008213043 0.097862496972084045 0.0051473132334649563
0.17325973510742188 0.099219784140586853 0.0038891204167157412
0.1926133781671524 0.098318547010421753 0.00028959504561498761
0.20979450643062592 0.10107605904340744 0
0.22843146324157715 0.10004498064517975 0
0.25306457281112671 0.10349923372268677 0
0.27440860867500305 0.10903462022542953 0
0.29450446367263794 0.11020669341087341 0
0.31685173511505127 0.10505908727645874 0
0.33558845520019531 0.1085527166724205 0
0.35272276401519775 0.1099250391125679 0
0.37368664145469666 0.10942971706390381 0
0.39461484551429749 0.11270324885845184 0
0.41557371616363525 0.11817920207977295 0
0.43813875317573547 0.12228585779666901 0
0.46002286672592163 0.1254567950963974 0
0.47992470860481262 0.13041234016418457 0
0.50245451927185059 0.13193218410015106 0
0.52542960643768311 0.13504651188850403 0
0.55066382884979248 0.1372670978307724 0
0.57784050703048706 0.14201480150222778 0
0.60317748785018921 0.14746673405170441 0
0.63016772270202637 0.15178728103637695 0
0.65936213731765747 0.15420815348625183 0
0.6864936351776123 0.15648998320102692 0
0 0.10622731596231461 0.057724736630916595
0.0058296192437410355 0.1027689129114151 0.038518797606229782
0.03930426761507988 0.10245096683502197 0.023327788338065147
0.07452867180109024 0.10245096683502197 0.022238912060856819
0.097939364612102509 0.10245096683502197 0.015274826437234879
0.11678027361631393 0.10245096683502197 0.010582506656646729
0.13440732657909393 0.10324382036924362 0.0099065955728292465
0.14886026084423065 0.10807085037231445 0.0066611575894057751
0.1616206020116806 0.11254622042179108 0.0059199566021561623
0.17605111002922058 0.11504419893026352 0.0043917042203247547
0.19542069733142853 0.11534322053194046 0.00048836914356797934
0.21157976984977722 0.1195983812212944 0
0.22800396382808685 0.12423956394195557 0
0.25164270401000977 0.12806321680545807 0
0.27240473031997681 0.13212442398071289 0
0.29094672203063965 0.13501164317131042 0
0.31267130374908447 0.13126333057880402 0
0.33073151111602783 0.13673263788223267 0
0.34633603692054749 0.14738050103187561 0
0.36653661727905273 0.15340785682201385 0
0.38736319541931152 0.15704874694347382 0
0.40844887495040894 0.16191872954368591 0
0.43273383378982544 0.16572555899620056 0
0.45417913794517517 0.1703401654958725 0
0.47265470027923584 0.17747041583061218 0
0.49489834904670715 0.18169564008712769 0
0.52000671625137329 0.18421395123004913 0
0.54654741287231445 0.18624623119831085 0
0.57447975873947144 0.18802325427532196 0
0.60303127765655518 0.19187873601913452 0
0.63097536563873291 0.19596588611602783 0
0.66163969039916992 0.19924259185791016 0
0.69098323583602905 0.2039257287979126 0
0 0.12065042555332184 0.059574738144874573
0.0024476626422256231 0.11947128176689148 0.041450235992670059
0.029358593747019768 0.11960778385400772 0.023516470566391945
0.069175131618976593 0.11961700022220612 0.022385543212294579
0.10311149805784225 0.12033480405807495 0.019569642841815948
0.12291610985994339 0.12099793553352356 0.016919495537877083
0.14163970947265625 0.12157690525054932 0.016305973753333092
0.15913765132427216 0.12345036864280701 0.013098811730742455
0.17254818975925446 0.12750585377216339 0.012466040439903736
0.18555131554603577 0.13293004035949707 0.010325721465051174
0.20155343413352966 0.13789691030979156 0.0052595785818994045
0.21774902939796448 0.14182311296463013 0.0043743602000176907
0.23296564817428589 0.14655518531799316 0.0024946338962763548
0.24920529127120972 0.15032926201820374 2.074625990644563e-05
0.26814237236976624 0.15438908338546753 0
0.28655648231506348 0.15919998288154602 0
0.30500751733779907 0.16373811662197113 0
0.32300439476966858 0.16973944008350372 0
0.33993074297904968 0.178953617811203 0
0.36081382632255554 0.18730065226554871 0
0.38205540180206299 0.19338971376419067 0
0.40286621451377869 0.1981712132692337 0
0.42730474472045898 0.20262128114700317 0
0.45008298754692078 0.20865295827388763 0
0.46986165642738342 0.2152913510799408 0
0.49414181709289551 0.21870334446430206 0
0.52038174867630005 0.22101747989654541 0
0.54668629169464111 0.2244126945734024 0
0.57563084363937378 0.2276233583688736 0
0.60816431045532227 0.23167650401592255 0
0.63961893320083618 0.23669688403606415 0
0.66904819011688232 0.24090878665447235 0
0.69650381803512573 0.24667488038539886 0
0 0.13420438766479492 0.064006507396697998
0.002287666779011488 0.13395729660987854 0.043160643428564072
0.024877084419131279 0.13676458597183228 0.02371545322239399
0.064280711114406586 0.13679593801498413 0.022385545074939728
0.10419832170009613 0.13841439783573151 0.020938772708177567
0.12737865746021271 0.14066822826862335 0.020202629268169403
0.14507769048213959 0.14068618416786194 0.018790759146213531
0.16546075046062469 0.14085149765014648 0.015524125657975674
0.18340611457824707 0.14469718933105469 0.015114502049982548
0.19719834625720978 0.15077702701091766 0.012230654247105122
0.21284830570220947 0.15750537812709808 0.0068184626288712025
0.22978591918945312 0.1615171879529953 0.0060458751395344734
0.24552974104881287 0.16543084383010864 0.0033375467173755169
0.25890824198722839 0.1691538542509079 3.0959803552832454e-05
0.27135589718818665 0.17304147779941559 0
0.28879848122596741 0.17786000669002533 0
0.30679565668106079 0.18413239717483521 0
0.32534712553024292 0.19181297719478607 0
0.34363928437232971 0.19941513240337372 0
0.3652687668800354 0.20717549324035645 0
0.38824599981307983 0.21475943922996521 0
0.40991443395614624 0.22038300335407257 0
0.43409168720245361 0.22451812028884888 0
0.45684155821800232 0.23093605041503906 0
0.47757610678672791 0.23918354511260986 0
0.50344556570053101 0.24285684525966644 0
0.52954000234603882 0.2459113746881485 0
0.55273914337158203 0.25280138850212097 0
0.58068984746932983 0.25849619507789612 0
0.61275762319564819 0.26372131705284119 0
0.64492672681808472 0.27079969644546509 0
0.67437118291854858 0.27715548872947693 0
0.70076841115951538 0.28265374898910522 0
0 0.14983664453029633 0.07158266007900238
0.0034586670808494091 0.15013568103313446 0.041265152394771576
0.027764033526182175 0.15251129865646362 0.023149508982896805
0.063707433640956879 0.15257678925991058 0.022385543212294579
0.10254496335983276 0.15382157266139984 0.020938772708177567
0.12728251516819 0.15702243149280548 0.020261356607079506
0.14671160280704498 0.15815591812133789 0.019020674750208855
0.16824814677238464 0.15969693660736084 0.015705624595284462
0.19069652259349823 0.16252619028091431 0.015339773148298264
0.20839971303939819 0.16842353343963623 0.012163542211055756
0.224051833152771 0.17493434250354767 0.0073898523114621639
0.24175986647605896 0.17888252437114716 0.0071623553521931171
0.25890377163887024 0.18295498192310333 0.0042679929174482822
0.27250409126281738 0.18679355084896088 0.00018543963960837573
0.28225138783454895 0.19071301817893982 0
0.29586386680603027 0.19606192409992218 0
0.3140084445476532 0.20245598256587982 0
0.33231079578399658 0.21021829545497894 0
0.35164257884025574 0.2187374085187912 0
0.3747519850730896 0.22709842026233673 0
0.39854064583778381 0.23522865772247314 0
0.4202730655670166 0.24187248945236206 0
0.4415799081325531 0.24728280305862427 0
0.46377319097518921 0.25350722670555115 0
0.48476624488830566 0.2620471715927124 0
0.51137560606002808 0.27038350701332092 0
0.53719931840896606 0.27601847052574158 0
0.56003129482269287 0.28407445549964905 0
0.58509981632232666 0.29045480489730835 0
0.61362546682357788 0.29591032862663269 0
0.6441008448600769 0.30317321419715881 0
0.67432260513305664 0.31017991900444031 0
0.70117461681365967 0.31544819474220276 0
0 0.16868859529495239 0.077865570783615112
0.0013807564973831177 0.16971120238304138 0.042593251913785934
0.024492897093296051 0.17087666690349579 0.025198901072144508
0.06100749596953392 0.17089389264583588 0.02401210181415081
0.10387402772903442 0.17201027274131775 0.020943453535437584
0.12820827960968018 0.17504875361919403 0.020261356607079506
0.15060023963451385 0.17894826829433441 0.020284287631511688
0.1759486049413681 0.18216931819915771 0.019484931603074074
0.1995234489440918 0.18535739183425903 0.019255543127655983
0.21975883841514587 0.18865808844566345 0.015901457518339157
0.23710377514362335 0.19278313219547272 0.011761288158595562
0.25523608922958374 0.19706745445728302 0.011613677255809307
0.27299323678016663 0.20214000344276428 0.0086449095979332924
0.2879355251789093 0.20693118870258331 0.0036840259563177824
0.29736548662185669 0.2109835147857666 0.0034077928867191076
0.30915147066116333 0.21575482189655304 0.0013227933086454868
0.32600998878479004 0.22180992364883423 8.511285614076769e-07
0.34499895572662354 0.22996269166469574 0
0.36475309729576111 0.23846061527729034 0
0.38774740695953369 0.24842129647731781 0
0.4115372896194458 0.25717431306838989 0
0.43321871757507324 0.26388230919837952 0
0.45249670743942261 0.2705075740814209 0
0.4730466902256012 0.27773934602737427 0
0.49432554841041565 0.28495803475379944 0
0.52160298824310303 0.2943941056728363 0
0.54868268966674805 0.30410623550415039 0
0.57212764024734497 0.31246617436408997 0
0.59857815504074097 0.31851357221603394 0
0.62275022268295288 0.32388797402381897 0
0.64973616600036621 0.33048272132873535 0
0.6789013147354126 0.33744886517524719 0
0.70551460981369019 0.34273424744606018 0
0 0.18921206891536713 0.080067038536071777
0 0.19153280556201935 0.044676557183265686
0.013621999882161617 0.19380107522010803 0.026868171989917755
0.051951680332422256 0.19288678467273712 0.025736061856150627
0.10220955312252045 0.19311343133449554 0.021155254915356636
0.133221834897995 0.19349360466003418 0.020261356607079506
0.15685552358627319 0.1978643387556076 0.020545275881886482
0.18386775255203247 0.2033640593290329 0.021693576127290726
0.20769098401069641 0.20710435509681702 0.02181529812514782
0.22783133387565613 0.21067053079605103 0.017432881519198418
0.24658867716789246 0.21308243274688721 0.013414507731795311
0.26619842648506165 0.21696567535400391 0.013242037035524845
0.28335529565811157 0.22262959182262421 0.0094499513506889343
0.30153325200080872 0.22820748388767242 0.0053553557954728603
0.31615415215492249 0.23251998424530029 0.0050907628610730171
0.32789921760559082 0.23681245744228363 0.0021145320497453213
0.34310641884803772 0.24226833879947662 1.361805698252283e-05
0.36096855998039246 0.24931706488132477 0
0.38111159205436707 0.25766211748123169 0
0.40360194444656372 0.2670842707157135 0
0.42505478858947754 0.2775227427482605 0
0.44621804356575012 0.28544747829437256 0
0.46614384651184082 0.29228028655052185 0
0.48711684346199036 0.30010214447975159 0
0.5095524787902832 0.3078157901763916 0
0.5367962121963501 0.31657877564430237 0
0.56297653913497925 0.32617291808128357 0
0.58807837963104248 0.3351019024848938 0
0.61357879638671875 0.34088084101676941 0
0.63812470436096191 0.34727007150650024 0
0.66128766536712646 0.35349017381668091 0
0.68949353694915771 0.36042708158493042 0
0.71655648946762085 0.36558416485786438 0
0 0.20955537259578705 0.082934312522411346
0 0.21240724623203278 0.048171743750572205
0.0083231879398226738 0.2162165641784668 0.029299762099981308
0.040439043194055557 0.21618492901325226 0.025898722931742668
0.093960247933864594 0.21529440581798553 0.021013673394918442
0.13575634360313416 0.2133929431438446 0.020261356607079506
0.16429668664932251 0.21615664660930634 0.020876428112387657
0.19071604311466217 0.22187167406082153 0.022068463265895844
0.21414110064506531 0.22651951014995575 0.022130105644464493
0.23459024727344513 0.23053854703903198 0.017990030348300934
0.25394198298454285 0.23427985608577728 0.014723465777933598
0.27429988980293274 0.23788700997829437 0.014634589664638042
0.29467758536338806 0.24324887990951538 0.0099328281357884407
0.31337147951126099 0.24903585016727448 0.0068253478966653347
0.33377116918563843 0.25450295209884644 0.0065521681681275368
0.35012465715408325 0.25912183523178101 0.0022104720119386911
0.36478143930435181 0.26421234011650085 3.6243891372578219e-05
0.38240790367126465 0.27054741978645325 0
0.40117323398590088 0.27750223875045776 0
0.4232352077960968 0.28664785623550415 0
0.44423055648803711 0.29682475328445435 0
0.46380731463432312 0.3059023916721344 0
0.48435601592063904 0.31329452991485596 0
0.50562536716461182 0.3207557201385498 0
0.52980333566665649 0.33040416240692139 0
0.55653345584869385 0.34035393595695496 0
0.58114403486251831 0.34886777400970459 0
0.60568130016326904 0.35739228129386902 0
0.62800431251525879 0.36284077167510986 0
0.65147322416305542 0.36910951137542725 0
0.67571312189102173 0.37653005123138428 0
0.70278263092041016 0.38449084758758545 0
0.72989571094512939 0.38985037803649902 0
0 0.23174762725830078 0.086864739656448364
0 0.23476636409759521 0.051990050822496414
0.0080525204539299011 0.23929372429847717 0.032225325703620911
0.034183558076620102 0.24052295088768005 0.027498668059706688
0.085756868124008179 0.24004751443862915 0.02231171540915966
0.13174939155578613 0.23811440169811249 0.021756360307335854
0.17011736333370209 0.23759250342845917 0.02128991112112999
0.19648014008998871 0.24205651879310608 0.022367101162672043
0.22025620937347412 0.2473563551902771 0.022385545074939728
0.2446630448102951 0.25510868430137634 0.023220358416438103
0.26520764827728271 0.26023644208908081 0.022763805463910103
0.28557097911834717 0.26382210850715637 0.02259422279894352
0.31014361977577209 0.26713535189628601 0.015678443014621735
0.33135411143302917 0.27183994650840759 0.011844689026474953
0.35237771272659302 0.27752226591110229 0.011714959517121315
0.37362575531005859 0.28298941254615784 0.005102530587464571
0.39150097966194153 0.28769645094871521 0.0006548697710968554
0.41003510355949402 0.29407414793968201 0.00040290300967171788
0.4281974732875824 0.30046403408050537 2.8370952804834815e-06
0.44723311066627502 0.30787789821624756 0
0.46757662296295166 0.31763684749603271 0
0.48730158805847168 0.32667312026023865 0
0.50691956281661987 0.33469352126121521 0
0.52634567022323608 0.34140107035636902 0
0.55036020278930664 0.35077488422393799 0
0.57644897699356079 0.3614935576915741 0
0.60015618801116943 0.37012860178947449 0
0.6257319450378418 0.37801891565322876 0
0.64822143316268921 0.38412231206893921 0
0.67014467716217041 0.39215514063835144 0
0.69468218088150024 0.39995375275611877 0
0.72037744522094727 0.40803158283233643 0
0.74561178684234619 0.41432955861091614 0
0 0.25569424033164978 0.093758247792720795
0 0.25892141461372375 0.057811632752418518
0.0059434976428747177 0.26425653696060181 0.035376090556383133
0.031152429059147835 0.26573622226715088 0.030293677002191544
0.081358902156352997 0.26518738269805908 0.025969237089157104
0.12942007184028625 0.2641676664352417 0.025205984711647034
0.17241635918617249 0.26325914263725281 0.022786108776926994
0.20433230698108673 0.26484575867652893 0.022281846031546593
0.22823761403560638 0.26978006958961487 0.022259574383497238
0.25468963384628296 0.27847984433174133 0.024302400648593903
0.27888232469558716 0.28583177924156189 0.026371197775006294
0.29972803592681885 0.28965562582015991 0.025449933484196663
0.3243834376335144 0.29289621114730835 0.017559690400958061
0.34771347045898438 0.29595601558685303 0.013756692409515381
0.36928105354309082 0.30106383562088013 0.01282930001616478
0.39064306020736694 0.30661284923553467 0.0057652182877063751
0.41269573569297791 0.31091874837875366 0.0013328479835763574
0.43262535333633423 0.31611934304237366 0.0010249362094327807
0.45157715678215027 0.32247155904769897 2.8370952350087464e-05
0.47070220112800598 0.32950711250305176 0
0.48896163702011108 0.33753922581672668 0
0.50784194469451904 0.34584921598434448 0
0.52897763252258301 0.35439160466194153 0
0.54829996824264526 0.36135220527648926 0
0.57103991508483887 0.36988890171051025 0
0.59634518623352051 0.38028919696807861 0
0.61949187517166138 0.38904041051864624 0
0.64435720443725586 0.39689427614212036 0
0.66936784982681274 0.40455600619316101 0
0.69246721267700195 0.41430124640464783 0
0.71444416046142578 0.4223158061504364 0
0.73940074443817139 0.42990142107009888 0
0.76276278495788574 0.4360843300819397 0
0 0.27761414647102356 0.099806018173694611
0 0.28402954339981079 0.063401669263839722
0.00044597097439691424 0.28961789608001709 0.040036898106336594
0.019153425469994545 0.29070356488227844 0.034555613994598389
0.070270836353302002 0.29044732451438904 0.029992168769240379
0.1294219046831131 0.29082360863685608 0.026680793613195419
0.17663559317588806 0.29006600379943848 0.02340717613697052
0.21370497345924377 0.29226779937744141 0.022209642454981804
0.24237619340419769 0.29624629020690918 0.022186130285263062
0.26813104748725891 0.30338022112846375 0.024109931662678719
0.29267409443855286 0.31058043241500854 0.026078851893544197
0.31519407033920288 0.31435203552246094 0.025678826496005058
0.34022864699363708 0.31789225339889526 0.018713457509875298
0.36300188302993774 0.32227015495300293 0.016558468341827393
0.38586866855621338 0.32618442177772522 0.016728496178984642
0.40924227237701416 0.33100873231887817 0.012014662846922874
0.43174630403518677 0.33533281087875366 0.010375908575952053
0.45278581976890564 0.33900538086891174 0.0092102959752082825
0.47233664989471436 0.34386128187179565 0.00050135375931859016
0.4912647008895874 0.35112205147743225 0
0.51003384590148926 0.35886359214782715 0
0.5300641655921936 0.36698350310325623 0
0.55086934566497803 0.37533843517303467 0
0.57278573513031006 0.38383761048316956 0
0.59500902891159058 0.39071238040924072 0
0.61981803178787231 0.3999558687210083 0
0.6437225341796875 0.40894722938537598 0
0.66898649930953979 0.41946467757225037 0
0.69462400674819946 0.42926234006881714 0
0.71747416257858276 0.43873384594917297 0
0.73518109321594238 0.44430398941040039 0
0.7565007209777832 0.45003128051757812 0
0.78179079294204712 0.45657587051391602 0
0 0.29822081327438354 0.10685484111309052
0 0.30785471200942993 0.069998100399971008
0 0.31481090188026428 0.046911697834730148
0.010847203433513641 0.31590470671653748 0.040016710758209229
0.063296623528003693 0.31508991122245789 0.034495793282985687
0.12778905034065247 0.31583651900291443 0.030547318980097771
