Textures/28.cube
# Created by: G'MIC (https://gmic.eu)
TITLE "TealOrange2.cube"
# LUT size
LUT_3D_SIZE 5
# Data domain
DOMAIN_MIN 0.0 0.0 0.0
DOMAIN_MAX 1.0 1.0 1.0
# LUT data points
0.0045612547546625137 0.034244783222675323 0.07565084844827652
0.17982883751392365 0.027233000844717026 0.03444991260766983
0.32322055101394653 0.013582590967416763 0.0018910452490672469
0.49488532543182373 0.0043050232343375683 0
0.68710827827453613 0.0078703686594963074 0
0 0.16868859529495239 0.077865570783615112
0.1995234489440918 0.18535739183425903 0.019255543127655983
0.32600998878479004 0.22180992364883423 8.511285614076769e-07
0.49432554841041565 0.28495803475379944 0
0.70551460981369019 0.34273424744606018 0
0 0.34976840019226074 0.12850368022918701
0.27874395251274109 0.37755113840103149 0.027268333360552788
0.48573786020278931 0.40927895903587341 0.032774090766906738
0.67818838357925415 0.46235901117324829 7.6990261732134968e-05
0.84699827432632446 0.51823526620864868 0
0.057528696954250336 0.58798831701278687 0.21630094945430756
0.37317270040512085 0.6227765679359436 0.074128910899162292
0.64997303485870361 0.6403772234916687 0.049069870263338089
0.84513169527053833 0.66264444589614868 0.049952838569879532
0.99209821224212646 0.68635964393615723 0.0021308260038495064
0.32646748423576355 0.81625688076019287 0.32078167796134949
0.4674622118473053 0.855124831199646 0.13790313899517059
0.74629408121109009 0.86224550008773804 0.068434685468673706
0.94328296184539795 0.85859119892120361 0.029760701581835747
1 0.86079132556915283 8.255412831204012e-05
0 0.054579433053731918 0.11458822339773178
0.092985145747661591 0.059780675917863846 0.20028999447822571
0.26387524604797363 0.061637293547391891 0.21752187609672546
0.45359551906585693 0.053726997226476669 0.19695733487606049
0.6593778133392334 0.056575696915388107 0.19420604407787323
0 0.17543640732765198 0.16641828417778015
0.1721532940864563 0.19687147438526154 0.11858285963535309
0.34380403161048889 0.22742487490177155 0.10895109176635742
0.5662878155708313 0.25240525603294373 0.062330380082130432
0.79999589920043945 0.26254677772521973 0.014487115666270256
0 0.3552221953868866 0.26236167550086975
0.21859355270862579 0.39734518527984619 0.18091858923435211
0.47255423665046692 0.42777213454246521 0.19480927288532257
0.65879935026168823 0.48322269320487976 0.16941046714782715
0.83980977535247803 0.54161351919174194 0.15567493438720703
0.069903247058391571 0.5902971625328064 0.38905155658721924
0.34629929065704346 0.63787949085235596 0.28777027130126953
0.63536554574966431 0.65286737680435181 0.25500291585922241
0.83311039209365845 0.68281322717666626 0.26812499761581421
0.9851146936416626 0.71150898933410645 0.24004735052585602
0.33584082126617432 0.82663339376449585 0.50211292505264282
0.49433049559593201 0.86131054162979126 0.40830409526824951
0.68833714723587036 0.88119041919708252 0.30008053779602051
0.92324209213256836 0.87610507011413574 0.2876371443271637
1 0.87934368848800659 0.28425267338752747
0 0.068460725247859955 0.15307937562465668
0.038464594632387161 0.080589525401592255 0.22711443901062012
0.1948447972536087 0.10761504620313644 0.33991536498069763
0.37588277459144592 0.14565077424049377 0.39977285265922546
0.59406286478042603 0.18557783961296082 0.44731330871582031
0 0.17635850608348846 0.18229486048221588
0.14462915062904358 0.20925605297088623 0.21783113479614258
0.31602561473846436 0.24332956969738007 0.29169243574142456
0.51705533266067505 0.29025691747665405 0.35828897356987
0.73767578601837158 0.32419756054878235 0.41305354237556458
0 0.36651948094367981 0.33892163634300232
0.21672922372817993 0.41069978475570679 0.33538714051246643
0.45717036724090576 0.4455426037311554 0.30850696563720703
0.65805947780609131 0.49207016825675964 0.31166273355484009
0.90139639377593994 0.51890164613723755 0.3089008629322052
0.06927306205034256 0.6007993221282959 0.48687708377838135
0.36989703774452209 0.64453059434890747 0.48890304565429688
0.59428220987319946 0.68144875764846802 0.41402184963226318
0.81748485565185547 0.70395129919052124 0.43175846338272095
0.97967320680618286 0.73961329460144043 0.41738027334213257
0.3357352614402771 0.83575195074081421 0.63089680671691895
0.50101619958877563 0.86630189418792725 0.62741822004318237
0.66647320985794067 0.89651983976364136 0.53097617626190186
0.89978814125061035 0.8947983980178833 0.45983937382698059
1 0.89025610685348511 0.45332428812980652
0 0.080601401627063751 0.19442853331565857
0 0.10569711774587631 0.24381206929683685
0.14380910992622375 0.13612876832485199 0.36565271019935608
0.31695157289505005 0.1811983585357666 0.50519096851348877
0.51130908727645874 0.24856245517730713 0.6313057541847229
0 0.18861334025859833 0.2114555835723877
0.021986367180943489 0.23657238483428955 0.26910385489463806
0.24858197569847107 0.27702224254608154 0.39536741375923157
0.44059932231903076 0.32736289501190186 0.54535877704620361
0.6449427604675293 0.38883143663406372 0.66468173265457153
0 0.37848421931266785 0.37029951810836792
0.23932790756225586 0.41713222861289978 0.38433718681335449
0.44913378357887268 0.46347194910049438 0.43352952599525452
0.63881027698516846 0.51308035850524902 0.54692989587783813
0.8485913872718811 0.55874639749526978 0.63987433910369873
0.12402883172035217 0.61759257316589355 0.56682366132736206
0.38306337594985962 0.65967637300491333 0.58381664752960205
0.58483707904815674 0.69138717651367188 0.58508574962615967
0.79834628105163574 0.7276647686958313 0.57469844818115234
0.97193998098373413 0.75378644466400146 0.57365792989730835
0.34464177489280701 0.85009032487869263 0.72777301073074341
0.50546723604202271 0.87707078456878662 0.7386358380317688
0.67446523904800415 0.89634835720062256 0.73677986860275269
0.84215015172958374 0.91482776403427124 0.63853341341018677
1 0.89903825521469116 0.62426024675369263
0 0.099869862198829651 0.24119299650192261
0 0.13128966093063354 0.27647382020950317
0.058927182108163834 0.16482774913311005 0.38521090149879456
0.26870638132095337 0.22160439193248749 0.52835077047348022
0.485150545835495 0.2800445556640625 0.69796168804168701
0 0.21071754395961761 0.23423491418361664
0 0.26814839243888855 0.32504174113273621
0.14924845099449158 0.31319490075111389 0.426399827003479
0.39806550741195679 0.36451953649520874 0.5831788182258606
0.60988050699234009 0.42403250932693481 0.75212806463241577
0.054434828460216522 0.38828215003013611 0.35876619815826416
0.18127588927745819 0.4452856183052063 0.4391365647315979
0.32011735439300537 0.50757825374603271 0.51321697235107422
0.57515692710876465 0.5547250509262085 0.64982515573501587
0.77815890312194824 0.60074782371520996 0.81182229518890381
0.21136759221553802 0.63574951887130737 0.60868632793426514
0.4491155743598938 0.67195093631744385 0.61607259511947632
0.61416101455688477 0.70575582981109619 0.6516682505607605
0.75875556468963623 0.75175732374191284 0.70908874273300171
0.91957747936248779 0.77990472316741943 0.83868598937988281
0.37895482778549194 0.86341160535812378 0.82304805517196655
0.52693557739257812 0.8849562406539917 0.83445656299591064
0.68892401456832886 0.9028589129447937 0.83448284864425659
0.84702801704406738 0.91359841823577881 0.8193170428276062
0.99993604421615601 0.91040414571762085 0.77486532926559448
