Textures/29.cube
# Created by: G'MIC (https://gmic.eu)
TITLE "TealOrange3.cube"
# LUT size
LUT_3D_SIZE 33
# Data domain
DOMAIN_MIN 0.0 0.0 0.0
DOMAIN_MAX 1.0 1.0 1.0
# LUT data points
0.043983027338981628 0.024001229554414749 0.072667732834815979
0.062510140240192413 0.024610353633761406 0.072885096073150635
0.075082257390022278 0.029740547761321068 0.061763890087604523
0.089151136577129364 0.030909055843949318 0.051956597715616226
0.10419762879610062 0.031575333327054977 0.042646542191505432
0.11417730897665024 0.03926241397857666 0.031120385974645615
0.11903361976146698 0.048531375825405121 0.024868637323379517
0.1280379593372345 0.055811207741498947 0.019859250634908676
0.14056994020938873 0.063586786389350891 0.018570195883512497
0.15352129936218262 0.075837753713130951 0.0091331256553530693
0.16959336400032043 0.08786223828792572 0.0039797201752662659
0.18619836866855621 0.095159411430358887 0
0.19915804266929626 0.10378122329711914 0
0.21256105601787567 0.11550792306661606 0
0.2275080680847168 0.1292417049407959 0
0.24581827223300934 0.14377990365028381 0
0.261649489402771 0.15855588018894196 0
0.28139778971672058 0.17344459891319275 0
0.30007624626159668 0.19057607650756836 0
0.31924647092819214 0.20572805404663086 0
0.33988425135612488 0.22015604376792908 3.9719329834042583e-06
0.36347466707229614 0.23784609138965607 0.0023005800321698189
0.38930422067642212 0.25618040561676025 0.014339176937937737
0.41760817170143127 0.27539157867431641 0.028330942615866661
0.45059654116630554 0.29555746912956238 0.04446135088801384
0.48379182815551758 0.31494134664535522 0.049904812127351761
0.51183211803436279 0.33209285140037537 0.049885325133800507
0.54189026355743408 0.35215482115745544 0.053123138844966888
0.57612752914428711 0.37533238530158997 0.06209898367524147
0.60882508754730225 0.39642661809921265 0.073120638728141785
0.63918060064315796 0.41416731476783752 0.084513179957866669
0.67398238182067871 0.43375778198242188 0.10004246979951859
0.71069151163101196 0.45459446310997009 0.12022422254085541
0.016132485121488571 0.049476578831672668 0.045200485736131668
0.053615760058164597 0.036097411066293716 0.05618276447057724
0.072409205138683319 0.039902444928884506 0.051572758704423904
0.080901190638542175 0.051098339259624481 0.03463287279009819
0.096135944128036499 0.053928803652524948 0.023883752524852753
0.10897580534219742 0.057601913809776306 0.01822073757648468
0.11702154576778412 0.064386412501335144 0.013881380669772625
0.12602928280830383 0.06924574077129364 0.011031431145966053
0.13747873902320862 0.077656745910644531 0.0061216345056891441
0.15014912188053131 0.085788540542125702 0.004088282585144043
0.1665712296962738 0.095419995486736298 0.003922000527381897
0.18470683693885803 0.10289272665977478 0.00026136741507798433
0.19933798909187317 0.11120206117630005 0
0.21327869594097137 0.12341427057981491 0.00013806014612782747
0.22859941422939301 0.13820581138134003 0.0013209159951657057
0.24501636624336243 0.15132907032966614 3.7449655792443082e-05
0.26233288645744324 0.16546733677387238 0
0.28192004561424255 0.17997147142887115 0
0.30201756954193115 0.19657744467258453 0
0.32222846150398254 0.21250042319297791 0.00075382960494607687
0.34218865633010864 0.22667534649372101 0.0039318427443504333
0.36596843600273132 0.2428104430437088 0.011757825501263142
0.39250868558883667 0.26091241836547852 0.023954559117555618
0.4187004566192627 0.27934947609901428 0.034064613282680511
0.44907712936401367 0.29871484637260437 0.044701382517814636
0.48432743549346924 0.31901538372039795 0.051791001111268997
0.51557451486587524 0.33749422430992126 0.056957811117172241
0.54528123140335083 0.35714071989059448 0.061575561761856079
0.57681053876876831 0.37978672981262207 0.06865382194519043
0.6081729531288147 0.39911627769470215 0.080773130059242249
0.63851135969161987 0.41510221362113953 0.092885874211788177
0.6730886697769165 0.43664443492889404 0.10782410949468613
0.71019232273101807 0.45876678824424744 0.12738931179046631
0.0024974155239760876 0.077450506389141083 0.056280586868524551
0.023799709975719452 0.060808852314949036 0.033932603895664215
0.064033046364784241 0.052019450813531876 0.035345688462257385
0.081443198025226593 0.062444224953651428 0.023580929264426231
0.094552986323833466 0.072724446654319763 0.011392425745725632
0.10720405727624893 0.075636886060237885 0.0081084109842777252
0.11924203485250473 0.07871730625629425 0.0080341491848230362
0.12964555621147156 0.08338618278503418 0.0071012089028954506
0.13976307213306427 0.089620150625705719 0.0048952307552099228
0.15154947340488434 0.098144456744194031 0.0042439289391040802
0.16490288078784943 0.10574430972337723 0.0042513380758464336
0.18223737180233002 0.11264180392026901 0.0023271134123206139
0.20077890157699585 0.12154275923967361 0.0010491576977074146
0.21642191708087921 0.13507784903049469 0.0031378674320876598
0.23137205839157104 0.14925737679004669 0.0050698285922408104
0.24645422399044037 0.16139087080955505 0.0027476095128804445
0.26279190182685852 0.17418436706066132 0.00068959128111600876
0.28153073787689209 0.1883842945098877 9.6423493232578039e-05
0.30265349149703979 0.20421779155731201 0.0018445592140778899
0.32410496473312378 0.21897973120212555 0.0068979067727923393
0.34404310584068298 0.23330202698707581 0.014439721591770649
0.36922800540924072 0.25069642066955566 0.024316782131791115
0.39725384116172791 0.26818814873695374 0.035527020692825317
0.42247292399406433 0.2853829562664032 0.044466231018304825
0.45073941349983215 0.3043958842754364 0.049448642879724503
0.48188513517379761 0.3232768177986145 0.052477627992630005
0.51619905233383179 0.343304842710495 0.062944687902927399
0.54947423934936523 0.36400651931762695 0.073466300964355469
0.57928001880645752 0.38570278882980347 0.079242400825023651
0.6083831787109375 0.40394261479377747 0.090160757303237915
0.63901090621948242 0.41980880498886108 0.10257620364427567
0.67230546474456787 0.43967971205711365 0.11632530391216278
0.70884227752685547 0.46340620517730713 0.13552062213420868
1.5604024156345986e-05 0.101432204246521 0.055425148457288742
0.0064540649764239788 0.088789738714694977 0.038676261901855469
0.048788920044898987 0.075962536036968231 0.019074546173214912
0.083241082727909088 0.074444897472858429 0.015561939217150211
0.097546614706516266 0.082015626132488251 0.0086640901863574982
0.10933397710323334 0.086819097399711609 0.0078430008143186569
0.12258110195398331 0.089808739721775055 0.0083519751206040382
0.13408853113651276 0.095170676708221436 0.0077461195178329945
0.14468404650688171 0.10195212066173553 0.0058405227027833462
0.15599636733531952 0.11110053211450577 0.0065705864690244198
0.1686207503080368 0.11973627656698227 0.0088785430416464806
0.18274366855621338 0.12911579012870789 0.0097817052155733109
0.20135568082332611 0.13919241726398468 0.0083705084398388863
0.22025740146636963 0.14972123503684998 0.0085142450407147408
0.23546795547008514 0.16282491385936737 0.009709678590297699
0.24881106615066528 0.17322564125061035 0.0082239033654332161
0.26428225636482239 0.18569645285606384 0.0088318223133683205
0.28248190879821777 0.20016326010227203 0.012386354617774487
0.30234226584434509 0.21454872190952301 0.017773369327187538
0.32397860288619995 0.22788538038730621 0.020143628120422363
0.34586894512176514 0.24226194620132446 0.026040786877274513
0.37285077571868896 0.26092609763145447 0.036572389304637909
0.40236446261405945 0.27965950965881348 0.04845154657959938
0.4298362135887146 0.29639759659767151 0.058152128010988235
0.45846813917160034 0.31477680802345276 0.062295675277709961
0.48559382557868958 0.33251658082008362 0.062122590839862823
0.51468610763549805 0.35123422741889954 0.068178094923496246
0.54876023530960083 0.37233251333236694 0.080296404659748077
0.58207899332046509 0.39288583397865295 0.093235902488231659
0.61183834075927734 0.41098266839981079 0.1041594073176384
0.6435961127281189 0.42784112691879272 0.11345895379781723
0.67523014545440674 0.44692665338516235 0.12564946711063385
0.70774388313293457 0.46890220046043396 0.1420130729675293
0 0.12065549939870834 0.055613987147808075
0.00077778392005711794 0.11022297292947769 0.039929624646902084
0.033438123762607574 0.099259383976459503 0.019548682495951653
0.082632988691329956 0.093547582626342773 0.014829462394118309
0.10237488895654678 0.091608621180057526 0.0083209080621600151
0.11421102285385132 0.095960289239883423 0.008432476781308651
0.12618204951286316 0.10113983601331711 0.0096790706738829613
0.13912463188171387 0.10619612783193588 0.010173029266297817
0.1521516740322113 0.11405003815889359 0.0093881376087665558
0.16502925753593445 0.12378688156604767 0.012546014040708542
0.17783695459365845 0.13321971893310547 0.016847578808665276
0.19069299101829529 0.14372247457504272 0.018190190196037292
0.20428313314914703 0.1553778350353241 0.017894994467496872
0.22143241763114929 0.16699089109897614 0.017954178154468536
0.23912701010704041 0.17808151245117188 0.019600149244070053
0.25390428304672241 0.18869242072105408 0.024402046576142311
0.26879820227622986 0.20020858943462372 0.029081059619784355
0.28664728999137878 0.21414022147655487 0.033380188047885895
0.3057415783405304 0.22849628329277039 0.039044424891471863
0.32530844211578369 0.24030502140522003 0.040539845824241638
0.34668222069740295 0.25286740064620972 0.04149174690246582
0.37288978695869446 0.27006322145462036 0.049637433141469955
0.40726721286773682 0.29124629497528076 0.061983931809663773
0.4382549524307251 0.3099503219127655 0.073047205805778503
0.46632304787635803 0.32751482725143433 0.079970948398113251
0.49309051036834717 0.3449210524559021 0.081350602209568024
0.51830273866653442 0.36242347955703735 0.082700692117214203
0.54849475622177124 0.38276958465576172 0.088311128318309784
0.58255696296691895 0.40204149484634399 0.10635661333799362
0.61574965715408325 0.41925996541976929 0.11955937743186951
0.64871388673782349 0.43646731972694397 0.12639595568180084
0.67960202693939209 0.45503842830657959 0.13753801584243774
0.71034330129623413 0.47583714127540588 0.15146788954734802
0 0.13691854476928711 0.065076112747192383
0 0.13027897477149963 0.051583677530288696
0.013847557827830315 0.11967571824789047 0.026531446725130081
0.083927027881145477 0.11341763287782669 0.014388169161975384
0.11315833032131195 0.10933046787977219 0.010577588342130184
0.12473549693822861 0.1104770302772522 0.01223351527005434
0.13723200559616089 0.11587665230035782 0.015287876129150391
0.14968638122081757 0.12204369902610779 0.017862383276224136
0.16344939172267914 0.12902134656906128 0.018132926896214485
0.17571583390235901 0.13752919435501099 0.020786138251423836
0.18823458254337311 0.14722232520580292 0.024167725816369057
0.20059946179389954 0.15744420886039734 0.024943079799413681
0.21332566440105438 0.16854119300842285 0.02653018943965435
0.2298617959022522 0.18108744919300079 0.029486142098903656
0.24799279868602753 0.19591814279556274 0.032624859362840652
0.26372098922729492 0.20721912384033203 0.037486616522073746
0.27944201231002808 0.21800100803375244 0.041979871690273285
0.29671168327331543 0.22994676232337952 0.047149877995252609
0.31511175632476807 0.24317184090614319 0.053404748439788818
0.3332885205745697 0.25564262270927429 0.058823008090257645
0.3532136082649231 0.26747602224349976 0.061492744833230972
0.37837469577789307 0.28274679183959961 0.066568456590175629
0.41190171241760254 0.30384138226509094 0.077558331191539764
0.44252446293830872 0.32358628511428833 0.089611202478408813
0.47116187214851379 0.34098970890045166 0.098966903984546661
0.50154948234558105 0.36030787229537964 0.10551498830318451
0.52922940254211426 0.37890508770942688 0.11041422933340073
0.55840510129928589 0.39779800176620483 0.1159069836139679
0.58748000860214233 0.41638186573982239 0.12853331863880157
0.61990159749984741 0.43103733658790588 0.13835960626602173
0.65376400947570801 0.44570159912109375 0.14307977259159088
0.68442672491073608 0.46426248550415039 0.15382778644561768
0.71660399436950684 0.48482924699783325 0.16781465709209442
0 0.15257576107978821 0.07707185298204422
0 0.14823818206787109 0.064585767686367035
0.0028816196136176586 0.14168268442153931 0.038051340728998184
0.061666462570428848 0.13517719507217407 0.015717919915914536
0.12243755906820297 0.13167938590049744 0.018074031919240952
0.13725557923316956 0.13119441270828247 0.020653154700994492
0.14951616525650024 0.13340668380260468 0.02060115709900856
0.16117765009403229 0.13906578719615936 0.023280536755919456
0.17351342737674713 0.14576737582683563 0.025540515780448914
0.18684378266334534 0.15300443768501282 0.027537332847714424
0.1990232914686203 0.16202715039253235 0.028927281498908997
0.21184094250202179 0.17233598232269287 0.030340701341629028
0.22502575814723969 0.18293038010597229 0.03416973352432251
0.24225233495235443 0.19703379273414612 0.037916466593742371
0.26050743460655212 0.21270878612995148 0.043297167867422104
0.27676630020141602 0.22472406923770905 0.048852436244487762
0.29255592823028564 0.23519131541252136 0.05275915190577507
0.3095969557762146 0.2464006096124649 0.057558350265026093
0.32690086960792542 0.25798827409744263 0.064892344176769257
0.3466123640537262 0.27142840623855591 0.072899669408798218
0.36658847332000732 0.28508174419403076 0.081920713186264038
0.39025065302848816 0.30083253979682922 0.090011358261108398
0.41995933651924133 0.32020440697669983 0.098865211009979248
0.44910776615142822 0.33970364928245544 0.10774219781160355
0.47734871506690979 0.35777851939201355 0.11653537303209305
0.50812828540802002 0.37519854307174683 0.12538592517375946
0.54037904739379883 0.39489394426345825 0.13829797506332397
0.5699278712272644 0.41327434778213501 0.14647655189037323
0.59760522842407227 0.43075847625732422 0.15664224326610565
0.6255759596824646 0.44576859474182129 0.16198727488517761
0.65907430648803711 0.45894458889961243 0.16352622210979462
0.69288581609725952 0.47584724426269531 0.17219220101833344
0.72575938701629639 0.49611622095108032 0.1883208155632019
0 0.17565916478633881 0.083734169602394104
0 0.17080989480018616 0.080427996814250946
0.00048354049795307219 0.16496685147285461 0.052812051028013229
0.044060658663511276 0.15973983705043793 0.017748711630702019
0.11722349375486374 0.15515223145484924 0.019773224368691444
0.14359483122825623 0.15363216400146484 0.027606654912233353
0.15799763798713684 0.15467311441898346 0.027461972087621689
0.17028546333312988 0.15802112221717834 0.030450992286205292
0.18308234214782715 0.16426043212413788 0.033086791634559631
0.19682876765727997 0.16998721659183502 0.033614709973335266
0.21136628091335297 0.17762979865074158 0.034230612218379974
0.22492852807044983 0.18904392421245575 0.039820544421672821
0.23906569182872772 0.20059514045715332 0.046189919114112854
0.25369596481323242 0.21239660680294037 0.048949416726827621
0.2711280882358551 0.22660148143768311 0.054175440222024918
0.28976196050643921 0.24127845466136932 0.062137756496667862
0.30643221735954285 0.25325113534927368 0.067413397133350372
0.321989506483078 0.26286840438842773 0.070016495883464813
0.34011423587799072 0.27445730566978455 0.078391551971435547
0.3626423180103302 0.28952816128730774 0.088130339980125427
0.3844982385635376 0.30412015318870544 0.096385598182678223
0.40698516368865967 0.31974044442176819 0.10790429264307022
0.43429681658744812 0.33930733799934387 0.11927112936973572
0.46371945738792419 0.3587004542350769 0.12828116118907928
0.49312251806259155 0.37745431065559387 0.13681612908840179
0.52194571495056152 0.39346835017204285 0.14628061652183533
0.55195564031600952 0.41121730208396912 0.1586623340845108
0.58230727910995483 0.42897391319274902 0.16847015917301178
0.60964870452880859 0.44538366794586182 0.1748378574848175
0.63675469160079956 0.46115395426750183 0.18315747380256653
0.66473209857940674 0.47463169693946838 0.18829865753650665
0.70107311010360718 0.49089300632476807 0.1962130218744278
0.73608946800231934 0.50931918621063232 0.20842434465885162
0 0.20253293216228485 0.086689330637454987
0 0.19815690815448761 0.086437799036502838
7.8010168635955779e-07 0.19292859733104706 0.071381844580173492
0.016865367069840431 0.1892106682062149 0.026111740618944168
0.10197547078132629 0.18236105144023895 0.018678447231650352
0.14374652504920959 0.1800311803817749 0.026359045878052711
0.17006836831569672 0.18124809861183167 0.03482566773891449
0.18503817915916443 0.18428665399551392 0.041393756866455078
0.19816039502620697 0.18826235830783844 0.045584458857774734
0.2119002491235733 0.19295899569988251 0.044387169182300568
0.22476725280284882 0.19790557026863098 0.043494362384080887
0.24033303558826447 0.20774036645889282 0.050944630056619644
0.25397005677223206 0.21987348794937134 0.059829305857419968
0.26871311664581299 0.23100943863391876 0.063171595335006714
0.28390055894851685 0.24182605743408203 0.066983930766582489
0.30239859223365784 0.25750407576560974 0.075565226376056671
0.32306897640228271 0.27258396148681641 0.084062151610851288
0.33979076147079468 0.28267502784729004 0.088522419333457947
0.35548016428947449 0.29222759604454041 0.093832738697528839
0.37743356823921204 0.30704280734062195 0.10297597944736481
0.40194922685623169 0.32368782162666321 0.11079321056604385
0.42595145106315613 0.34053501486778259 0.12289731949567795
0.4511597752571106 0.35806679725646973 0.13530899584293365
0.4796639084815979 0.37534576654434204 0.14361114799976349
0.51086127758026123 0.39576971530914307 0.15589109063148499
0.53819096088409424 0.41310358047485352 0.1666281670331955
0.56585943698883057 0.42949473857879639 0.17761366069316864
0.59579354524612427 0.44502243399620056 0.1867343932390213
0.62383145093917847 0.46056839823722839 0.18909217417240143
0.6516762375831604 0.47598713636398315 0.19299362599849701
0.67842471599578857 0.49072396755218506 0.20601935684680939
0.70930612087249756 0.50809997320175171 0.22079363465309143
0.74396282434463501 0.52513790130615234 0.23087446391582489
0 0.23413094878196716 0.092886127531528473
0 0.22975786030292511 0.091737806797027588
0 0.22431221604347229 0.084654241800308228
0.0012618430191650987 0.22064052522182465 0.047264248132705688
0.053495854139328003 0.21651405096054077 0.01966562308371067
0.14249192178249359 0.20775023102760315 0.017136547714471817
0.17898567020893097 0.20981435477733612 0.031263049691915512
0.20103804767131805 0.21394817531108856 0.053868971765041351
0.21446141600608826 0.21734930574893951 0.061922915279865265
0.22934146225452423 0.21915440261363983 0.060533527284860611
0.24210619926452637 0.22317370772361755 0.059751853346824646
0.25611069798469543 0.23072780668735504 0.062961354851722717
0.27073806524276733 0.24049852788448334 0.070983447134494781
0.28921696543693542 0.25215780735015869 0.077592253684997559
0.30595767498016357 0.2643563449382782 0.083091571927070618
0.32345825433731079 0.2780575156211853 0.092083722352981567
0.34325513243675232 0.29322588443756104 0.10130427032709122
0.36101555824279785 0.30455571413040161 0.10760459303855896
0.37667146325111389 0.31421232223510742 0.11265861243009567
0.39459657669067383 0.3268810510635376 0.11988001316785812
0.41800969839096069 0.34274178743362427 0.12917631864547729
0.44516003131866455 0.36111447215080261 0.139255091547966
0.47181880474090576 0.37807565927505493 0.1516387015581131
0.49783584475517273 0.39406418800354004 0.16012249886989594
0.52888572216033936 0.4133618175983429 0.17132444679737091
0.55469650030136108 0.42913296818733215 0.18058696389198303
0.5796247124671936 0.44374531507492065 0.18927942216396332
0.60880458354949951 0.46004959940910339 0.19753839075565338
0.6378968358039856 0.47428691387176514 0.20179188251495361
0.66745960712432861 0.49069848656654358 0.20591184496879578
0.69559621810913086 0.50631535053253174 0.21484038233757019
0.72629374265670776 0.52526170015335083 0.23229019343852997
0.76016330718994141 0.54533272981643677 0.24802879989147186
0 0.26586151123046875 0.10162770003080368
0 0.26187491416931152 0.10074074566364288
0 0.25744381546974182 0.095079772174358368
3.7057568988529965e-05 0.25447860360145569 0.063377685844898224
0.01704372838139534 0.25308781862258911 0.028943769633769989
0.10859587788581848 0.2435230016708374 0.017597805708646774
0.18432307243347168 0.23702535033226013 0.025041814893484116
0.21164366602897644 0.24230906367301941 0.0537739098072052
0.23098555207252502 0.24715813994407654 0.079188570380210876
0.24742050468921661 0.2492537796497345 0.080881066620349884
0.26063534617424011 0.25104662775993347 0.079713262617588043
0.27460548281669617 0.257132887840271 0.081976242363452911
0.28930625319480896 0.26358619332313538 0.084131546318531036
0.31004875898361206 0.27390751242637634 0.090812139213085175
0.33098599314689636 0.28795364499092102 0.099468305706977844
0.3473702073097229 0.30157312750816345 0.10860496014356613
0.36335417628288269 0.31481155753135681 0.11815610527992249
0.38090813159942627 0.3254430890083313 0.12437194585800171
0.39889430999755859 0.33668011426925659 0.13117964565753937
0.41844376921653748 0.35052964091300964 0.14054346084594727
0.43663793802261353 0.36353945732116699 0.14828744530677795
0.46246165037155151 0.37929418683052063 0.15685437619686127
0.49227315187454224 0.39833495020866394 0.16847178339958191
0.51896357536315918 0.41524744033813477 0.17877377569675446
0.55006128549575806 0.43306303024291992 0.18817242980003357
0.57614099979400635 0.44815513491630554 0.19523386657238007
0.59788709878921509 0.46083912253379822 0.20045845210552216
0.62507385015487671 0.47486996650695801 0.20544338226318359
0.65362733602523804 0.48910623788833618 0.21254165470600128
0.68300658464431763 0.50451236963272095 0.21975871920585632
0.71240288019180298 0.52158409357070923 0.22441841661930084
0.74339485168457031 0.54052603244781494 0.23947463929653168
0.77539265155792236 0.56187605857849121 0.2604067325592041
0 0.29395043849945068 0.11063753813505173
0 0.2910875678062439 0.11016595363616943
0 0.28647163510322571 0.1085965633392334
0 0.28548499941825867 0.096139088273048401
0.0014771707355976105 0.2873137891292572 0.051686506718397141
0.078898213803768158 0.28159630298614502 0.022654734551906586
0.18402062356472015 0.26942107081413269 0.025364156812429428
0.22248484194278717 0.27071928977966309 0.061090331524610519
0.24519246816635132 0.27765253186225891 0.097044028341770172
0.26315349340438843 0.28062725067138672 0.10804630815982819
0.27855974435806274 0.28347763419151306 0.10782627761363983
0.29731380939483643 0.28916445374488831 0.10689567774534225
0.31402513384819031 0.29466253519058228 0.10774040967226028
0.33082124590873718 0.2996726930141449 0.10954722017049789
0.35129028558731079 0.31053578853607178 0.11621341854333878
0.3680155873298645 0.32328057289123535 0.12507633864879608
0.38535153865814209 0.33718439936637878 0.13641007244586945
0.40177977085113525 0.34768486022949219 0.14205090701580048
0.42021274566650391 0.35914424061775208 0.14891922473907471
0.44406971335411072 0.37518566846847534 0.15996606647968292
0.46480169892311096 0.38797870278358459 0.16739323735237122
0.48621603846549988 0.40181443095207214 0.17491959035396576
0.51416265964508057 0.41904976963996887 0.18581938743591309
0.5415608286857605 0.43544337153434753 0.19639156758785248
0.57146894931793213 0.4524594247341156 0.20619745552539825
0.59977805614471436 0.46932187676429749 0.2129521518945694
0.62396508455276489 0.48347565531730652 0.21897232532501221
0.64914512634277344 0.49562358856201172 0.22147552669048309
0.67560833692550659 0.50819098949432373 0.22480924427509308
0.7045130729675293 0.52344119548797607 0.23239453136920929
0.73408931493759155 0.54097437858581543 0.2413402795791626
0.76053285598754883 0.5578460693359375 0.25602832436561584
0.78903090953826904 0.57704871892929077 0.27712211012840271
0 0.32894238829612732 0.12565363943576813
0 0.32676389813423157 0.12507051229476929
0 0.32337340712547302 0.12247366458177567
0 0.32032397389411926 0.12161289155483246
0 0.32067456841468811 0.093728326261043549
0.030244583263993263 0.31853353977203369 0.03602922335267067
0.18203279376029968 0.30604809522628784 0.024468833580613136
