Textures/29.cube
# Created by: G'MIC (https://gmic.eu)
TITLE "TealOrange3.cube"
# LUT size
LUT_3D_SIZE 5
# Data domain
DOMAIN_MIN 0.0 0.0 0.0
DOMAIN_MAX 1.0 1.0 1.0
# LUT data points
0.043983027338981628 0.024001229554414749 0.072667732834815979
0.14056994020938873 0.063586786389350891 0.018570195883512497
0.261649489402771 0.15855588018894196 0
0.45059654116630554 0.29555746912956238 0.04446135088801384
0.71069151163101196 0.45459446310997009 0.12022422254085541
0 0.20253293216228485 0.086689330637454987
0.19816039502620697 0.18826235830783844 0.045584458857774734
0.32306897640228271 0.27258396148681641 0.084062151610851288
0.51086127758026123 0.39576971530914307 0.15589109063148499
0.74396282434463501 0.52513790130615234 0.23087446391582489
0 0.49339285492897034 0.18322347104549408
0.28711280226707458 0.45931848883628845 0.042373020201921463
0.51373386383056641 0.48638013005256653 0.24347975850105286
0.6969490647315979 0.56247496604919434 0.29393664002418518
0.87731409072875977 0.66087466478347778 0.34818097949028015
0.31553563475608826 0.81506723165512085 0.31127431988716125
0.31024488806724548 0.79956519603729248 0.30221036076545715
0.73980146646499634 0.74980372190475464 0.37445947527885437
0.88799196481704712 0.76971060037612915 0.44078171253204346
0.99828809499740601 0.79507982730865479 0.44602322578430176
0.42745104432106018 0.97647106647491455 0.33333301544189453
0.42745104432106018 0.97647106647491455 0.33333301544189453
0.69792306423187256 0.96035683155059814 0.062549218535423279
0.98730093240737915 0.91603082418441772 0.49424904584884644
1 0.90601110458374023 0.48753848671913147
0 0.084797404706478119 0.19009461998939514
0.10181166976690292 0.069500111043453217 0.1516890823841095
0.27293267846107483 0.14338953793048859 0.13437876105308533
0.47322875261306763 0.27309545874595642 0.1111486405134201
0.73795735836029053 0.43898114562034607 0.20426271855831146
0 0.21082621812820435 0.20502021908760071
0.16836732625961304 0.20401939749717712 0.16394194960594177
0.31169760227203369 0.28019556403160095 0.1796291172504425
0.54197412729263306 0.3739737868309021 0.19665518403053284
0.77978032827377319 0.51363915205001831 0.26045858860015869
0 0.52154791355133057 0.19124782085418701
0.00096266443142667413 0.4989323616027832 0.17999866604804993
0.49801242351531982 0.4911266565322876 0.32716917991638184
0.68629276752471924 0.58034271001815796 0.38464424014091492
0.86294782161712646 0.67096793651580811 0.425211101770401
0.32124310731887817 0.82445037364959717 0.31450945138931274
0.32840472459793091 0.83341008424758911 0.31618121266365051
0.68526268005371094 0.76890313625335693 0.34511598944664001
0.87811833620071411 0.77653336524963379 0.49795824289321899
0.99484902620315552 0.806049644947052 0.50500625371932983
0.42745104432106018 0.97647106647491455 0.33333301544189453
0.42745104432106018 0.97647106647491455 0.33333301544189453
0.52371430397033691 0.97959917783737183 0.11111148446798325
0.97478526830673218 0.91981500387191772 0.52991282939910889
1 0.90561550855636597 0.5356476902961731
0 0.13488397002220154 0.3072388768196106
0 0.13072142004966736 0.2880408763885498
0.2006300687789917 0.18280890583992004 0.32321777939796448
0.43233603239059448 0.30259019136428833 0.3859584629535675
0.75097918510437012 0.4413783848285675 0.42431086301803589
0 0.23081338405609131 0.25226762890815735
0 0.26529335975646973 0.31005591154098511
0.28108388185501099 0.28328946232795715 0.34940561652183533
0.50802731513977051 0.37848940491676331 0.38731521368026733
0.81090289354324341 0.49821293354034424 0.38084214925765991
0.020043369382619858 0.50692105293273926 0.49845594167709351
0.0298039261251688 0.50390660762786865 0.4983559250831604
0.48198384046554565 0.51565253734588623 0.45590126514434814
0.67964440584182739 0.58638381958007812 0.49029108881950378
0.90496093034744263 0.65457677841186523 0.47097867727279663
0.32473713159561157 0.83110016584396362 0.59071075916290283
0.33611270785331726 0.84366655349731445 0.54396796226501465
0.34938272833824158 0.82702928781509399 0.52255898714065552
0.86197316646575928 0.78799581527709961 0.61036157608032227
0.97740179300308228 0.816883385181427 0.61125338077545166
0.44080245494842529 0.97254908084869385 0.57276052236557007
0.44222766160964966 0.97363311052322388 0.50252997875213623
0.42745104432106018 0.97647106647491455 0.33333301544189453
0.90912830829620361 0.94066685438156128 0.51548987627029419
1 0.91202515363693237 0.63064479827880859
0 0.18272779881954193 0.4391760528087616
0 0.21116910874843597 0.44804972410202026
0.0075966399163007736 0.2439219057559967 0.45279839634895325
0.40154692530632019 0.35281750559806824 0.52980780601501465
0.68759799003601074 0.49210748076438904 0.65884345769882202
0 0.29409319162368774 0.38070181012153625
0 0.32709822058677673 0.4417605996131897
0.0059912865981459618 0.36986905336380005 0.49815079569816589
0.47615078091621399 0.43311947584152222 0.56864750385284424
0.74970614910125732 0.54929649829864502 0.67603236436843872
0.039530068635940552 0.53507727384567261 0.56447184085845947
0.016463702544569969 0.53495931625366211 0.56399905681610107
0.28194597363471985 0.58658075332641602 0.57182472944259644
0.65435808897018433 0.60892736911773682 0.64301258325576782
0.85244846343994141 0.67167866230010986 0.71898454427719116
0.37338009476661682 0.83157432079315186 0.8010600209236145
0.38148599863052368 0.82724308967590332 0.79863715171813965
0.51680105924606323 0.81464475393295288 0.77409482002258301
0.83307516574859619 0.79957044124603271 0.72675150632858276
0.97898608446121216 0.82225191593170166 0.72458630800247192
0.42590689659118652 0.97188931703567505 0.84032911062240601
0.42273211479187012 0.97080659866333008 0.82467150688171387
0.4220111072063446 0.96987515687942505 0.77437329292297363
0.60130596160888672 0.96694034337997437 0.70340931415557861
1 0.92068910598754883 0.7419397234916687
0 0.26219263672828674 0.56540286540985107
0 0.29664131999015808 0.62430936098098755
0 0.34972769021987915 0.61931610107421875
0.2949429452419281 0.4291088879108429 0.65342825651168823
0.67662054300308228 0.55209183692932129 0.76058179140090942
0 0.38718301057815552 0.57563477754592896
0 0.39486134052276611 0.58310943841934204
0 0.47202959656715393 0.69706785678863525
0.29940876364707947 0.51577353477478027 0.7004961371421814
0.72969967126846313 0.59549319744110107 0.78217244148254395
0 0.59973263740539551 0.60067915916442871
0 0.5956733226776123 0.59788018465042114
0.00046448502689599991 0.65741723775863647 0.70137351751327515
0.25451487302780151 0.71085274219512939 0.82354438304901123
0.8215949535369873 0.71194297075271606 0.82896125316619873
0.50899505615234375 0.82153290510177612 0.78653931617736816
0.50572407245635986 0.82296121120452881 0.79138398170471191
0.5422816276550293 0.82915085554122925 0.82423156499862671
0.68781459331512451 0.8591654896736145 0.81190592050552368
0.92269390821456909 0.84309631586074829 0.86300110816955566
0.52646559476852417 0.96133565902709961 0.91012048721313477
0.52723789215087891 0.96111094951629639 0.90911102294921875
0.54070961475372314 0.96004068851470947 0.90554153919219971
0.7503696084022522 0.95243144035339355 0.8850824236869812
0.99236971139907837 0.92757517099380493 0.85463458299636841
