Textures/3.cube
# Created by: G'MIC (https://gmic.eu)
TITLE "BleachBypass2.cube"
# LUT size
LUT_3D_SIZE 5
# Data domain
DOMAIN_MIN 0.0 0.0 0.0
DOMAIN_MAX 1.0 1.0 1.0
# LUT data points
0.069976896047592163 0.069976910948753357 0.06997690349817276
0.13600020110607147 0.093214072287082672 0.093214064836502075
0.22732333838939667 0.12030009925365448 0.12030011415481567
0.34575951099395752 0.15182171761989594 0.15182170271873474
0.49753305315971375 0.18910066783428192 0.18910066783428192
0.093214072287082672 0.13600018620491028 0.093214064836502075
0.17288775742053986 0.17288777232170105 0.11986660957336426
0.27747341990470886 0.2133345752954483 0.15035660564899445
0.40951094031333923 0.25812980532646179 0.18506059050559998
0.575145423412323 0.3092806339263916 0.22591990232467651
0.12030009925365448 0.22732336819171906 0.12030011415481567
0.2133345752954483 0.27747339010238647 0.15035660564899445
0.33301708102226257 0.33301708102226257 0.18455778062343597
0.47945624589920044 0.39207550883293152 0.22281777858734131
0.65939044952392578 0.457752525806427 0.26743423938751221
0.15182171761989594 0.34575951099395752 0.15182171761989594
0.25812980532646179 0.40951094031333923 0.18506059050559998
0.39207550883293152 0.47945624589920044 0.22281777858734131
0.5542299747467041 0.55423003435134888 0.26516187191009521
0.74962419271469116 0.63519638776779175 0.31354936957359314
0.18910065293312073 0.49753305315971375 0.18910066783428192
0.30928066372871399 0.575145423412323 0.22591990232467651
0.45775258541107178 0.65939044952392578 0.26743423938751221
0.63519638776779175 0.74962419271469116 0.31354936957359314
0.84716641902923584 0.84716641902923584 0.36611923575401306
0.093214072287082672 0.093214072287082672 0.13600021600723267
0.17288775742053986 0.11986660957336426 0.17288777232170105
0.27747339010238647 0.15035659074783325 0.21333454549312592
0.40951094031333923 0.18506057560443878 0.25812980532646179
0.575145423412323 0.22591991722583771 0.3092806339263916
0.11986660957336426 0.17288777232170105 0.17288777232170105
0.21365177631378174 0.21365177631378174 0.21365179121494293
0.33135592937469482 0.25715038180351257 0.25715038180351257
0.47634917497634888 0.30510106682777405 0.30510109663009644
0.65614539384841919 0.36008366942405701 0.36008363962173462
0.15035660564899445 0.27747336030006409 0.2133345752954483
0.25715038180351257 0.33135592937469482 0.25715038180351257
0.39005428552627563 0.39005428552627563 0.30530712008476257
0.54983669519424438 0.45250141620635986 0.35641178488731384
0.7437407374382019 0.52136445045471191 0.41465812921524048
0.18506057560443878 0.40951094031333923 0.25812980532646179
0.30510109663009644 0.47634923458099365 0.30510109663009644
0.45250138640403748 0.54983669519424438 0.35641178488731384
0.62824863195419312 0.62824863195419312 0.41210722923278809
0.83725059032440186 0.71261888742446899 0.47419893741607666
0.22591990232467651 0.575145423412323 0.3092806339263916
0.36008366942405701 0.65614527463912964 0.36008363962173462
0.52136445045471191 0.7437407374382019 0.41465812921524048
0.71261888742446899 0.83725059032440186 0.47419899702072144
0.93828153610229492 0.93828141689300537 0.54063725471496582
0.12030009925365448 0.12030009925365448 0.22732336819171906
0.2133345901966095 0.15035659074783325 0.27747336030006409
0.33301708102226257 0.18455779552459717 0.33301708102226257
0.47945624589920044 0.22281776368618011 0.39207550883293152
0.65939038991928101 0.26743423938751221 0.45775258541107178
0.15035660564899445 0.2133345901966095 0.27747336030006409
0.25715041160583496 0.25715041160583496 0.33135592937469482
0.39005428552627563 0.30530712008476257 0.39005428552627563
0.54983669519424438 0.35641181468963623 0.45250141620635986
0.74374067783355713 0.41465815901756287 0.52136445045471191
0.18455778062343597 0.33301708102226257 0.33301711082458496
0.30530712008476257 0.39005428552627563 0.39005428552627563
0.45246031880378723 0.45246031880378723 0.45246031880378723
0.62676268815994263 0.5185467004776001 0.51854676008224487
0.83483946323394775 0.59154462814331055 0.59154462814331055
0.22281776368618011 0.47945621609687805 0.39207553863525391
0.35641178488731384 0.54983669519424438 0.45250138640403748
0.5185467004776001 0.62676268815994263 0.5185467004776001
0.7087978720664978 0.70879781246185303 0.58860880136489868
0.93213742971420288 0.79666709899902344 0.66519927978515625
0.26743426918983459 0.65939044952392578 0.45775258541107178
0.41465812921524048 0.74374067783355713 0.52136445045471191
0.59154456853866577 0.83483946323394775 0.59154456853866577
0.79666715860366821 0.93213742971420288 0.66519927978515625
1 1 0.74584639072418213
0.15182171761989594 0.15182170271873474 0.34575951099395752
0.25812980532646179 0.18506059050559998 0.40951097011566162
0.39207550883293152 0.22281776368618011 0.47945621609687805
0.55423003435134888 0.26516184210777283 0.5542299747467041
0.74962425231933594 0.31354936957359314 0.63519638776779175
0.18506057560443878 0.2581297755241394 0.40951097011566162
0.30510109663009644 0.30510106682777405 0.47634917497634888
0.45250138640403748 0.35641178488731384 0.54983669519424438
0.62824869155883789 0.41210722923278809 0.62824863195419312
0.83725053071975708 0.47419893741607666 0.71261888742446899
0.22281776368618011 0.39207550883293152 0.47945624589920044
0.35641175508499146 0.45250138640403748 0.54983669519424438
0.5185467004776001 0.51854664087295532 0.6267627477645874
0.7087978720664978 0.58860874176025391 0.70879781246185303
0.93213742971420288 0.66519927978515625 0.79666709899902344
0.26516184210777283 0.55422991514205933 0.5542299747467041
0.41210722923278809 0.62824869155883789 0.62824863195419312
0.58860874176025391 0.7087978720664978 0.70879781246185303
0.79479879140853882 0.79479879140853882 0.79479879140853882
1 0.88655120134353638 0.88655120134353638
0.31354936957359314 0.74962425231933594 0.63519638776779175
0.47419899702072144 0.83725059032440186 0.71261888742446899
0.66519927978515625 0.93213742971420288 0.79666709899902344
0.88655108213424683 1 0.88655108213424683
1 1 0.98227226734161377
0.18910065293312073 0.18910065293312073 0.49753305315971375
0.3092806339263916 0.22591990232467651 0.575145423412323
0.45775258541107178 0.26743423938751221 0.65939044952392578
0.6351965069770813 0.31354936957359314 0.74962419271469116
0.84716641902923584 0.36611926555633545 0.84716641902923584
0.22591990232467651 0.30928066372871399 0.575145423412323
0.36008363962173462 0.36008363962173462 0.65614539384841919
0.52136445045471191 0.41465815901756287 0.7437407374382019
0.71261888742446899 0.47419899702072144 0.83725059032440186
0.93828141689300537 0.54063725471496582 0.93828141689300537
0.26743426918983459 0.457752525806427 0.65939044952392578
0.41465809941291809 0.52136445045471191 0.7437407374382019
0.59154456853866577 0.59154462814331055 0.83483952283859253
0.79666709899902344 0.66519927978515625 0.93213742971420288
1 0.74584639072418213 1
0.31354936957359314 0.63519638776779175 0.74962419271469116
0.47419899702072144 0.71261888742446899 0.83725059032440186
0.66519927978515625 0.79666709899902344 0.93213742971420288
0.8865511417388916 0.8865511417388916 1
1 0.98227226734161377 1
0.36611926555633545 0.84716641902923584 0.84716641902923584
0.54063725471496582 0.93828141689300537 0.93828141689300537
0.7458464503288269 1 1
0.98227226734161377 1 1
1 1 1
