Textures/3.cube
# Created by: G'MIC (https://gmic.eu)
TITLE "BleachBypass2.cube"
# LUT size
LUT_3D_SIZE 33
# Data domain
DOMAIN_MIN 0.0 0.0 0.0
DOMAIN_MAX 1.0 1.0 1.0
# LUT data points
0.069976896047592163 0.069976910948753357 0.06997690349817276
0.076221093535423279 0.072203695774078369 0.072203695774078369
0.082086130976676941 0.074124470353126526 0.074124477803707123
0.087998040020465851 0.076054997742176056 0.076054990291595459
0.093729764223098755 0.077976062893867493 0.077976062893867493
0.099577061831951141 0.079949244856834412 0.079949237406253815
0.10954403877258301 0.083560019731521606 0.083560019731521606
0.12260258942842484 0.088349513709545135 0.088349513709545135
0.13600020110607147 0.093214072287082672 0.093214064836502075
0.14837823808193207 0.097610220313072205 0.097610220313072205
0.15858867764472961 0.10061422735452652 0.10061421990394592
0.16799324750900269 0.10320360958576202 0.10320360958576202
0.17762339115142822 0.10565944015979767 0.10565944015979767
0.1869489848613739 0.10827054083347321 0.10827054083347321
0.1966577023267746 0.11067545413970947 0.11067545413970947
0.21016652882099152 0.11485055834054947 0.11485056579113007
0.22732333838939667 0.12030009925365448 0.12030011415481567
0.24448020756244659 0.12573491036891937 0.12573491036891937
0.26106500625610352 0.13093341886997223 0.13093341886997223
0.27522179484367371 0.1346309632062912 0.1346309632062912
0.28860658407211304 0.13785339891910553 0.13785339891910553
0.30185976624488831 0.140867680311203 0.140867680311203
0.31528335809707642 0.14401152729988098 0.14401152729988098
0.32852751016616821 0.14716039597988129 0.14716039597988129
0.34575951099395752 0.15182171761989594 0.15182170271873474
0.36726865172386169 0.1578046977519989 0.15780468285083771
0.38847622275352478 0.16403254866600037 0.16403254866600037
0.40930145978927612 0.17000332474708557 0.17000332474708557
0.42803755402565002 0.17434073984622955 0.17434073984622955
0.44555249810218811 0.17809377610683441 0.17809376120567322
0.46300226449966431 0.18180778622627258 0.18180778622627258
0.48022198677062988 0.18552125990390778 0.18552127480506897
0.49753305315971375 0.18910066783428192 0.18910066783428192
0.072203695774078369 0.076221093535423279 0.072203695774078369
0.079711772501468658 0.079711772501468658 0.074774235486984253
0.085748888552188873 0.081910215318202972 0.076809510588645935
0.091660067439079285 0.083840139210224152 0.078725159168243408
0.097452908754348755 0.085774913430213928 0.080712132155895233
0.10331106930971146 0.087678663432598114 0.082558818161487579
0.11341694742441177 0.091334998607635498 0.086199693381786346
0.12634328007698059 0.09614921361207962 0.090951167047023773
0.13951496779918671 0.10101251304149628 0.095830827951431274
0.15241070091724396 0.10571516305208206 0.10040397942066193
0.16371430456638336 0.10983863472938538 0.10365687310695648
0.17363898456096649 0.1127588301897049 0.10629364848136902
0.18309451639652252 0.11526694893836975 0.10878144949674606
0.19242946803569794 0.11779090017080307 0.11124337464570999
0.20211701095104218 0.12029542773962021 0.11385530978441238
0.21587520837783813 0.12441550940275192 0.1180136501789093
0.23303216695785522 0.12990404665470123 0.12331913411617279
0.2501889169216156 0.13539041578769684 0.12879921495914459
0.2668364942073822 0.14077025651931763 0.1341903954744339
0.2821381688117981 0.14573289453983307 0.13812017440795898
0.29596817493438721 0.1492326408624649 0.14129596948623657
0.30917292833328247 0.15238603949546814 0.14441286027431488
0.32284530997276306 0.15546058118343353 0.14760430157184601
0.33598729968070984 0.15861788392066956 0.1506158709526062
0.35317781567573547 0.16335351765155792 0.15523684024810791
0.37467718124389648 0.16939590871334076 0.16146247088909149
0.39584606885910034 0.17530451714992523 0.16753587126731873
0.41699782013893127 0.18190266191959381 0.17355126142501831
0.43678978085517883 0.1875489205121994 0.17817956209182739
0.4544798731803894 0.19139628112316132 0.18211901187896729
0.47220140695571899 0.19513337314128876 0.18587738275527954
0.48979303240776062 0.19882620871067047 0.18946301937103271
0.50720250606536865 0.20262870192527771 0.19318865239620209
0.074124470353126526 0.082086130976676941 0.074124477803707123
0.081910215318202972 0.085748888552188873 0.076809510588645935
0.089194022119045258 0.089194022119045258 0.07906949520111084
0.095274180173873901 0.0914139524102211 0.081107355654239655
0.10110189765691757 0.093303404748439789 0.082992061972618103
0.10705234110355377 0.09526640921831131 0.085023939609527588
0.11689787358045578 0.098966792225837708 0.088499613106250763
0.13001821935176849 0.10370704531669617 0.093319691717624664
0.14335712790489197 0.10851205140352249 0.098216801881790161
0.15609510242938995 0.11322765797376633 0.10269129276275635
0.16759103536605835 0.11763925105333328 0.10605110973119736
0.17880269885063171 0.121846042573452 0.10896287113428116
0.18851156532764435 0.12463176250457764 0.11157337576150894
0.19793872535228729 0.12718035280704498 0.11407770216464996
0.20765356719493866 0.12973976135253906 0.11669507622718811
0.22105203568935394 0.13374027609825134 0.12083128094673157
0.23838141560554504 0.13922008872032166 0.12607233226299286
0.25579223036766052 0.1448456197977066 0.13168419897556305
0.27241349220275879 0.15025937557220459 0.13700312376022339
0.28795421123504639 0.15527933835983276 0.14102160930633545
0.30289015173912048 0.16008073091506958 0.14449997246265411
0.31657284498214722 0.16359572112560272 0.1477811187505722
0.33006727695465088 0.1667400449514389 0.15087215602397919
0.34336152672767639 0.16985921561717987 0.15398699045181274
0.36056441068649292 0.17455141246318817 0.15852132439613342
0.38207831978797913 0.18074871599674225 0.16473093628883362
0.40332010388374329 0.18654519319534302 0.17090460658073425
0.42451420426368713 0.19311715662479401 0.17690420150756836
0.4443013072013855 0.19918875396251678 0.18161821365356445
0.46352806687355042 0.20438008010387421 0.18578025698661804
0.48174437880516052 0.20830892026424408 0.18960578739643097
0.4990679919719696 0.21213144063949585 0.19333061575889587
0.5161597728729248 0.21587786078453064 0.19697447121143341
0.076054997742176056 0.087998032569885254 0.076054990291595459
0.083840139210224152 0.091660067439079285 0.078725159168243408
0.0914139524102211 0.095274180173873901 0.081107355654239655
0.09878242015838623 0.098782412707805634 0.083382546901702881
0.10477887839078903 0.10096201300621033 0.085394047200679779
0.11071836948394775 0.10288708657026291 0.087312027812004089
0.12071571499109268 0.1064997985959053 0.090948112308979034
0.1338406503200531 0.11129602044820786 0.095784187316894531
0.14688557386398315 0.11613359302282333 0.10058029741048813
0.15978518128395081 0.12083734571933746 0.10516592115163803
0.17143739759922028 0.12530836462974548 0.10847142338752747
0.18282206356525421 0.12970216572284698 0.11144816130399704
0.19361546635627747 0.13377340137958527 0.1144372820854187
0.20355147123336792 0.13662604987621307 0.11698254942893982
0.21301870048046112 0.13912414014339447 0.11952027678489685
0.22601482272148132 0.14318586885929108 0.12367470562458038
0.24332846701145172 0.14878030121326447 0.12896554172039032
0.26062077283859253 0.15422320365905762 0.13459266722202301
0.27773189544677734 0.15959779918193817 0.13985903561115265
0.29347044229507446 0.16471102833747864 0.14380283653736115
0.30874785780906677 0.16984105110168457 0.14747598767280579
0.32361355423927307 0.17459356784820557 0.150946244597435
0.33760282397270203 0.17812487483024597 0.1541246622800827
0.35089105367660522 0.18121787905693054 0.15733031928539276
0.36798259615898132 0.1858065277338028 0.1618819385766983
0.38948124647140503 0.19219270348548889 0.16809928417205811
0.41072314977645874 0.19795681536197662 0.17418305575847626
0.43198105692863464 0.20437620580196381 0.18018050491809845
0.45179498195648193 0.21040846407413483 0.18485115468502045
0.47104993462562561 0.21603865921497345 0.18911354243755341
0.49048519134521484 0.22122311592102051 0.19329084455966949
0.50834262371063232 0.22549496591091156 0.19702713191509247
0.52588379383087158 0.22924569249153137 0.2007918655872345
0.077976062893867493 0.093729756772518158 0.077976055443286896
0.085774913430213928 0.097452901303768158 0.080712124705314636
0.093303404748439789 0.10110190510749817 0.082992061972618103
0.10096200555562973 0.10477888584136963 0.085394047200679779
0.10819897800683975 0.10819897800683975 0.087690085172653198
0.11429202556610107 0.11044081300497055 0.089784532785415649
0.12443657219409943 0.11399640887975693 0.093334823846817017
0.13723643124103546 0.11871699243783951 0.09807267040014267
0.15063799917697906 0.12357445061206818 0.1029733270406723
0.16351960599422455 0.12839706242084503 0.10742837935686111
0.17500537633895874 0.13279123604297638 0.11083030700683594
0.18641836941242218 0.1371740996837616 0.11384183913469315
0.19770385324954987 0.14150939881801605 0.11675488948822021
0.20871022343635559 0.14557264745235443 0.11955654621124268
0.21839931607246399 0.1485101729631424 0.12238658964633942
0.23166197538375854 0.15255293250083923 0.12645775079727173
0.24881875514984131 0.15807433426380157 0.1317751556634903
0.26597577333450317 0.16352939605712891 0.13740655779838562
0.28290283679962158 0.16896779835224152 0.14262719452381134
0.29891854524612427 0.17409491539001465 0.14662677049636841
0.31412586569786072 0.17919661104679108 0.15026284754276276
0.32925400137901306 0.18404050171375275 0.1537872850894928
0.34454837441444397 0.18889302015304565 0.15741182863712311
0.35812431573867798 0.19242857396602631 0.16064479947090149
0.37536847591400146 0.19690102338790894 0.16516894102096558
0.39687716960906982 0.20338815450668335 0.17135372757911682
0.41807615756988525 0.20926754176616669 0.17751994729042053
0.43933287262916565 0.2152491956949234 0.18346963822841644
0.45940101146697998 0.22092230618000031 0.18818947672843933
0.47839975357055664 0.22649066150188446 0.19231337308883667
0.49806460738182068 0.23213821649551392 0.19660858809947968
0.51733940839767456 0.2377779632806778 0.20072518289089203
0.53515183925628662 0.24228253960609436 0.2045854926109314
0.079949244856834412 0.099577046930789948 0.079949237406253815
0.087678663432598114 0.10331108421087265 0.082558810710906982
0.09526640921831131 0.10705234110355377 0.085023939609527588
0.10288709402084351 0.11071837693452835 0.087312020361423492
0.11044082045555115 0.11429201066493988 0.089784540235996246
0.11781822144985199 0.11781822144985199 0.092051960527896881
0.12785056233406067 0.12162379175424576 0.095739752054214478
0.14115418493747711 0.12644216418266296 0.10048849880695343
0.15442755818367004 0.13125139474868774 0.1053374782204628
0.16699214279651642 0.13605348765850067 0.1098463162779808
0.17857822775840759 0.14038291573524475 0.11318659037351608
0.19005544483661652 0.14482408761978149 0.1160983070731163
0.20130674540996552 0.1491338312625885 0.11912671476602554
0.21253253519535065 0.15346249938011169 0.12221550196409225
0.22365543246269226 0.15772952139377594 0.12523353099822998
0.2373281866312027 0.16202542185783386 0.12929084897041321
0.25448498129844666 0.16746059060096741 0.13464526832103729
0.27164182066917419 0.17304348945617676 0.14028699696063995
0.28849458694458008 0.17846211791038513 0.14557258784770966
0.30459478497505188 0.18360026180744171 0.14949947595596313
0.31977233290672302 0.18851220607757568 0.15309494733810425
0.33492663502693176 0.19358976185321808 0.15670464932918549
0.35034993290901184 0.19874076545238495 0.16026571393013
0.36522218585014343 0.2034488171339035 0.16381047666072845
0.38278675079345703 0.20814515650272369 0.16855238378047943
0.40428069233894348 0.21474504470825195 0.17470267415046692
0.42550539970397949 0.22073639929294586 0.18077366054058075
0.44681772589683533 0.22648496925830841 0.18672136962413788
0.46684613823890686 0.23217777907848358 0.19155041873455048
0.48600879311561584 0.23786601424217224 0.19578163325786591
0.50542497634887695 0.2435908168554306 0.1999688446521759
0.52495932579040527 0.24929651618003845 0.20413966476917267
0.5439225435256958 0.25488680601119995 0.20828509330749512
0.083560019731521606 0.10954403132200241 0.083560019731521606
0.091334991157054901 0.11341695487499237 0.086199693381786346
0.098966792225837708 0.11689787358045578 0.088499613106250763
0.1064997985959053 0.12071570008993149 0.090948112308979034
0.11399639397859573 0.12443660199642181 0.093334831297397614
0.12162378430366516 0.12785054743289948 0.095739752054214478
0.13308635354042053 0.13308635354042053 0.099606990814208984
0.14648282527923584 0.13822910189628601 0.10451913625001907
0.1597754955291748 0.14313851296901703 0.10933221876621246
0.17257915437221527 0.14793114364147186 0.11390599608421326
0.1842009574174881 0.15224823355674744 0.11719275265932083
0.1956002414226532 0.15658079087734222 0.12025047838687897
0.206775963306427 0.16094811260700226 0.12321131676435471
0.21805152297019958 0.16529430449008942 0.12624774873256683
0.22935941815376282 0.16979041695594788 0.12927539646625519
0.24439562857151031 0.17546592652797699 0.13388091325759888
0.26195594668388367 0.18129602074623108 0.13959072530269623
0.27931475639343262 0.18696214258670807 0.14508987963199615
0.29607811570167542 0.19207169115543365 0.14980675280094147
0.31191426515579224 0.19727668166160583 0.15412232279777527
0.32712852954864502 0.2026178240776062 0.15756355226039886
0.34231024980545044 0.20735302567481995 0.16121667623519897
0.35770261287689209 0.21219028532505035 0.16474999487400055
0.3728826642036438 0.21750576794147491 0.1684534102678299
0.39178818464279175 0.22369213402271271 0.17337143421173096
0.41370716691017151 0.23039022088050842 0.17975495755672455
0.4348846971988678 0.23648412525653839 0.18572425842285156
0.45612567663192749 0.24264875054359436 0.19178387522697449
0.47612705826759338 0.24845071136951447 0.19647908210754395
0.49533545970916748 0.25413426756858826 0.20072750747203827
0.51482069492340088 0.25979837775230408 0.20504288375377655
0.53427886962890625 0.26544061303138733 0.20931355655193329
0.55354613065719604 0.27101507782936096 0.21356184780597687
0.088349521160125732 0.12260258942842484 0.088349513709545135
0.096149206161499023 0.12634328007698059 0.090951167047023773
0.10370704531669617 0.1300182044506073 0.093319691717624664
0.11129602044820786 0.1338406503200531 0.095784187316894531
0.11871697753667831 0.13723643124103546 0.098072677850723267
0.12644216418266296 0.14115418493747711 0.10048849880695343
0.13822910189628601 0.14648282527923584 0.10451913625001907
0.15299151837825775 0.15299151837825775 0.10973744839429855
0.16648399829864502 0.15815320611000061 0.11459077149629593
0.17933870851993561 0.16285307705402374 0.11916087567806244
0.19087405502796173 0.1671467125415802 0.12243320792913437
0.20221938192844391 0.17155605554580688 0.12545804679393768
0.21343031525611877 0.1759316474199295 0.12852755188941956
0.22468967735767365 0.18039655685424805 0.13146334886550903
0.23606769740581512 0.18478135764598846 0.13439875841140747
0.25145354866981506 0.19062812626361847 0.13910223543643951
0.27039375901222229 0.19790129363536835 0.1452459990978241
0.28798007965087891 0.20384335517883301 0.15095481276512146
0.30482903122901917 0.20906530320644379 0.15572191774845123
0.32058626413345337 0.21427015960216522 0.15979580581188202
0.33580693602561951 0.21961119771003723 0.16341617703437805
0.35099276900291443 0.22434641420841217 0.16700878739356995
0.36641925573348999 0.22918374836444855 0.17056527733802795
0.38152927160263062 0.23449937999248505 0.17410573363304138
0.40070134401321411 0.24090757966041565 0.17923590540885925
0.42401573061943054 0.24894049763679504 0.18582512438297272
0.44567146897315979 0.25546148419380188 0.19206883013248444
0.46683099865913391 0.26168805360794067 0.19817522168159485
0.48683404922485352 0.26751554012298584 0.20285201072692871
0.50607031583786011 0.27315819263458252 0.20710045099258423
0.52564918994903564 0.27893227338790894 0.21141290664672852
0.54496848583221436 0.28457996249198914 0.21563811600208282
0.56434005498886108 0.29027548432350159 0.21960632503032684
0.093214072287082672 0.13600018620491028 0.093214064836502075
0.10101251304149628 0.13951496779918671 0.095830827951431274
0.10851205140352249 0.14335712790489197 0.098216794431209564
0.11613357812166214 0.14688557386398315 0.10058029741048813
0.12357443571090698 0.15063802897930145 0.10297331213951111
0.13125139474868774 0.15442755818367004 0.10533746331930161
0.14313849806785583 0.15977546572685242 0.10933221876621246
0.15815320611000061 0.16648399829864502 0.11459077149629593
0.17288775742053986 0.17288777232170105 0.11986660957336426
0.18595291674137115 0.17801582813262939 0.12452861666679382
0.19761087000370026 0.18238162994384766 0.12795621156692505
0.20901124179363251 0.18680398166179657 0.13086138665676117
0.22019290924072266 0.19118534028530121 0.13377027213573456
0.23151814937591553 0.19549453258514404 0.13678869605064392
0.24300366640090942 0.1998647004365921 0.13982380926609039
0.25826728343963623 0.20581969618797302 0.14403361082077026
0.27747341990470886 0.2133345752954483 0.15035660564899445
0.29629835486412048 0.22064809501171112 0.1566355973482132
0.31354278326034546 0.22629798948764801 0.16172517836093903
0.32936388254165649 0.23150882124900818 0.16557642817497253
0.34459024667739868 0.23684993386268616 0.169247105717659
0.35974696278572083 0.24158501625061035 0.17272675037384033
0.37519162893295288 0.24642221629619598 0.17646269500255585
0.39033457636833191 0.25168946385383606 0.17998597025871277
0.40951094031333923 0.25812980532646179 0.18506059050559998
0.43302330374717712 0.2663995623588562 0.19176200032234192
0.45607227087020874 0.2742178738117218 0.1983790397644043
0.47777590155601501 0.28084874153137207 0.20446367561817169
0.4977327287197113 0.28657832741737366 0.2093353271484375
0.51697623729705811 0.29222476482391357 0.21347595751285553
0.53651422262191772 0.29793477058410645 0.21757683157920837
0.55594444274902344 0.30367273092269897 0.22167888283729553
0.575145423412323 0.3092806339263916 0.22591990232467651
0.097610227763652802 0.14837823808193207 0.097610220313072205
0.10571516305208206 0.15241070091724396 0.10040397197008133
0.11322765797376633 0.15609508752822876 0.10269128531217575
0.12083734571933746 0.15978518128395081 0.10516592115163803
0.12839706242084503 0.16351962089538574 0.10742837190628052
0.13605348765850067 0.16699214279651642 0.10984630882740021
0.14793114364147186 0.17257918417453766 0.11390599608421326
0.16285307705402374 0.17933870851993561 0.11916087567806244
0.17801582813262939 0.18595291674137115 0.12452861666679382
0.19243639707565308 0.19243638217449188 0.1293579638004303
0.20427989959716797 0.19713377952575684 0.13278032839298248
0.21581488847732544 0.20157685875892639 0.13582910597324371
0.2270839661359787 0.20587252080440521 0.13885067403316498
0.23833388090133667 0.21024355292320251 0.14178271591663361
0.2497265636920929 0.21460908651351929 0.14483499526977539
0.26495885848999023 0.22057993710041046 0.14937604963779449
0.28420466184616089 0.22818276286125183 0.15523983538150787
0.30335718393325806 0.23561613261699677 0.16126970946788788
0.32190221548080444 0.24265356361865997 0.16709116101264954
0.33802139759063721 0.24831627309322357 0.17114406824111938
0.3532710075378418 0.25342029333114624 0.17473199963569641
0.36839449405670166 0.25848197937011719 0.17829614877700806
0.38385465741157532 0.26320773363113403 0.18197424709796906
0.39899608492851257 0.26829424500465393 0.18541434407234192
0.41815322637557983 0.27486240863800049 0.1906546950340271
0.44166427850723267 0.28320634365081787 0.19718925654888153
0.46496978402137756 0.29127791523933411 0.20392969250679016
0.4881950318813324 0.29923862218856812 0.21047018468379974
0.50840270519256592 0.3054777979850769 0.21527191996574402
0.52764266729354858 0.31105315685272217 0.21938760578632355
0.54733043909072876 0.31691727042198181 0.22366489470005035
0.56665384769439697 0.3224828839302063 0.22793436050415039
0.58592069149017334 0.32828181982040405 0.23215277493000031
0.10061422735452652 0.15858867764472961 0.10061422735452652
0.10983864217996597 0.16371430456638336 0.10365687310695648
0.11763926595449448 0.16759102046489716 0.10605110973119736
0.12530839443206787 0.17143738269805908 0.10847142338752747
0.13279123604297638 0.17500537633895874 0.11083030700683594
0.14038291573524475 0.1785782128572464 0.11318659037351608
0.15224823355674744 0.1842009574174881 0.11719275265932083
0.16714668273925781 0.19087405502796173 0.12243321537971497
0.18238162994384766 0.19761087000370026 0.12795621156692505
0.19713379442691803 0.20427989959716797 0.13278032839298248
0.21033032238483429 0.21033032238483429 0.13664929568767548
0.22202828526496887 0.21510361135005951 0.13963437080383301
0.23324811458587646 0.21938621997833252 0.14267441630363464
0.24445275962352753 0.22373269498348236 0.14560166001319885
0.25581789016723633 0.2281443327665329 0.14868660271167755
0.27139362692832947 0.23408877849578857 0.15316671133041382
0.29057767987251282 0.24165084958076477 0.15917249023914337
0.30961090326309204 0.24914480745792389 0.16518105566501617
0.32831740379333496 0.25645816326141357 0.17088328301906586
0.34601461887359619 0.26329448819160461 0.17532296478748322
0.36156594753265381 0.26876771450042725 0.17909099161624908
0.37677973508834839 0.27368649840354919 0.18258427083492279
0.39216253161430359 0.27887842059135437 0.18625330924987793
0.40731701254844666 0.28389135003089905 0.18974964320659637
0.42647406458854675 0.29034999012947083 0.19486056268215179
0.45007950067520142 0.29865121841430664 0.20161424577236176
0.47336742281913757 0.3068084716796875 0.2081751674413681
0.49659183621406555 0.31495335698127747 0.21479882299900055
0.51836860179901123 0.32255035638809204 0.22005033493041992
0.53810542821884155 0.32855790853500366 0.22432996332645416
0.55773371458053589 0.33441531658172607 0.22865323722362518
0.57705891132354736 0.33989644050598145 0.23292665183544159
0.59631967544555664 0.34575498104095459 0.23714070022106171
0.10320361703634262 0.16799324750900269 0.10320360958576202
0.11275884509086609 0.17363898456096649 0.10629364848136902
0.12184605747461319 0.17880269885063171 0.10896287113428116
0.12970216572284698 0.18282206356525421 0.11144816130399704
0.1371740996837616 0.18641835451126099 0.11384183913469315
0.14482408761978149 0.19005544483661652 0.1160983145236969
0.15658079087734222 0.1956002414226532 0.12025047838687897
0.17155605554580688 0.2022193968296051 0.12545804679393768
0.18680399656295776 0.20901124179363251 0.13086137175559998
0.20157685875892639 0.21581490337848663 0.13582910597324371
0.21510361135005951 0.22202831506729126 0.13963437080383301
0.22824221849441528 0.22824224829673767 0.14297828078269958
0.23982769250869751 0.23280157148838043 0.14611424505710602
0.25109750032424927 0.23711133003234863 0.14911955595016479
0.26252403855323792 0.24146512150764465 0.15214231610298157
0.27765578031539917 0.24749951064586639 0.15663963556289673
0.29669156670570374 0.2550102174282074 0.16265943646430969
0.31599080562591553 0.26255494356155396 0.16863724589347839
0.33490249514579773 0.26992058753967285 0.17436951398849487
0.35260263085365295 0.27718964219093323 0.17896606028079987
0.36960169672966003 0.2838309109210968 0.18294891715049744
0.38527014851570129 0.28925645351409912 0.18669323623180389
0.40056455135345459 0.29435738921165466 0.19025073945522308
0.41579967737197876 0.29917356371879578 0.19384312629699707
0.4349643886089325 0.30578145384788513 0.19894751906394958
0.4584805965423584 0.31406596302986145 0.20554789900779724
0.48166054487228394 0.32222741842269897 0.21228809654712677
0.50507938861846924 0.33041748404502869 0.21863289177417755
0.52693784236907959 0.33828070759773254 0.22401203215122223
0.54808503389358521 0.34571459889411926 0.22868387401103973
0.56811946630477905 0.35198026895523071 0.23299130797386169
0.58746808767318726 0.35753157734870911 0.2372584342956543
0.60670262575149536 0.36324021220207214 0.24150671064853668
