Textures/30.cube
# Created by: G'MIC (https://gmic.eu)
TITLE "TensionGreen1.cube"
# LUT size
LUT_3D_SIZE 5
# Data domain
DOMAIN_MIN 0.0 0.0 0.0
DOMAIN_MAX 1.0 1.0 1.0
# LUT data points
0 0.012386990711092949 0.032275434583425522
0.19143900275230408 0.043683871626853943 0.024672333151102066
0.42601275444030762 0.031485129147768021 0.0011881754035130143
0.66129964590072632 0.059799693524837494 0
0.91306233406066895 0.013659381307661533 0.0021430125925689936
0.030946196988224983 0.21924406290054321 0.053154271095991135
0.16881564259529114 0.23288008570671082 0.0032442563679069281
0.41610145568847656 0.23982711136341095 0
0.68301248550415039 0.22356012463569641 0
0.91023844480514526 0.2435280978679657 0
0.14750102162361145 0.44396510720252991 0.10532714426517487
0.21475954353809357 0.45258545875549316 0.01607646606862545
0.38260728120803833 0.47496598958969116 0.01446288637816906
0.6405368447303772 0.48987960815429688 0.00049009837675839663
0.94536948204040527 0.46271032094955444 0
0.3374767005443573 0.67727196216583252 0.24457885324954987
0.37317776679992676 0.68794488906860352 0.20786175131797791
0.4950815737247467 0.69972503185272217 0.16097396612167358
0.67063558101654053 0.71550923585891724 0.19002886116504669
0.90982913970947266 0.72649544477462769 0.16096392273902893
0.52846652269363403 0.90759789943695068 0.41506204009056091
0.5464247465133667 0.91336238384246826 0.38543552160263062
0.6257472038269043 0.92204767465591431 0.31918904185295105
0.77553057670593262 0.93308788537979126 0.31795352697372437
0.95306611061096191 0.95643007755279541 0.3458307683467865
0.00037711477489210665 0.044154439121484756 0.12034516036510468
0.11166122555732727 0.11029314249753952 0.14178459346294403
0.24586449563503265 0.20521576702594757 0.16573581099510193
0.52475851774215698 0.25410246849060059 0.19004537165164948
0.82133322954177856 0.24645870923995972 0.20948031544685364
0.063681237399578094 0.2199566662311554 0.152443528175354
0.13974744081497192 0.24164335429668427 0.16496281325817108
0.35662880539894104 0.27306976914405823 0.16959857940673828
0.60908991098403931 0.29027861356735229 0.17273622751235962
0.88791829347610474 0.28426927328109741 0.20072661340236664
0.19902662932872772 0.43744534254074097 0.22714434564113617
0.22336003184318542 0.45240229368209839 0.21351313591003418
0.37282440066337585 0.47897824645042419 0.17576354742050171
0.64173740148544312 0.49015185236930847 0.12856130301952362
0.936287522315979 0.47450903058052063 0.12420248240232468
0.36612212657928467 0.67354106903076172 0.36134657263755798
0.37817475199699402 0.68217223882675171 0.32634991407394409
0.47922796010971069 0.69890308380126953 0.26255425810813904
0.65511077642440796 0.71765244007110596 0.28437048196792603
0.90667611360549927 0.73098951578140259 0.25957965850830078
0.53440272808074951 0.90674692392349243 0.48854738473892212
0.56775575876235962 0.91168105602264404 0.47789520025253296
0.62396097183227539 0.92395579814910889 0.42007514834403992
0.76135194301605225 0.93702489137649536 0.38406604528427124
0.94822788238525391 0.96082895994186401 0.41852360963821411
0.062249459326267242 0.098670206964015961 0.19873450696468353
0.1274259090423584 0.14202350378036499 0.21405193209648132
0.25014987587928772 0.22890746593475342 0.24505120515823364
0.39720892906188965 0.3421071469783783 0.28493839502334595
0.59121209383010864 0.44604006409645081 0.36233407258987427
0.086035251617431641 0.23690864443778992 0.23682048916816711
0.1466614305973053 0.26324900984764099 0.24722100794315338
0.27958139777183533 0.31760582327842712 0.26727288961410522
0.42158517241477966 0.40082156658172607 0.30316215753555298
0.64868050813674927 0.47088232636451721 0.38078361749649048
0.21956545114517212 0.44742709398269653 0.2975238561630249
0.25691550970077515 0.45705774426460266 0.30371579527854919
0.34717735648155212 0.49418139457702637 0.33953437209129333
0.57249772548675537 0.51924848556518555 0.3742537796497345
0.83629482984542847 0.53825575113296509 0.41320911049842834
0.40218290686607361 0.67245590686798096 0.44989609718322754
0.4296078085899353 0.67824119329452515 0.45955497026443481
0.48751401901245117 0.70143985748291016 0.45963940024375916
0.63392865657806396 0.73088335990905762 0.43832281231880188
0.9060477614402771 0.73247867822647095 0.40318435430526733
0.60205346345901489 0.8909839391708374 0.62463384866714478
0.61513745784759521 0.8997647762298584 0.62380772829055786
0.63451129198074341 0.92375338077545166 0.59158617258071899
0.75103247165679932 0.94987434148788452 0.52747195959091187
0.9273296594619751 0.96306848526000977 0.54631757736206055
0.12781763076782227 0.16229699552059174 0.29065680503845215
0.17266067862510681 0.19308656454086304 0.30071142315864563
0.27122214436531067 0.26322898268699646 0.32747101783752441
0.41374707221984863 0.36115938425064087 0.36948147416114807
0.57430523633956909 0.46736231446266174 0.44297772645950317
0.14541907608509064 0.27013346552848816 0.31814533472061157
0.19425275921821594 0.29047936201095581 0.32925036549568176
0.29504373669624329 0.3435002863407135 0.35418078303337097
0.43592512607574463 0.42221078276634216 0.39769339561462402
0.59526634216308594 0.51563745737075806 0.4638182520866394
0.24938118457794189 0.46382570266723633 0.39214634895324707
0.27369096875190735 0.4784683883190155 0.40635964274406433
0.35988381505012512 0.50986742973327637 0.43280047178268433
0.51172363758087158 0.55640000104904175 0.47157502174377441
0.65928226709365845 0.62495946884155273 0.53561800718307495
0.43021216988563538 0.68117278814315796 0.52168208360671997
0.45505756139755249 0.68660581111907959 0.52913719415664673
0.51471912860870361 0.70601385831832886 0.54941284656524658
0.61528849601745605 0.74317878484725952 0.59536164999008179
0.82916414737701416 0.76442044973373413 0.6308063268661499
0.61282449960708618 0.90087831020355225 0.69636958837509155
0.62872922420501709 0.90494030714035034 0.70127147436141968
0.68278682231903076 0.91440820693969727 0.71017038822174072
0.75148934125900269 0.94380158185958862 0.72894269227981567
0.91498494148254395 0.97084486484527588 0.70895618200302124
0.196968674659729 0.22383545339107513 0.38297167420387268
0.2317175418138504 0.24765096604824066 0.39697042107582092
0.30963405966758728 0.31105589866638184 0.42533400654792786
0.44537127017974854 0.39512085914611816 0.46537911891937256
0.59722226858139038 0.4956173300743103 0.5439678430557251
0.22220037877559662 0.31507906317710876 0.41224873065948486
0.24864496290683746 0.33184632658958435 0.42406830191612244
0.33460471034049988 0.37899667024612427 0.44863298535346985
0.45527824759483337 0.4517989456653595 0.49303415417671204
0.62487542629241943 0.5405842661857605 0.56816214323043823
0.27781867980957031 0.49312591552734375 0.49084815382957458
0.31551343202590942 0.49666282534599304 0.49946111440658569
0.39693477749824524 0.53503537178039551 0.52918118238449097
0.5218346118927002 0.58261722326278687 0.57164460420608521
0.67592692375183105 0.6433335542678833 0.62930482625961304
0.45024001598358154 0.69702625274658203 0.62668490409851074
0.4716334342956543 0.70179462432861328 0.62916642427444458
0.53612804412841797 0.71892732381820679 0.64621537923812866
0.63027471303939819 0.75797891616821289 0.68785512447357178
0.76149219274520874 0.79852783679962158 0.7271689772605896
0.64106243848800659 0.9097784161567688 0.76304304599761963
0.65776157379150391 0.91548836231231689 0.77633750438690186
0.7046581506729126 0.92778944969177246 0.78822940587997437
0.77654480934143066 0.95070922374725342 0.81396454572677612
0.94033539295196533 0.98017185926437378 0.92888003587722778
