Textures/30.cube
# Created by: G'MIC (https://gmic.eu)
TITLE "TensionGreen1.cube"
# LUT size
LUT_3D_SIZE 33
# Data domain
DOMAIN_MIN 0.0 0.0 0.0
DOMAIN_MAX 1.0 1.0 1.0
# LUT data points
0 0.012386990711092949 0.032275434583425522
0 0.020642561838030815 0.03572455421090126
0.0061634792946279049 0.027448775246739388 0.039862256497144699
0.028810668736696243 0.027018643915653229 0.038722008466720581
0.057639610022306442 0.027389578521251678 0.037822846323251724
0.09565483033657074 0.036653388291597366 0.041863612830638885
0.13208107650279999 0.045363806188106537 0.044991429895162582
0.16209155321121216 0.044848594814538956 0.036191724240779877
0.19143900275230408 0.043683871626853943 0.024672333151102066
0.22316710650920868 0.04495663195848465 0.018086334690451622
0.25536766648292542 0.045779246836900711 0.010599367320537567
0.2862890362739563 0.042868040502071381 0.0070994007401168346
0.31649133563041687 0.037977743893861771 0.0050193434581160545
0.34444835782051086 0.036807134747505188 0.0028523169457912445
0.37176769971847534 0.038694292306900024 0.00245130923576653
0.3993130624294281 0.036444209516048431 0.0013317057164385915
0.42601275444030762 0.031485129147768021 0.0011881754035130143
0.4514184296131134 0.036182761192321777 0.00013618056254927069
0.47464790940284729 0.049928676337003708 0
0.50432837009429932 0.054630380123853683 0
0.53498560190200806 0.053758230060338974 0
0.56315404176712036 0.055649600923061371 0
0.59221112728118896 0.057552564889192581 0
0.62484341859817505 0.058232057839632034 0
0.66129964590072632 0.059799693524837494 0
0.69475728273391724 0.052169661968946457 0
0.72403442859649658 0.037438008934259415 0
0.75307744741439819 0.03298669308423996 0
0.78344470262527466 0.036430586129426956 0
0.81720232963562012 0.028154052793979645 0
0.8479575514793396 0.013039759360253811 0
0.88157689571380615 0.011273056268692017 0.0014426147099584341
0.91306233406066895 0.013659381307661533 0.0021430125925689936
0 0.040347769856452942 0.039801247417926788
0 0.045138396322727203 0.032576028257608414
0.0080474326387047768 0.049954015761613846 0.032944854348897934
0.041278522461652756 0.048595543950796127 0.027456201612949371
0.071902647614479065 0.047992922365665436 0.022743025794625282
0.10640756785869598 0.051043834537267685 0.022112129256129265
0.1414530873298645 0.057344123721122742 0.025296645238995552
0.16997151076793671 0.056609280407428741 0.023985659703612328
0.19860227406024933 0.055502302944660187 0.016291853040456772
0.22854664921760559 0.056178275495767593 0.013702536001801491
0.25984114408493042 0.056925252079963684 0.0078090690076351166
0.28808802366256714 0.058536835014820099 0.0038884582463651896
0.31630080938339233 0.057439796626567841 0.0022280991543084383
0.34286105632781982 0.055037546902894974 9.532640251563862e-05
0.36932194232940674 0.056216508150100708 0.00048344102106057107
0.39600646495819092 0.062081009149551392 0.0012256253976374865
0.42302438616752625 0.061773531138896942 0.0011881754035130143
0.45033717155456543 0.060217682272195816 0.00013618057710118592
0.47630223631858826 0.067252755165100098 0
0.5061718225479126 0.071730315685272217 0
0.53612834215164185 0.072400912642478943 0
0.56390422582626343 0.0753370001912117 0
0.591666579246521 0.078072145581245422 0
0.62336504459381104 0.080513224005699158 0
0.65640848875045776 0.083083420991897583 0
0.69194537401199341 0.078175127506256104 0
0.72597336769104004 0.063728190958499908 0
0.75410521030426025 0.057449985295534134 0
0.78104156255722046 0.062035795301198959 0
0.8139348030090332 0.053533107042312622 0
0.84790647029876709 0.036477211862802505 0
0.88069742918014526 0.03806062787771225 0.00081538117956370115
0.91080671548843384 0.048983622342348099 0.0012256251648068428
0.00014355703024193645 0.066733725368976593 0.048059534281492233
0.00048684555804356933 0.070090755820274353 0.03687557578086853
0.010441554710268974 0.07264380156993866 0.026444427669048309
0.045376233756542206 0.071215309202671051 0.018301956355571747
0.081384144723415375 0.07085447758436203 0.0089115481823682785
0.11399479955434799 0.072826333343982697 0.0057912883348762989
0.14688260853290558 0.074459590017795563 0.0054379571229219437
0.1756167858839035 0.073615856468677521 0.0050314459949731827
0.20294678211212158 0.072225295007228851 0.0046668872237205505
0.23247353732585907 0.072280138731002808 0.0041043227538466454
0.26267361640930176 0.07227034866809845 0.0033990978263318539
0.29016083478927612 0.074965648353099823 0.0015216139145195484
0.31539422273635864 0.07954445481300354 0.0010618166998028755
0.34134933352470398 0.079179920256137848 3.7165944377193227e-05
0.36645740270614624 0.07808290421962738 7.6637035817839205e-05
0.3916550874710083 0.083196751773357391 0.00042301093344576657
0.41903939843177795 0.090113721787929535 0.00037112753489054739
0.44718730449676514 0.091178305447101593 2.2554908355232328e-05
0.47550573945045471 0.089998848736286163 0
0.50587570667266846 0.091561280190944672 0
0.53669661283493042 0.093909405171871185 0
0.56564551591873169 0.0969080850481987 0
0.5933232307434082 0.10059843957424164 0
0.62262088060379028 0.10324131697416306 0
0.65361255407333374 0.10661766678094864 0
0.68743807077407837 0.10083453357219696 0
0.72513914108276367 0.087201379239559174 0
0.75628715753555298 0.080728106200695038 0
0.78020250797271729 0.086998358368873596 0
0.81082558631896973 0.083679206669330597 0
0.84778285026550293 0.065688639879226685 0
0.88103991746902466 0.062978915870189667 0.00026590676861815155
0.91021841764450073 0.078283347189426422 0.00043237331556156278
0.00071154354372993112 0.091125980019569397 0.055509913712739944
0.0058561335317790508 0.093024589121341705 0.041447095572948456
0.017329594120383263 0.095317080616950989 0.028997471556067467
0.047933638095855713 0.094397708773612976 0.020614026114344597
0.081379786133766174 0.093880996108055115 0.0098202275112271309
0.10985662043094635 0.096103265881538391 0.0022223270498216152
0.14159151911735535 0.097690075635910034 0.00058557646116241813
0.17480269074440002 0.098769776523113251 0
0.20357662439346313 0.097877815365791321 0
0.23288907110691071 0.096697010099887848 0
0.26290851831436157 0.096147596836090088 0
0.29207250475883484 0.094909593462944031 0
0.31803375482559204 0.09742119163274765 0
0.34533789753913879 0.10032206773757935 0
0.37128287553787231 0.10089167207479477 0
0.39158540964126587 0.10445027053356171 0
0.41504210233688354 0.11110660433769226 0
0.44369882345199585 0.11702633649110794 0
0.47215473651885986 0.11891672015190125 0
0.5021965503692627 0.11967270076274872 0
0.53310173749923706 0.12093208730220795 0
0.56467533111572266 0.12322805821895599 0
0.595206618309021 0.12610134482383728 0
0.62253469228744507 0.12861301004886627 0
0.65147840976715088 0.13193926215171814 0
0.68472570180892944 0.12749382853507996 0
0.72056674957275391 0.11612928658723831 0
0.75256460905075073 0.10978993028402328 0
0.77861100435256958 0.11329901963472366 0
0.80963039398193359 0.11440981179475784 0
0.84734755754470825 0.10338395088911057 0
0.88155823945999146 0.09528641402721405 0
0.91191303730010986 0.09715878963470459 0
0.0026479428634047508 0.11580809205770493 0.061374109238386154
0.0097848288714885712 0.11774805188179016 0.047095153480768204
0.02411453053355217 0.11916855722665787 0.03109009750187397
0.052362710237503052 0.11790882796049118 0.021850503981113434
0.079834938049316406 0.11766138672828674 0.014631211757659912
0.1063966378569603 0.12028616666793823 0.0077389632351696491
0.13452661037445068 0.12196295708417892 0.0025954297743737698
0.16731370985507965 0.12367643415927887 0.00089155556634068489
0.20088551938533783 0.12473473697900772 0.00035236720577813685
0.23111549019813538 0.12311044335365295 0
0.26183748245239258 0.1215549111366272 0
0.29211822152137756 0.11947434395551682 0
0.32051229476928711 0.11672055721282959 0
0.34882408380508423 0.11830949038267136 0
0.37714600563049316 0.12197273224592209 0
0.39803573489189148 0.12601055204868317 0
0.41573598980903625 0.13139374554157257 0
0.44264224171638489 0.13693432509899139 0
0.47103005647659302 0.14391563832759857 0
0.50035089254379272 0.14666828513145447 0
0.53084361553192139 0.14680930972099304 0
0.56195008754730225 0.14835304021835327 0
0.59473752975463867 0.15042930841445923 0
0.623482346534729 0.15373070538043976 0
0.65088820457458496 0.15718472003936768 0
0.68225383758544922 0.15505905449390411 0
0.71663647890090942 0.14707410335540771 0
0.74859321117401123 0.14233244955539703 0
0.77639591693878174 0.14366331696510315 0
0.80827373266220093 0.14164713025093079 0
0.84628856182098389 0.13441221415996552 0
0.8811526894569397 0.13126261532306671 0
0.91187316179275513 0.12479741126298904 0
0.0066122086718678474 0.14113549888134003 0.060255419462919235
0.01805439218878746 0.14162735641002655 0.050369352102279663
0.032436680048704147 0.14275920391082764 0.03456491231918335
0.056796513497829437 0.14235121011734009 0.019225293770432472
0.082152165472507477 0.14285184442996979 0.012376870028674603
0.10469089448451996 0.14734284579753876 0.0099485116079449654
0.13117033243179321 0.15033170580863953 0.0049102958291769028
0.15875467658042908 0.15187875926494598 0.0024389706086367369
0.19075946509838104 0.15309105813503265 0.0010369200026616454
0.22173325717449188 0.15136949717998505 0
0.25288498401641846 0.15000657737255096 0
0.28603711724281311 0.14934909343719482 0
0.31560671329498291 0.14655019342899323 0
0.34614694118499756 0.14540186524391174 0
0.37582129240036011 0.14735157787799835 0
0.40343394875526428 0.14982815086841583 0
0.42528334259986877 0.15338736772537231 0
0.45256680250167847 0.15460927784442902 0
0.48128345608711243 0.15863284468650818 0
0.5088161826133728 0.16454100608825684 0
0.53786271810531616 0.16692629456520081 0
0.5662543773651123 0.16795878112316132 0
0.59661257266998291 0.17086972296237946 0
0.62583059072494507 0.17566069960594177 0
0.65292841196060181 0.18020913004875183 0
0.68226844072341919 0.18195834755897522 0
0.7130277156829834 0.17972007393836975 0
0.74739211797714233 0.17476744949817657 0
0.77832412719726562 0.17426103353500366 0
0.80962824821472168 0.17009693384170532 0
0.84476995468139648 0.16182424128055573 0
0.87871545553207397 0.16201686859130859 0
0.91119617223739624 0.16226576268672943 0
0.010443815961480141 0.16600042581558228 0.056799519807100296
0.023510223254561424 0.16635338962078094 0.048794187605381012
0.039745766669511795 0.16668149828910828 0.038804840296506882
0.061651896685361862 0.16674996912479401 0.022589346393942833
0.084542021155357361 0.16768670082092285 0.0099398568272590637
0.1059078648686409 0.17251834273338318 0.0075573441572487354
0.12840923666954041 0.17765308916568756 0.0050413589924573898
0.15351618826389313 0.18035648763179779 0.0027892673388123512
0.17995794117450714 0.18172129988670349 0.002054946031421423
0.20986023545265198 0.18052524328231812 0.00077168818097561598
0.24099835753440857 0.17894561588764191 0.00034396233968436718
0.27458703517913818 0.17892150580883026 0
0.30641075968742371 0.17888718843460083 0
0.3378148078918457 0.17719709873199463 0
0.37071168422698975 0.17570768296718597 0
0.40151789784431458 0.17619150876998901 0
0.43226304650306702 0.17649348080158234 0
0.4624364972114563 0.17577078938484192 0
0.4924047589302063 0.174618199467659 0
0.52151608467102051 0.1779373437166214 0
0.54864221811294556 0.18338607251644135 0
0.57606619596481323 0.1855643093585968 0
0.60350394248962402 0.18914406001567841 0
0.63172805309295654 0.19342751801013947 0
0.65879029035568237 0.19908683001995087 0
0.68626660108566284 0.20312663912773132 0
0.71346575021743774 0.20619744062423706 0
0.74491220712661743 0.20491610467433929 0
0.77948093414306641 0.20286870002746582 0
0.81190460920333862 0.19928312301635742 0
0.84398418664932251 0.19073775410652161 0
0.87808823585510254 0.18919545412063599 0
0.91048002243041992 0.19460168480873108 0
0.020483056083321571 0.1921876072883606 0.054445918649435043
0.03182220458984375 0.19218762218952179 0.042662087827920914
0.045664340257644653 0.19267316162586212 0.033594727516174316
0.061648119240999222 0.19209754467010498 0.022195696830749512
0.083855248987674713 0.19239047169685364 0.0094993487000465393
0.1044590100646019 0.1957002729177475 0.0067497454583644867
0.12585026025772095 0.20089167356491089 0.0050109829753637314
0.14766797423362732 0.2051720917224884 0.0036460638511925936
0.17266812920570374 0.20739275217056274 0.0032279430888593197
0.19872570037841797 0.20877921581268311 0.0024228033144026995
0.22927093505859375 0.20810718834400177 0.001178205362521112
0.26246476173400879 0.20891538262367249 0
0.29482918977737427 0.2094457745552063 0
0.32737746834754944 0.20822559297084808 0
0.36154568195343018 0.20623369514942169 0
0.39491370320320129 0.20604410767555237 0
0.42624184489250183 0.20624281466007233 0
0.45975783467292786 0.20444236695766449 0
0.49122285842895508 0.20188641548156738 0
0.52547687292098999 0.20224423706531525 0
0.5565561056137085 0.2051723301410675 0
0.58407485485076904 0.20540933310985565 0
0.61239778995513916 0.20654058456420898 0
0.64241504669189453 0.20761966705322266 0
0.67219251394271851 0.2094666063785553 0
0.69741338491439819 0.21578516066074371 0
0.7233232855796814 0.22114086151123047 0
0.75264918804168701 0.22083373367786407 0
0.78527688980102539 0.21803382039070129 0
0.81557047367095947 0.21935610473155975 0
0.8441205620765686 0.21949693560600281 0
0.87753546237945557 0.21675162017345428 0
0.90849125385284424 0.21918174624443054 0
0.030946196988224983 0.21924406290054321 0.053154271095991135
0.041618429124355316 0.21949367225170135 0.039251849055290222
0.052892930805683136 0.21989038586616516 0.026866370812058449
0.067380718886852264 0.21915283799171448 0.017398305237293243
0.084837771952152252 0.21857361495494843 0.0079264035448431969
0.10486480593681335 0.2215326726436615 0.0051315585151314735
0.12527705729007721 0.22544747591018677 0.0043331319466233253
0.14657306671142578 0.22926570475101471 0.0036765625700354576
0.16881564259529114 0.23288008570671082 0.0032442563679069281
0.19358251988887787 0.23492659628391266 0.0024511669762432575
0.21965594589710236 0.23679587244987488 0.0018972466932609677
0.2515396773815155 0.23878338932991028 0.00064146606018766761
0.28390562534332275 0.23990732431411743 0.00031896043219603598
0.31730207800865173 0.23942089080810547 0
0.35188347101211548 0.23721529543399811 0
0.3844224214553833 0.23855556547641754 0
0.41610145568847656 0.23982711136341095 0
0.45015832781791687 0.23761561512947083 0
0.48390179872512817 0.23355118930339813 0
0.51953780651092529 0.23227116465568542 0
0.5569767951965332 0.23278403282165527 0
0.58857369422912598 0.23140920698642731 0
0.61782068014144897 0.22820012271404266 0
0.64856290817260742 0.22698350250720978 0
0.68301248550415039 0.22356012463569641 0
0.71181726455688477 0.22569896280765533 0
0.73675501346588135 0.23272719979286194 0
0.76587527990341187 0.23293954133987427 0
0.79679733514785767 0.22961586713790894 0
0.82526892423629761 0.23251950740814209 0
0.8497353196144104 0.24104499816894531 0
0.87938743829727173 0.24350617825984955 0
0.91023844480514526 0.2435280978679657 0
0.036767482757568359 0.24509789049625397 0.054326284676790237
0.04585498571395874 0.24647688865661621 0.041350085288286209
0.055814396589994431 0.24734920263290405 0.029202854260802269
0.06889236718416214 0.24722932279109955 0.02128039114177227
0.08523077517747879 0.24696838855743408 0.010843886993825436
0.10672081261873245 0.2503199577331543 0.0039944578893482685
0.12749511003494263 0.25333628058433533 0.0034382466692477465
0.15010662376880646 0.25583571195602417 0.0036765625700354576
0.17174941301345825 0.25927260518074036 0.0032442563679069281
0.19462977349758148 0.26174136996269226 0.0024511667434126139
0.21902033686637878 0.26403370499610901 0.0024511667434126139
0.24556061625480652 0.26753765344619751 0.0024091883096843958
0.27684175968170166 0.26938685774803162 0.0013169377343729138
0.31025394797325134 0.27103668451309204 0
0.3439929187297821 0.27110862731933594 0
0.37492924928665161 0.2736968994140625 0
0.40681120753288269 0.2741832435131073 0
0.44259434938430786 0.27188301086425781 0
0.47741898894309998 0.26819008588790894 0
0.51007944345474243 0.26634001731872559 0
0.54594635963439941 0.26613649725914001 0
0.58291864395141602 0.26288929581642151 0
0.61572635173797607 0.25917986035346985 0
0.64818626642227173 0.25839695334434509 0
0.68391531705856323 0.2553333044052124 0
0.71675777435302734 0.25126716494560242 0
0.74282461404800415 0.25371912121772766 0
0.77280861139297485 0.25280791521072388 0
0.8052172064781189 0.24775709211826324 0
0.83521759510040283 0.2509194016456604 0
0.86395668983459473 0.25647625327110291 0
0.89286333322525024 0.25909978151321411 0
0.92340350151062012 0.25901427865028381 0
0.043277524411678314 0.27069154381752014 0.057068612426519394
0.050794132053852081 0.27252858877182007 0.045324917882680893
0.058020569384098053 0.27409806847572327 0.033332794904708862
0.070195920765399933 0.27468255162239075 0.02538912370800972
0.08516683429479599 0.27535426616668701 0.016408238559961319
0.10688391327857971 0.278901606798172 0.0080635538324713707
0.12983034551143646 0.28239163756370544 0.0035166025627404451
0.15263886749744415 0.28405344486236572 0.0025531970895826817
0.17594003677368164 0.28650110960006714 0.002461408032104373
0.19892916083335876 0.28882119059562683 0.001976820407435298
0.22138641774654388 0.29100745916366577 0.0019643404521048069
0.24573169648647308 0.29480555653572083 0.0019643404521048069
0.27216449379920959 0.29836291074752808 0.0014278667513281107
0.30409607291221619 0.30104964971542358 0.00029023486422374845
0.33672860264778137 0.304496169090271 0.00012288168363738805
0.36723315715789795 0.30644547939300537 0
0.39868980646133423 0.30757683515548706 0
0.43404066562652588 0.30555945634841919 0
0.46967694163322449 0.30200916528701782 0
0.50262975692749023 0.30032655596733093 0
0.53427577018737793 0.2989138662815094 0
0.57090246677398682 0.29599353671073914 0
0.60933631658554077 0.29218128323554993 0
0.64507126808166504 0.28984600305557251 0
0.682789146900177 0.28919044137001038 0
0.71681803464889526 0.28598415851593018 0
0.74404233694076538 0.28251951932907104 0
0.77607595920562744 0.27887243032455444 0
0.81032544374465942 0.27178555727005005 0
0.84288859367370605 0.27072799205780029 0
0.87691181898117065 0.27138054370880127 0
0.90982735157012939 0.27049845457077026 0
0.94062983989715576 0.27035334706306458 0
0.053718261420726776 0.29980292916297913 0.057386085391044617
0.059197124093770981 0.30039495229721069 0.054257791489362717
0.065967679023742676 0.30152654647827148 0.042418040335178375
0.079072944819927216 0.30274361371994019 0.030766138806939125
0.093322254717350006 0.30424925684928894 0.021912252530455589
0.11221702396869659 0.30685368180274963 0.011995406821370125
0.13447755575180054 0.31018775701522827 0.0043758107349276543
0.15577003359794617 0.31342598795890808 0.00010114243923453614
0.17905285954475403 0.31536710262298584 0.00046826258767396212
0.20386998355388641 0.31685906648635864 0.0012256251648068428
0.2256939709186554 0.31882545351982117 0.0012256251648068428
0.24548090994358063 0.32305902242660522 0.0012256251648068428
0.27015587687492371 0.32729882001876831 0.0012256251648068428
0.2995108962059021 0.33073508739471436 0.0012256255140528083
0.33155146241188049 0.33340755105018616 0.00087481841910630465
0.35938656330108643 0.33449077606201172 0
0.38915741443634033 0.33643236756324768 0
0.42251104116439819 0.3370305597782135 0
0.45782893896102905 0.33513718843460083 0
0.49249854683876038 0.33496752381324768 0
0.52506399154663086 0.33418959379196167 0
0.56174933910369873 0.33104550838470459 0
0.60074752569198608 0.32833802700042725 0
0.63967669010162354 0.32406583428382874 0
0.67857307195663452 0.32279318571090698 0
0.71437299251556396 0.31881868839263916 0
0.74406081438064575 0.31513944268226624 0
0.77942883968353271 0.31091293692588806 0
0.8173898458480835 0.30286857485771179 0
0.85180038213729858 0.29657214879989624 0
0.88587898015975952 0.29538735747337341 0
0.92166042327880859 0.29153916239738464 0
0.95582824945449829 0.28886345028877258 0
0.067825816571712494 0.32831960916519165 0.055478304624557495
0.071539685130119324 0.32818621397018433 0.057328078895807266
0.075848788022994995 0.32868495583534241 0.053252082318067551
0.089673042297363281 0.33088588714599609 0.040383163839578629
0.10384872555732727 0.33276152610778809 0.027948923408985138
0.12139901518821716 0.33514907956123352 0.016834210604429245
0.14086829125881195 0.33736643195152283 0.0050801108591258526
0.1602230966091156 0.34095510840415955 0.00015561323380097747
0.1819583922624588 0.34389790892601013 0.00052869261708110571
0.20678740739822388 0.34499534964561462 0.0012256251648068428
0.22995638847351074 0.34564176201820374 0.0014011671300977468
0.24944047629833221 0.35016411542892456 0.0016358551802113652
0.26993352174758911 0.35532945394515991 0.0013544949470087886
0.29808300733566284 0.35860934853553772 0.0010758265852928162
0.32855135202407837 0.3604682981967926 0.001442237407900393
0.35483863949775696 0.36190763115882874 0.0015761973336338997
0.38105931878089905 0.36334240436553955 0.000856473867315799
0.4138428270816803 0.36504784226417542 0
0.44763615727424622 0.36654472351074219 0
0.4817119836807251 0.36737725138664246 0
0.51665061712265015 0.36718738079071045 0
0.55386221408843994 0.36510768532752991 0
0.59276795387268066 0.36391887068748474 0
0.63159501552581787 0.36006122827529907 0
0.67166060209274292 0.35641700029373169 0
0.70937645435333252 0.35223871469497681 0
0.74209022521972656 0.3483225405216217 0
0.77918744087219238 0.34347689151763916 0
0.82115185260772705 0.33474025130271912 0
0.85733085870742798 0.32883509993553162 0
0.89073216915130615 0.32622170448303223 0
0.92624670267105103 0.32196855545043945 0
0.96389418840408325 0.31639087200164795 0
0.093418799340724945 0.35752904415130615 0.063351437449455261
0.095045603811740875 0.35797795653343201 0.064810134470462799
0.098453179001808167 0.35865151882171631 0.062524691224098206
0.10870791226625443 0.35936826467514038 0.051318544894456863
0.12166627496480942 0.36173152923583984 0.037822064012289047
0.13251809775829315 0.36388826370239258 0.023871995508670807
0.14925940334796906 0.3659566342830658 0.010227653197944164
0.16690093278884888 0.36937123537063599 0.0017194809624925256
0.18785920739173889 0.37285551428794861 0.0011987084290012717
0.2115580290555954 0.37433463335037231 0.0012256253976374865
0.23488345742225647 0.3751184344291687 0.0017124515725299716
0.25653505325317383 0.37752765417098999 0.0024511669762432575
0.2767331600189209 0.38233935832977295 0.0016056048916652799
0.30067470669746399 0.38604983687400818 0.00016284929006360471
0.32953137159347534 0.38865175843238831 0.0016363610047847033
0.35225439071655273 0.39094316959381104 0.0063138725236058235
0.37709984183311462 0.39282268285751343 0.0043929312378168106
0.40917748212814331 0.39484360814094543 4.3407559132901952e-05
0.44263464212417603 0.39724054932594299 0
0.47445133328437805 0.39817950129508972 0
0.50820618867874146 0.39817249774932861 0
0.54576438665390015 0.39712983369827271 0
0.58458930253982544 0.39526236057281494 0
0.6223488450050354 0.39385658502578735 0
0.6621018648147583 0.39072322845458984 0
0.70248419046401978 0.38690045475959778 0
0.73769086599349976 0.38286221027374268 0
0.77472323179244995 0.37900495529174805 0
0.8143267035484314 0.37304207682609558 0
0.85237473249435425 0.36760395765304565 0
0.88883066177368164 0.36345097422599792 0
0.92473262548446655 0.35839763283729553 0
0.96282410621643066 0.35256877541542053 0
0.11846395581960678 0.38637328147888184 0.072693847119808197
0.12014608830213547 0.3879849910736084 0.073931083083152771
0.12326590716838837 0.38903948664665222 0.072015181183815002
0.13153612613677979 0.38921582698822021 0.0613548643887043
0.14199091494083405 0.39058917760848999 0.049464695155620575
0.14954346418380737 0.39277607202529907 0.034733466804027557
0.15825362503528595 0.39474061131477356 0.019303036853671074
0.17504636943340302 0.39784187078475952 0.0079183671623468399
