Textures/31.cube
# Created by: G'MIC (https://gmic.eu)
TITLE "TensionGreen2.cube"
# LUT size
LUT_3D_SIZE 5
# Data domain
DOMAIN_MIN 0.0 0.0 0.0
DOMAIN_MAX 1.0 1.0 1.0
# LUT data points
0 0.039473351091146469 0.089051350951194763
0.13020506501197815 0.051120374351739883 0.04359184205532074
0.30790907144546509 0.031239444389939308 0
0.51793420314788818 0.045088469982147217 0
0.81252419948577881 0.015400303527712822 0
0 0.17434808611869812 0.1213274672627449
0.1216365322470665 0.18726623058319092 0.018121035769581795
0.30697789788246155 0.21991345286369324 0.0036112319212406874
0.52124553918838501 0.27820560336112976 0
0.77654892206192017 0.34803393483161926 0
0.032216116786003113 0.41059449315071106 0.17294175922870636
0.18426531553268433 0.41813766956329346 0.049391016364097595
0.4127979576587677 0.44638139009475708 0.038497902452945709
0.66481125354766846 0.48360991477966309 0.011989541351795197
0.90690261125564575 0.53383380174636841 0
0.42486125230789185 0.69499409198760986 0.3419126570224762
0.46610769629478455 0.70722305774688721 0.26816371083259583
0.64343070983886719 0.70348471403121948 0.20657868683338165
0.81153863668441772 0.71578860282897949 0.23203293979167938
0.99739879369735718 0.72397398948669434 0.17626462876796722
0.65350478887557983 0.90669929981231689 0.4900938868522644
0.65799939632415771 0.91091346740722656 0.4245678186416626
0.79093122482299805 0.90446478128433228 0.34876346588134766
0.94525986909866333 0.89085090160369873 0.32691571116447449
1 0.88790768384933472 0.33098208904266357
0 0.074718862771987915 0.11041916906833649
0.020711002871394157 0.10678330808877945 0.12350769340991974
0.15102945268154144 0.18047259747982025 0.15471222996711731
0.40770107507705688 0.25159066915512085 0.13703435659408569
0.74741446971893311 0.26264521479606628 0.10259287059307098
0 0.18048909306526184 0.1710868775844574
0.019649062305688858 0.20280633866786957 0.17339509725570679
0.25881707668304443 0.24969585239887238 0.14462029933929443
0.48950991034507751 0.30565893650054932 0.10765431821346283
0.84966671466827393 0.29765868186950684 0.014391221106052399
0.10360047966241837 0.40619891881942749 0.29929542541503906
0.1422332227230072 0.42496579885482788 0.27840492129325867
0.38190862536430359 0.45742499828338623 0.18723523616790771
0.65909326076507568 0.49497079849243164 0.130489781498909
0.89267474412918091 0.5460515022277832 0.010162380523979664
0.45119234919548035 0.68484169244766235 0.48492807149887085
0.46070146560668945 0.69936263561248779 0.41834902763366699
0.608367919921875 0.70890140533447266 0.30337366461753845
0.79337871074676514 0.73030441999435425 0.32398366928100586
0.99276500940322876 0.73388272523880005 0.27063798904418945
0.67105269432067871 0.89960557222366333 0.60268718004226685
0.69739615917205811 0.90533721446990967 0.5508805513381958
0.73910015821456909 0.91828542947769165 0.44774210453033447
0.9277721643447876 0.89604717493057251 0.38223174214363098
1 0.8945956826210022 0.39452105760574341
0 0.11276877671480179 0.14697781205177307
0 0.13734430074691772 0.1576535701751709
0.13204622268676758 0.20774707198143005 0.21276858448982239
0.30576044321060181 0.32625329494476318 0.25811326503753662
0.5380205512046814 0.47409731149673462 0.34227615594863892
0 0.19322794675827026 0.19706083834171295
0.030684994533658028 0.2221684455871582 0.21493493020534515
0.17787058651447296 0.28825736045837402 0.24507603049278259
0.36336004734039307 0.38948681950569153 0.28088554739952087
0.61568903923034668 0.50057077407836914 0.35349792242050171
0.14004525542259216 0.42125731706619263 0.35248929262161255
0.19562661647796631 0.43620935082435608 0.35670718550682068
0.31986674666404724 0.48952528834342957 0.38733452558517456
0.57712054252624512 0.53275519609451294 0.37100476026535034
0.83541113138198853 0.5877830982208252 0.36911281943321228
0.48657166957855225 0.68817460536956787 0.55614006519317627
0.50856494903564453 0.69277292490005493 0.55613613128662109
0.56587117910385132 0.72177815437316895 0.53029483556747437
0.75201135873794556 0.7499043345451355 0.45848935842514038
0.98176145553588867 0.74572604894638062 0.39580002427101135
0.7229686975479126 0.89061176776885986 0.70393580198287964
0.73665881156921387 0.89626419544219971 0.69942492246627808
0.74904245138168335 0.91432255506515503 0.65072333812713623
0.88405746221542358 0.91939109563827515 0.51002192497253418
1 0.90191608667373657 0.49003133177757263
0 0.16549444198608398 0.19385211169719696
0 0.18793104588985443 0.21040119230747223
0.084258168935775757 0.2524106502532959 0.255107581615448
0.31308600306510925 0.35287392139434814 0.34657785296440125
0.52814245223999023 0.48792585730552673 0.44419226050376892
0.0020683566108345985 0.23509465157985687 0.24378834664821625
0.048278830945491791 0.26002931594848633 0.25543296337127686
0.18593619763851166 0.32355228066444397 0.30430346727371216
0.37212476134300232 0.41812041401863098 0.36900421977043152
0.58009189367294312 0.53767400979995728 0.45137965679168701
0.1896449476480484 0.44370821118354797 0.41144245862960815
0.23538695275783539 0.46274524927139282 0.42408895492553711
0.34151861071586609 0.50544333457946777 0.45166283845901489
0.5264822244644165 0.57132482528686523 0.47372305393218994
0.70554590225219727 0.65265446901321411 0.51624208688735962
0.51520836353302002 0.70057618618011475 0.60632205009460449
0.535594642162323 0.70661163330078125 0.60890907049179077
0.5945134162902832 0.72819435596466064 0.61547064781188965
0.69367343187332153 0.76624351739883423 0.63646870851516724
0.90653824806213379 0.78220671415328979 0.60528331995010376
0.73351514339447021 0.89526164531707764 0.76468026638031006
0.74854999780654907 0.89846354722976685 0.76450580358505249
0.78872287273406982 0.90239465236663818 0.74914395809173584
0.83807528018951416 0.91973972320556641 0.72851574420928955
0.98875600099563599 0.91370457410812378 0.63329726457595825
0 0.22629132866859436 0.25249806046485901
0 0.25183597207069397 0.27525630593299866
0.083694308996200562 0.31720438599586487 0.3274877667427063
0.32022559642791748 0.40732541680335999 0.41316381096839905
0.53784728050231934 0.53291457891464233 0.53594756126403809
0.051170490682125092 0.30063772201538086 0.30286470055580139
0.084557428956031799 0.32133281230926514 0.31987282633781433
0.1995939314365387 0.37933215498924255 0.3692859411239624
0.37432965636253357 0.4675619900226593 0.44277119636535645
0.60036897659301758 0.57505637407302856 0.555930495262146
0.28007593750953674 0.48224541544914246 0.44698172807693481
0.31493023037910461 0.49246954917907715 0.45681339502334595
0.41591513156890869 0.54319542646408081 0.49509096145629883
0.55582326650619507 0.60366016626358032 0.54209262132644653
0.71971726417541504 0.67782580852508545 0.61695414781570435
0.54403978586196899 0.71281743049621582 0.65719234943389893
0.55842894315719604 0.71674549579620361 0.65809208154678345
0.62114202976226807 0.73949229717254639 0.6694788932800293
0.71537458896636963 0.78076636791229248 0.69438838958740234
0.84327435493469238 0.81379997730255127 0.70675539970397949
0.7573474645614624 0.89918923377990723 0.79791891574859619
0.77253496646881104 0.90308272838592529 0.80340272188186646
0.81209498643875122 0.91094756126403809 0.80426126718521118
0.85807615518569946 0.92155230045318604 0.80321282148361206
0.97710788249969482 0.92664295434951782 0.82782649993896484
