Textures/31.cube
# Created by: G'MIC (https://gmic.eu)
TITLE "TensionGreen2.cube"
# LUT size
LUT_3D_SIZE 33
# Data domain
DOMAIN_MIN 0.0 0.0 0.0
DOMAIN_MAX 1.0 1.0 1.0
# LUT data points
0 0.039473351091146469 0.089051350951194763
0 0.044935882091522217 0.088918343186378479
1.5604024383719661e-06 0.048579994589090347 0.088463872671127319
0.0016803978942334652 0.045666344463825226 0.086552277207374573
0.016192333772778511 0.043122977018356323 0.088380858302116394
0.046245258301496506 0.047398369759321213 0.091715060174465179
0.076118312776088715 0.051861688494682312 0.088029474020004272
0.10706890374422073 0.051114518195390701 0.064512766897678375
0.13020506501197815 0.051120374351739883 0.04359184205532074
0.14932090044021606 0.053132630884647369 0.041296690702438354
0.16929112374782562 0.055922713130712509 0.038033325225114822
0.19182588160037994 0.053441237658262253 0.028664907440543175
0.21617645025253296 0.045468144118785858 0.016827357932925224
0.23656201362609863 0.041377220302820206 0.013306282460689545
0.25819829106330872 0.037768997251987457 0.0033756871707737446
0.28280091285705566 0.035083439201116562 0
0.30790907144546509 0.031239444389939308 0
0.32923826575279236 0.030268587172031403 0
0.34474992752075195 0.033646333962678909 0
0.3679756224155426 0.028833288699388504 0
0.39464041590690613 0.027269171550869942 0
0.41934794187545776 0.038344159722328186 0
0.44840148091316223 0.045620903372764587 0
0.48187008500099182 0.044691909104585648 0
0.51793420314788818 0.045088469982147217 0
0.55689239501953125 0.044010438024997711 0
0.59206098318099976 0.036515321582555771 0
0.62261962890625 0.03332129493355751 0
0.65319007635116577 0.039207305759191513 0
0.69588631391525269 0.030106417834758759 0
0.73994392156600952 0.016495823860168457 0
0.77181702852249146 0.012931076809763908 0
0.81252419948577881 0.015400303527712822 0
0 0.056615829467773438 0.088120333850383759
0 0.05942884087562561 0.08397974818944931
1.8724827896221541e-05 0.061714127659797668 0.082295678555965424
0.0054745739325881004 0.056941617280244827 0.067099764943122864
0.029473640024662018 0.053851697593927383 0.060941245406866074
0.060091055929660797 0.055745765566825867 0.060988485813140869
0.088022276759147644 0.060270503163337708 0.053293824195861816
0.11200553923845291 0.060086242854595184 0.040829408913850784
0.12928518652915955 0.061354208737611771 0.030650634318590164
0.14782567322254181 0.063541725277900696 0.032008323818445206
0.16820380091667175 0.066051788628101349 0.028263162821531296
0.18780463933944702 0.068615742027759552 0.017688710242509842
0.20942489802837372 0.063536979258060455 0.0093817757442593575
0.22905127704143524 0.057418037205934525 0.0088798115029931068
0.25156310200691223 0.055654577910900116 0.0026646330952644348
0.2747272253036499 0.062042683362960815 0
0.29894030094146729 0.062576539814472198 0
0.32423415780067444 0.054934844374656677 0
0.34540525078773499 0.053658835589885712 0
0.36920231580734253 0.051446884870529175 0
0.3961804211139679 0.05575793981552124 0
0.41982454061508179 0.068475574254989624 0
0.44593775272369385 0.077797122299671173 0
0.47591114044189453 0.081302054226398468 0
0.50815087556838989 0.084846459329128265 0
0.54774379730224609 0.084284357726573944 0
0.58994835615158081 0.072585679590702057 0
0.62092947959899902 0.065874986350536346 0
0.6468692421913147 0.076995231211185455 0
0.6847611665725708 0.063918918371200562 0
0.73564630746841431 0.045374967157840729 0
0.77345418930053711 0.048913609236478806 0
0.81042253971099854 0.067784875631332397 0
0 0.073976583778858185 0.091763891279697418
0 0.076133891940116882 0.087308391928672791
8.77715356182307e-05 0.076142780482769012 0.081031523644924164
0.0093926023691892624 0.071279682219028473 0.056092496961355209
0.041663341224193573 0.068740680813789368 0.032181154936552048
0.070755496621131897 0.071471691131591797 0.027470109984278679
0.095029860734939575 0.072348631918430328 0.018229281529784203
0.11336752027273178 0.072478823363780975 0.01353724766522646
0.12759283185005188 0.074382416903972626 0.012595687061548233
0.14442266523838043 0.078421168029308319 0.011000922881066799
0.16483689844608307 0.08017837256193161 0.010630686767399311
0.18505094945430756 0.082572124898433685 0.0041940244846045971
0.20329445600509644 0.084628887474536896 0.0005017934599891305
0.2221512496471405 0.080554202198982239 0.00032250641379505396
0.24546527862548828 0.080529727041721344 0.00034672624315135181
0.26777809858322144 0.088342592120170593 0
0.29032090306282043 0.096662051975727081 0
0.31660154461860657 0.092984780669212341 0
0.33959478139877319 0.088595807552337646 0
0.36358729004859924 0.083890050649642944 0
0.39060291647911072 0.090980798006057739 0
0.41492295265197754 0.10422749072313309 0
0.43975257873535156 0.1145835816860199 0
0.46641933917999268 0.12271452695131302 0
0.49480989575386047 0.13054293394088745 0
0.53322374820709229 0.12442699819803238 0
0.58193868398666382 0.11003056913614273 0
0.61825305223464966 0.107642762362957 0
0.64285695552825928 0.12088296562433243 0
0.67596435546875 0.11748822033405304 0
0.72435885667800903 0.091459520161151886 0
0.76951611042022705 0.094713941216468811 0
0.80404806137084961 0.12854337692260742 0
0 0.089379258453845978 0.097702682018280029
0 0.090104043483734131 0.092313565313816071
2.4966439013951458e-05 0.090647689998149872 0.084631316363811493
0.0085406182333827019 0.086848415434360504 0.060341622680425644
0.04026331752538681 0.084746129810810089 0.030530937016010284
0.06983744353055954 0.086131609976291656 0.020209299400448799
0.09485752135515213 0.087936460971832275 0.011970933526754379
0.11571153253316879 0.087785825133323669 0.0078430008143186569
0.1312243640422821 0.089345760643482208 0.0067742546088993549
0.14572139084339142 0.09397357702255249 0.003922000527381897
0.16332302987575531 0.096816107630729675 0.003922000527381897
0.18529042601585388 0.095936477184295654 0.00056174490600824356
0.20302480459213257 0.099041588604450226 0
0.22188642621040344 0.10030461847782135 0
0.24637731909751892 0.10293042659759521 0
0.26315310597419739 0.1093619167804718 0
0.28109666705131531 0.11867821961641312 0
0.30623382329940796 0.12109541147947311 0
0.32819914817810059 0.12664882838726044 0
0.35101315379142761 0.13081240653991699 0
0.37818807363510132 0.13694202899932861 0
0.40531712770462036 0.1477486789226532 0
0.43284875154495239 0.1565738171339035 0
0.45698735117912292 0.16540871560573578 0
0.48197177052497864 0.17647494375705719 0
0.51959508657455444 0.17292220890522003 0
0.5649077296257019 0.15788568556308746 0
0.60279887914657593 0.15292035043239594 0
0.63420134782791138 0.16267405450344086 0
0.67064929008483887 0.16798415780067444 0
0.7146725058555603 0.15506617724895477 0
0.7594677209854126 0.15104559063911438 0
0.80107122659683228 0.16100902855396271 0
0 0.1063724160194397 0.10282990336418152
0 0.1063724160194397 0.097268618643283844
0 0.10606194287538528 0.083107650279998779
0.0057534594088792801 0.10256702452898026 0.059715144336223602
0.031157730147242546 0.10089346021413803 0.036129314452409744
0.062058832496404648 0.10229352861642838 0.025070898234844208
0.091541752219200134 0.1029643639922142 0.016539117321372032
0.11440878361463547 0.10331249982118607 0.0091345421969890594
0.13531909883022308 0.10359447449445724 0.0079877898097038269
0.15097898244857788 0.10757537186145782 0.0047211484052240849
0.16560590267181396 0.11149924993515015 0.0046571879647672176
0.18570059537887573 0.11166344583034515 0.00082350231241434813
0.20411098003387451 0.11228419095277786 0
0.2223183810710907 0.11649685353040695 0
0.24813085794448853 0.12380689382553101 0
0.2643907368183136 0.13068103790283203 0
0.27686995267868042 0.1384003758430481 0
0.29806208610534668 0.14614725112915039 0
0.3174569308757782 0.15949371457099915 0
0.33925080299377441 0.17006760835647583 0
0.36578378081321716 0.17623271048069 0
0.39214172959327698 0.18458032608032227 0
0.42358845472335815 0.19294625520706177 0
0.45048442482948303 0.20229966938495636 0
0.47564512491226196 0.21093513071537018 0
0.50979012250900269 0.21125710010528564 0
0.54956412315368652 0.20474156737327576 0
0.59088146686553955 0.20202471315860748 0
0.62670040130615234 0.20815853774547577 0
0.66748189926147461 0.21048179268836975 0
0.71094602346420288 0.20613855123519897 0
0.75009334087371826 0.20652157068252563 0
0.79245191812515259 0.20235456526279449 0
0 0.12266625463962555 0.11039547622203827
0 0.12132061272859573 0.10332047939300537
0 0.12051587551832199 0.087005086243152618
0.0036521328147500753 0.11915740370750427 0.055859677493572235
0.023102471604943275 0.11878672242164612 0.032442539930343628
0.047776218503713608 0.12147829681634903 0.026683604344725609
0.082628756761550903 0.12359996140003204 0.021520277485251427
0.11308570206165314 0.12548162043094635 0.016470585018396378
0.13409177958965302 0.12501619756221771 0.015317420475184917
0.15502732992172241 0.12381739914417267 0.01107637956738472
0.17179520428180695 0.12668180465698242 0.010702791623771191
0.18880918622016907 0.13264553248882294 0.0069392458535730839
0.20562416315078735 0.13570043444633484 0.002859791973605752
0.22255252301692963 0.13899347186088562 0.0025470377877354622
0.24344141781330109 0.14554882049560547 0
0.26403206586837769 0.15189969539642334 0
0.28068828582763672 0.15839073061943054 0
0.30220919847488403 0.1659703254699707 0
0.32394534349441528 0.17664907872676849 0
0.34629195928573608 0.18774040043354034 0
0.37228491902351379 0.19546329975128174 0
0.39787143468856812 0.20230996608734131 0
0.42775073647499084 0.21028721332550049 0
0.45610153675079346 0.22142007946968079 0
0.48214355111122131 0.23099470138549805 0
0.5135875940322876 0.23578870296478271 0
0.54300600290298462 0.24013136327266693 0
0.5869523286819458 0.23979528248310089 0
0.62691468000411987 0.24695879220962524 0
0.66678351163864136 0.24802742898464203 0
0.70783674716949463 0.24495084583759308 0
0.74558138847351074 0.24976684153079987 0
0.78253656625747681 0.25177708268165588 0
0 0.13706924021244049 0.11430905759334564
0 0.13679966330528259 0.1069268137216568
0 0.13535492122173309 0.094799913465976715
0.0047153537161648273 0.1343408077955246 0.061477098613977432
0.01964227482676506 0.13632342219352722 0.030289441347122192
0.044197417795658112 0.13900621235370636 0.025240242481231689
0.074604935944080353 0.14269489049911499 0.021586740389466286
0.10732665657997131 0.14506258070468903 0.018223844468593597
0.12834352254867554 0.14753282070159912 0.017187552526593208
0.1490548700094223 0.14622795581817627 0.014370046555995941
0.17291094362735748 0.14671517908573151 0.011897885240614414
0.19431351125240326 0.15160490572452545 0.010260444134473801
0.21354757249355316 0.15794424712657928 0.0044185779988765717
0.23273301124572754 0.16090001165866852 0.0038980981335043907
0.251382976770401 0.16511179506778717 0.0006389138288795948
0.26651772856712341 0.1701635867357254 0
0.28839871287345886 0.17593149840831757 0
0.31200501322746277 0.18386715650558472 0
0.33478263020515442 0.19137030839920044 0
0.35935506224632263 0.20047654211521149 0
0.38478034734725952 0.20975209772586823 0
0.41047725081443787 0.2168857604265213 0
0.43866071105003357 0.22494331002235413 0
0.46518585085868835 0.2368064671754837 0
0.49214380979537964 0.24805322289466858 0
0.52133697271347046 0.25598445534706116 0
0.54607033729553223 0.26681143045425415 0
0.58093041181564331 0.27202847599983215 0
0.62545353174209595 0.27865773439407349 0
0.66614693403244019 0.2839837372303009 0
0.7043527364730835 0.27941110730171204 0
0.7407987117767334 0.28128135204315186 0
0.77732545137405396 0.28936484456062317 0
0 0.15375822782516479 0.11867226660251617
0 0.15277287364006042 0.10680843144655228
1.6774325558799319e-05 0.15188905596733093 0.089737489819526672
0.0044239293783903122 0.15270853042602539 0.062439016997814178
0.019320497289299965 0.15388020873069763 0.031126584857702255
0.041461434215307236 0.15577726066112518 0.02437872625887394
0.068807169795036316 0.15933069586753845 0.022003792226314545
0.10017979890108109 0.16301737725734711 0.019113533198833466
0.12315864115953445 0.16619992256164551 0.018108947202563286
0.14263661205768585 0.16868659853935242 0.017450494691729546
0.16815190017223358 0.17017430067062378 0.014659096486866474
0.19610705971717834 0.17490634322166443 0.013288810849189758
0.21940566599369049 0.17880517244338989 0.0082864668220281601
0.24070091545581818 0.18192701041698456 0.0062357001006603241
0.26230150461196899 0.18489904701709747 0.0033315934706479311
0.27815639972686768 0.19021925330162048 0.0005305368104018271
0.29179701209068298 0.19572590291500092 0.00050322979222983122
0.31473836302757263 0.20277129113674164 0
0.3387177586555481 0.21077267825603485 0
0.36785861849784851 0.21953830122947693 0
0.39719086885452271 0.22837473452091217 0
0.42291286587715149 0.23385633528232574 0
0.44976538419723511 0.24109883606433868 0
0.47686582803726196 0.2515091598033905 0
0.50796890258789062 0.2605741024017334 0
0.53301423788070679 0.27386361360549927 0
0.55730301141738892 0.28622737526893616 0
0.58852219581604004 0.29183652997016907 0
0.62955713272094727 0.29843983054161072 0
0.66642951965332031 0.30885741114616394 0
0.69904255867004395 0.31354671716690063 0
0.73613154888153076 0.31437692046165466 0
0.7740592360496521 0.32265660166740417 0
0 0.17434808611869812 0.1213274672627449
0 0.17393967509269714 0.10333626717329025
3.9010060959299153e-07 0.17527136206626892 0.077088229358196259
0.00077151431469246745 0.17651686072349548 0.05287715420126915
0.011103766970336437 0.17678843438625336 0.030040634796023369
0.03278544545173645 0.17905664443969727 0.024627113714814186
0.057837482541799545 0.18143202364444733 0.023814063519239426
0.095284894108772278 0.18419437110424042 0.019703678786754608
0.1216365322470665 0.18726623058319092 0.018121035769581795
0.14151544868946075 0.19028721749782562 0.017810419201850891
0.16643644869327545 0.19510053098201752 0.01758648082613945
0.19540019333362579 0.20056599378585815 0.016797147691249847
0.22166571021080017 0.20431236922740936 0.013967349193990231
0.24566538631916046 0.20467980206012726 0.0079964175820350647
0.26903697848320007 0.20732071995735168 0.0072515099309384823
0.29071643948554993 0.21385984122753143 0.0039333393797278404
0.30697789788246155 0.21991345286369324 0.0036112319212406874
0.32395040988922119 0.22492827475070953 4.2130861402256414e-05
0.34645640850067139 0.23157349228858948 0
0.37536296248435974 0.24156539142131805 0
0.40845295786857605 0.25138700008392334 0
0.43507340550422668 0.25676760077476501 0
0.45859235525131226 0.26151299476623535 0
0.4864463210105896 0.27036270499229431 0
0.52124553918838501 0.27820560336112976 0
0.54813748598098755 0.28838017582893372 0
0.57503187656402588 0.30065265297889709 0
0.6059119701385498 0.30702212452888489 0
0.64315193891525269 0.31311541795730591 0
0.67780578136444092 0.323280930519104 0
0.70550233125686646 0.33416306972503662 0
0.73908406496047974 0.34026446938514709 0
0.77654892206192017 0.34803393483161926 0
0 0.19747336208820343 0.12296805530786514
0 0.19812171161174774 0.10532384365797043
0 0.1996941864490509 0.080343365669250488
0 0.20116347074508667 0.060024537146091461
0.0025234888307750225 0.20333093404769897 0.035604003816843033
0.021625837311148643 0.20682188868522644 0.024772718548774719
0.048044800758361816 0.20906850695610046 0.023300720378756523
0.088154509663581848 0.2101721465587616 0.019425572827458382
0.12076196074485779 0.21133743226528168 0.018116746097803116
0.14659658074378967 0.21300049126148224 0.017810419201850891
0.17160236835479736 0.21797500550746918 0.017977340146899223
0.19644451141357422 0.22417400777339935 0.018095189705491066
0.22242817282676697 0.22845973074436188 0.016393842175602913
0.24792641401290894 0.23090305924415588 0.0098161203786730766
0.27261397242546082 0.23328681290149689 0.0096296276897192001
0.2960352897644043 0.23989874124526978 0.0053209513425827026
0.32049122452735901 0.2461932897567749 0.0044915429316461086
0.34248876571655273 0.25025361776351929 0.0011694232234731317
0.36282995343208313 0.25463813543319702 0
0.38656237721443176 0.26164612174034119 0
0.41516551375389099 0.2730180025100708 0
0.44402974843978882 0.28169390559196472 0
0.46882647275924683 0.28640976548194885 0
0.49678343534469604 0.29448166489601135 0
0.5341988205909729 0.30523890256881714 0
0.56501650810241699 0.3127363920211792 0
0.59193950891494751 0.32016518712043762 0
0.62072622776031494 0.32534167170524597 0
0.65624725818634033 0.3303406834602356 0
0.69156277179718018 0.33995234966278076 0
0.72291833162307739 0.3485662043094635 0
0.7570464015007019 0.35628503561019897 0
0.79353249073028564 0.36494499444961548 0
0 0.22005359828472137 0.12624068558216095
0 0.22135713696479797 0.10974018275737762
0 0.22412694990634918 0.087766386568546295
0 0.22668226063251495 0.068651176989078522
0.00079224788350984454 0.22903561592102051 0.046361114829778671
0.013921352103352547 0.23416605591773987 0.031828194856643677
0.040796831250190735 0.23783110082149506 0.02385265938937664
0.081635154783725739 0.23868617415428162 0.019632361829280853
0.11692946404218674 0.23906689882278442 0.019362621009349823
0.1499432772397995 0.23941180109977722 0.018995795398950577
0.17928248643875122 0.24119307100772858 0.017704293131828308
0.20240773260593414 0.24701647460460663 0.017500581219792366
0.22584490478038788 0.25309190154075623 0.017300229519605637
0.2537139356136322 0.26028484106063843 0.018242299556732178
0.27963140606880188 0.2657800018787384 0.018395315855741501
0.30706357955932617 0.2697393000125885 0.012112220749258995
0.33467099070549011 0.27462413907051086 0.0078429998829960823
0.36142173409461975 0.27822092175483704 0.0050466898828744888
0.38621476292610168 0.28093639016151428 0
0.40746119618415833 0.28610774874687195 0
0.42973434925079346 0.29272258281707764 0
0.45555499196052551 0.30341982841491699 0
0.4820549488067627 0.31118088960647583 0
0.51034790277481079 0.31929153203964233 0
0.54884123802185059 0.33250969648361206 0
0.58227354288101196 0.34192204475402832 0
0.60790532827377319 0.34577015042304993 0
0.63514655828475952 0.34880208969116211 0
0.66717183589935303 0.35094994306564331 0
0.70298802852630615 0.35698845982551575 0
0.73970431089401245 0.36308357119560242 0
0.77869886159896851 0.37080183625221252 0
0.81456869840621948 0.37988021969795227 0
0 0.24871614575386047 0.12950721383094788
0 0.24997700750827789 0.12322656810283661
0 0.25343960523605347 0.10038486868143082
0 0.25717827677726746 0.073482118546962738
0.0011214609257876873 0.26079109311103821 0.052214700728654861
0.014025913551449776 0.26492840051651001 0.037594068795442581
0.041876073926687241 0.26789039373397827 0.027602013200521469
0.07962384819984436 0.26976841688156128 0.021097458899021149
0.12033809721469879 0.26994797587394714 0.020391443744301796
0.15676285326480865 0.2687547504901886 0.020084338262677193
0.18836575746536255 0.26896148920059204 0.017316149547696114
0.21195052564144135 0.27406176924705505 0.016911625862121582
0.23608918488025665 0.28085017204284668 0.017061425372958183
0.26341027021408081 0.28924131393432617 0.020016040652990341
0.29024103283882141 0.2958107590675354 0.02048259973526001
0.31437796354293823 0.29865375161170959 0.015158789232373238
0.34256809949874878 0.30194294452667236 0.0081047220155596733
0.3705081045627594 0.3057568371295929 0.0075220959261059761
0.39842665195465088 0.30837243795394897 0.00091536936815828085
0.42597723007202148 0.31150159239768982 0.00029803684446960688
0.4483831524848938 0.31717726588249207 0
0.47393262386322021 0.32593819499015808 0
0.49968215823173523 0.33456128835678101 0
0.52778232097625732 0.34197095036506653 0
0.56399810314178467 0.35438212752342224 0
0.59791117906570435 0.36459207534790039 0
0.62398147583007812 0.36974173784255981 0
0.65356862545013428 0.37541767954826355 0
0.68632924556732178 0.37851566076278687 0
0.72022163867950439 0.38055020570755005 0
0.75588220357894897 0.38632968068122864 0
0.79509836435317993 0.3936714231967926 0
0.83388632535934448 0.40095308423042297 0
0 0.28077733516693115 0.12674792110919952
0 0.28123214840888977 0.12568840384483337
0 0.28293478488922119 0.116246297955513
0 0.28776776790618896 0.085969403386116028
0.00029880451620556414 0.29212215542793274 0.058405529707670212
0.00815595593303442 0.2945503294467926 0.043890904635190964
0.035843890160322189 0.29504263401031494 0.031360622495412827
0.073002882301807404 0.29681587219238281 0.024789022281765938
0.11969365924596786 0.2991173267364502 0.022479439154267311
0.16543136537075043 0.29833289980888367 0.020135655999183655
0.19839105010032654 0.29741942882537842 0.017553577199578285
0.22217974066734314 0.30317807197570801 0.017653029412031174
0.24718585610389709 0.31008234620094299 0.018028972670435905
0.27627161145210266 0.3170107901096344 0.017661251127719879
0.30172932147979736 0.32252085208892822 0.018132582306861877
0.32463333010673523 0.32715851068496704 0.017712427303195
0.3505919873714447 0.33149617910385132 0.015607918612658978
0.37896355986595154 0.33477029204368591 0.015023697167634964
0.4100329577922821 0.33845886588096619 0.013992036692798138
0.43979871273040771 0.34107944369316101 0.013662258163094521
0.46672701835632324 0.34343177080154419 0.0049476153217256069
0.49268606305122375 0.35070681571960449 0
0.51995450258255005 0.35909104347229004 0
0.54723906517028809 0.36656031012535095 0
0.57930052280426025 0.37529385089874268 0
0.61239469051361084 0.38481032848358154 0
0.64066958427429199 0.39100372791290283 0
0.6711077094078064 0.39915841817855835 0
0.70674628019332886 0.40483397245407104 0
0.74213242530822754 0.40829652547836304 0
0.7755047082901001 0.41372981667518616 0
0.81180709600448608 0.42196056246757507 0
0.85227346420288086 0.42790278792381287 0
0 0.31475505232810974 0.12524580955505371
0 0.31576138734817505 0.12659621238708496
0 0.31671270728111267 0.12059882283210754
1.4042626389709767e-05 0.3203565776348114 0.094349972903728485
0.0024350306484848261 0.32358860969543457 0.069735370576381683
0.013766403310000896 0.32415026426315308 0.055131528526544571
0.042600393295288086 0.32357671856880188 0.041084770113229752
0.08127199113368988 0.32519811391830444 0.031181218102574348
0.13018882274627686 0.3273281455039978 0.027891738340258598
0.17770609259605408 0.3296266496181488 0.024277806282043457
0.21367168426513672 0.33180844783782959 0.021635355427861214
0.2398872971534729 0.33504441380500793 0.022644028067588806
0.26483377814292908 0.34147816896438599 0.021158888936042786
0.29219299554824829 0.34597185254096985 0.01381538063287735
0.31721171736717224 0.35105001926422119 0.013652087189257145
0.33679264783859253 0.35648494958877563 0.017253251746296883
0.36215329170227051 0.36267215013504028 0.02141711488366127
0.39292216300964355 0.36601531505584717 0.019651401787996292
0.42505845427513123 0.36909651756286621 0.01960800401866436
0.45461013913154602 0.3730742335319519 0.01960800401866436
0.48209509253501892 0.37564617395401001 0.012349619530141354
0.51088899374008179 0.37718331813812256 9.929833140631672e-06
0.53968608379364014 0.38454371690750122 0
0.57047402858734131 0.39451023936271667 0
0.60083597898483276 0.40173310041427612 0
0.63167965412139893 0.40821102261543274 0
0.66243928670883179 0.41697025299072266 0
0.69466280937194824 0.42664796113967896 0
0.72361278533935547 0.4340929388999939 0
0.7556082010269165 0.43712380528450012 0
0.79161745309829712 0.44282707571983337 0
0.82796961069107056 0.45143485069274902 0
0.86720013618469238 0.45875352621078491 0
5.5500680900877342e-05 0.34848326444625854 0.12943445146083832
0.00022324391466099769 0.35091811418533325 0.13008545339107513
0.00079036218812689185 0.35233986377716064 0.12493699043989182
0.0066176899708807468 0.35456368327140808 0.10232025384902954
0.026719743385910988 0.35383141040802002 0.08483964204788208
0.042958434671163559 0.35346907377243042 0.070781320333480835
0.059114638715982437 0.35304999351501465 0.054696828126907349
0.096557214856147766 0.35473459959030151 0.039406821131706238
0.14553938806056976 0.35793066024780273 0.029497809708118439
0.18814077973365784 0.36164397001266479 0.024187348783016205
