Textures/32.cube
# Created by: G'MIC (https://gmic.eu)
TITLE "TensionGreen3.cube"
# LUT size
LUT_3D_SIZE 33
# Data domain
DOMAIN_MIN 0.0 0.0 0.0
DOMAIN_MAX 1.0 1.0 1.0
# LUT data points
0 0.014364315196871758 0.036102496087551117
0 0.021343983709812164 0.037260539829730988
0.0018719329964369535 0.028741242364048958 0.041526135057210922
0.016329973936080933 0.031076015904545784 0.043056301772594452
0.03676590695977211 0.030839115381240845 0.04225495457649231
0.079189501702785492 0.037514787167310715 0.044603221118450165
0.12736178934574127 0.048761062324047089 0.04954247921705246
0.16757185757160187 0.049364145845174789 0.039516381919384003
0.20709654688835144 0.048936042934656143 0.028626114130020142
0.24853767454624176 0.05015815794467926 0.019161814823746681
0.28620713949203491 0.047358870506286621 0.013945610262453556
0.32309621572494507 0.041906870901584625 0.0099860290065407753
0.35666808485984802 0.041421223431825638 0.0061643859371542931
0.39005944132804871 0.040620028972625732 0.0046938154846429825
0.42302814126014709 0.033691227436065674 0.0031791422516107559
0.45239773392677307 0.035309921950101852 0.0013842560583725572
0.48015466332435608 0.048714999109506607 0.00087921577505767345
0.51496195793151855 0.054016754031181335 0.00051067717140540481
0.54895263910293579 0.054716404527425766 0.00028867443324998021
0.58126640319824219 0.057126302272081375 0
0.61529403924942017 0.057306524366140366 0
0.65380012989044189 0.057988714426755905 0
0.6921117901802063 0.051735002547502518 0
0.72522842884063721 0.035863690078258514 0
0.75633448362350464 0.031659979373216629 0
0.7899322509765625 0.034474048763513565 0
0.82483565807342529 0.022913496941328049 0
0.86072206497192383 0.0096520110964775085 0.00053439859766513109
0.89504361152648926 0.010373665951192379 0.0037671185564249754
0.92272388935089111 0.011693802662193775 0.0042671929113566875
0.92549008131027222 0.011996236629784107 0.0042671929113566875
0.92549008131027222 0.011996236629784107 0.0042671929113566875
0.92549008131027222 0.011996236629784107 0.0042671929113566875
0 0.049981091171503067 0.045816484838724136
0 0.051749300211668015 0.041161984205245972
0.0015403936849907041 0.056150354444980621 0.03754391148686409
0.02280142530798912 0.056549441069364548 0.036889709532260895
0.051635514944791794 0.05555344745516777 0.03242960199713707
0.092272184789180756 0.055914808064699173 0.027140300720930099
0.13737769424915314 0.060948539525270462 0.028621720150113106
0.1760035902261734 0.061002403497695923 0.026791559532284737
0.21309733390808105 0.061121221631765366 0.020346680656075478
0.25244292616844177 0.061707742512226105 0.014951958321034908
0.28793042898178101 0.061741568148136139 0.0077505004592239857
0.32224386930465698 0.059304982423782349 0.0041670845821499825
0.35402658581733704 0.057112701237201691 0.0014902779366821051
0.38590610027313232 0.061544392257928848 0.0026677933055907488
0.41812872886657715 0.064070925116539001 0.0030406333971768618
0.44929766654968262 0.06090681254863739 0.0014115673257037997
0.47931647300720215 0.067456468939781189 0.00077622925164178014
0.51278918981552124 0.073011383414268494 6.1281265516299754e-05
0.54709839820861816 0.073809675872325897 0
0.57854509353637695 0.076614454388618469 0
0.61165332794189453 0.078063860535621643 8.7524385889992118e-05
0.64795488119125366 0.080577805638313293 0.0009829116752371192
0.68631529808044434 0.079090550541877747 4.6812077926006168e-05
0.72326779365539551 0.065258122980594635 0
0.75478577613830566 0.055169746279716492 0
0.78571748733520508 0.057014726102352142 0
0.8220144510269165 0.046087015420198441 0
0.85857713222503662 0.031127393245697021 0.00016341669834218919
0.89188730716705322 0.037121918052434921 0.0023450511507689953
0.92045098543167114 0.040982604026794434 0.0024511667434126139
0.92436677217483521 0.040987566113471985 0.0024511669762432575
0.92436689138412476 0.040987566113471985 0.0024511667434126139
0.92436689138412476 0.040987566113471985 0.0024511667434126139
0.0002992071385961026 0.081214137375354767 0.055690042674541473
0.0023225315380841494 0.081072144210338593 0.048672180622816086
0.0042005409486591816 0.082916915416717529 0.03858465701341629
0.025921540334820747 0.08352399617433548 0.030943907797336578
0.057189490646123886 0.082353338599205017 0.024087663739919662
0.095793500542640686 0.082849763333797455 0.011155618354678154
0.13862220942974091 0.083949446678161621 0.0077755353413522243
0.17861665785312653 0.083272188901901245 0.006198131013661623
0.21470098197460175 0.081803977489471436 0.0065701655112206936
0.25275355577468872 0.08171466737985611 0.0058473623357713223
0.28744128346443176 0.081512659788131714 0.0037198429927229881
0.31900644302368164 0.084814727306365967 0.002203197218477726
0.35000675916671753 0.083587437868118286 0.000373141432646662
0.37993061542510986 0.084533333778381348 0.00067074940307065845
0.41132333874702454 0.091909565031528473 0.0012052555102854967
0.44355762004852295 0.093758083879947662 0.00057418167125433683
0.47661125659942627 0.091097131371498108 0.00019519214401952922
0.5109175443649292 0.093195915222167969 1.7873700926429592e-05
0.54598253965377808 0.095981940627098083 0
0.57824701070785522 0.099031083285808563 0
0.60930448770523071 0.10050420463085175 3.5747401852859184e-05
0.64339607954025269 0.10295065492391586 0.00040428605279885232
0.679740309715271 0.10158614814281464 3.9010057662380859e-05
0.71996057033538818 0.088659107685089111 0
0.75492793321609497 0.077909685671329498 0
0.78231346607208252 0.080660328269004822 0
0.81635391712188721 0.073031716048717499 0
0.85476094484329224 0.055125776678323746 6.7948429204989225e-05
0.88939458131790161 0.059599723666906357 0.001626723213121295
0.91724103689193726 0.072224646806716919 0.0019200835376977921
0.92202675342559814 0.07293354719877243 0.0021217658650130033
0.92202675342559814 0.072264842689037323 0.0021260567009449005
0.92202675342559814 0.072264835238456726 0.0021260567009449005
0.0018819788238033652 0.11227863281965256 0.064380951225757599
0.0061215893365442753 0.11224799603223801 0.055775057524442673
0.011872009374201298 0.112202487885952 0.04353063553571701
0.031333435326814651 0.11137235909700394 0.033783189952373505
0.057778209447860718 0.11030907183885574 0.026485387235879898
0.091857932507991791 0.11084853112697601 0.013849834911525249
0.12938821315765381 0.11204560846090317 0.0042738551273941994
0.17254650592803955 0.11237793415784836 0.00047434915904887021
0.21256859600543976 0.11126311868429184 0.00018546207866165787
0.2503926157951355 0.10957548767328262 0.0011943996651098132
0.28598347306251526 0.10715534538030624 0.0011844737455248833
0.31925931572914124 0.10588086396455765 0.00061501131858676672
0.35133242607116699 0.10806398838758469 9.9298322311369702e-06
0.38127279281616211 0.10920272767543793 0
0.40595424175262451 0.11452879756689072 0
0.43756431341171265 0.11980212479829788 0
0.47060036659240723 0.12255135178565979 0
0.50495857000350952 0.12198129296302795 0
0.54024696350097656 0.12354331463575363 0
0.57642149925231934 0.12555268406867981 0
0.60803425312042236 0.12727376818656921 0
0.63959550857543945 0.12850511074066162 0
0.67504149675369263 0.12667472660541534 0
0.7137451171875 0.11573581397533417 0
0.75055491924285889 0.10367054492235184 0
0.77927547693252563 0.10449923574924469 0
0.81236124038696289 0.10442263633012772 0
0.85173439979553223 0.089521355926990509 0
0.88845580816268921 0.083858080208301544 2.4115310225170106e-05
0.91735589504241943 0.093705140054225922 6.8090281274635345e-05
0.92309808731079102 0.095986902713775635 0.00014142919098958373
0.92309385538101196 0.095151223242282867 0.00014298960741143674
0.92309385538101196 0.094985857605934143 0.00014298960741143674
0.0075932792387902737 0.14387625455856323 0.065774619579315186
0.013953487388789654 0.14326910674571991 0.058292407542467117
0.021998202428221703 0.1430528461933136 0.04745187982916832
0.038567095994949341 0.14185838401317596 0.03438645601272583
0.059747196733951569 0.14025580883026123 0.023561960086226463
0.088411621749401093 0.14088393747806549 0.017623748630285263
0.12133890390396118 0.14328849315643311 0.011190951801836491
0.15976546704769135 0.14496085047721863 0.0037805908359587193
0.20264159142971039 0.14356373250484467 0.0012707929126918316
0.24243633449077606 0.14007376134395599 3.4045140637317672e-05
0.28152415156364441 0.13767579197883606 4.0854167309589684e-05
0.31801307201385498 0.13267688453197479 2.8087242753827013e-05
0.35226032137870789 0.13154640793800354 0
0.38534215092658997 0.13418695330619812 0
0.40984120965003967 0.13804996013641357 0
0.43593189120292664 0.14167837798595428 0
0.46869587898254395 0.14768706262111664 0
0.50125408172607422 0.15124441683292389 0
0.53567862510681152 0.15023729205131531 0
0.57109630107879639 0.1510462760925293 0
0.60652273893356323 0.15248243510723114 0
0.63737046718597412 0.15450680255889893 0
0.67024999856948853 0.15366761386394501 0
0.70782607793807983 0.14479146897792816 0
0.74387264251708984 0.13559214770793915 0
0.77466148138046265 0.13279992341995239 0
0.80813020467758179 0.13139386475086212 0
0.84845989942550659 0.12327110767364502 0
0.88609486818313599 0.11605653911828995 0
0.9171755313873291 0.11095266044139862 0
0.92431193590164185 0.11055128276348114 0
0.9243851900100708 0.10951180756092072 0
0.92440944910049438 0.10863298922777176 0
0.016073852777481079 0.17993949353694916 0.061919912695884705
0.022128606215119362 0.17824582755565643 0.054748181253671646
0.032633479684591293 0.17720706760883331 0.04805365577340126
0.045139987021684647 0.17667631804943085 0.039506088942289352
0.062066134065389633 0.1753503680229187 0.027267498895525932
0.088147915899753571 0.17545399069786072 0.014074918814003468
0.11696058511734009 0.18001119792461395 0.010892649181187153
0.14908528327941895 0.18329006433486938 0.006157758180052042
0.18470385670661926 0.18355049192905426 0.0036313955206423998
0.22448793053627014 0.18043461441993713 0.0011334579903632402
0.2649114727973938 0.17824886739253998 6.3904481066856533e-05
0.30473875999450684 0.17583440244197845 0
0.34206849336624146 0.17222218215465546 0
0.38040432333946228 0.17039957642555237 0
0.41532737016677856 0.17060217261314392 0
0.44686046242713928 0.17036229372024536 0
0.48086631298065186 0.16938754916191101 0
0.51255184412002563 0.17307068407535553 0
0.54336702823638916 0.17673572897911072 0
0.57513684034347534 0.17730629444122314 0
0.60705024003982544 0.18016093969345093 0
0.63806897401809692 0.184804767370224 0
0.66931021213531494 0.1876007616519928 0
0.70215117931365967 0.18647129833698273 0
0.73759591579437256 0.18012905120849609 0
0.77336412668228149 0.17602351307868958 0
0.80662846565246582 0.17096315324306488 0
0.84453880786895752 0.16109496355056763 0
0.88146066665649414 0.1590983122587204 0
0.91380947828292847 0.1557135134935379 0
0.92204123735427856 0.15164956450462341 0
0.92223054170608521 0.14925025403499603 0
0.92236471176147461 0.14700552821159363 0
0.030355045571923256 0.21949197351932526 0.059526104480028152
0.036309514194726944 0.21864905953407288 0.051962357014417648
0.044355235993862152 0.21709053218364716 0.041409976780414581
0.053026191890239716 0.21630465984344482 0.033137787133455276
0.063743174076080322 0.21477434039115906 0.025521067902445793
0.085961394011974335 0.21305714547634125 0.013504228554666042
0.11333335191011429 0.21584314107894897 0.009464598260819912
0.14142388105392456 0.22003361582756042 0.0073880953714251518
0.1720786839723587 0.22291113436222076 0.0057455962523818016
0.20579014718532562 0.22333988547325134 0.0036254953593015671
0.24378858506679535 0.22313973307609558 0.00097807112615555525
0.28438425064086914 0.22253863513469696 0
0.32367944717407227 0.21965822577476501 0
0.36550876498222351 0.21569241583347321 0
0.40594261884689331 0.21380704641342163 0
0.44358500838279724 0.2117636501789093 0
0.481728196144104 0.20701994001865387 0
0.51982933282852173 0.20480449497699738 0
0.55559909343719482 0.20633473992347717 0
0.58711159229278564 0.20558774471282959 0
0.61758065223693848 0.20643921196460724 0
0.64997714757919312 0.20781765878200531 0
0.68016064167022705 0.21201184391975403 0
0.70767909288406372 0.21672947704792023 0
0.73790717124938965 0.21873718500137329 0
0.77292996644973755 0.21451842784881592 0
0.80774760246276855 0.21214690804481506 0
0.84113138914108276 0.20603132247924805 0
0.87687826156616211 0.20150230824947357 0
0.91026002168655396 0.20447288453578949 0
0.92156893014907837 0.20486634969711304 0
0.9215691089630127 0.20312245190143585 0
0.9215691089630127 0.2015080451965332 0
0.038398753851652145 0.2572653591632843 0.061473336070775986
0.046174734830856323 0.25768592953681946 0.053751498460769653
0.05205255001783371 0.25763300061225891 0.044187098741531372
0.058765601366758347 0.25679707527160645 0.035769529640674591
0.067315973341464996 0.25570282340049744 0.029716121032834053
0.085992835462093353 0.25436562299728394 0.016612855717539787
0.11388066411018372 0.25701281428337097 0.0072860913351178169
0.142774298787117 0.2588019073009491 0.0068454165011644363
0.17171138525009155 0.2615928053855896 0.0059015955775976181
0.20147903263568878 0.26310819387435913 0.0037003883626312017
0.23204860091209412 0.26514250040054321 0.0034351211506873369
0.26825717091560364 0.26675695180892944 0.0026716403663158417
0.3086811900138855 0.26597553491592407 0.00017277376900892705
0.34933212399482727 0.2641882598400116 0
0.387337327003479 0.26447120308876038 0
0.42652052640914917 0.26278120279312134 0
0.46744236350059509 0.25688502192497253 0
0.50701069831848145 0.25262492895126343 0
0.54899275302886963 0.24963821470737457 0
0.58855158090591431 0.24573338031768799 0
0.62172800302505493 0.24090760946273804 0
0.65705335140228271 0.23808614909648895 0
0.69465655088424683 0.23330572247505188 0
0.72457295656204224 0.23515868186950684 0
0.75351619720458984 0.23900490999221802 0
0.78632545471191406 0.23460772633552551 0
0.81828552484512329 0.23416472971439362 0
0.84575754404067993 0.24070453643798828 0
0.87654310464859009 0.2422739565372467 0
0.90932315587997437 0.24129475653171539 0
0.92275136709213257 0.24089089035987854 0
0.92234694957733154 0.23969157040119171 0
0.92204165458679199 0.23829004168510437 0
0.052214130759239197 0.29965445399284363 0.062143169343471527
0.05884334072470665 0.29791292548179626 0.060882888734340668
0.062360417097806931 0.29720476269721985 0.05504310131072998
0.067096658051013947 0.29703143239021301 0.045847032219171524
0.075102731585502625 0.29700097441673279 0.037140801548957825
0.09073425829410553 0.29691523313522339 0.025664005428552628
0.11597524583339691 0.29933589696884155 0.013515274040400982
0.14509190618991852 0.30169773101806641 0.0040741940028965473
0.17616398632526398 0.30330675840377808 0.0031250391621142626
0.2063981294631958 0.30438509583473206 0.0035558552481234074
0.23208793997764587 0.30621805787086487 0.0035297428257763386
0.26114559173583984 0.30946826934814453 0.0035010930150747299
0.29671260714530945 0.31184002757072449 0.0018172916024923325
0.33572480082511902 0.31357240676879883 0.00072032713796943426
0.37228062748908997 0.31419408321380615 0
0.40973353385925293 0.31349530816078186 0
0.45152121782302856 0.3088211715221405 0
0.49191391468048096 0.30470502376556396 0
0.52930682897567749 0.30080032348632812 0
0.5708463191986084 0.29597577452659607 0
0.61277705430984497 0.2905602753162384 0
0.65162080526351929 0.28627792000770569 0
0.69319641590118408 0.28319478034973145 0
0.72825682163238525 0.27654725313186646 0
0.75930207967758179 0.2734495997428894 0
0.79457211494445801 0.26667779684066772 0
0.82882827520370483 0.26338160037994385 0
0.86254191398620605 0.26617559790611267 0
0.89478641748428345 0.26675748825073242 0
0.9272838830947876 0.26529461145401001 0
0.94147825241088867 0.26464098691940308 0
0.94059222936630249 0.2642267644405365 0
0.93969076871871948 0.26380318403244019 0
0.078730925917625427 0.34239473938941956 0.063374891877174377
0.080888569355010986 0.34064647555351257 0.063490666449069977
0.082121998071670532 0.33903896808624268 0.064258381724357605
0.084312461316585541 0.3380124568939209 0.060879092663526535
0.090585768222808838 0.33790606260299683 0.051967520266771317
0.10554175078868866 0.33873015642166138 0.036175593733787537
0.12626367807388306 0.34044867753982544 0.02035105787217617
0.15084703266620636 0.34243905544281006 0.0049586193636059761
0.17833521962165833 0.34520256519317627 0.0015439053531736135
0.21047447621822357 0.34594669938087463 0.0030135484412312508
0.23679699003696442 0.34625953435897827 0.0032444288954138756
0.25983047485351562 0.35038444399833679 0.0032572990749031305
0.29053604602813721 0.35419026017189026 0.0026993909850716591
0.32700127363204956 0.35550388693809509 0.0026231380179524422
0.35989043116569519 0.3550783097743988 0.00088303390657529235
0.39353698492050171 0.35532703995704651 0.00026584326406009495
0.43264105916023254 0.35496482253074646 0
0.47280022501945496 0.35375252366065979 0
0.51220697164535522 0.3518829345703125 0
0.55426132678985596 0.34824055433273315 0
0.59734487533569336 0.34344187378883362 0
0.64112627506256104 0.33717957139015198 0
0.68535149097442627 0.33208876848220825 0
0.72411662340164185 0.32602792978286743 0
0.75811439752578735 0.32059192657470703 0
0.79945337772369385 0.31259205937385559 0
0.83861845731735229 0.30262607336044312 0
0.87488669157028198 0.29778987169265747 0
0.91236239671707153 0.29377990961074829 0
0.94853639602661133 0.28858000040054321 0
0.96599596738815308 0.2869163453578949 0
0.96529209613800049 0.28669953346252441 0
0.96458339691162109 0.28505754470825195 0
0.11557460576295853 0.38188698887825012 0.074518308043479919
0.11476445198059082 0.38067403435707092 0.074235066771507263
0.11501502990722656 0.38008198142051697 0.075019165873527527
0.11612065881490707 0.37928012013435364 0.073260247707366943
0.11981673538684845 0.37812924385070801 0.06584455817937851
0.13101820647716522 0.37794548273086548 0.051085222512483597
0.14284878969192505 0.38001209497451782 0.031742773950099945
0.16007354855537415 0.38143101334571838 0.011695772409439087
0.18477977812290192 0.38454288244247437 0.0023005797993391752
0.21542146801948547 0.38540595769882202 0.0024511667434126139
0.24230362474918365 0.38600665330886841 0.0029273582622408867
0.26807084679603577 0.38794562220573425 0.0034636533819139004
0.29384246468544006 0.39121273159980774 0.0011831363663077354
0.32578685879707336 0.39342468976974487 0.0018254569731652737
0.35410889983177185 0.39502963423728943 0.006871415302157402
0.38393357396125793 0.39555370807647705 0.0036508219782263041
0.42160412669181824 0.39647573232650757 3.2766856747912243e-05
0.45978474617004395 0.39683264493942261 0
0.49762433767318726 0.39575532078742981 0
0.53993350267410278 0.39335882663726807 0
0.58308011293411255 0.38999974727630615 0
0.62560445070266724 0.38625121116638184 0
0.67135214805603027 0.38057836890220642 0
0.71454286575317383 0.37444344162940979 0
0.75221669673919678 0.36823007464408875 0
0.79517257213592529 0.36041852831840515 0
0.83852875232696533 0.35012558102607727 0
0.87685775756835938 0.34422942996025085 0
0.91392076015472412 0.33831912279129028 0
0.9541887640953064 0.33015120029449463 0
0.9782710075378418 0.3253428041934967 0
0.97835278511047363 0.32304757833480835 0
0.97822296619415283 0.32141757011413574 0
0.13652321696281433 0.4213692843914032 0.094368152320384979
0.13775606453418732 0.42040091753005981 0.089499577879905701
0.13840088248252869 0.41970416903495789 0.085786610841751099
0.13870435953140259 0.4190901517868042 0.083839826285839081
0.14074282348155975 0.41761100292205811 0.078522250056266785
0.14965558052062988 0.41723307967185974 0.067237831652164459
0.16568556427955627 0.41869500279426575 0.050257116556167603
0.1758483350276947 0.41886276006698608 0.028533730655908585
0.19524718821048737 0.42124184966087341 0.012374958023428917
0.22111254930496216 0.42432495951652527 0.0026936409994959831
0.24839036166667938 0.42518061399459839 0.0022265417501330376
0.2764417827129364 0.42574822902679443 0.0029160513076931238
0.30206990242004395 0.42708539962768555 0.0046694697812199593
0.33008551597595215 0.43054363131523132 0.0051421481184661388
0.35482311248779297 0.43300086259841919 0.0085124420002102852
0.3792959451675415 0.43336814641952515 0.0088472981005907059
0.41544616222381592 0.43617549538612366 0.007298582699149847
0.45341232419013977 0.43704637885093689 0.003098632674664259
0.48856356739997864 0.43680739402770996 0.00069394661113619804
0.52828609943389893 0.43575149774551392 0.00010841235780389979
0.57077062129974365 0.43300294876098633 0
0.61226147413253784 0.4301527738571167 0
0.65606409311294556 0.42634570598602295 0
0.70008420944213867 0.42083075642585754 0
0.74186903238296509 0.41516628861427307 0
0.78279018402099609 0.41098138689994812 0
0.82239800691604614 0.40681448578834534 0
0.86555022001266479 0.3989538848400116 0
0.90794831514358521 0.39029669761657715 0
0.94842743873596191 0.38200706243515015 0
0.97571247816085815 0.37676635384559631 0
0.97637665271759033 0.37371313571929932 0
0.97664648294448853 0.37291058897972107 0
0.15782198309898376 0.45953342318534851 0.11786405742168427
0.15949784219264984 0.45889070630073547 0.11397616565227509
0.15998139977455139 0.4576505720615387 0.10684487968683243
0.16015836596488953 0.456025630235672 0.099116861820220947
0.16075316071510315 0.45482215285301208 0.093070350587368011
0.16475749015808105 0.45480397343635559 0.086545296013355255
0.18201364576816559 0.45675122737884521 0.073250532150268555
0.20036691427230835 0.45770582556724548 0.050422627478837967
0.21151474118232727 0.45677384734153748 0.027960626408457756
0.23218865692615509 0.45932519435882568 0.012896471656858921
0.25841519236564636 0.46188664436340332 0.0068297572433948517
0.28601875901222229 0.46317711472511292 0.0062627303414046764
0.31109389662742615 0.4636986255645752 0.0076239937916398048
0.33766040205955505 0.46608376502990723 0.0086885988712310791
0.36121687293052673 0.469450443983078 0.012705250643193722
0.38303282856941223 0.47088411450386047 0.015881707891821861
0.41528767347335815 0.47156849503517151 0.016100412234663963
0.4513375461101532 0.47228279709815979 0.010243706405162811
0.4871772825717926 0.47422826290130615 0.0043654297478497028
0.5252918004989624 0.47428086400032043 0.0018181296763941646
0.56132316589355469 0.47543412446975708 0.00089985813247039914
0.60054785013198853 0.47422495484352112 4.1989009332610294e-05
0.64348083734512329 0.4717390239238739 0
0.68363285064697266 0.46731460094451904 0
0.72287726402282715 0.46276825666427612 0
0.76632136106491089 0.45945104956626892 0
0.80852895975112915 0.45591643452644348 0
0.85397601127624512 0.44927704334259033 0
0.89861536026000977 0.44119730591773987 0
0.93779236078262329 0.43296512961387634 0
0.96691364049911499 0.42678970098495483 0
0.96845966577529907 0.4240853488445282 0
0.96894794702529907 0.42310571670532227 0
0.18558357656002045 0.4979003369808197 0.14011020958423615
0.18775747716426849 0.49705514311790466 0.13754869997501373
0.18940992653369904 0.4957365095615387 0.13260526955127716
0.1901346743106842 0.49446719884872437 0.12642040848731995
0.1893981546163559 0.49295476078987122 0.1207331195473671
0.19026796519756317 0.49238824844360352 0.1154961958527565
0.20119932293891907 0.49329754710197449 0.10559213161468506
0.2177204042673111 0.49420347809791565 0.083991058170795441
0.22967202961444855 0.49457442760467529 0.051499839872121811
0.246813103556633 0.4967176616191864 0.034458257257938385
0.27010047435760498 0.50023347139358521 0.026009699329733849
0.29687085747718811 0.50145572423934937 0.027679922059178352
0.32327255606651306 0.50149428844451904 0.026965256780385971
0.3505847156047821 0.5014728307723999 0.021552033722400665
0.37728995084762573 0.50499510765075684 0.028430800884962082
0.39829128980636597 0.50700092315673828 0.036261014640331268
0.42143896222114563 0.51104146242141724 0.039307501167058945
0.453878253698349 0.51235538721084595 0.038669206202030182
0.49033978581428528 0.5112573504447937 0.040573276579380035
0.52643519639968872 0.51178199052810669 0.035248931497335434
