Textures/32.cube
# Created by: G'MIC (https://gmic.eu)
TITLE "TensionGreen3.cube"
# LUT size
LUT_3D_SIZE 5
# Data domain
DOMAIN_MIN 0.0 0.0 0.0
DOMAIN_MAX 1.0 1.0 1.0
# LUT data points
0 0.014364315196871758 0.036102496087551117
0.20709654688835144 0.048936042934656143 0.028626114130020142
0.48015466332435608 0.048714999109506607 0.00087921577505767345
0.75633448362350464 0.031659979373216629 0
0.92549008131027222 0.011996236629784107 0.0042671929113566875
0.052214130759239197 0.29965445399284363 0.062143169343471527
0.17616398632526398 0.30330675840377808 0.0031250391621142626
0.45152121782302856 0.3088211715221405 0
0.75930207967758179 0.2734495997428894 0
0.93969076871871948 0.26380318403244019 0
0.28178709745407104 0.61824780702590942 0.21566478908061981
0.30773678421974182 0.61366599798202515 0.16184166073799133
0.46848770976066589 0.61665874719619751 0.11050193011760712
0.706004798412323 0.62638407945632935 0.10958649963140488
0.93484824895858765 0.61188113689422607 0.012394480407238007
0.52680832147598267 0.90490227937698364 0.41349223256111145
0.53063106536865234 0.89696246385574341 0.38791674375534058
0.61139529943466187 0.90102803707122803 0.29999858140945435
0.78572654724121094 0.90509307384490967 0.302867591381073
0.95113444328308105 0.91535753011703491 0.33058437705039978
0.53848028182983398 0.91764700412750244 0.42426782846450806
0.5541490912437439 0.91868603229522705 0.40976697206497192
0.62962830066680908 0.93248909711837769 0.32936176657676697
0.7961723804473877 0.94592750072479248 0.32635816931724548
0.96470606327056885 0.96862709522247314 0.35294109582901001
0.053465891629457474 0.094441540539264679 0.1933770626783371
0.12850446999073029 0.14396063983440399 0.20672208070755005
0.28187397122383118 0.2512286901473999 0.23529362678527832
0.46842655539512634 0.37342479825019836 0.28227141499519348
0.6805264949798584 0.39689120650291443 0.33159098029136658
0.13168717920780182 0.30589994788169861 0.23463663458824158
0.17470334470272064 0.31416788697242737 0.23739597201347351
0.31556597352027893 0.36314994096755981 0.2540644109249115
0.57386624813079834 0.40489575266838074 0.30012500286102295
0.79782652854919434 0.40719062089920044 0.32431653141975403
0.3396727442741394 0.60784327983856201 0.38268113136291504
0.35482123494148254 0.60137778520584106 0.37849849462509155
0.44413504004478455 0.62254965305328369 0.31597894430160522
0.68412065505981445 0.62986576557159424 0.29609394073486328
0.94215118885040283 0.60784357786178589 0.23864240944385529
0.57234978675842285 0.89275401830673218 0.57046651840209961
0.55669122934341431 0.88891106843948364 0.54238390922546387
0.60862326622009277 0.89791190624237061 0.4765382707118988
0.76697933673858643 0.90896826982498169 0.41491898894309998
0.934253990650177 0.91652816534042358 0.42747750878334045
0.57786774635314941 0.91258144378662109 0.5642465353012085
0.56860512495040894 0.91766571998596191 0.53512054681777954
0.63066065311431885 0.93346124887466431 0.48272508382797241
0.77828764915466309 0.95214742422103882 0.41737914085388184
0.95669937133789062 0.97140520811080933 0.44386988878250122
0.16256949305534363 0.19269496202468872 0.33689752221107483
0.19683477282524109 0.21995601058006287 0.34303119778633118
0.3179301917552948 0.30391645431518555 0.37416070699691772
0.47451260685920715 0.4072394073009491 0.42806875705718994
0.59232544898986816 0.48190674185752869 0.47891980409622192
0.19873401522636414 0.34811034798622131 0.37951144576072693
0.22733056545257568 0.35195633769035339 0.38003057241439819
0.33867466449737549 0.39416083693504333 0.39639759063720703
0.49240806698799133 0.46848234534263611 0.44659504294395447
0.61604154109954834 0.53454077243804932 0.49371036887168884
0.3802344799041748 0.62031376361846924 0.51107192039489746
0.38604834675788879 0.61515980958938599 0.51359260082244873
0.46159863471984863 0.63331466913223267 0.52244943380355835
0.59221458435058594 0.66593855619430542 0.55545634031295776
0.71354043483734131 0.70602589845657349 0.59820294380187988
0.60889184474945068 0.89329648017883301 0.70328712463378906
0.61030173301696777 0.88286876678466797 0.69243484735488892
0.66186171770095825 0.8881034255027771 0.69797968864440918
0.7363433837890625 0.91274088621139526 0.69531214237213135
0.89464002847671509 0.92576432228088379 0.67570161819458008
0.62160784006118774 0.91266310214996338 0.71176159381866455
0.63249796628952026 0.91203612089157104 0.70799362659454346
0.68666332960128784 0.92355626821517944 0.71577423810958862
0.75932103395462036 0.95910954475402832 0.71986621618270874
0.92928296327590942 0.98039203882217407 0.68912005424499512
0.1997191458940506 0.22605516016483307 0.38823506236076355
0.2361689954996109 0.25188237428665161 0.4033142626285553
0.34304797649383545 0.32848802208900452 0.43590095639228821
0.49377620220184326 0.42742946743965149 0.49287891387939453
0.60392200946807861 0.50196105241775513 0.55294102430343628
0.24117648601531982 0.36647132039070129 0.43653932213783264
0.27068492770195007 0.37262421846389771 0.44198495149612427
0.36775374412536621 0.41391116380691528 0.46769660711288452
0.51588267087936401 0.48714250326156616 0.52755868434906006
0.63823556900024414 0.55524379014968872 0.58100378513336182
0.40361341834068298 0.63092762231826782 0.58966594934463501
0.40807753801345825 0.62815457582473755 0.58701890707015991
0.47640326619148254 0.64607638120651245 0.60353529453277588
0.60344558954238892 0.68074995279312134 0.64247459173202515
0.72353345155715942 0.71819865703582764 0.68406111001968384
0.6295781135559082 0.89637744426727295 0.75654113292694092
0.63099426031112671 0.89281243085861206 0.7601732611656189
0.67731326818466187 0.89696502685546875 0.76535642147064209
0.76101350784301758 0.91453754901885986 0.79900354146957397
0.85473906993865967 0.94408845901489258 0.83816182613372803
0.65097999572753906 0.91764700412750244 0.77254903316497803
0.66078466176986694 0.92459148168563843 0.78431409597396851
0.70883345603942871 0.93619275093078613 0.79697686433792114
0.78731125593185425 0.96266800165176392 0.82542067766189575
0.97254908084869385 0.98823493719100952 0.96862709522247314
0.1997191458940506 0.22605516016483307 0.38823506236076355
0.23551218211650848 0.25128164887428284 0.4030139148235321
0.34134814143180847 0.32720246911048889 0.43566343188285828
0.49109670519828796 0.42503815889358521 0.49119982123374939
0.60392200946807861 0.50196105241775513 0.55294102430343628
0.24076463282108307 0.3634222149848938 0.43562102317810059
0.26848360896110535 0.3691774308681488 0.44030547142028809
0.3648296594619751 0.41038236021995544 0.46635931730270386
0.51233941316604614 0.48360791802406311 0.52532845735549927
0.63733667135238647 0.55282622575759888 0.57965683937072754
0.40071234107017517 0.62759691476821899 0.58660751581192017
0.40391999483108521 0.62440747022628784 0.58554482460021973
0.47240644693374634 0.64241212606430054 0.60079264640808105
0.59957045316696167 0.6766812801361084 0.63931328058242798
0.72301971912384033 0.7156861424446106 0.68053776025772095
0.62610024213790894 0.89266228675842285 0.75376611948013306
0.62699246406555176 0.88921505212783813 0.75687789916992188
0.67339557409286499 0.89316093921661377 0.76194345951080322
0.75665545463562012 0.91062432527542114 0.79600232839584351
0.85244965553283691 0.94147932529449463 0.83417665958404541
0.65097999572753906 0.91764700412750244 0.77254903316497803
0.65920132398605347 0.92512738704681396 0.78431409597396851
0.70784300565719604 0.93529397249221802 0.79607832431793213
0.78698259592056274 0.96266335248947144 0.82495731115341187
0.97236508131027222 0.98823493719100952 0.96842581033706665
