Textures/33.cube
# Created by: G'MIC (https://gmic.eu)
TITLE "TensionGreen4.cube"
# LUT size
LUT_3D_SIZE 5
# Data domain
DOMAIN_MIN 0.0 0.0 0.0
DOMAIN_MAX 1.0 1.0 1.0
# LUT data points
0.065577052533626556 0.067833654582500458 0.070760451257228851
0.1162346675992012 0.092846356332302094 0.08946913480758667
0.19992384314537048 0.11454465985298157 0.10741423815488815
0.32956653833389282 0.16018863022327423 0.14311961829662323
0.48190456628799438 0.18317787349224091 0.17918656766414642
0.096894949674606323 0.1308848112821579 0.1009807288646698
0.13037337362766266 0.14829730987548828 0.099910996854305267
0.23802894353866577 0.19414964318275452 0.13163720071315765
0.38483560085296631 0.23772329092025757 0.16881446540355682
0.55520516633987427 0.30100297927856445 0.21320091187953949
0.17219047248363495 0.25331243872642517 0.16269309818744659
0.19210132956504822 0.25656372308731079 0.14022913575172424
0.27898263931274414 0.30913171172142029 0.16847690939903259
0.43896141648292542 0.38343113660812378 0.20730718970298767
0.66142898797988892 0.44917967915534973 0.25710171461105347
0.35492214560508728 0.48690629005432129 0.31816306710243225
0.36850136518478394 0.4932405948638916 0.30321338772773743
0.44260627031326294 0.52725553512573242 0.30257704854011536
0.58828949928283691 0.61126911640167236 0.36735650897026062
0.79703891277313232 0.69931513071060181 0.40995898842811584
0.61336487531661987 0.81508105993270874 0.55145275592803955
0.6228257417678833 0.81732159852981567 0.53788638114929199
0.67287588119506836 0.83125919103622437 0.51277559995651245
0.81802582740783691 0.90458881855010986 0.55973845720291138
0.99911659955978394 0.99929827451705933 0.6448325514793396
0.074716858565807343 0.082579962909221649 0.092805050313472748
0.11766023188829422 0.11745156347751617 0.12176038324832916
0.18568997085094452 0.17405559122562408 0.16156956553459167
0.35163450241088867 0.26055082678794861 0.23545561730861664
0.56182807683944702 0.32793572545051575 0.31111803650856018
0.11585398763418198 0.14861507713794708 0.13204002380371094
0.14536242187023163 0.17116890847682953 0.14989084005355835
0.25372803211212158 0.22924108803272247 0.19466875493526459
0.40816903114318848 0.29438683390617371 0.24842900037765503
0.62238341569900513 0.36498367786407471 0.32740893959999084
0.21698915958404541 0.28922349214553833 0.22654320299625397
0.23253068327903748 0.30300810933113098 0.22841610014438629
0.30859008431434631 0.34548789262771606 0.23888345062732697
0.47717684507369995 0.41537651419639587 0.2745324969291687
0.70358365774154663 0.48853635787963867 0.33218759298324585
0.40287807583808899 0.53109902143478394 0.40102103352546692
0.4024389386177063 0.52888834476470947 0.38196799159049988
0.46143928170204163 0.55528044700622559 0.36929607391357422
0.60970288515090942 0.6404692530632019 0.43418934941291809
0.83649915456771851 0.74050891399383545 0.49029099941253662
0.64542359113693237 0.84777110815048218 0.61899173259735107
0.67233783006668091 0.86178851127624512 0.62089115381240845
0.70419859886169434 0.87189459800720215 0.58990216255187988
0.82760471105575562 0.92892163991928101 0.60933303833007812
1 1 0.70883965492248535
0.10746733844280243 0.11403167992830276 0.13192477822303772
0.13485890626907349 0.13749793171882629 0.15396440029144287
0.2125868946313858 0.20562662184238434 0.21126158535480499
0.31728148460388184 0.30123728513717651 0.2818458080291748
0.49821117520332336 0.43136698007583618 0.39984652400016785
0.13978859782218933 0.17754828929901123 0.1775704026222229
0.16600318253040314 0.20121598243713379 0.1963665783405304
0.25059100985527039 0.26162180304527283 0.24635975062847137
0.34713131189346313 0.34110495448112488 0.30762901902198792
0.55358201265335083 0.47217592597007751 0.43335768580436707
0.24519635736942291 0.31846499443054199 0.27162468433380127
0.27103745937347412 0.33651831746101379 0.28726676106452942
0.34160739183425903 0.39529368281364441 0.33896645903587341
0.51310586929321289 0.48856726288795471 0.42350330948829651
0.75479888916015625 0.5995832085609436 0.53107941150665283
0.44666802883148193 0.56921541690826416 0.46716037392616272
0.46919870376586914 0.58499598503112793 0.4840703010559082
0.52594327926635742 0.62700992822647095 0.51166254281997681
0.64835911989212036 0.69903671741485596 0.54546529054641724
0.89446800947189331 0.79228061437606812 0.60560411214828491
0.75179243087768555 0.92263936996459961 0.76495659351348877
0.76690196990966797 0.93608921766281128 0.7723349928855896
0.77987915277481079 0.95173090696334839 0.75511258840560913
0.88147658109664917 0.99439984560012817 0.74536710977554321
1 1 0.83387255668640137
0.14973798394203186 0.15576882660388947 0.19199956953525543
0.17131085693836212 0.1781393438577652 0.20945203304290771
0.24659790098667145 0.24403443932533264 0.26309475302696228
0.35091099143028259 0.33511760830879211 0.337973952293396
0.51523524522781372 0.46616947650909424 0.45354238152503967
0.17878967523574829 0.21769610047340393 0.23158973455429077
0.20678283274173737 0.23971526324748993 0.25100880861282349
0.28081980347633362 0.29745540022850037 0.30035057663917542
0.38466343283653259 0.37950628995895386 0.3710271418094635
0.55566674470901489 0.51897573471069336 0.49205252528190613
0.28508570790290833 0.36062636971473694 0.33388042449951172
0.30620750784873962 0.38095191121101379 0.35154283046722412
0.3717135488986969 0.43304765224456787 0.39757004380226135
0.50754517316818237 0.52836400270462036 0.48701414465904236
0.66827958822250366 0.65234363079071045 0.60651469230651855
0.48895832896232605 0.60971939563751221 0.53583192825317383
0.51402890682220459 0.62563824653625488 0.55271148681640625
0.58064842224121094 0.67395079135894775 0.59859669208526611
0.69674855470657349 0.7658010721206665 0.68650972843170166
0.93074220418930054 0.88911151885986328 0.8064391016960144
0.78810042142868042 0.96413415670394897 0.83468866348266602
0.80681484937667847 0.97745370864868164 0.84777098894119263
0.86364531517028809 0.99890929460525513 0.88185065984725952
0.96260988712310791 1 0.9466131329536438
1 1 0.99605578184127808
0.20515750348567963 0.21425873041152954 0.26041403412818909
0.23259031772613525 0.23789545893669128 0.28133681416511536
0.29556566476821899 0.29597479104995728 0.32940441370010376
0.40401440858840942 0.38429716229438782 0.41338670253753662
0.57872933149337769 0.52951723337173462 0.55422627925872803
0.24206270277500153 0.2738860547542572 0.30226737260818481
0.26279330253601074 0.2913002073764801 0.31815296411514282
0.32897153496742249 0.34420895576477051 0.36777836084365845
0.43654438853263855 0.43482685089111328 0.45410561561584473
0.62455451488494873 0.5841098427772522 0.59842914342880249
0.33493328094482422 0.41971093416213989 0.41822555661201477
0.36133009195327759 0.43503603339195251 0.43621176481246948
0.42954802513122559 0.49507775902748108 0.49211066961288452
0.55669820308685303 0.5873834490776062 0.58250164985656738
0.72226309776306152 0.70707410573959351 0.69984894990921021
0.54297840595245361 0.66805607080459595 0.63388454914093018
0.56465709209442139 0.68202120065689087 0.64585381746292114
0.63358098268508911 0.72971969842910767 0.69044846296310425
0.74554449319839478 0.82030755281448364 0.77575790882110596
0.91451144218444824 0.93831121921539307 0.89054733514785767
0.846241295337677 0.99938070774078369 0.92385047674179077
0.86931580305099487 1 0.94696915149688721
0.92622482776641846 1 0.98394149541854858
1 1 1
1 1 1
