Textures/33.cube
# Created by: G'MIC (https://gmic.eu)
TITLE "TensionGreen4.cube"
# LUT size
LUT_3D_SIZE 33
# Data domain
DOMAIN_MIN 0.0 0.0 0.0
DOMAIN_MAX 1.0 1.0 1.0
# LUT data points
0.065577052533626556 0.067833654582500458 0.070760451257228851
0.066666997969150543 0.07032330334186554 0.072250410914421082
0.069425590336322784 0.073495425283908844 0.075228072702884674
0.076381795108318329 0.076263479888439178 0.077829800546169281
0.08318241685628891 0.078603185713291168 0.080387651920318604
0.092931933701038361 0.08452180027961731 0.085514120757579803
0.10197046399116516 0.090063035488128662 0.08981698751449585
0.10704807937145233 0.091084674000740051 0.089441470801830292
0.1162346675992012 0.092846356332302094 0.08946913480758667
0.12978647649288177 0.097563490271568298 0.092730782926082611
0.14369785785675049 0.10223496705293655 0.095836654305458069
0.1557384580373764 0.10576430708169937 0.098228335380554199
0.16510604321956635 0.10749972611665726 0.099689006805419922
0.17368218302726746 0.10905083268880844 0.10100987553596497
0.18307910859584808 0.11218072474002838 0.103571817278862
0.19157421588897705 0.11362148076295853 0.10555758327245712
0.19992384314537048 0.11454465985298157 0.10741423815488815
0.21418586373329163 0.12013578414916992 0.11171206831932068
0.23101712763309479 0.12919378280639648 0.11761680245399475
0.24970827996730804 0.13644243776798248 0.12357313185930252
0.2665160596370697 0.14161130785942078 0.12813948094844818
0.28191360831260681 0.14719465374946594 0.13161629438400269
0.29686272144317627 0.1516914963722229 0.13500221073627472
0.31240731477737427 0.15559260547161102 0.13908617198467255
0.32956653833389282 0.16018863022327423 0.14311961829662323
0.34531697630882263 0.16196641325950623 0.14639931917190552
0.36338815093040466 0.16223321855068207 0.15093421936035156
0.38353827595710754 0.16643702983856201 0.15657727420330048
0.40667730569839478 0.17424604296684265 0.16288575530052185
0.42593199014663696 0.17653186619281769 0.16676349937915802
0.44128268957138062 0.17389853298664093 0.16924466192722321
0.46109035611152649 0.1776299923658371 0.17434591054916382
0.48190456628799438 0.18317787349224091 0.17918656766414642
0.067942559719085693 0.075554803013801575 0.075643934309482574
0.067386016249656677 0.075825043022632599 0.073948934674263
0.071303136646747589 0.078433990478515625 0.07591758668422699
0.080522887408733368 0.081622771918773651 0.078212343156337738
0.08685283362865448 0.083594977855682373 0.079089365899562836
0.09412076324224472 0.086728662252426147 0.081402786076068878
0.10250715166330338 0.091258659958839417 0.085287809371948242
0.10900578647851944 0.092938706278800964 0.087065733969211578
0.11959969252347946 0.096076592803001404 0.088886022567749023
0.1330830454826355 0.10080576688051224 0.093071311712265015
0.14654362201690674 0.1054445207118988 0.096341371536254883
0.15782563388347626 0.10985051840543747 0.098579682409763336
0.16795656085014343 0.11288079619407654 0.1005156934261322
0.1762101799249649 0.11458412557840347 0.1018720269203186
0.18518328666687012 0.11746604740619659 0.10430838912725449
0.19541287422180176 0.12148919701576233 0.10775001347064972
0.20454184710979462 0.12424930185079575 0.11002968996763229
0.21856485307216644 0.12786078453063965 0.11408315598964691
0.23533344268798828 0.13530884683132172 0.11960124224424362
0.25404682755470276 0.14219504594802856 0.12557047605514526
0.27104929089546204 0.14794152975082397 0.13001857697963715
0.28605687618255615 0.15367251634597778 0.13376949727535248
0.30180904269218445 0.15965645015239716 0.1376534104347229
0.31725111603736877 0.16429044306278229 0.14164099097251892
0.33361706137657166 0.16885603964328766 0.14548283815383911
0.35050368309020996 0.17140293121337891 0.14913050830364227
0.37165674567222595 0.17274054884910583 0.1544015109539032
0.39077621698379517 0.17626996338367462 0.15963935852050781
0.4116770327091217 0.18374677002429962 0.16549980640411377
0.43175274133682251 0.18693703413009644 0.16956143081188202
0.4489368200302124 0.184867262840271 0.17240668833255768
0.46926593780517578 0.18983277678489685 0.17765463888645172
0.49162784218788147 0.19894233345985413 0.18327696621417999
0.070686891674995422 0.082461245357990265 0.079958446323871613
0.070454828441143036 0.081679202616214752 0.0772109255194664
0.073199003934860229 0.082448005676269531 0.076199993491172791
0.082203276455402374 0.085764855146408081 0.077364414930343628
0.089603528380393982 0.088187366724014282 0.076881460845470428
0.096138522028923035 0.09054277092218399 0.078384138643741608
0.10291242599487305 0.093042157590389252 0.080192588269710541
0.11003338545560837 0.095295734703540802 0.082701601088047028
0.12204191833734512 0.099289283156394958 0.086768738925457001
0.13570898771286011 0.10428646951913834 0.091899387538433075
0.14892579615116119 0.10933094471693039 0.096235886216163635
0.16025084257125854 0.11389913409948349 0.09895334392786026
0.17058151960372925 0.11884294450283051 0.10178077220916748
0.17999058961868286 0.12203311175107956 0.10357072204351425
0.18822209537029266 0.12403386831283569 0.10586612671613693
0.19788463413715363 0.12811031937599182 0.10897346585988998
0.20818331837654114 0.13289909064769745 0.1118612214922905
0.2226855456829071 0.13733062148094177 0.11603397876024246
0.23907622694969177 0.14228104054927826 0.12144177407026291
0.25729197263717651 0.14869952201843262 0.12732711434364319
0.27456420660018921 0.15509232878684998 0.1319240927696228
0.29121068120002747 0.16111764311790466 0.13595332205295563
0.30667921900749207 0.1671593189239502 0.13977062702178955
0.32262241840362549 0.17301565408706665 0.14379951357841492
0.33782243728637695 0.17771980166435242 0.14780004322528839
0.35397148132324219 0.17994584143161774 0.15078909695148468
0.37695255875587463 0.18164509534835815 0.15695749223232269
0.39839634299278259 0.18597769737243652 0.16272103786468506
0.41726905107498169 0.19341786205768585 0.16815687716007233
0.43767824769020081 0.19787420332431793 0.17273473739624023
0.457172691822052 0.19780096411705017 0.1758674681186676
0.47746521234512329 0.2013377845287323 0.18028897047042847
0.5001760721206665 0.21219982206821442 0.18624371290206909
0.074103914201259613 0.088330924510955811 0.083591684699058533
0.074410349130630493 0.087925858795642853 0.080826453864574432
0.077213652431964874 0.088407054543495178 0.079384744167327881
0.084726952016353607 0.091163292527198792 0.079868249595165253
0.092009015381336212 0.093694813549518585 0.079029500484466553
0.09780188649892807 0.095915473997592926 0.078830689191818237
0.10413201153278351 0.098255865275859833 0.080538265407085419
0.11197833716869354 0.10099463164806366 0.082812599837779999
0.12499213963747025 0.10564167052507401 0.087596602737903595
0.13830640912055969 0.11025581508874893 0.092521347105503082
0.15177924931049347 0.11508916318416595 0.097302481532096863
0.16304290294647217 0.11921055614948273 0.1002991795539856
0.17365719377994537 0.1238064169883728 0.10263903439044952
0.1846608966588974 0.12843972444534302 0.10580670833587646
0.19410781562328339 0.13190899789333344 0.1083628237247467
0.20136439800262451 0.13488402962684631 0.11015044897794724
0.21069225668907166 0.1390349268913269 0.11330433189868927
0.22520609200000763 0.14505201578140259 0.11777809262275696
0.2425837516784668 0.15115618705749512 0.12345525622367859
0.26079288125038147 0.15712317824363708 0.12922461330890656
0.27826803922653198 0.1631738543510437 0.13394927978515625
0.29561030864715576 0.16958078742027283 0.13824421167373657
0.31239694356918335 0.17573295533657074 0.14233726263046265
0.32759770750999451 0.18176071345806122 0.14612028002738953
0.34351265430450439 0.18716977536678314 0.14983858168125153
0.35904476046562195 0.18942570686340332 0.1534789651632309
0.38134363293647766 0.19251872599124908 0.15921102464199066
0.40338453650474548 0.19661630690097809 0.1655552089214325
0.42285487055778503 0.20366108417510986 0.17101389169692993
0.44491937756538391 0.21044619381427765 0.17609328031539917
0.46741428971290588 0.21383097767829895 0.18040844798088074
0.48775634169578552 0.21594098210334778 0.18404927849769592
0.50703936815261841 0.22105446457862854 0.18825134634971619
0.076343044638633728 0.09471382200717926 0.086991801857948303
0.077599041163921356 0.094167575240135193 0.084493957459926605
0.081054426729679108 0.094436317682266235 0.082211881875991821
0.087682329118251801 0.096620023250579834 0.081795871257781982
0.094005480408668518 0.099082425236701965 0.081914998590946198
0.10012932866811752 0.1020347997546196 0.0824127197265625
0.10610415786504745 0.10437075793743134 0.082792684435844421
0.11314969509840012 0.10704026371240616 0.084605291485786438
0.12727820873260498 0.1122564822435379 0.089359715580940247
0.14083771407604218 0.11677297949790955 0.094179011881351471
0.15426565706729889 0.12170619517564774 0.098800100386142731
0.16609504818916321 0.12563067674636841 0.10198638588190079
0.17707858979701996 0.12911103665828705 0.10500712692737579
0.18821495771408081 0.13396978378295898 0.10748627036809921
0.19984762370586395 0.13918617367744446 0.11059661954641342
0.20808127522468567 0.14260213077068329 0.11333613842725754
0.21461255848407745 0.14578428864479065 0.11508916318416595
0.22852851450443268 0.15156099200248718 0.11959817260503769
0.24649858474731445 0.15893146395683289 0.12555937469005585
0.26481157541275024 0.16568447649478912 0.13141582906246185
0.28235626220703125 0.17143248021602631 0.13634234666824341
0.29938909411430359 0.17722612619400024 0.14031456410884857
0.31705355644226074 0.18388833105564117 0.14467127621173859
0.33296561241149902 0.19010399281978607 0.14869655668735504
0.3481801450252533 0.19568754732608795 0.15251389145851135
0.36438077688217163 0.20005226135253906 0.15612590312957764
0.38631027936935425 0.20386889576911926 0.16198247671127319
0.40894424915313721 0.20878465473651886 0.16834895312786102
0.4295409619808197 0.21507945656776428 0.1741180419921875
0.4507976770401001 0.22072602808475494 0.17888377606868744
0.47500556707382202 0.2254214733839035 0.18381515145301819
0.49749910831451416 0.23120015859603882 0.18829615414142609
0.51581907272338867 0.23322097957134247 0.1918882429599762
0.07923966646194458 0.10017435252666473 0.089086093008518219
0.082515254616737366 0.10053868591785431 0.08818209171295166
0.085638374090194702 0.10077308863401413 0.085822723805904388
0.090102173388004303 0.10193027555942535 0.083470672369003296
0.096029244363307953 0.10426124930381775 0.083503328263759613
0.10190639644861221 0.10766138881444931 0.084667153656482697
0.10829944908618927 0.11087672412395477 0.085228279232978821
0.11489224433898926 0.11389508098363876 0.086660377681255341
0.12644429504871368 0.11821631342172623 0.090328454971313477
0.14020895957946777 0.12253230065107346 0.094961255788803101
0.15408967435359955 0.12772643566131592 0.099819444119930267
0.1673782616853714 0.13232573866844177 0.10340940207242966
0.17870970070362091 0.13631820678710938 0.10625798255205154
0.19079248607158661 0.14047066867351532 0.10952449589967728
0.20260150730609894 0.14553502202033997 0.11288288235664368
0.21377483010292053 0.15042711794376373 0.11580797284841537
0.22259068489074707 0.15396474301815033 0.11834762990474701
0.23767910897731781 0.15908178687095642 0.12317859381437302
0.25564298033714294 0.16595038771629333 0.12912005186080933
0.27319979667663574 0.17319931089878082 0.13493120670318604
0.28981518745422363 0.17935441434383392 0.13924363255500793
0.30508595705032349 0.18467539548873901 0.14293184876441956
0.32210400700569153 0.19150100648403168 0.14717359840869904
0.33906814455986023 0.19884756207466125 0.15185405313968658
0.35482001304626465 0.20623393356800079 0.15613405406475067
0.37174904346466064 0.21244470775127411 0.16014780104160309
0.3928200900554657 0.21830689907073975 0.16575878858566284
0.4169139564037323 0.22289551794528961 0.17242142558097839
0.43958288431167603 0.22916658222675323 0.17858552932739258
0.45934596657752991 0.23333649337291718 0.18268054723739624
0.48098304867744446 0.23600982129573822 0.18640384078025818
0.50449275970458984 0.24316476285457611 0.1914142370223999
0.52606618404388428 0.24931484460830688 0.19657865166664124
0.082300245761871338 0.10562312602996826 0.090583793818950653
0.085792943835258484 0.10657574236392975 0.090494401752948761
0.089885406196117401 0.10776709765195847 0.089907050132751465
0.093757562339305878 0.10833658277988434 0.086613059043884277
0.098160251975059509 0.10972020775079727 0.084626302123069763
0.10396379232406616 0.11367049813270569 0.086031503975391388
0.11027391254901886 0.11803290247917175 0.087666846811771393
0.11687600612640381 0.12205243855714798 0.089505285024642944
0.12606717646121979 0.12666063010692596 0.09250892698764801
0.13971365988254547 0.13122841715812683 0.096861295402050018
0.15401823818683624 0.1356537938117981 0.10143578797578812
0.16762317717075348 0.14084964990615845 0.10575798898935318
0.18011024594306946 0.14571239054203033 0.10908560454845428
0.19236256182193756 0.1497633159160614 0.11203605681657791
0.20510382950305939 0.15425992012023926 0.11525566130876541
0.21728016436100006 0.15901567041873932 0.11852707713842392
0.23064891993999481 0.16391657292842865 0.12238606065511703
0.24841217696666718 0.16974206268787384 0.1278633177280426
0.26597946882247925 0.17460888624191284 0.13340793550014496
0.28394201397895813 0.18176218867301941 0.13900437951087952
0.29996588826179504 0.18979626893997192 0.14343543350696564
0.31525355577468872 0.19570685923099518 0.14730624854564667
0.33109718561172485 0.20293174684047699 0.15153422951698303
0.34763354063034058 0.21056060492992401 0.15613134205341339
0.36373651027679443 0.21858793497085571 0.1605491042137146
0.38059675693511963 0.22603887319564819 0.1652258038520813
0.40250119566917419 0.2351377010345459 0.17166168987751007
0.42616647481918335 0.24193075299263 0.17840294539928436
0.4505302906036377 0.24783383309841156 0.18484567105770111
0.47163397073745728 0.25184392929077148 0.18899640440940857
0.49057045578956604 0.25268691778182983 0.19166660308837891
0.51245748996734619 0.25819554924964905 0.19627305865287781
0.53657549619674683 0.26836523413658142 0.20254555344581604
0.08918028324842453 0.11732038110494614 0.095133490860462189
0.091660857200622559 0.11719771474599838 0.093747220933437347
0.094817996025085449 0.1182117834687233 0.092639677226543427
0.097449399530887604 0.11840798705816269 0.090103872120380402
0.10139088332653046 0.11954828351736069 0.087867103517055511
0.10713059455156326 0.12335848063230515 0.08936484158039093
0.1133657768368721 0.12827852368354797 0.091366857290267944
0.11958375573158264 0.1326977014541626 0.093429610133171082
0.12781797349452972 0.13736115396022797 0.096033245325088501
0.14085815846920013 0.14358538389205933 0.10058582574129105
0.15468990802764893 0.1490282416343689 0.10534846782684326
0.17003732919692993 0.15472002327442169 0.11008686572313309
0.18276965618133545 0.15978819131851196 0.1133461594581604
0.19540055096149445 0.16406646370887756 0.11662658303976059
0.20834715664386749 0.16816017031669617 0.11977483332157135
0.22157329320907593 0.17312087118625641 0.12318742275238037
0.23475845158100128 0.17861750721931458 0.12699447572231293
0.25476354360580444 0.18508979678153992 0.13277095556259155
0.2735200822353363 0.19045387208461761 0.13851332664489746
0.293468177318573 0.19692227244377136 0.14438384771347046
0.31098070740699768 0.2040882408618927 0.14896087348461151
0.32582283020019531 0.20924296975135803 0.15245623886585236
0.34123486280441284 0.21469634771347046 0.15625575184822083
0.35757234692573547 0.22068335115909576 0.16015477478504181
0.37407186627388 0.22707547247409821 0.16435995697975159
0.39250117540359497 0.23661842942237854 0.16987203061580658
0.41525417566299438 0.24702535569667816 0.17692744731903076
0.43792742490768433 0.25408434867858887 0.18371066451072693
0.46050280332565308 0.25933724641799927 0.18906381726264954
0.48166549205780029 0.26631516218185425 0.19385397434234619
0.50098443031311035 0.2715831995010376 0.19808979332447052
0.52245324850082397 0.27652120590209961 0.20248301327228546
0.5449988842010498 0.28449493646621704 0.20761922001838684
0.096894949674606323 0.1308848112821579 0.1009807288646698
0.098927043378353119 0.13096712529659271 0.098556183278560638
0.10041065514087677 0.13085359334945679 0.095686718821525574
0.10273788869380951 0.13068705797195435 0.093659564852714539
0.10579022020101547 0.13137669861316681 0.091857351362705231
0.11129819601774216 0.13492560386657715 0.093046091496944427
0.11731573194265366 0.13922493159770966 0.095191635191440582
0.12343323975801468 0.14363993704319 0.097410969436168671
0.13037337362766266 0.14829730987548828 0.099910996854305267
0.14232642948627472 0.15456332266330719 0.10407231748104095
0.15604586899280548 0.16137850284576416 0.10899543017148972
0.17204611003398895 0.16862097382545471 0.11420136690139771
0.18585611879825592 0.17439651489257812 0.11828437447547913
0.19863510131835938 0.17883960902690887 0.12120963633060455
0.21199117600917816 0.18346023559570312 0.12452870607376099
0.2251497209072113 0.18872612714767456 0.12813250720500946
0.23802894353866577 0.19414964318275452 0.13163720071315765
0.25663718581199646 0.20055362582206726 0.13703371584415436
0.27831700444221497 0.20761290192604065 0.14342717826366425
0.29955378174781799 0.21429583430290222 0.14950396120548248
0.31977194547653198 0.22052820026874542 0.15468639135360718
0.33599597215652466 0.22553284466266632 0.15833640098571777
0.35085839033126831 0.22879461944103241 0.16126877069473267
0.3671688437461853 0.23339089751243591 0.16486620903015137
0.38483560085296631 0.23772329092025757 0.16881446540355682
0.4072260856628418 0.24651116132736206 0.1751430332660675
0.42976197600364685 0.25789955258369446 0.18251629173755646
0.45234528183937073 0.26519289612770081 0.18892873823642731
0.4728018045425415 0.26899528503417969 0.19331003725528717
0.49319532513618469 0.27665266394615173 0.19829241931438446
0.51302003860473633 0.28740054368972778 0.20387764275074005
0.53419691324234009 0.29490348696708679 0.20853875577449799
0.55520516633987427 0.30100297927856445 0.21320091187953949
0.10324757546186447 0.14373968541622162 0.10645224153995514
0.10527146607637405 0.14420269429683685 0.10423857718706131
0.10617072135210037 0.14415550231933594 0.10137861222028732
0.10832473635673523 0.14432787895202637 0.099649384617805481
0.11114713549613953 0.14490792155265808 0.097657352685928345
0.11643984913825989 0.14814737439155579 0.097523994743824005
0.12242292612791061 0.15219612419605255 0.099654793739318848
0.12884421646595001 0.15625834465026855 0.10207792371511459
0.13573972880840302 0.16072380542755127 0.10443659126758575
0.14742188155651093 0.16678301990032196 0.10851253569126129
0.16068387031555176 0.17358461022377014 0.11332668364048004
0.17561115324497223 0.18121235072612762 0.11862225830554962
0.1901160329580307 0.18829712271690369 0.1228092685341835
0.20318931341171265 0.19379651546478271 0.12551732361316681
0.21656520664691925 0.19885365664958954 0.12903456389904022
0.22937941551208496 0.20465810596942902 0.13261912763118744
0.2421930730342865 0.21003952622413635 0.13607193529605865
0.2593224048614502 0.2156374603509903 0.14093796908855438
0.28156149387359619 0.22312489151954651 0.14768333733081818
0.30328845977783203 0.23054589331150055 0.15412522852420807
0.32361742854118347 0.23755291104316711 0.1591062992811203
0.34263461828231812 0.24269101023674011 0.16336341202259064
0.35919603705406189 0.2467101663351059 0.16710309684276581
0.37582147121429443 0.25142791867256165 0.17082907259464264
0.39510196447372437 0.25649756193161011 0.17515841126441956
0.4189000129699707 0.2628941535949707 0.18129728734493256
0.44126585125923157 0.27201566100120544 0.1880105584859848
0.46474140882492065 0.27941426634788513 0.19449475407600403
0.48533919453620911 0.28300774097442627 0.19869203865528107
0.5070650577545166 0.29102298617362976 0.20372909307479858
0.52816224098205566 0.30042684078216553 0.20900563895702362
0.54904389381408691 0.30779755115509033 0.21383999288082123
0.56996393203735352 0.31371936202049255 0.21824938058853149
0.10990475863218307 0.15713272988796234 0.11243066191673279
0.1114591583609581 0.15723101794719696 0.11037524044513702
0.11185912042856216 0.15720683336257935 0.10737356543540955
0.11402285844087601 0.15780286490917206 0.10587836802005768
0.1167842298746109 0.15849246084690094 0.1040392592549324
0.12181299179792404 0.16124266386032104 0.1031496599316597
0.12752152979373932 0.16436640918254852 0.10343429446220398
0.13374385237693787 0.16799615323543549 0.10517184436321259
0.14193560183048248 0.1724310964345932 0.10793794691562653
0.15382742881774902 0.17858120799064636 0.11220924556255341
0.1660960465669632 0.18486541509628296 0.1165434867143631
0.17950287461280823 0.19213375449180603 0.12147359549999237
0.19305321574211121 0.19925886392593384 0.12567929923534393
0.20755672454833984 0.20664753019809723 0.12885625660419464
0.22111110389232635 0.21324525773525238 0.13246424496173859
0.23357953131198883 0.2188154011964798 0.13584062457084656
0.24625334143638611 0.22427062690258026 0.13920731842517853
0.26206269860267639 0.22944849729537964 0.14328165352344513
0.28436443209648132 0.23678389191627502 0.15008904039859772
0.30599212646484375 0.24474996328353882 0.15694378316402435
0.32547470927238464 0.25190383195877075 0.1620454341173172
0.34589278697967529 0.25824186205863953 0.16656395792961121
0.36523962020874023 0.26310336589813232 0.17105413973331451
0.38365471363067627 0.26834088563919067 0.1751314252614975
0.40447512269020081 0.27497512102127075 0.18012279272079468
0.42915651202201843 0.28188931941986084 0.18666213750839233
0.45066958665847778 0.28797248005867004 0.19261170923709869
0.47532042860984802 0.29493197798728943 0.19919373095035553
0.49771645665168762 0.29919266700744629 0.20378722250461578
0.51937049627304077 0.30516430735588074 0.20848633348941803
0.54292434453964233 0.31224510073661804 0.21339595317840576
0.56491446495056152 0.31840088963508606 0.21833290159702301
0.58657687902450562 0.32453352212905884 0.22309321165084839
0.11799170076847076 0.17162129282951355 0.11873600631952286
0.11950169503688812 0.17211903631687164 0.11859477311372757
0.11986954510211945 0.17185300588607788 0.11535929888486862
0.12165655940771103 0.17204175889492035 0.11221200972795486
0.12426819652318954 0.17235153913497925 0.11003491282463074
0.12812995910644531 0.17387811839580536 0.10811706632375717
0.13328321278095245 0.17630322277545929 0.10720597207546234
0.13846826553344727 0.17928972840309143 0.10744116455316544
0.14720450341701508 0.18422971665859222 0.11078702658414841
0.16067995131015778 0.19080641865730286 0.1158682256937027
0.17244449257850647 0.1966918557882309 0.12000078707933426
0.183663010597229 0.20311412215232849 0.12411365658044815
0.19650006294250488 0.21040123701095581 0.12843969464302063
0.21046553552150726 0.21823437511920929 0.13245336711406708
0.2254500538110733 0.22588896751403809 0.13624788820743561
0.23691123723983765 0.23074035346508026 0.13818702101707458
0.24877879023551941 0.2362467348575592 0.14162030816078186
0.26244932413101196 0.24153822660446167 0.14554181694984436
0.28352954983711243 0.24901138246059418 0.15164640545845032
0.30675292015075684 0.2580467164516449 0.15888978540897369
0.32745930552482605 0.26572218537330627 0.16485141217708588
0.34940710663795471 0.27391013503074646 0.16990773379802704
0.37100490927696228 0.28049841523170471 0.17469167709350586
0.39084956049919128 0.28579923510551453 0.17915014922618866
0.41161975264549255 0.29163405299186707 0.18400394916534424
0.43686780333518982 0.29901689291000366 0.19077937304973602
0.46030962467193604 0.30542978644371033 0.19721183180809021
0.48739668726921082 0.31346073746681213 0.20434223115444183
0.51336020231246948 0.3187587559223175 0.20944969356060028
0.53491765260696411 0.32242456078529358 0.21370890736579895
0.55768203735351562 0.32858777046203613 0.21873652935028076
0.58072733879089355 0.33342403173446655 0.2232324630022049
0.60594147443771362 0.33972296118736267 0.22907494008541107
