Textures/34.cube
# Created by: G'MIC (https://gmic.eu)
TITLE "Agfa_Precisa_100.cube"
# LUT size
LUT_3D_SIZE 5
# Data domain
DOMAIN_MIN 0.0 0.0 0.0
DOMAIN_MAX 1.0 1.0 1.0
# LUT data points
0.0062309857457876205 0.0067162336781620979 0.0046773925423622131
0.17492558062076569 0.012358373962342739 0.010668325237929821
0.41042476892471313 0.027025680989027023 0.065456777811050415
0.71224516630172729 0.079024866223335266 0.14491099119186401
0.97985279560089111 0.12606208026409149 0.21535949409008026
0.11523531377315521 0.20050148665904999 0.073148101568222046
0.21796143054962158 0.20817136764526367 0.076252475380897522
0.45674300193786621 0.2215351015329361 0.075427412986755371
0.74513757228851318 0.21005295217037201 0.11710723489522934
0.98956793546676636 0.12947739660739899 0.21734993159770966
0.13312952220439911 0.48067525029182434 0.17010478675365448
0.27020108699798584 0.48940199613571167 0.1666593998670578
0.51865303516387939 0.51067256927490234 0.14660453796386719
0.79320907592773438 0.52549529075622559 0.092088460922241211
1 0.45369413495063782 0.12495364248752594
0.29364016652107239 0.77557235956192017 0.34613296389579773
0.39262276887893677 0.78348159790039062 0.34335321187973022
0.59263050556182861 0.80684459209442139 0.31857678294181824
0.82151573896408081 0.84135919809341431 0.22056093811988831
1 0.88280540704727173 0.00011234897101530805
0.58696568012237549 0.98545759916305542 0.63928723335266113
0.62816119194030762 0.98954540491104126 0.63918000459671021
0.73366016149520874 0.99983662366867065 0.63331317901611328
0.89124453067779541 1 0.59870344400405884
1 1 0.35077452659606934
0.0010628616437315941 0.003110464895144105 0.1285114586353302
0.15376496315002441 0.0072075892239809036 0.1287408173084259
0.40438705682754517 0.022395173087716103 0.12767307460308075
0.71795988082885742 0.07999003678560257 0.14660361409187317
0.98641723394393921 0.12728758156299591 0.21715682744979858
0.099321261048316956 0.18971829116344452 0.1976533830165863
0.19929602742195129 0.19821368157863617 0.19830214977264404
0.44497567415237427 0.21391373872756958 0.19125205278396606
0.74647277593612671 0.22171652317047119 0.14884726703166962
0.99429112672805786 0.13732436299324036 0.21766969561576843
0.11207664012908936 0.47225305438041687 0.28303202986717224
0.25271818041801453 0.4802459180355072 0.28369149565696716
0.50741970539093018 0.49992865324020386 0.27572205662727356
0.78453677892684937 0.51809483766555786 0.20053690671920776
1 0.47478216886520386 0.11926586925983429
0.2811863124370575 0.7638857364654541 0.43529927730560303
0.38339239358901978 0.77184969186782837 0.43602946400642395
0.58525311946868896 0.79338741302490234 0.42518952488899231
0.81406229734420776 0.82528996467590332 0.35818809270858765
1 0.87031662464141846 0.015405284240841866
0.58635485172271729 0.97760987281799316 0.68704801797866821
0.62666672468185425 0.98158049583435059 0.68859678506851196
0.73019051551818848 0.99640381336212158 0.68665945529937744
0.8838011622428894 1 0.66325044631958008
1 1 0.47379621863365173
0 0 0.29473498463630676
0.1222066655755043 0.0013628762681037188 0.30078265070915222
0.38039126992225647 0.0075877206400036812 0.30082923173904419
0.70963770151138306 0.052177600562572479 0.24762669205665588
0.99180883169174194 0.12818636000156403 0.21928095817565918
0.069818675518035889 0.17493964731693268 0.37031847238540649
0.16783724725246429 0.18273454904556274 0.37917909026145935
0.41877895593643188 0.19520619511604309 0.3885212242603302
0.72585153579711914 0.1999843567609787 0.35352569818496704
0.99787759780883789 0.16519272327423096 0.21287611126899719
0.083379685878753662 0.45511752367019653 0.46202164888381958
0.20933470129966736 0.46244296431541443 0.46951773762702942
0.48062551021575928 0.48028305172920227 0.48044347763061523
0.76046788692474365 0.49363109469413757 0.4502759575843811
1 0.47726708650588989 0.26008221507072449
0.24207936227321625 0.74434041976928711 0.58102321624755859
0.35587984323501587 0.75219392776489258 0.58776378631591797
0.56556016206741333 0.77100074291229248 0.59461295604705811
0.79615247249603271 0.7948799729347229 0.57581043243408203
1 0.82412993907928467 0.39731168746948242
0.5810009241104126 0.96240866184234619 0.77181369066238403
0.62229794263839722 0.96753209829330444 0.77494162321090698
0.72581756114959717 0.98140716552734375 0.78079742193222046
0.87031751871109009 0.99946564435958862 0.77459460496902466
1 1 0.66342824697494507
0 0 0.50843334197998047
0.066086508333683014 0 0.5289992094039917
0.33402752876281738 0.00032683333847671747 0.55547767877578735
0.66739332675933838 0.0013096140464767814 0.54454642534255981
0.98204833269119263 0.091720171272754669 0.35499235987663269
0.022925166413187981 0.16291674971580505 0.57388722896575928
0.11870386451482773 0.16904182732105255 0.59110379219055176
0.37300881743431091 0.1801835298538208 0.62472075223922729
0.68723636865615845 0.17254562675952911 0.64101868867874146
0.97223418951034546 0.12460435926914215 0.53024983406066895
0.0061100339516997337 0.44412010908126831 0.63834482431411743
0.13247069716453552 0.45136180520057678 0.6521109938621521
0.436655193567276 0.46774911880493164 0.68315970897674561
0.72664171457290649 0.47486975789070129 0.70271122455596924
0.99150091409683228 0.4355492889881134 0.63474297523498535
0.15074005722999573 0.72859346866607666 0.72339248657226562
0.29978650808334351 0.73616701364517212 0.73395991325378418
0.53197509050369263 0.75252062082290649 0.75601714849472046
0.77176910638809204 0.77164679765701294 0.77168601751327515
0.99688971042633057 0.77738773822784424 0.71805429458618164
0.56580740213394165 0.94862788915634155 0.85473573207855225
0.60840809345245361 0.95343911647796631 0.86044508218765259
0.71514445543289185 0.96600908041000366 0.87384259700775146
0.86043089628219604 0.98505222797393799 0.88718932867050171
0.99903351068496704 0.99996036291122437 0.84757906198501587
0 0 0.70496392250061035
0.0071714804507791996 0 0.73258095979690552
0.27456161379814148 0.00020441268861759454 0.78305709362030029
0.6183200478553772 0 0.83292496204376221
0.92262989282608032 0 0.79031068086624146
0 0.17794695496559143 0.74299657344818115
0.052053786814212799 0.18360267579555511 0.76499319076538086
0.30631977319717407 0.1950678676366806 0.81731319427490234
0.64315193891525269 0.18864989280700684 0.87709510326385498
0.92716240882873535 0.096361264586448669 0.89463555812835693
0 0.45053932070732117 0.78264957666397095
0.008837173692882061 0.45886069536209106 0.80119174718856812
0.35609632730484009 0.47719463706016541 0.84813672304153442
0.68056470155715942 0.48648524284362793 0.9025726318359375
0.95687073469161987 0.43948522210121155 0.93157297372817993
0 0.72211408615112305 0.8335605263710022
0.12241116166114807 0.73050689697265625 0.84807336330413818
0.45916500687599182 0.74889981746673584 0.88392877578735352
0.72987544536590576 0.76751613616943359 0.92810791730880737
0.97233909368515015 0.76191490888595581 0.95807075500488281
0.50442451238632202 0.93772441148757935 0.91126906871795654
0.55488228797912598 0.94248491525650024 0.918873131275177
0.67684268951416016 0.95528769493103027 0.93848937749862671
0.83793103694915771 0.97370564937591553 0.96732652187347412
0.9900403618812561 0.99041169881820679 0.99033480882644653
