Textures/34.cube
# Created by: G'MIC (https://gmic.eu)
TITLE "Agfa_Precisa_100.cube"
# LUT size
LUT_3D_SIZE 33
# Data domain
DOMAIN_MIN 0.0 0.0 0.0
DOMAIN_MAX 1.0 1.0 1.0
# LUT data points
0.0062309857457876205 0.0067162336781620979 0.0046773925423622131
0.023299461230635643 0.0071959830820560455 0.0046773925423622131
0.04375125840306282 0.0078264819458127022 0.0048174383118748665
0.065954387187957764 0.008472539484500885 0.0046711699105799198
0.087319515645503998 0.0089351730421185493 0.0053877844475209713
0.10820574313402176 0.0092654833570122719 0.0058562923222780228
0.1281791478395462 0.010465976782143116 0.0071114073507487774
0.15137466788291931 0.011522348038852215 0.008542349562048912
0.17492558062076569 0.012358373962342739 0.010668325237929821
0.20040975511074066 0.013134845532476902 0.013553471304476261
0.22689029574394226 0.014799788594245911 0.01794077642261982
0.25580582022666931 0.016130601987242699 0.023657914251089096
0.28477171063423157 0.017528560012578964 0.03095209039747715
0.31404709815979004 0.01921461708843708 0.038935799151659012
0.34451064467430115 0.021667128428816795 0.047337304800748825
0.37614426016807556 0.02436910942196846 0.055964771658182144
0.41042476892471313 0.027025680989027023 0.065456777811050415
0.44740033149719238 0.033108394593000412 0.075796276330947876
0.48594099283218384 0.039577141404151917 0.085950262844562531
0.5260276198387146 0.045499678701162338 0.096256904304027557
0.56489104032516479 0.052843198180198669 0.10648287087678909
0.60252076387405396 0.059395734220743179 0.11634928733110428
0.63993293046951294 0.065841786563396454 0.12587861716747284
0.67639148235321045 0.072485700249671936 0.13544587790966034
0.71224516630172729 0.079024866223335266 0.14491099119186401
0.74772214889526367 0.084967568516731262 0.15418069064617157
0.78227466344833374 0.091830171644687653 0.16400068998336792
0.81668573617935181 0.097140483558177948 0.17254899442195892
0.8504747748374939 0.10334968566894531 0.18104590475559235
0.883961021900177 0.10908001661300659 0.18954247236251831
0.91730010509490967 0.11514083296060562 0.19828416407108307
0.94884330034255981 0.12001655995845795 0.2068629264831543
0.97985279560089111 0.12606208026409149 0.21535949409008026
0.014590701088309288 0.026478078216314316 0.0097166011109948158
0.030387286096811295 0.028214626014232635 0.0097852591425180435
0.050588048994541168 0.029560144990682602 0.0097852600738406181
0.072328917682170868 0.031056167557835579 0.0097852591425180435
0.094017438590526581 0.032692138105630875 0.0097852600738406181
0.11450660973787308 0.03433367982506752 0.0099517926573753357
0.13531938195228577 0.03577905148267746 0.010895788669586182
0.15903636813163757 0.03715134784579277 0.011214449070394039
0.18283042311668396 0.038398515433073044 0.012291736900806427
0.20851461589336395 0.039998233318328857 0.013668681494891644
0.23550543189048767 0.042206905782222748 0.015771327540278435
0.26431187987327576 0.044027511030435562 0.019567573443055153
0.29312017560005188 0.044619746506214142 0.025306729599833488
0.32180163264274597 0.045305211097002029 0.032887428998947144
0.35205772519111633 0.044751524925231934 0.041934266686439514
0.38324308395385742 0.043571222573518753 0.051781501621007919
0.41709163784980774 0.042759411036968231 0.0625714510679245
0.45273876190185547 0.043498121201992035 0.074372336268424988
0.49087092280387878 0.044686540961265564 0.085802547633647919
0.53010660409927368 0.047976769506931305 0.097133025527000427
0.56849759817123413 0.053578779101371765 0.10725195705890656
0.60585463047027588 0.060038704425096512 0.11730925738811493
0.64304757118225098 0.066437765955924988 0.12661738693714142
0.67880398035049438 0.073039256036281586 0.1364186555147171
0.71438896656036377 0.079166442155838013 0.14523942768573761
0.75063157081604004 0.085452079772949219 0.15534496307373047
0.78507381677627563 0.09183017909526825 0.16405217349529266
0.81928259134292603 0.097152963280677795 0.17254899442195892
0.85268914699554443 0.10347799211740494 0.18105269968509674
0.88474774360656738 0.10992176085710526 0.18954811990261078
0.91821944713592529 0.11550050228834152 0.19829665124416351
0.94957989454269409 0.12003543972969055 0.2068629264831543
0.98052597045898438 0.12607283890247345 0.21535949409008026
0.025393787771463394 0.049434229731559753 0.014940313063561916
0.03975721076130867 0.050935529172420502 0.014717234298586845
0.055892400443553925 0.052323523908853531 0.014687203802168369
0.07630813866853714 0.053827323019504547 0.014803034253418446
0.097564414143562317 0.055584121495485306 0.015074487775564194
0.11788676679134369 0.057306736707687378 0.01568770594894886
0.13917925953865051 0.059355016797780991 0.016072683036327362
0.16332334280014038 0.06126142293214798 0.016162773594260216
0.18714936077594757 0.063435651361942291 0.016376154497265816
0.21331162750720978 0.065453656017780304 0.01729714497923851
0.24055351316928864 0.067632883787155151 0.019016548991203308
0.26952141523361206 0.070188760757446289 0.020791290327906609
0.29854610562324524 0.072275459766387939 0.02359325997531414
0.32765430212020874 0.07314685732126236 0.028286615386605263
0.35779207944869995 0.073062092065811157 0.036241196095943451
0.38879019021987915 0.072093978524208069 0.045360423624515533
0.42248222231864929 0.071633316576480865 0.056210935115814209
0.4586060643196106 0.071337632834911346 0.067743390798568726
0.4962102472782135 0.069658070802688599 0.079900749027729034
0.53476381301879883 0.068048931658267975 0.092577837407588959
0.5722959041595459 0.065536469221115112 0.10502681881189346
0.60881400108337402 0.065221615135669708 0.11652215570211411
0.64523470401763916 0.068220794200897217 0.12708234786987305
0.68130260705947876 0.073190800845623016 0.13643775880336761
0.7167850136756897 0.079661913216114044 0.14620845019817352
0.75133264064788818 0.085867926478385925 0.15555557608604431
0.78539395332336426 0.092389568686485291 0.16407518088817596
0.81962525844573975 0.097751617431640625 0.17281727492809296
0.85387605428695679 0.10402088612318039 0.18179087340831757
0.88660341501235962 0.11021234095096588 0.19016960263252258
0.9185870885848999 0.1157677173614502 0.19887685775756836
0.95063847303390503 0.12029276043176651 0.20695613324642181
0.98138779401779175 0.12619850039482117 0.21535949409008026
0.039075247943401337 0.073380328714847565 0.022210322320461273
0.051866728812456131 0.074471279978752136 0.022210320457816124
0.065240085124969482 0.07579425722360611 0.022210320457816124
0.081761568784713745 0.077077470719814301 0.022262986749410629
0.10170194506645203 0.078684292733669281 0.022436967119574547
0.12148141860961914 0.080340154469013214 0.022593386471271515
0.14314326643943787 0.082158282399177551 0.023226041346788406
0.16721479594707489 0.084051147103309631 0.023758066818118095
0.19138810038566589 0.086061395704746246 0.024055061861872673
0.21773636341094971 0.088459163904190063 0.024572465568780899
0.24527640640735626 0.091234497725963593 0.025252759456634521
0.27428746223449707 0.094180062413215637 0.025834280997514725
0.30350950360298157 0.096699260175228119 0.02708476223051548
0.33270353078842163 0.098559118807315826 0.029475869610905647
0.36317881941795349 0.099713258445262909 0.033196840435266495
0.39476281404495239 0.099317431449890137 0.040412716567516327
0.42876988649368286 0.099021397531032562 0.050537854433059692
0.46440985798835754 0.098914124071598053 0.062023356556892395
0.5021059513092041 0.097742408514022827 0.073826730251312256
0.54047131538391113 0.096481658518314362 0.085777148604393005
0.5778580904006958 0.093478240072727203 0.098216921091079712
0.61393338441848755 0.09001486748456955 0.11060643941164017
0.64976590871810913 0.086165934801101685 0.12304151058197021
0.68439662456512451 0.082383930683135986 0.13483740389347076
0.71909427642822266 0.082230865955352783 0.14615091681480408
0.75427663326263428 0.086684368550777435 0.15555557608604431
0.78844815492630005 0.092728957533836365 0.16525036096572876
0.82204955816268921 0.098287157714366913 0.17423608899116516
0.85450536012649536 0.10424825549125671 0.18313486874103546
0.88783031702041626 0.11021233350038528 0.19145983457565308
0.92001605033874512 0.1157677173614502 0.19992393255233765
0.95187997817993164 0.12106507271528244 0.20786219835281372
0.98229193687438965 0.12661546468734741 0.21549169719219208
0.054262485355138779 0.096400618553161621 0.031457550823688507
0.06515955924987793 0.097328975796699524 0.031268741935491562
0.07652495801448822 0.098282285034656525 0.031268741935491562
0.090366892516613007 0.099459610879421234 0.031198523938655853
0.10626564174890518 0.10089082270860672 0.031251188367605209
0.12524808943271637 0.10217175632715225 0.031955264508724213
0.14768251776695251 0.10375680774450302 0.032547406852245331
0.17122071981430054 0.10554758459329605 0.033261425793170929
0.19575037062168121 0.10758772492408752 0.034065302461385727
0.22209864854812622 0.10979752987623215 0.034497581422328949
0.24961601197719574 0.11241412907838821 0.035650212317705154
0.27888181805610657 0.11531443148851395 0.035788670182228088
0.30779215693473816 0.11817179620265961 0.035281196236610413
0.33719643950462341 0.12057837843894958 0.035471141338348389
0.36795723438262939 0.12222234904766083 0.03641321137547493
0.3998396098613739 0.12348775565624237 0.03931543231010437
0.43396490812301636 0.12403623759746552 0.04610111191868782
0.47061246633529663 0.12398964166641235 0.05710446834564209
0.5081028938293457 0.12309962511062622 0.068627811968326569
0.54608500003814697 0.12209761887788773 0.080560117959976196
0.58321726322174072 0.11963006108999252 0.092670559883117676
0.61918735504150391 0.11674007028341293 0.10438835620880127
0.65475249290466309 0.11290004849433899 0.11647231876850128
0.68905645608901978 0.10814600437879562 0.12870496511459351
0.72319036722183228 0.1023099273443222 0.14157487452030182
0.75690847635269165 0.096675783395767212 0.1539682000875473
0.78991430997848511 0.094703026115894318 0.16538310050964355
0.82360821962356567 0.09894273430109024 0.17450994253158569
0.85739266872406006 0.10424825549125671 0.18316997587680817
0.88907623291015625 0.11021233350038528 0.19166654348373413
0.92190647125244141 0.1157677173614502 0.20016343891620636
0.95282655954360962 0.12148714810609818 0.20863452553749084
0.98337620496749878 0.12718889117240906 0.21638800203800201
0.069847516715526581 0.11903957277536392 0.041389234364032745
0.078831709921360016 0.11992268264293671 0.041389234364032745
0.088961184024810791 0.12076862901449203 0.041458655148744583
0.10102040320634842 0.12166541814804077 0.041683711111545563
0.11398912221193314 0.12250855565071106 0.041928689926862717
0.13039295375347137 0.12407737970352173 0.042280152440071106
0.15288130939006805 0.12556383013725281 0.042910870164632797
0.17591540515422821 0.12711863219738007 0.043939512223005295
0.20058996975421906 0.12904408574104309 0.045027751475572586
0.22692902386188507 0.13102351129055023 0.045857265591621399
0.25438550114631653 0.13332547247409821 0.046961132436990738
0.2834760844707489 0.13601952791213989 0.047538064420223236
0.31213295459747314 0.13862617313861847 0.047091823071241379
0.34154811501502991 0.14092634618282318 0.047014586627483368
0.3724384605884552 0.14290855824947357 0.046358879655599594
0.40459272265434265 0.14506003260612488 0.045427240431308746
0.43992400169372559 0.14703859388828278 0.0461697056889534
0.47658339142799377 0.14805634319782257 0.053051792085170746
0.51407885551452637 0.1474202424287796 0.063834108412265778
0.55188417434692383 0.14644479751586914 0.07581976056098938
0.5888824462890625 0.14377988874912262 0.087915919721126556
0.62428069114685059 0.1411249190568924 0.099354609847068787
0.65976858139038086 0.13770614564418793 0.11109349876642227
0.69423627853393555 0.13354359567165375 0.12281146645545959
0.72817808389663696 0.12800672650337219 0.13525639474391937
0.76164263486862183 0.12151301652193069 0.14805744588375092
0.79441773891448975 0.11325185000896454 0.16080090403556824
0.82676452398300171 0.10571099817752838 0.17304736375808716
0.85867881774902344 0.10540857911109924 0.18313933908939362
0.89156067371368408 0.11049263924360275 0.19166655838489532
0.92309725284576416 0.11578799039125443 0.20016343891620636
0.95455282926559448 0.12148716300725937 0.20866025984287262
0.98464834690093994 0.12728758156299591 0.21714824438095093
0.086211465299129486 0.14520977437496185 0.052388954907655716
0.093907639384269714 0.14555695652961731 0.052483353763818741
0.1027592197060585 0.14642564952373505 0.052757155150175095
0.11321696639060974 0.14740759134292603 0.05285780131816864
0.12493098527193069 0.14833506941795349 0.05305207148194313
0.13971550762653351 0.14937889575958252 0.053501851856708527
0.15896494686603546 0.1509927362203598 0.054112616926431656
0.18097327649593353 0.15230102837085724 0.054950781166553497
0.20620185136795044 0.15378870069980621 0.055990226566791534
0.23239096999168396 0.15583895146846771 0.057201050221920013
0.25984764099121094 0.15781055390834808 0.058207042515277863
0.28860318660736084 0.16003774106502533 0.059122372418642044
0.31725570559501648 0.16242370009422302 0.058814462274312973
0.34638416767120361 0.16434088349342346 0.058464482426643372
0.37718412280082703 0.16649630665779114 0.058115765452384949
0.40956836938858032 0.1682450920343399 0.057231087237596512
0.44519460201263428 0.17077465355396271 0.054835367947816849
0.48294097185134888 0.17305582761764526 0.054288130253553391
0.52078163623809814 0.17404590547084808 0.059667825698852539
0.55835509300231934 0.17318366467952728 0.070748805999755859
0.59487175941467285 0.17055234313011169 0.082390457391738892
0.63053226470947266 0.16772587597370148 0.094017677009105682
0.66580867767333984 0.164359450340271 0.10572115331888199
0.69982975721359253 0.16064432263374329 0.11748681962490082
0.73384642601013184 0.15548495948314667 0.12932664155960083
0.76692646741867065 0.14943051338195801 0.14118273556232452
0.79935353994369507 0.1417907327413559 0.15365378558635712
0.83164948225021362 0.13181431591510773 0.16659471392631531
0.86302918195724487 0.12165927886962891 0.17967070639133453
0.89372652769088745 0.11447111517190933 0.19125509262084961
0.92570745944976807 0.11671183258295059 0.20016343891620636
0.95644229650497437 0.12149650603532791 0.20866025984287262
0.98581445217132568 0.12728758156299591 0.21715682744979858
0.1027187779545784 0.17156873643398285 0.063395403325557709
0.10951137542724609 0.1718418151140213 0.063395403325557709
0.11679381132125854 0.17236295342445374 0.063538156449794769
0.12572735548019409 0.17314186692237854 0.063657522201538086
0.13735629618167877 0.17405416071414948 0.063657514750957489
0.15201416611671448 0.17543527483940125 0.064307868480682373
0.16784892976284027 0.17637038230895996 0.064603596925735474
0.18715342879295349 0.1778864711523056 0.065624058246612549
0.21201340854167938 0.17959189414978027 0.06684459000825882
0.23821635544300079 0.18125385046005249 0.067719846963882446
0.26558408141136169 0.18311616778373718 0.068439885973930359
0.29420590400695801 0.18493074178695679 0.069397799670696259
0.32239854335784912 0.18699030578136444 0.069543078541755676
0.35157197713851929 0.18861454725265503 0.068959645926952362
0.38230180740356445 0.19043977558612823 0.068663917481899261
0.41477835178375244 0.19224901497364044 0.06802879273891449
0.45047694444656372 0.19432815909385681 0.066045098006725311
0.48848238587379456 0.19674734771251678 0.063493184745311737
0.52692133188247681 0.19949014484882355 0.061263974756002426
0.56464707851409912 0.19960986077785492 0.065724663436412811
0.6011730432510376 0.19725672900676727 0.076638102531433105
0.6362343430519104 0.19396349787712097 0.08866611123085022
0.67133504152297974 0.19048117101192474 0.10053104162216187
0.70492750406265259 0.18692712485790253 0.11220719665288925
0.73889786005020142 0.18170134723186493 0.12366017699241638
0.77245837450027466 0.17559447884559631 0.13579373061656952
0.80461078882217407 0.16858863830566406 0.1477341502904892
0.83671551942825317 0.15948623418807983 0.15973822772502899
0.86799174547195435 0.14933943748474121 0.17275720834732056
0.89831161499023438 0.13634704053401947 0.18621978163719177
0.92847353219985962 0.12457267194986343 0.19917765259742737
0.95857435464859009 0.12278994917869568 0.20918157696723938
0.98745697736740112 0.12738901376724243 0.21719369292259216
0.11523531377315521 0.20050148665904999 0.073148101568222046
0.12070146948099136 0.20115916430950165 0.073148101568222046
0.126943439245224 0.20162029564380646 0.073157072067260742
0.13573691248893738 0.20200347900390625 0.073188275098800659
0.14723087847232819 0.20273254811763763 0.073666505515575409
0.16120147705078125 0.20401869714260101 0.074274897575378418
0.17561747133731842 0.20547544956207275 0.074897311627864838
0.1938304603099823 0.20639871060848236 0.075400099158287048
0.21796143054962158 0.20817136764526367 0.076252475380897522
0.24449610710144043 0.20979566872119904 0.076878935098648071
0.27169942855834961 0.21112391352653503 0.077223360538482666
0.29992684721946716 0.21325621008872986 0.078027084469795227
0.32819196581840515 0.21440930664539337 0.078408919274806976
0.35728728771209717 0.21619175374507904 0.078044280409812927
0.38833335041999817 0.21783283352851868 0.077478356659412384
0.42097288370132446 0.21939961612224579 0.076597400009632111
0.45674300193786621 0.2215351015329361 0.075427412986755371
0.4945991039276123 0.22313694655895233 0.073264487087726593
0.5329362154006958 0.22563183307647705 0.069846905767917633
0.57146751880645752 0.22726354002952576 0.06629355251789093
0.60802376270294189 0.22637595236301422 0.070333912968635559
0.64326447248458862 0.223176509141922 0.080826058983802795
0.67815119028091431 0.21944290399551392 0.092957690358161926
0.71159636974334717 0.21557100117206573 0.10500397533178329
0.74513757228851318 0.21005295217037201 0.11710723489522934
0.77800226211547852 0.20359154045581818 0.12938791513442993
0.81039649248123169 0.19660545885562897 0.14148518443107605
0.84218275547027588 0.18823717534542084 0.15347178280353546
0.87342250347137451 0.17848236858844757 0.16589441895484924
0.90360730886459351 0.16668699681758881 0.1786467581987381
0.93351298570632935 0.15195342898368835 0.19284947216510773
0.96235740184783936 0.13579767942428589 0.20695042610168457
0.98956793546676636 0.12947739660739899 0.21734993159770966
0.11199367046356201 0.23104581236839294 0.082269549369812012
0.11776696145534515 0.23123307526111603 0.082350686192512512
0.12491238117218018 0.23168712854385376 0.082819201052188873
0.13476358354091644 0.23271134495735168 0.083050534129142761
0.14738669991493225 0.23418557643890381 0.083370424807071686
0.16044068336486816 0.23490869998931885 0.083858788013458252
0.1768043041229248 0.2357030063867569 0.084404930472373962
0.19915169477462769 0.23774482309818268 0.085034795105457306
0.22438152134418488 0.23894776403903961 0.085766896605491638
0.25083330273628235 0.24046145379543304 0.086483433842658997
0.27791428565979004 0.24258013069629669 0.086752928793430328
0.30589151382446289 0.24321632087230682 0.087022863328456879
0.33394351601600647 0.24536500871181488 0.087314628064632416
0.36327135562896729 0.24672411382198334 0.087314628064632416
0.39443188905715942 0.24773083627223969 0.087160944938659668
0.42739585041999817 0.25033125281333923 0.086008667945861816
0.46348991990089417 0.25131827592849731 0.084993816912174225
0.50107848644256592 0.25365638732910156 0.083411321043968201
0.53910458087921143 0.2548486590385437 0.080555841326713562
0.57759445905685425 0.25611290335655212 0.076122254133224487
0.6144147515296936 0.25700464844703674 0.071912609040737152
0.65008395910263062 0.2551824152469635 0.074940204620361328
0.6848757266998291 0.2512660026550293 0.085856325924396515
0.71821624040603638 0.24671819806098938 0.097356878221035004
0.75124382972717285 0.24106025695800781 0.10885542631149292
0.78446674346923828 0.23411399126052856 0.12107332050800323
0.81626266241073608 0.22679492831230164 0.133217453956604
0.84797143936157227 0.2187274694442749 0.14606358110904694
0.8790895938873291 0.20854727923870087 0.15876497328281403
0.90917444229125977 0.19727624952793121 0.17158497869968414
0.93894428014755249 0.1834857314825058 0.18497541546821594
0.96755725145339966 0.16750803589820862 0.19912953674793243
0.99269688129425049 0.14727428555488586 0.21353751420974731
0.11475784331560135 0.26215463876724243 0.094604536890983582
0.11942408233880997 0.2629351019859314 0.094604536890983582
0.12549053132534027 0.26403024792671204 0.094743408262729645
0.13422219455242157 0.26493972539901733 0.095254451036453247
0.14515319466590881 0.26507782936096191 0.095297358930110931
0.15986023843288422 0.26613956689834595 0.095569580793380737
0.18184363842010498 0.26838997006416321 0.096290990710258484
0.20531721413135529 0.26906132698059082 0.096553891897201538
0.23120230436325073 0.27114653587341309 0.096785157918930054
0.25748419761657715 0.27286326885223389 0.097012192010879517
0.28419476747512817 0.2738194465637207 0.097488120198249817
0.31182846426963806 0.27665168046951294 0.097423776984214783
0.33988234400749207 0.2768692672252655 0.097059108316898346
0.36940640211105347 0.2796555757522583 0.096416652202606201
0.40084007382392883 0.28071904182434082 0.095945447683334351
0.43415749073028564 0.28254607319831848 0.09510253369808197
0.47053071856498718 0.28464055061340332 0.093875132501125336
0.50800836086273193 0.28510183095932007 0.091963119804859161
0.54582071304321289 0.28836798667907715 0.08929106593132019
0.58375638723373413 0.28856220841407776 0.085446327924728394
0.62055325508117676 0.28856220841407776 0.079724922776222229
0.65623676776885986 0.28856220841407776 0.074148111045360565
0.69180792570114136 0.28639122843742371 0.078249752521514893
0.72521120309829712 0.28143131732940674 0.089563697576522827
0.75795727968215942 0.27516579627990723 0.10167873650789261
0.79104697704315186 0.26784393191337585 0.11339983344078064
0.82258337736129761 0.260306715965271 0.12508317828178406
0.85394805669784546 0.25121673941612244 0.13709907233715057
0.88511604070663452 0.24051973223686218 0.14983846247196198
0.91501450538635254 0.22918784618377686 0.16321295499801636
0.94469708204269409 0.21555911004543304 0.17711764574050903
0.9731142520904541 0.19972485303878784 0.19061166048049927
0.99594956636428833 0.18053342401981354 0.2052459716796875
0.11627066135406494 0.29550546407699585 0.10686268657445908
0.12026824057102203 0.29574123024940491 0.10692667216062546
0.12515340745449066 0.29575580358505249 0.10697346925735474
0.13232676684856415 0.29618486762046814 0.10701248794794083
0.14601612091064453 0.29765594005584717 0.10705108940601349
0.16638341546058655 0.29946210980415344 0.10721840709447861
0.18908509612083435 0.2998708188533783 0.10726208239793777
0.21283061802387238 0.30215230584144592 0.10729327797889709
0.23845520615577698 0.30361658334732056 0.10725428909063339
0.26452866196632385 0.30539995431900024 0.10711308568716049
0.29080018401145935 0.30747827887535095 0.10669727623462677
0.31822198629379272 0.30929538607597351 0.10633955895900726
0.34599912166595459 0.31143385171890259 0.10575639456510544
0.37567633390426636 0.3127080500125885 0.10510446131229401
0.40801852941513062 0.31535947322845459 0.10374582558870316
0.4421183168888092 0.31657099723815918 0.10300974547863007
0.47814163565635681 0.31928104162216187 0.10171369463205338
0.51555365324020386 0.32003328204154968 0.099705718457698822
0.55291628837585449 0.32318684458732605 0.097096860408782959
0.59043937921524048 0.3232024610042572 0.093542471528053284
0.62645417451858521 0.32322433590888977 0.088341936469078064
0.66253870725631714 0.3234037458896637 0.082178838551044464
0.69821828603744507 0.32345440983772278 0.075844109058380127
0.73222309350967407 0.3202880322933197 0.079820342361927032
0.76528692245483398 0.31386926770210266 0.091315433382987976
0.79762840270996094 0.30608955025672913 0.10333453863859177
0.82936781644821167 0.29762792587280273 0.11562728136777878
0.86049884557723999 0.28791162371635437 0.12806117534637451
0.8913232684135437 0.27648848295211792 0.14106824994087219
