Textures/35.cube
# Created by: G'MIC (https://gmic.eu)
TITLE "Agfa_Ultra_Color_100.cube"
# LUT size
LUT_3D_SIZE 5
# Data domain
DOMAIN_MIN 0.0 0.0 0.0
DOMAIN_MAX 1.0 1.0 1.0
# LUT data points
0.0040155500173568726 0.0056475303135812283 0.00296747125685215
0.1222040131688118 0 0.0013979538343846798
0.32144293189048767 0 0
0.63581079244613647 0 0
0.86549896001815796 0 0
0.11592361330986023 0.20929995179176331 0.046621371060609818
0.19477128982543945 0.17785979807376862 0.041394826024770737
0.41400828957557678 0.093294151127338409 0.019613070413470268
0.7070353627204895 0 0.0021514694672077894
0.90360516309738159 0 0.0088896490633487701
0.095133647322654724 0.58443456888198853 0.089937560260295868
0.2703653872013092 0.5623481273651123 0.087453506886959076
0.56119155883789062 0.49115058779716492 0.073822878301143646
0.85236847400665283 0.37876483798027039 0.058247115463018417
1 0.24506981670856476 0.093353264033794403
0.34432822465896606 0.90222454071044922 0.00024512503296136856
0.48017483949661255 0.88300168514251709 0.0055641983635723591
0.74697595834732056 0.8286861777305603 0.030164601281285286
0.98423993587493896 0.76157748699188232 0.057013753801584244
1 0.68523609638214111 0.1186908632516861
0.81593078374862671 1 0
0.87271738052368164 1 0
0.98966574668884277 1 0
1 0.98611479997634888 0
1 0.93888682126998901 6.2416092987405136e-06
0 0.00081951089669018984 0.12137095630168915
0.079152047634124756 0 0.11248233169317245
0.29140302538871765 0 0.090569540858268738
0.60170501470565796 0 0.063082009553909302
0.81966096162796021 0 0.099458359181880951
0.088451296091079712 0.19022937119007111 0.16259455680847168
0.15974874794483185 0.15767289698123932 0.15786950290203094
0.38461661338806152 0.070750974118709564 0.13986609876155853
0.66779971122741699 0 0.11697077006101608
0.85382449626922607 0 0.14967831969261169
0.037443675100803375 0.57601678371429443 0.19721026718616486
0.22366553544998169 0.55245143175125122 0.19477726519107819
0.5304642915725708 0.48023819923400879 0.18417078256607056
0.81227535009384155 0.36926183104515076 0.18449302017688751
0.99096578359603882 0.23458628356456757 0.23410819470882416
0.27531036734580994 0.90220391750335693 0.18078714609146118
0.42961388826370239 0.88321614265441895 0.17963431775569916
0.70620393753051758 0.82963556051254272 0.17938527464866638
0.93684065341949463 0.76480937004089355 0.21021734178066254
1 0.68906676769256592 0.29288175702095032
0.77800947427749634 1 0.011810683645308018
0.83242577314376831 1 0.01102263480424881
0.95083093643188477 1 0.014048601500689983
1 0.99260097742080688 0.059319838881492615
1 0.94876348972320557 0.24151287972927094
0 0 0.29808008670806885
0.021710753440856934 0 0.29802817106246948
0.243956059217453 0 0.28538164496421814
0.54625874757766724 0 0.26812306046485901
0.75917249917984009 0 0.29982876777648926
0.021532567217946053 0.15863639116287231 0.37320095300674438
0.090368643403053284 0.12457818537950516 0.37278732657432556
0.31707316637039185 0.03373027965426445 0.3588603138923645
0.58927339315414429 0 0.34156322479248047
0.77070969343185425 0 0.36716228723526001
0 0.54993152618408203 0.46351274847984314
0.06641116738319397 0.52464991807937622 0.46071937680244446
0.45001110434532166 0.4497220516204834 0.44988864660263062
0.72317934036254883 0.33968833088874817 0.44535687565803528
0.90342867374420166 0.19905528426170349 0.47053751349449158
0.00040401908336207271 0.90059351921081543 0.52241724729537964
0.25390225648880005 0.88124555349349976 0.5203889012336731
0.59541440010070801 0.82867270708084106 0.51436614990234375
0.83173239231109619 0.76683032512664795 0.52286648750305176
1 0.68922722339630127 0.55401694774627686
0.65146219730377197 1 0.46887597441673279
0.70528674125671387 1 0.46899417042732239
0.82394754886627197 1 0.47540050745010376
0.97201085090637207 0.99960488080978394 0.49658232927322388
1 0.96608299016952515 0.5602186918258667
0 0 0.57436507940292358
0 0 0.57199317216873169
0.17309075593948364 0 0.55294644832611084
0.46972352266311646 0 0.52586585283279419
0.68689429759979248 0 0.52613359689712524
0 0.093259446322917938 0.65165859460830688
0.0083644632250070572 0.053913336247205734 0.64476257562637329
0.22610001266002655 8.0608966527506709e-05 0.61970877647399902
0.48966726660728455 0 0.58666783571243286
0.67692214250564575 0 0.57345032691955566
0 0.48282173275947571 0.73187363147735596
0.029512025415897369 0.45518749952316284 0.72382581233978271
0.37972155213356018 0.37689027190208435 0.69922029972076416
0.63523602485656738 0.26631268858909607 0.67338109016418457
0.81438428163528442 0.10974206775426865 0.65954720973968506
0 0.88004273176193237 0.78878241777420044
0.083809420466423035 0.86064374446868896 0.78140288591384888
0.50953280925750732 0.81115448474884033 0.76395201683044434
0.75101792812347412 0.75045603513717651 0.75088560581207275
0.95465117692947388 0.66994196176528931 0.74807775020599365
0.52787619829177856 1 0.79378396272659302
0.58381080627441406 1 0.79052251577377319
0.70949834585189819 1 0.7833869457244873
0.87031847238540649 1 0.77660483121871948
1 0.97838765382766724 0.78750449419021606
0 0 0.79827892780303955
0 0 0.78219705820083618
0.14559601247310638 0 0.75201809406280518
0.42267772555351257 0 0.71615540981292725
0.63498353958129883 0 0.69888776540756226
0 2.0427083654794842e-05 0.83911764621734619
0 0 0.82615435123443604
0.16945561766624451 0 0.79534149169921875
0.4202226996421814 0 0.7621186375617981
0.62436896562576294 0 0.74283593893051147
0.030472833663225174 0.31701177358627319 0.90544295310974121
0.10593767464160919 0.28603670001029968 0.89531713724136353
0.3557007908821106 0.19854477047920227 0.86579829454421997
0.55124521255493164 0.08005765825510025 0.83543384075164795
0.70700186491012573 2.0214014512021095e-05 0.80634558200836182
0.0035402283538132906 0.80865108966827393 0.97046172618865967
0.21518179774284363 0.78985649347305298 0.96202957630157471
0.49094635248184204 0.74575281143188477 0.94468134641647339
0.70359444618225098 0.68429195880889893 0.9248969554901123
0.89070874452590942 0.59400355815887451 0.90444225072860718
0.49712264537811279 1 0.99967330694198608
0.54510349035263062 1 0.99915927648544312
0.65949535369873047 1 0.99452853202819824
0.8084414005279541 0.99941134452819824 0.98404240608215332
0.97736704349517822 0.9763985276222229 0.97614485025405884
