Textures/35.cube
# Created by: G'MIC (https://gmic.eu)
TITLE "Agfa_Ultra_Color_100.cube"
# LUT size
LUT_3D_SIZE 33
# Data domain
DOMAIN_MIN 0.0 0.0 0.0
DOMAIN_MAX 1.0 1.0 1.0
# LUT data points
0.0040155500173568726 0.0056475303135812283 0.00296747125685215
0.014413576573133469 0.0031400020234286785 0.0025555705651640892
0.026993855834007263 0.0017491854960098863 0.0024637402966618538
0.041410230100154877 0.00090142653789371252 0.0022131719160825014
0.057305678725242615 0.00032718805596232414 0.0019514483865350485
0.073222994804382324 7.8020122600719333e-05 0.0017583674052730203
0.087827764451503754 0 0.0017146874452009797
0.10511715710163116 0 0.0015906558837741613
0.1222040131688118 0 0.0013979538343846798
0.13989661633968353 0 0.0010679466649889946
0.15874095261096954 0 0.00078161916462704539
0.18047025799751282 0 0.00049223605310544372
0.20331276953220367 0 0.00023945083376020193
0.22841937839984894 0 8.8091815996449441e-05
0.25646978616714478 0 5.6741905609669629e-06
0.28722837567329407 0 0
0.32144293189048767 0 0
0.35891175270080566 0 0
0.39707490801811218 0 0
0.43608906865119934 0 0
0.47562521696090698 0 0
0.51702415943145752 0 0
0.5594332218170166 0 0
0.5990217924118042 0 0
0.63581079244613647 0 0
0.66944897174835205 0 0
0.70084148645401001 0 0
0.73072946071624756 0 0
0.75928926467895508 0 0
0.78694432973861694 0 0
0.81409138441085815 0 0
0.84041398763656616 0 0
0.86549896001815796 0 0
0.013318431563675404 0.0262265894562006 0.0059610106982290745
0.024710651487112045 0.020777588710188866 0.0053652850911021233
0.039801627397537231 0.01685180701315403 0.0050298688001930714
0.056891735643148422 0.012956487014889717 0.0046118632890284061
0.073511488735675812 0.0096516311168670654 0.0043263304978609085
0.088559426367282867 0.0070826951414346695 0.0040595321916043758
0.1038002148270607 0.0045928708277642727 0.0037147251423448324
0.1204664409160614 0.002471220213919878 0.0034650906454771757
0.13679689168930054 0.00098339782562106848 0.0029737371951341629
0.15483400225639343 0.00017788587138056755 0.0027768178842961788
0.17367714643478394 0 0.002428531413897872
0.19501857459545135 0 0.0019810663070529699
0.21752868592739105 0 0.0015690443105995655
0.24217130243778229 0 0.00094085169257596135
0.26986974477767944 0 0.00040691040339879692
0.3000829815864563 0 8.0147947301156819e-05
0.33399036526679993 0 0
0.37074902653694153 0 0
0.40836015343666077 0 0
0.44647210836410522 0 0
0.48544630408287048 0 0
0.52597284317016602 0 0
0.56680929660797119 0 0
0.60497564077377319 0 0
0.6400415301322937 0 0
0.67213404178619385 0 0
0.70181107521057129 0 0
0.73041075468063354 0 0
0.75796544551849365 0 0
0.78518593311309814 0 0
0.81221377849578857 0 0
0.83826726675033569 0 0
0.86336499452590942 0 0
0.024971425533294678 0.051259912550449371 0.0083577418699860573
0.035329233855009079 0.045741137117147446 0.0076756640337407589
0.048495262861251831 0.040519382804632187 0.0072208507917821407
0.065412141382694244 0.035068735480308533 0.0067313197068870068
0.081815190613269806 0.030020182952284813 0.0065222466364502907
0.09698854386806488 0.025146661326289177 0.0062698647379875183
0.11285486072301865 0.020231207832694054 0.0061337416991591454
0.12989595532417297 0.015511925332248211 0.0057729454711079597
0.14671757817268372 0.011183254420757294 0.0052863950841128826
0.16457551717758179 0.0075720557942986488 0.0045696613378822803
0.18377058207988739 0.0042881905101239681 0.0040777954272925854
0.20523616671562195 0.0017684504855424166 0.0033448925241827965
0.22802144289016724 0.00033725897083058953 0.002748667960986495
0.25276029109954834 6.631709766224958e-06 0.0022887617815285921
0.28019535541534424 0 0.0016292274231091142
0.31045457720756531 0 0.00077317946124821901
0.34443679451942444 0 0.00017026116256602108
0.38119345903396606 0 2.8370952804834815e-06
0.41825783252716064 0 0
0.45629057288169861 0 0
0.49536648392677307 0 0
0.53574454784393311 0 0
0.57654345035552979 0 0
0.61423242092132568 0 0
0.64891946315765381 0 0
0.68065881729125977 0 0
0.70983856916427612 0 0
0.73729926347732544 0 0
0.76321178674697876 0 0
0.78757786750793457 0 0
0.81299418210983276 0 0
0.83759385347366333 0 0
0.86229544878005981 0 0
0.040032904595136642 0.077254757285118103 0.012134122662246227
0.04933542013168335 0.072672106325626373 0.011765124276280403
0.05910198763012886 0.06810210645198822 0.011332693509757519
0.072404325008392334 0.063017040491104126 0.010836934670805931
0.08884652704000473 0.057361375540494919 0.010313405655324459
0.10426431149244308 0.051963750272989273 0.0099202487617731094
0.12080689519643784 0.046083167195320129 0.0095009468495845795
0.13788609206676483 0.038889504969120026 0.0090079158544540405
0.1550849974155426 0.032453503459692001 0.0083556175231933594
0.17353460192680359 0.025782421231269836 0.0074559831991791725
0.19310300052165985 0.019269926473498344 0.0067530893720686436
0.21495234966278076 0.013667869381606579 0.0058585749939084053
0.23800702393054962 0.0084421653300523758 0.0048381383530795574
0.26298254728317261 0.0042697298340499401 0.0039864652790129185
0.29062390327453613 0.0016549405409023166 0.0029461125377565622
0.32086589932441711 0.00029917171923443675 0.0021630928386002779
0.35490956902503967 0 0.0011665757047012448
0.39147403836250305 0 0.00039751254371367395
0.42817303538322449 0 7.6176002039574087e-05
0.46613717079162598 0 7.0927382012087037e-07
0.5051417350769043 0 0
0.54521578550338745 0 0
0.58573627471923828 0 0
0.62306720018386841 0 0
0.65754479169845581 0 0
0.6892235279083252 0 0
0.71825051307678223 0 0
0.74559891223907471 0 0
0.77142411470413208 0 0
0.79576027393341064 0 0
0.81998312473297119 0 0
0.84251224994659424 0 0
0.86394518613815308 0 0
0.056098226457834244 0.10152943432331085 0.017448371276259422
0.063876897096633911 0.097849138081073761 0.016818054020404816
0.072141110897064209 0.093812063336372375 0.016477180644869804
0.082274913787841797 0.089052468538284302 0.015791090205311775
0.095502391457557678 0.084102421998977661 0.015199689194560051
0.11052693426609039 0.079050563275814056 0.014473534189164639
0.12755092978477478 0.072937741875648499 0.013833877630531788
0.14480356872081757 0.066158078610897064 0.013147369027137756
0.16255581378936768 0.059038251638412476 0.012517224065959454
0.18137742578983307 0.051445659250020981 0.011816271580755711
0.20147441327571869 0.043153710663318634 0.010848093777894974
0.22374825179576874 0.034318413585424423 0.0096382498741149902
0.24729132652282715 0.026037458330392838 0.0081276092678308487
0.27280837297439575 0.018045227974653244 0.0069822785444557667
0.30057260394096375 0.011415569111704826 0.0055964989587664604
0.33088290691375732 0.0059563447721302509 0.0041520115919411182
0.36529183387756348 0.0013368924846872687 0.0026218737475574017
0.40167698264122009 0 0.0016985944239422679
0.43804338574409485 0 0.00098064192570745945
0.47571185231208801 0 0.00028917094459757209
0.51462185382843018 0 1.0213541827397421e-05
0.55454909801483154 0 0
0.59491056203842163 0 0
0.63180100917816162 0 0
0.66583514213562012 0 0
0.69724708795547485 0 0
0.72594135999679565 0 0
0.75306934118270874 0 0
0.77870631217956543 0 0
0.80320179462432861 0 0
0.82746106386184692 0 0
0.84974122047424316 0 0
0.8708915114402771 0 0
0.072029858827590942 0.12459033727645874 0.02422824315726757
0.078552596271038055 0.12164977192878723 0.023516368120908737
0.085673168301582336 0.1181773915886879 0.022783046588301659
0.094457030296325684 0.11398391425609589 0.022054016590118408
0.10385113954544067 0.10961619019508362 0.021248126402497292
0.11678149551153183 0.10469326376914978 0.020474337041378021
0.1345384269952774 0.098762348294258118 0.019994154572486877
0.15171517431735992 0.092444457113742828 0.019201567396521568
0.16974779963493347 0.085421189665794373 0.018353927880525589
0.18899959325790405 0.077988907694816589 0.017064092680811882
0.20961466431617737 0.069504275918006897 0.016080087050795555
0.2322867214679718 0.060314841568470001 0.01465294323861599
0.25632005929946899 0.050879295915365219 0.012612632475793362
0.28197133541107178 0.040598925203084946 0.011043931357562542
0.31037867069244385 0.030075458809733391 0.009341064840555191
0.34102672338485718 0.019429177045822144 0.0075818030163645744
0.37578785419464111 0.0098229078575968742 0.0054522091522812843
0.41197302937507629 0.0029766832012683153 0.0036701948847621679
0.44806468486785889 0.00037630225415341556 0.0027594079729169607
0.48578399419784546 0 0.0016429245006293058
0.52442252635955811 0 0.00049922236939892173
0.56406933069229126 0 3.7024092307547107e-05
0.60399150848388672 0 0
0.64055168628692627 0 0
0.67414867877960205 0 0
0.70522964000701904 0 0
0.73368632793426514 0 0
0.76049196720123291 0 0
0.78610360622406006 0 0
0.81042927503585815 0 0
0.83438467979431152 0 0
0.85675537586212158 0 0
0.87766021490097046 0 0.00013263420260045677
0.089628778398036957 0.15164777636528015 0.031191356480121613
0.095033623278141022 0.14918807148933411 0.030852774158120155
0.10110959410667419 0.1460743248462677 0.030565673485398293
0.10858988761901855 0.14243148267269135 0.029492616653442383
0.11673200130462646 0.13850356638431549 0.028985511511564255
0.12704147398471832 0.13379101455211639 0.027935173362493515
0.1421869695186615 0.1280248612165451 0.026876550167798996
0.15917548537254333 0.1222122386097908 0.025888571515679359
0.17799808084964752 0.11536630243062973 0.024936176836490631
0.19762931764125824 0.10788020491600037 0.023785341531038284
0.21890704333782196 0.099754884839057922 0.022297240793704987
0.24193198978900909 0.090584270656108856 0.020606901496648788
0.26648139953613281 0.081202469766139984 0.018367145210504532
0.29286870360374451 0.070693269371986389 0.016228878870606422
0.32167351245880127 0.059061743319034576 0.014064540155231953
0.35288539528846741 0.044988885521888733 0.011901284568011761
0.38770696520805359 0.029980052262544632 0.0091842133551836014
0.42389723658561707 0.01743810810148716 0.0071988278068602085
0.45998305082321167 0.0086037684231996536 0.0057412008754909039
0.49771693348884583 0.0022065131925046444 0.0038380327168852091
0.53633356094360352 7.4899311584886163e-05 0.0021577386651188135
0.57558900117874146 0 0.00091822585090994835
0.61510854959487915 0 0.00011468957382021472
0.65112107992172241 0 0
0.68410408496856689 0 0
0.71482735872268677 0 0
0.74283617734909058 0 0
0.76952141523361206 0 0
0.79492419958114624 0 0
0.81911945343017578 0 0
0.84283715486526489 0 2.5959421691368334e-05
0.8649330735206604 0 0.0003170454001519829
0.88572245836257935 0 0.0014483281411230564
0.10691220313310623 0.17872543632984161 0.03926369920372963
0.11143437027931213 0.17629824578762054 0.039100639522075653
0.11679737269878387 0.1739785224199295 0.03871878981590271
0.12304388731718063 0.17093901336193085 0.037667136639356613
0.13096895813941956 0.16712118685245514 0.037270579487085342
0.14086757600307465 0.16224420070648193 0.035825442522764206
0.15196308493614197 0.15704546868801117 0.034990344196557999
0.16680619120597839 0.15156660974025726 0.03368653729557991
0.18611715734004974 0.14493907988071442 0.032743673771619797
0.20630498230457306 0.1375458687543869 0.031096644699573517
0.2281666100025177 0.12958738207817078 0.029303869232535362
0.25198397040367126 0.12044423073530197 0.027352737262845039
0.27690467238426208 0.11120595037937164 0.024962408468127251
0.30369934439659119 0.10083001852035522 0.022301206365227699
0.33319699764251709 0.088982850313186646 0.019692251458764076
0.3652205765247345 0.075107678771018982 0.016972733661532402
0.40017595887184143 0.058893430978059769 0.013836435042321682
0.43622457981109619 0.043019868433475494 0.011349977925419807
0.4725530743598938 0.02813921682536602 0.0092116910964250565
0.51017522811889648 0.01478208415210247 0.0069328662939369678
0.54860341548919678 0.0053411386907100677 0.004787021316587925
0.58781319856643677 0.000753094966057688 0.0029359844047576189
0.62677431106567383 0 0.0014580187853425741
0.66230744123458862 0 0.00065792241366580129
0.69467180967330933 0 0.00021788894082419574
0.72508716583251953 0 6.8090281274635345e-05
0.75258606672286987 0 6.8090288550592959e-05
0.77884942293167114 0 6.8090281274635345e-05
0.80404764413833618 0 0.0001523520186310634
0.82815289497375488 0 0.00042308185948058963
0.85155075788497925 0 0.0010657549137249589
0.87347376346588135 0 0.0022142860107123852
0.89406490325927734 0 0.004444674588739872
0.11592361330986023 0.20929995179176331 0.046621371060609818
0.12081553786993027 0.20799641311168671 0.046299926936626434
0.1265428364276886 0.20544958114624023 0.046026065945625305
0.1344376802444458 0.20271408557891846 0.045721419155597687
0.14416046440601349 0.19892829656600952 0.045243732631206512
0.15448281168937683 0.19439002871513367 0.044459734112024307
0.16517379879951477 0.18961116671562195 0.043501392006874084
0.17775605618953705 0.18415103852748871 0.042611423879861832
0.19477128982543945 0.17785979807376862 0.041394826024770737
0.21589653193950653 0.17071035504341125 0.039878465235233307
0.23835799098014832 0.16281352937221527 0.03750813752412796
0.26276910305023193 0.15393176674842834 0.035282187163829803
0.28840163350105286 0.14429700374603271 0.032546807080507278
0.31581798195838928 0.13421288132667542 0.029877562075853348
0.34625348448753357 0.12202709913253784 0.026792652904987335
0.37890464067459106 0.10862477123737335 0.023219017311930656
0.41400828957557678 0.093294151127338409 0.019613070413470268
0.44997736811637878 0.077056281268596649 0.016823587939143181
0.48650234937667847 0.059992577880620956 0.013792502693831921
0.52438604831695557 0.042152576148509979 0.010947528295218945
0.56266415119171143 0.025709381327033043 0.0082570696249604225
0.60160934925079346 0.012573306448757648 0.0059434846043586731
0.64003682136535645 0.0042266994714736938 0.0041064904071390629
0.67512029409408569 0.00057705602375790477 0.0028200712986290455
0.7070353627204895 0 0.0021514694672077894
0.73679280281066895 0 0.0017215795814990997
0.76370668411254883 0 0.0018585794605314732
0.78999125957489014 0 0.0016895243898034096
0.81484270095825195 0 0.0020235150586813688
0.83845400810241699 0 0.0026538828387856483
0.8615148663520813 0 0.0040211477316915989
0.8832586407661438 0 0.0057803443633019924
0.90360516309738159 0 0.0088896490633487701
0.11279139667749405 0.24421031773090363 0.054575998336076736
0.11764860898256302 0.24279308319091797 0.05441722646355629
0.12380637973546982 0.24056021869182587 0.05416429415345192
0.13315550982952118 0.2378806471824646 0.053675003349781036
0.14445741474628448 0.23421745002269745 0.052955720573663712
0.15626166760921478 0.23014967143535614 0.052213013172149658
0.16927190124988556 0.22551420331001282 0.051337350159883499
0.18492825329303741 0.22034202516078949 0.050313595682382584
0.2038654237985611 0.21440048515796661 0.049025844782590866
0.22581890225410461 0.20741480588912964 0.047574948519468307
0.24915389716625214 0.19969160854816437 0.04587182030081749
0.27432072162628174 0.19085438549518585 0.043406784534454346
0.30068889260292053 0.18146152794361115 0.041071444749832153
0.3292485773563385 0.17073357105255127 0.038266267627477646
0.36027997732162476 0.15865831077098846 0.034984894096851349
0.39356949925422668 0.14550673961639404 0.030742336064577103
0.42911776900291443 0.13099713623523712 0.026698267087340355
0.46541911363601685 0.11528351902961731 0.023243563249707222
0.50187814235687256 0.098377108573913574 0.019631791859865189
0.53983974456787109 0.08062329888343811 0.016017884016036987
0.57826858758926392 0.061673421412706375 0.012963650748133659
0.61702466011047363 0.042985331267118454 0.0099312588572502136
0.65511232614517212 0.025524862110614777 0.007638898678123951
0.68955665826797485 0.0128208938986063 0.0060670496895909309
0.72100305557250977 0.0046497187577188015 0.0053100087679922581
0.75002944469451904 0.0014919470995664597 0.0050264578312635422
0.77670270204544067 0.00010153253970202059 0.0049912873655557632
0.80259859561920166 0 0.0049867480993270874
0.8270726203918457 0 0.0054948730394244194
0.85025382041931152 0 0.0065885456278920174
0.87319976091384888 0 0.0082069821655750275
0.89446383714675903 0 0.010719162411987782
0.91445428133010864 0 0.014951085671782494
0.11615507304668427 0.28320318460464478 0.06320306658744812
0.12029711902141571 0.28160321712493896 0.06317342072725296
0.12538857758045197 0.27937689423561096 0.062824167311191559
0.13205043971538544 0.27670466899871826 0.062215983867645264
0.14058434963226318 0.27346014976501465 0.061813060194253922
0.15378378331661224 0.26978260278701782 0.060969337821006775
0.17151550948619843 0.26522237062454224 0.060241490602493286
0.19087661802768707 0.26024553179740906 0.058995019644498825
0.21320892870426178 0.25434035062789917 0.057552054524421692
0.23616814613342285 0.24768783152103424 0.055839989334344864
0.26041302084922791 0.24014832079410553 0.053861323744058609
0.28668868541717529 0.23162934184074402 0.05145622044801712
0.31388840079307556 0.22234779596328735 0.049051467329263687
0.34355199337005615 0.21153104305267334 0.045920331031084061
0.37602332234382629 0.19931942224502563 0.042724791914224625
0.4099142849445343 0.18625210225582123 0.038861088454723358
0.44521725177764893 0.17197646200656891 0.034815609455108643
0.4822632372379303 0.15650768578052521 0.030490363016724586
0.518787682056427 0.14037080109119415 0.026335101574659348
0.55670028924942017 0.12290791422128677 0.022513633593916893
0.59551095962524414 0.10442192852497101 0.018700877204537392
0.63409143686294556 0.08574359118938446 0.015181474387645721
0.67161715030670166 0.066168844699859619 0.012526150792837143
0.70554006099700928 0.047775741666555405 0.010774812661111355
0.73635512590408325 0.031291469931602478 0.0095032192766666412
0.76488709449768066 0.018568096682429314 0.0091034155339002609
0.79132586717605591 0.0089627262204885483 0.0090047204867005348
0.81672215461730957 0.0020042126998305321 0.0092180976644158363
0.84102761745452881 0.00016852344560902566 0.0102533008903265
0.86386609077453613 0 0.011759297922253609
0.88618743419647217 0 0.01391058973968029
0.90720802545547485 0 0.01739007979631424
0.92684531211853027 0 0.022620571777224541
0.095526248216629028 0.32650786638259888 0.070675484836101532
0.10205431282520294 0.32456845045089722 0.070388399064540863
0.11040697991847992 0.32319945096969604 0.070287376642227173
0.12266294658184052 0.32059597969055176 0.069768190383911133
0.13780546188354492 0.31779059767723083 0.069553680717945099
0.15733435750007629 0.31390789151191711 0.068870723247528076
0.17761346697807312 0.30958637595176697 0.068083994090557098
0.19911295175552368 0.30473577976226807 0.0671067014336586
0.22255586087703705 0.29877445101737976 0.065454334020614624
0.24704146385192871 0.29229095578193665 0.063714638352394104
0.27265220880508423 0.28484994173049927 0.062115568667650223
0.29988926649093628 0.2766704261302948 0.060351818799972534
0.32833200693130493 0.26759874820709229 0.057830054312944412
0.35900318622589111 0.25694677233695984 0.054760042577981949
0.39300668239593506 0.24469077587127686 0.050806052982807159
0.4272468090057373 0.23180370032787323 0.046663783490657806
0.46351531147956848 0.21756160259246826 0.042609710246324539
0.50016272068023682 0.20266467332839966 0.038470271974802017
0.53724527359008789 0.18741786479949951 0.03442089632153511
0.57544267177581787 0.17008687555789948 0.030300028622150421
0.61430567502975464 0.15167573094367981 0.025897374376654625
0.65277063846588135 0.13311305642127991 0.022080473601818085
0.69006681442260742 0.1153041273355484 0.019060758873820305
0.72338151931762695 0.097037948668003082 0.016730738803744316
0.75341397523880005 0.078517653048038483 0.015731768682599068
0.78156119585037231 0.060253642499446869 0.01518761832267046
0.80796903371810913 0.043071761727333069 0.014771393500268459
0.83309608697891235 0.025903191417455673 0.015377973206341267
0.85688066482543945 0.013010155409574509 0.016436466947197914
0.87960356473922729 0.0051821460947394371 0.018548218533396721
0.90142786502838135 0.0011532345088198781 0.021754750981926918
0.92204451560974121 2.4966439013951458e-05 0.026244824752211571
0.9413069486618042 0 0.032729137688875198
0.097983069717884064 0.37261343002319336 0.077023692429065704
0.10583566129207611 0.37103480100631714 0.077023692429065704
0.11523616313934326 0.36964917182922363 0.077023692429065704
0.12860892713069916 0.36737126111984253 0.076862990856170654
0.14471226930618286 0.36460861563682556 0.076244644820690155
0.16263866424560547 0.36119815707206726 0.075809180736541748
0.18345314264297485 0.35696330666542053 0.075025171041488647
0.2065865695476532 0.3519805371761322 0.073833011090755463
0.23114116489887238 0.34629777073860168 0.072915822267532349
0.25712713599205017 0.33982884883880615 0.071478612720966339
0.28419086337089539 0.3325691819190979 0.069777049124240875
0.31298065185546875 0.32423615455627441 0.067464515566825867
0.34279724955558777 0.31525179743766785 0.064806990325450897
0.37514132261276245 0.30527704954147339 0.062100496143102646
0.40959855914115906 0.2934950590133667 0.058593463152647018
0.44454818964004517 0.28064504265785217 0.055097043514251709
0.48201718926429749 0.26622000336647034 0.051009334623813629
0.51897865533828735 0.25194913148880005 0.046742897480726242
0.55618381500244141 0.23649640381336212 0.042467772960662842
0.59496521949768066 0.22015456855297089 0.03808969259262085
0.63437920808792114 0.20151874423027039 0.033652301877737045
0.67256873846054077 0.18404121696949005 0.030054353177547455
0.7086525559425354 0.16675129532814026 0.026931131258606911
0.7417457103729248 0.14957642555236816 0.024561582133173943
0.77154040336608887 0.1322789192199707 0.023721713572740555
0.79962742328643799 0.11394747346639633 0.022135727107524872
0.825694739818573 0.095910213887691498 0.022065509110689163
0.85059666633605957 0.077597267925739288 0.022936150431632996
0.87431567907333374 0.057893779128789902 0.02442997507750988
0.89674657583236694 0.039751332253217697 0.027107082307338715
0.91865050792694092 0.022730279713869095 0.030950261279940605
0.93883258104324341 0.0094319302588701248 0.037056036293506622
0.95768141746520996 0.0023402529768645763 0.044462710618972778
0.11370343714952469 0.42061352729797363 0.083117298781871796
0.12002889066934586 0.42020601034164429 0.083053335547447205
0.1277942955493927 0.41816291213035583 0.082986630499362946
0.1380791962146759 0.41633540391921997 0.082556754350662231
0.15282309055328369 0.41335880756378174 0.082142934203147888
0.17023399472236633 0.41045033931732178 0.081590726971626282
0.19061841070652008 0.40639227628707886 0.080798491835594177
0.21371926367282867 0.40188696980476379 0.079629987478256226
0.24038535356521606 0.39579522609710693 0.078572101891040802
0.26789173483848572 0.3897208571434021 0.077474623918533325
0.29633134603500366 0.38272938132286072 0.07596280425786972
0.32673379778862 0.37465190887451172 0.073592141270637512
0.35822880268096924 0.36592704057693481 0.071482479572296143
0.39117172360420227 0.35580903291702271 0.06866079568862915
0.42711246013641357 0.3446451723575592 0.065492331981658936
0.4634697437286377 0.33190122246742249 0.062158685177564621
0.50073927640914917 0.31848683953285217 0.057975657284259796
0.53851616382598877 0.30426019430160522 0.054821331053972244
0.57647693157196045 0.28971093893051147 0.050602030009031296
0.61557221412658691 0.27345812320709229 0.046600092202425003
0.65536779165267944 0.2566070556640625 0.042139589786529541
0.69330877065658569 0.23984403908252716 0.038388218730688095
0.72918182611465454 0.22306634485721588 0.035504452884197235
0.76159542798995972 0.20627017319202423 0.033279303461313248
0.79119837284088135 0.18928810954093933 0.03248295933008194
0.81911462545394897 0.17275157570838928 0.032029658555984497
0.84487241506576538 0.155901238322258 0.032119374722242355
0.86993008852005005 0.13781636953353882 0.033153742551803589
0.8934326171875 0.11885739117860794 0.035111576318740845
0.91596519947052002 0.099415309727191925 0.038054529577493668
0.93757271766662598 0.077949918806552887 0.042405925691127777
0.95782870054244995 0.055719740688800812 0.048407752066850662
