Textures/36.cube
# Created by: G'MIC (https://gmic.eu)
TITLE "Agfa_Vista_200.cube"
# LUT size
LUT_3D_SIZE 33
# Data domain
DOMAIN_MIN 0.0 0.0 0.0
DOMAIN_MAX 1.0 1.0 1.0
# LUT data points
0.0018297660863026977 0.0023762434720993042 0.0012849053600803018
0.010154029354453087 0.0018127317307516932 0.00087843573419377208
0.021270971745252609 0.0015817476669326425 0.00050979061052203178
0.036531217396259308 0.0012911389349028468 0.00038924947148188949
0.055033721029758453 0.00095839961431920528 0.00015518910367973149
0.074310891330242157 0.00073019741103053093 6.4685766119509935e-05
0.094855330884456635 0.00050705991452559829 1.1348381121933926e-05
0.11995804309844971 0.00031491756089963019 0
0.14748011529445648 0.00018256710609421134 0
0.17950795590877533 6.3976505771279335e-05 0
0.21454188227653503 0 0
0.25458335876464844 0 0
0.2966914176940918 0 0
0.34026733040809631 0 0
0.3854561448097229 0 0
0.4298209547996521 0 0
0.47481885552406311 0 0
0.52060437202453613 0 0
0.56539219617843628 0 0
0.60873985290527344 0 0
0.6484033465385437 0 0
0.68504750728607178 0 0
0.71898472309112549 0 0
0.7504921555519104 0 0
0.78058648109436035 0 0
0.81027388572692871 0 0
0.8392220139503479 0 0
0.86752837896347046 0 0
0.89581179618835449 0 0
0.92361629009246826 0 0
0.95146244764328003 0 0
0.97857272624969482 0 0
0.99830955266952515 0 0
0.0055890078656375408 0.013464360497891903 0.0032826436217874289
0.013673211447894573 0.012154826894402504 0.00270851980894804
0.025550739839673042 0.011284311302006245 0.002290789969265461
0.042086534202098846 0.010340351611375809 0.0019647015724331141
0.060787782073020935 0.0096351085230708122 0.0016190189635381103
0.079817205667495728 0.0087897311896085739 0.0011909061577171087
0.100645512342453 0.008027941919863224 0.00066767493262887001
0.125912144780159 0.0072129522450268269 0.00021207286044955254
0.15339593589305878 0.0061194933950901031 2.7661673811962828e-05
0.18518823385238647 0.0052075516432523727 0
0.220338374376297 0.0041750888340175152 0
0.26017454266548157 0.0037054570857435465 0
0.30196508765220642 0.0034826602786779404 0
0.34541070461273193 0.00281748385168612 0
0.39010283350944519 0.0012356968363747001 0
0.43401935696601868 0.00074526952812448144 0
0.47861209511756897 0.0002246979420306161 0
0.52388036251068115 0 0
0.56799542903900146 0 0
0.61051434278488159 0 0
0.64934474229812622 0 0
0.68517804145812988 0 0
0.71843433380126953 0 0
0.74956536293029785 0 0
0.77946704626083374 0 0
0.80901873111724854 0 0
0.83785879611968994 0 0
0.86624282598495483 0 0
0.89431631565093994 0 0
0.92226225137710571 0 0
0.94990992546081543 0 0
0.9769514799118042 0 0
0.99803924560546875 0 0
0.011035146191716194 0.029101431369781494 0.0058912052772939205
0.018660459667444229 0.027345042675733566 0.005222235806286335
0.028777984902262688 0.026420785114169121 0.0045259734615683556
0.045465629547834396 0.025167915970087051 0.0038941130042076111
0.064496681094169617 0.023472638800740242 0.0033039399422705173
0.083571784198284149 0.02240825816988945 0.0026526858564466238
0.10479170829057693 0.020922824740409851 0.0021452335640788078
0.13051208853721619 0.019112125039100647 0.0015189070254564285
0.15814226865768433 0.017767781391739845 0.00078119424870237708
0.19017341732978821 0.016141928732395172 0.00015894825628492981
0.22556810081005096 0.014575861394405365 2.1278212898323545e-06
0.26548323035240173 0.013415256515145302 0
0.30708137154579163 0.012457010336220264 0
0.35037758946418762 0.010780935175716877 0
0.39477032423019409 0.0080070020630955696 0
0.43871763348579407 0.0067255008034408092 0
0.48319560289382935 0.0053446218371391296 0
0.52817261219024658 0.0030589522793889046 0
0.57207340002059937 0.0018024325836449862 0
0.61447155475616455 0.0011907643638551235 0
0.65312963724136353 0.00031399552244693041 0
0.68874192237854004 7.4119111559411976e-06 0
0.72163689136505127 0 0
0.7519296407699585 0 0
0.78108930587768555 0 0
0.8097032904624939 0 0
0.83775466680526733 0 0
0.86566358804702759 0 0
0.89374333620071411 0 0
0.92143315076828003 0 0
0.94920814037322998 0 0
0.97618895769119263 0 0
0.99764150381088257 0 0
0.018692584708333015 0.050637122243642807 0.0097460830584168434
0.026177143678069115 0.049367476254701614 0.0090348273515701294
0.035950500518083572 0.047816861420869827 0.0082739563658833504
0.049523305147886276 0.04618309810757637 0.0074169933795928955
0.067891567945480347 0.044543024152517319 0.0065868943929672241
0.087081834673881531 0.042732611298561096 0.0056598321534693241
0.10934722423553467 0.040921431034803391 0.0047045736573636532
0.13531370460987091 0.038478557020425797 0.0035061424132436514
0.16318881511688232 0.036201208829879761 0.0024685258977115154
0.19560031592845917 0.033662132918834686 0.001571463537402451
0.23141427338123322 0.031424332410097122 0.00054450955940410495
0.27108794450759888 0.029366366565227509 3.2768446544650942e-05
0.3128143846988678 0.027794830501079559 0
0.35590896010398865 0.024509992450475693 0
0.40019214153289795 0.020761089399456978 0
0.44363048672676086 0.018326098099350929 0
0.48801395297050476 0.015538887120783329 0
0.53299105167388916 0.012534026056528091 0
0.57654541730880737 0.0099018476903438568 0
0.61872309446334839 0.0078880302608013153 0
0.65726184844970703 0.0059264069423079491 0
0.69229507446289062 0.0034415298141539097 0
0.72531372308731079 0.0018136677099391818 0
0.75548988580703735 0.0016892420826479793 0
0.78450900316238403 0.00066724931821227074 0
0.81308388710021973 0 0
0.84037792682647705 0 0
0.8675079345703125 0 0
0.89439409971237183 0 0
0.92120802402496338 0 0
0.94851648807525635 0 0
0.97566092014312744 0 0
0.99721604585647583 0 0
0.0285683274269104 0.074620716273784637 0.014983729459345341
0.036411769688129425 0.073220416903495789 0.014130910858511925
0.045630142092704773 0.071932271122932434 0.013122773729264736
0.057413849979639053 0.070170633494853973 0.012059194967150688
0.071799993515014648 0.068401545286178589 0.010808443650603294
0.090483777225017548 0.066642783582210541 0.0098366094753146172
0.11406368762254715 0.064596571028232574 0.0085277985781431198
0.14010389149188995 0.061992540955543518 0.007211536169052124
0.1689150333404541 0.059306647628545761 0.0055439257994294167
0.2014777660369873 0.056439697742462158 0.003801524406298995
0.23770751059055328 0.053552776575088501 0.0023409212008118629
0.27749782800674438 0.050963766872882843 0.001007665297947824
0.31918445229530334 0.04836118221282959 0.00010061048669740558
0.36230376362800598 0.044316366314888 0
0.40598714351654053 0.039740625768899918 0
0.44914594292640686 0.036098755896091461 0
0.49364778399467468 0.03179144486784935 0
0.53812932968139648 0.027356971055269241 0
0.58146852254867554 0.023335956037044525 0
0.62333440780639648 0.019957203418016434 0
0.66151714324951172 0.016061224043369293 0
0.69628190994262695 0.012467795982956886 0
0.72909170389175415 0.0094936927780508995 0
0.75898164510726929 0.0079705649986863136 0
0.78791815042495728 0.0057076150551438332 0
0.81636732816696167 0.0022407465148717165 0
0.84354472160339355 0.00046641851076856256 0
0.87066608667373657 0 0
0.89735555648803711 0 0
0.92345041036605835 0 0
0.94947415590286255 0 0
0.97553771734237671 0 0
0.99694144725799561 0 0
0.041294652968645096 0.10060848295688629 0.021885909140110016
0.048659726977348328 0.099452100694179535 0.020872555673122406
0.057128038257360458 0.098085060715675354 0.019959568977355957
0.068009346723556519 0.096436306834220886 0.018613932654261589
0.079866230487823486 0.094573415815830231 0.01729859970510006
0.095613390207290649 0.092680647969245911 0.015725539997220039
0.11946462839841843 0.090169899165630341 0.013876726850867271
0.14553642272949219 0.087589524686336517 0.01217472180724144
0.17513062059879303 0.084756448864936829 0.01002654992043972
0.20821648836135864 0.081729203462600708 0.0078235743567347527
0.24474000930786133 0.078394770622253418 0.0056718294508755207
0.28508844971656799 0.075372681021690369 0.0035309589002281427
0.32665732502937317 0.072273388504981995 0.001571355271153152
0.36943495273590088 0.067952685058116913 0.00031165490509010851
0.41287815570831299 0.063365660607814789 2.8370952804834815e-06
0.45561015605926514 0.058958485722541809 0
0.50004255771636963 0.053711168467998505 0
0.5441170334815979 0.048615477979183197 0
0.58717900514602661 0.04337533563375473 0
0.62838459014892578 0.038286026567220688 0
0.66619020700454712 0.032569140195846558 0
0.70058226585388184 0.027159545570611954 0
0.73321658372879028 0.022371288388967514 0
0.76286071538925171 0.019167022779583931 0
0.79170262813568115 0.014633096754550934 0
0.81984406709671021 0.0095876241102814674 0
0.8470415472984314 0.0062742289155721664 0
0.8740304708480835 0.0036257598549127579 0
0.90056204795837402 0.0019760155119001865 0
0.92652267217636108 0.0001746232301229611 0
0.95259910821914673 0 0
0.97749096155166626 0 0
0.99755758047103882 0 0
0.056975226849317551 0.13375785946846008 0.031107859686017036
0.063476704061031342 0.13268959522247314 0.029979607090353966
0.071141280233860016 0.13100606203079224 0.028957925736904144
0.080625608563423157 0.12979918718338013 0.027469279244542122
0.091905847191810608 0.12777850031852722 0.02588820643723011
0.10635168105363846 0.12583906948566437 0.023964004591107368
0.12584440410137177 0.12300063669681549 0.02156437560915947
0.15108436346054077 0.12051700055599213 0.019249975681304932
0.18228164315223694 0.11736859381198883 0.016502207145094872
0.21615314483642578 0.11405202746391296 0.013672926463186741
0.25321882963180542 0.11050739139318466 0.010660686530172825
0.29400014877319336 0.10672047734260559 0.0078466376289725304
0.33556786179542542 0.10326003283262253 0.0050170412287116051
0.37818080186843872 0.098745591938495636 0.0026777468156069517
0.42121228575706482 0.094094797968864441 0.00099181302357465029
0.4637216329574585 0.088768064975738525 0.00017753124120645225
0.50787222385406494 0.083183325827121735 0
0.55169785022735596 0.077672064304351807 0
0.59417390823364258 0.071658283472061157 0
0.63502258062362671 0.065793342888355255 0
0.67234975099563599 0.058957051485776901 0
0.70634013414382935 0.05184197798371315 0
0.73849523067474365 0.045798610895872116 0
0.76780182123184204 0.040283579379320145 0
0.79627281427383423 0.032563328742980957 0
0.82434368133544922 0.025275226682424545 0
0.85126751661300659 0.019145548343658447 0
0.87808859348297119 0.01409582793712616 0
0.90450781583786011 0.0099649978801608086 0
0.930442214012146 0.0054452968761324883 0
0.95630955696105957 0.001868127379566431 0
0.98113816976547241 0.00042148595093749464 0
0.99843788146972656 0 0
0.073704533278942108 0.16917979717254639 0.041660889983177185
0.079590417444705963 0.16827352344989777 0.04071410745382309
0.086075954139232635 0.16692772507667542 0.039753910154104233
0.094682507216930389 0.16553078591823578 0.038318824023008347
0.10579808801412582 0.16371181607246399 0.036522340029478073
0.12058228999376297 0.16148877143859863 0.034079868346452713
0.13780100643634796 0.1588909924030304 0.031379211694002151
0.15871937572956085 0.15624694526195526 0.028444388881325722
0.18949282169342041 0.15305979549884796 0.025154408067464828
0.22450239956378937 0.14956167340278625 0.02144598588347435
0.26239851117134094 0.14570829272270203 0.0176509078592062
0.30376750230789185 0.14159388840198517 0.013672157190740108
0.3455740213394165 0.13754551112651825 0.010120081715285778
0.38809734582901001 0.13290795683860779 0.0069947522133588791
0.4308038055896759 0.12804940342903137 0.0043095257133245468
0.47313466668128967 0.12244327366352081 0.0024101294111460447
0.51673209667205811 0.11660300195217133 0.00053855153964832425
0.56026381254196167 0.11038096249103546 1.2766928193741478e-05
0.60251301527023315 0.10366684943437576 0
0.64252543449401855 0.09722726047039032 0
0.67903006076812744 0.089640170335769653 0
0.71278327703475952 0.081853359937667847 0
0.74441462755203247 0.074851460754871368 0
0.77343332767486572 0.067658267915248871 0
0.80183309316635132 0.058761153370141983 0
0.82950574159622192 0.049693677574396133 0
0.85616135597229004 0.041069846600294113 0
0.88275444507598877 0.032908454537391663 0
0.9089425802230835 0.02492096833884716 0
0.93472528457641602 0.016895214095711708 0
0.96036434173583984 0.010652128607034683 0
0.98496085405349731 0.0059749800711870193 0
0.9990774393081665 0.0016372704412788153 0
0.077960006892681122 0.21017155051231384 0.052441596984863281
0.083717621862888336 0.2094075083732605 0.051746085286140442
0.090714417397975922 0.20833276212215424 0.050920683890581131
0.10127222537994385 0.20693695545196533 0.049443464726209641
0.11489173024892807 0.20517253875732422 0.04782799631357193
0.13146981596946716 0.20289279520511627 0.045449096709489822
0.14895933866500854 0.20054507255554199 0.042874712496995926
0.17007803916931152 0.19794467091560364 0.039701208472251892
0.19688794016838074 0.19476607441902161 0.035951532423496246
0.23320105671882629 0.19129873812198639 0.031539969146251678
0.27212139964103699 0.18735024333000183 0.02667517215013504
0.31392648816108704 0.18318569660186768 0.021929400041699409
0.3564402163028717 0.17852078378200531 0.017685085535049438
0.39884623885154724 0.17366819083690643 0.013658123090863228
0.44137275218963623 0.16874413192272186 0.0099546955898404121
0.48373743891716003 0.1632678210735321 0.0066674952395260334
0.52691948413848877 0.15726713836193085 0.0038779866881668568
0.57036381959915161 0.1505448967218399 0.0014529097825288773
0.61217927932739258 0.14310693740844727 0.00013788281648885459
0.65176916122436523 0.13561190664768219 0
0.68749469518661499 0.12775591015815735 0
0.72059965133666992 0.1193278580904007 0
0.75177001953125 0.11120209097862244 0
0.78065437078475952 0.10281472653150558 0
0.80851262807846069 0.093128316104412079 0
0.8359113335609436 0.082884013652801514 0
0.86228859424591064 0.07310602068901062 0
0.88860040903091431 0.062901794910430908 0
0.91459566354751587 0.051583614200353622 0
0.94001871347427368 0.040105398744344711 0
0.96542179584503174 0.029237037524580956 0
0.98940747976303101 0.019454564899206161 0
0.99987781047821045 0.010976321995258331 0
0.078648291528224945 0.25546997785568237 0.064885690808296204
0.08266940712928772 0.2547452449798584 0.064117655158042908
0.088510408997535706 0.25377011299133301 0.063186176121234894
0.096993856132030487 0.2523353099822998 0.061752159148454666
0.10815116763114929 0.250588059425354 0.059811584651470184
0.12337090075016022 0.24855753779411316 0.057777736335992813
0.14310231804847717 0.24637787044048309 0.054970480501651764
0.16876249015331268 0.24377869069576263 0.051670316606760025
0.2026502937078476 0.240891233086586 0.04772549495100975
0.2414538711309433 0.23758514225482941 0.043172653764486313
0.28199714422225952 0.2338717132806778 0.037855461239814758
0.32451722025871277 0.22959639132022858 0.032394338399171829
0.36732634902000427 0.22503167390823364 0.027098082005977631
0.40989929437637329 0.22017252445220947 0.022124540060758591
0.45264068245887756 0.2151024341583252 0.017418043687939644
0.49504515528678894 0.20967487990856171 0.012920130975544453
0.53812199831008911 0.20382608473300934 0.0089998003095388412
0.58115822076797485 0.19688147306442261 0.0059080338105559349
0.62251138687133789 0.18910825252532959 0.0032708649523556232
0.66180074214935303 0.18110686540603638 0.0010254679946228862
0.6969795823097229 0.17318782210350037 0.00010507892147870734
0.72962617874145508 0.16427880525588989 0
0.76043379306793213 0.15518049895763397 0
0.78896766901016235 0.14583513140678406 0
0.81663417816162109 0.13574402034282684 0
0.84370517730712891 0.12456362694501877 0
0.86987131834030151 0.11329178512096405 0
0.89589893817901611 0.10160306096076965 0
0.92151737213134766 0.088436327874660492 0
0.94651222229003906 0.075064234435558319 0
0.97168904542922974 0.060961704701185226 0
0.99347913265228271 0.046478006988763809 0
1 0.031533591449260712 0
0.064379438757896423 0.30254724621772766 0.076334446668624878
0.069755837321281433 0.30185729265213013 0.07577747106552124
0.076314404606819153 0.30090394616127014 0.074561640620231628
0.085857637226581573 0.29954713582992554 0.073312722146511078
0.098387040197849274 0.29801556468009949 0.071741901338100433
0.11259728670120239 0.29647988080978394 0.069612368941307068
0.13399595022201538 0.29424908757209778 0.066950336098670959
0.16764324903488159 0.29190787672996521 0.063790693879127502
0.20846247673034668 0.28932979702949524 0.059954222291707993
0.24939212203025818 0.28627970814704895 0.055665940046310425
0.29164454340934753 0.28285974264144897 0.050848890095949173
0.33498492836952209 0.27905529737472534 0.045516639947891235
0.37764903903007507 0.27504730224609375 0.039785370230674744
0.42053812742233276 0.27035024762153625 0.03362598642706871
0.46376317739486694 0.26518762111663818 0.027719253674149513
0.50622177124023438 0.25999799370765686 0.022262748330831528
0.54954075813293457 0.25388252735137939 0.017397796735167503
0.59261685609817505 0.24736103415489197 0.012781723402440548
0.63351476192474365 0.23995605111122131 0.0088764764368534088
0.6721111536026001 0.23171207308769226 0.0057805543765425682
0.70692747831344604 0.22401145100593567 0.0033148352522403002
0.7391926646232605 0.215330570936203 0.0013829050585627556
0.76976269483566284 0.20590211451053619 0.00024459307314828038
0.79831218719482422 0.19618305563926697 0
0.82559084892272949 0.18567141890525818 0
0.85266441106796265 0.17392680048942566 0
0.87867903709411621 0.16181597113609314 0
0.90438473224639893 0.1489202082157135 0
0.92989671230316162 0.13404233753681183 0
0.95466184616088867 0.11935216933488846 0
0.97922343015670776 0.10283268988132477 0
0.99753004312515259 0.085440225899219513 0
1 0.066790983080863953 0
0.035147432237863541 0.35036051273345947 0.087774239480495453
0.038690660148859024 0.34966108202934265 0.087058067321777344
0.043164569884538651 0.34879836440086365 0.086100339889526367
0.04969312995672226 0.3478204607963562 0.085084803402423859
0.062562242150306702 0.34660118818283081 0.083501160144805908
0.086713425815105438 0.34488385915756226 0.081519648432731628
0.12720651924610138 0.34290871024131775 0.079085767269134521
0.17020925879478455 0.34102821350097656 0.076296791434288025
0.21411901712417603 0.33857887983322144 0.07235187292098999
0.25765535235404968 0.33616384863853455 0.067842483520507812
0.30101996660232544 0.33318063616752625 0.062931478023529053
0.34512948989868164 0.32969138026237488 0.057753186672925949
0.38795840740203857 0.32613494992256165 0.052237927913665771
0.43115094304084778 0.32185381650924683 0.046194419264793396
0.47507756948471069 0.31679812073707581 0.039923705160617828
0.51761680841445923 0.31197786331176758 0.034018784761428833
0.56123077869415283 0.3062540590763092 0.02817823737859726
0.60402578115463257 0.30017733573913574 0.022461241111159325
0.64455372095108032 0.29362988471984863 0.017408408224582672
0.68272650241851807 0.28584930300712585 0.013271177187561989
0.71710646152496338 0.27843818068504333 0.0097943609580397606
0.74890404939651489 0.27037128806114197 0.0069658895954489708
0.77925556898117065 0.26161155104637146 0.0044650901108980179
0.80764824151992798 0.25214987993240356 0.0023088273592293262
0.83508825302124023 0.24154059588909149 0.00091602664906531572
0.86224669218063354 0.22998048365116119 0.00010553994798101485
0.88829267024993896 0.21764551103115082 0
0.91400396823883057 0.20438443124294281 0
0.93952566385269165 0.18918129801750183 0
0.96421396732330322 0.17331428825855255 0
0.98784494400024414 0.15489526093006134 0
0.99961942434310913 0.13537612557411194 0
1 0.11424355208873749 0
0.0024576948489993811 0.39633822441101074 0.097855255007743835
0.0041339038871228695 0.39581477642059326 0.096784569323062897
0.0087666790932416916 0.39529719948768616 0.096352174878120422
0.021092232316732407 0.39450466632843018 0.095135539770126343
0.052607934921979904 0.39347371459007263 0.093606129288673401
0.095929451286792755 0.39202898740768433 0.091881722211837769
0.13614553213119507 0.3904767632484436 0.089523397386074066
0.17716990411281586 0.3884894847869873 0.086492642760276794
0.22017718851566315 0.38626500964164734 0.082842215895652771
0.26574599742889404 0.3838074803352356 0.078416816890239716
0.31081128120422363 0.38096120953559875 0.07384859025478363
0.35526293516159058 0.37790840864181519 0.068899117410182953
0.39847812056541443 0.37481117248535156 0.063594415783882141
0.44176173210144043 0.37112036347389221 0.058266814798116684
0.48559516668319702 0.36685732007026672 0.052684511989355087
0.52842116355895996 0.36223569512367249 0.046878207474946976
0.57237255573272705 0.35701051354408264 0.04018070176243782
0.61496680974960327 0.35144451260566711 0.033873327076435089
0.65466439723968506 0.34576481580734253 0.028166614472866058
0.69206923246383667 0.33899992704391479 0.023210104554891586
0.72621047496795654 0.3319527804851532 0.018831700086593628
0.75776928663253784 0.32487833499908447 0.014978432096540928
0.78815299272537231 0.31696429848670959 0.011612016707658768
0.81662708520889282 0.30833929777145386 0.0085344072431325912
0.84428131580352783 0.29863613843917847 0.0060331276617944241
0.87134212255477905 0.28783351182937622 0.0036206736695021391
0.89761406183242798 0.2762870192527771 0.0018136004218831658
0.9236333966255188 0.2637438178062439 0.00038410723209381104
0.94927263259887695 0.24887962639331818 1.0213543646386825e-05
0.9741286039352417 0.23311330378055573 0
0.99470388889312744 0.21474754810333252 0
1 0.194303959608078 0
1 0.17218957841396332 0
0.011658619157969952 0.44220823049545288 0.1070457324385643
0.018877716735005379 0.44184550642967224 0.10557369887828827
0.03229108452796936 0.4414902925491333 0.10510951280593872
0.055568091571331024 0.44084274768829346 0.10394271463155746
0.081637345254421234 0.43973925709724426 0.10254236310720444
0.10899204760789871 0.43860432505607605 0.10065515339374542
0.14075803756713867 0.43727770447731018 0.098290897905826569
0.18037369847297668 0.43540579080581665 0.095592610538005829
0.22831077873706818 0.43340522050857544 0.092105686664581299
0.27534171938896179 0.43110251426696777 0.088664807379245758
0.32074078917503357 0.42859482765197754 0.084109380841255188
0.36585855484008789 0.42572495341300964 0.079484343528747559
0.40920767188072205 0.42327660322189331 0.074476897716522217
0.45250558853149414 0.41989070177078247 0.069292716681957245
0.4963320791721344 0.41615739464759827 0.064281649887561798
0.53961509466171265 0.41188997030258179 0.05868920311331749
0.5832207202911377 0.4072367250919342 0.05259251594543457
0.62542623281478882 0.40251320600509644 0.046435806900262833
0.66448181867599487 0.39732810854911804 0.040532838553190231
0.70108801126480103 0.39153030514717102 0.034935526549816132
0.73494279384613037 0.3853820264339447 0.030332945287227631
0.76629018783569336 0.37886747717857361 0.025676583871245384
0.79642611742019653 0.37190186977386475 0.021369639784097672
0.82496142387390137 0.36406669020652771 0.01753828302025795
0.85272592306137085 0.35575950145721436 0.013985719531774521
0.87997251749038696 0.34651350975036621 0.010509050451219082
0.9064403772354126 0.33613348007202148 0.0078475577756762505
0.93286830186843872 0.32475849986076355 0.0051757725887000561
0.95896655321121216 0.31143072247505188 0.0027055714745074511
0.98366630077362061 0.29658645391464233 0.00097925774753093719
0.99912911653518677 0.27983468770980835 5.2025236072950065e-05
1 0.26048776507377625 0
1 0.23891705274581909 0
0.0164064671844244 0.48847529292106628 0.11431292444467545
0.019771972671151161 0.48812657594680786 0.11353746056556702
0.02598804235458374 0.48781049251556396 0.11262241005897522
0.03969452902674675 0.48674717545509338 0.11167922616004944
0.059046670794487 0.48611491918563843 0.11025478690862656
0.087699167430400848 0.4853377640247345 0.10828174650669098
0.13452483713626862 0.48405361175537109 0.10598766803741455
0.1880880743265152 0.48241937160491943 0.10327477753162384
0.23878343403339386 0.48096266388893127 0.10013888776302338
0.28633427619934082 0.47892370820045471 0.096692942082881927
0.33155903220176697 0.4767405092716217 0.092812076210975647
