Textures/36.cube
# Created by: G'MIC (https://gmic.eu)
TITLE "Agfa_Vista_200.cube"
# LUT size
LUT_3D_SIZE 5
# Data domain
DOMAIN_MIN 0.0 0.0 0.0
DOMAIN_MAX 1.0 1.0 1.0
# LUT data points
0.0018297660863026977 0.0023762434720993042 0.0012849053600803018
0.14748011529445648 0.00018256710609421134 0
0.47481885552406311 0 0
0.78058648109436035 0 0
0.99830955266952515 0 0
0.077960006892681122 0.21017155051231384 0.052441596984863281
0.19688794016838074 0.19476607441902161 0.035951532423496246
0.52691948413848877 0.15726713836193085 0.0038779866881668568
0.80851262807846069 0.093128316104412079 0
0.99987781047821045 0.010976321995258331 0
0.010072282515466213 0.57504594326019287 0.12471520900726318
0.26608920097351074 0.56983214616775513 0.11233452707529068
0.61523818969726562 0.55271744728088379 0.08270128071308136
0.87367337942123413 0.52009797096252441 0.049980029463768005
1 0.44386422634124756 0.013299086131155491
0.33026024699211121 0.82099694013595581 0.18914128839969635
0.4706876277923584 0.81880372762680054 0.17570784687995911
0.70454132556915283 0.81197977066040039 0.14230057597160339
0.91535931825637817 0.8005097508430481 0.098437242209911346
1 0.77557003498077393 0.073696106672286987
0.63441026210784912 0.98153603076934814 0.28568559885025024
0.68782979249954224 0.98153603076934814 0.2802480161190033
0.81155478954315186 0.98104202747344971 0.26747485995292664
0.97631824016571045 0.97742998600006104 0.24353910982608795
1 0.9710579514503479 0.19683372974395752
0 1.8724826077232137e-05 0.099962718784809113
0.11529816687107086 0 0.081800289452075958
0.45347198843955994 0 0.036033190786838531
0.76251626014709473 0 0.0042301598004996777
0.98816049098968506 0 0
0.056943468749523163 0.17954857647418976 0.17826752364635468
0.16644932329654694 0.16405782103538513 0.1640823632478714
0.50024563074111938 0.12733037769794464 0.1201215386390686
0.78218722343444824 0.067794673144817352 0.069917857646942139
0.98887521028518677 0.0033067308831959963 0.020655915141105652
2.8370953941703192e-07 0.56858491897583008 0.28865480422973633
0.20411340892314911 0.56246024370193481 0.2746737003326416
0.58262211084365845 0.54468762874603271 0.23959414660930634
0.84338366985321045 0.50939017534255981 0.20283511281013489
1 0.42660465836524963 0.16126959025859833
0.24234209954738617 0.8219902515411377 0.38713231682777405
0.41326633095741272 0.82001215219497681 0.37760481238365173
0.66289567947387695 0.81297761201858521 0.35631611943244934
0.87913048267364502 0.80124855041503906 0.33290791511535645
1 0.77508240938186646 0.29895684123039246
0.58413016796112061 0.98618775606155396 0.46802568435668945
0.64075189828872681 0.98545759916305542 0.4642505943775177
0.77065122127532959 0.98520374298095703 0.45427173376083374
0.93983697891235352 0.98143869638442993 0.43698999285697937
1 0.97546756267547607 0.40783518552780151
0 0 0.32950642704963684
0.055489864200353622 0 0.32034635543823242
0.40656030178070068 0 0.28330323100090027
0.71917933225631714 0 0.24446190893650055
0.94603103399276733 0 0.21018089354038239
0.0051168655045330524 0.12991639971733093 0.43001875281333923
0.096201136708259583 0.11495150625705719 0.42049843072891235
0.43840670585632324 0.080407269299030304 0.38213413953781128
0.72492647171020508 0.029546841979026794 0.34249213337898254
0.9335218071937561 0 0.30243003368377686
0 0.54631727933883667 0.56180429458618164
0.048749156296253204 0.53878611326217651 0.54916805028915405
0.51772749423980713 0.51726460456848145 0.51771074533462524
0.78636705875396729 0.47526144981384277 0.48660054802894592
0.99338597059249878 0.37648004293441772 0.447887122631073
0.03426409512758255 0.81977814435958862 0.64668571949005127
0.2974802553653717 0.81680434942245483 0.63736635446548462
0.59314334392547607 0.80934184789657593 0.61737143993377686
0.82255291938781738 0.79644268751144409 0.59592485427856445
1 0.76821219921112061 0.56921732425689697
0.50206840038299561 0.99328696727752686 0.69463390111923218
0.56667637825012207 0.99295443296432495 0.69045096635818481
0.70925921201705933 0.98986434936523438 0.68012821674346924
0.88834506273269653 0.98781579732894897 0.66407817602157593
1 0.98161333799362183 0.6432574987411499
0 0 0.59225404262542725
0.001420565415173769 0 0.58352464437484741
0.3427824079990387 0 0.54588443040847778
0.66691672801971436 0 0.50866645574569702
0.89768737554550171 0 0.48007512092590332
0 0.052096664905548096 0.65981173515319824
0.015343939885497093 0.040029577910900116 0.64920943975448608
0.3652491569519043 0.015957575291395187 0.60888069868087769
0.66427206993103027 4.77695903100539e-05 0.56814533472061157
0.8887791633605957 0 0.53887671232223511
0 0.48305299878120422 0.76268821954727173
0.0082572493702173233 0.47373789548873901 0.74912101030349731
0.4617571234703064 0.44479015469551086 0.71334332227706909
0.73780345916748047 0.38897088170051575 0.6783108115196228
0.94289904832839966 0.25508967041969299 0.6352728009223938
0 0.80476170778274536 0.83164668083190918
0.14317817986011505 0.80169576406478882 0.82154214382171631
0.53210246562957764 0.79296249151229858 0.80017107725143433
0.77819299697875977 0.77812397480010986 0.77817428112030029
0.98827928304672241 0.74450922012329102 0.75305700302124023
0.40669679641723633 0.99599683284759521 0.87598550319671631
0.48581194877624512 0.99599683284759521 0.87168681621551514
0.64786624908447266 0.99330049753189087 0.86129045486450195
0.84078001976013184 0.99207407236099243 0.84614241123199463
0.99976825714111328 0.98592430353164673 0.82858031988143921
0 0 0.77814483642578125
0 0 0.76940298080444336
0.27810379862785339 0 0.73077476024627686
0.62413984537124634 0 0.69155490398406982
0.86300712823867798 0 0.66394501924514771
0 0 0.82437664270401001
0 0 0.81673425436019897
0.28698432445526123 0 0.77831363677978516
0.61821955442428589 0 0.74110019207000732
0.85482043027877808 0 0.71435123682022095
0 0.30435535311698914 0.90953958034515381
0.036007300019264221 0.28785240650177002 0.89617955684661865
0.39551711082458496 0.23808260262012482 0.85407954454421997
0.67136925458908081 0.15323147177696228 0.81251376867294312
0.8749459981918335 0.028669385239481926 0.77059304714202881
0 0.75677955150604248 0.99062538146972656
0.00011156638356624171 0.75236690044403076 0.97904151678085327
0.45970332622528076 0.73976457118988037 0.9533570408821106
0.73380076885223389 0.7174115777015686 0.9277835488319397
0.95574146509170532 0.6666109561920166 0.89962774515151978
0.18072313070297241 0.99363750219345093 1
0.3393288254737854 0.99286645650863647 1
0.56054478883743286 0.99164772033691406 0.99998646974563599
0.78498715162277222 0.98917251825332642 0.99479663372039795
0.9820062518119812 0.98236840963363647 0.98183035850524902
