Textures/37.cube
# Created by: G'MIC (https://gmic.eu)
TITLE "Fuji_160C_2.cube"
# LUT size
LUT_3D_SIZE 5
# Data domain
DOMAIN_MIN 0.0 0.0 0.0
DOMAIN_MAX 1.0 1.0 1.0
# LUT data points
0.015736401081085205 0.015931056812405586 0.011695214547216892
0.23726403713226318 0.002822875278070569 0.014817932620644569
0.59984952211380005 0 0.0014888510340824723
0.87291139364242554 0 0
0.99999380111694336 0.21635152399539948 0
0 0.23483105003833771 0
0.20569610595703125 0.23865632712841034 0
0.58819770812988281 0.22705388069152832 0
0.85362434387207031 0.26210105419158936 0
0.99999582767486572 0.36384737491607666 0
0 0.53324645757675171 0
0.0015907651977613568 0.52169841527938843 0
0.50438350439071655 0.52910459041595459 0
0.80253416299819946 0.55278289318084717 0
0.99979615211486816 0.56581956148147583 0
0 0.75563997030258179 0
0.032569598406553268 0.7487189769744873 5.1349728892091662e-05
0.46947088837623596 0.74210608005523682 0.00080331380013376474
0.73171508312225342 0.74749857187271118 0
0.97143149375915527 0.78151541948318481 0
0.23000630736351013 0.96311938762664795 0.3453667163848877
0.33323764801025391 0.9614136815071106 0.35642895102500916
0.50710290670394897 0.95778352022171021 0.38701024651527405
0.70960712432861328 0.96015805006027222 0.3986763060092926
0.91571038961410522 0.96388047933578491 0.42464891076087952
0.046905331313610077 0.033692415803670883 0.20736058056354523
0.27541422843933105 0.0065868725068867207 0.21946682035923004
0.62650752067565918 0 0.21013227105140686
0.87925386428833008 0.070719711482524872 0.25884661078453064
0.99998295307159424 0.28225675225257874 0.28858640789985657
0 0.25804930925369263 0.23024868965148926
0.28880968689918518 0.26817834377288818 0.23696820437908173
0.61792010068893433 0.2710706889629364 0.23931963741779327
0.8599393367767334 0.30991360545158386 0.24584993720054626
0.99999582767486572 0.39416658878326416 0.27176362276077271
0 0.56144142150878906 0.24193431437015533
0.20220851898193359 0.54817837476730347 0.22902972996234894
0.54220056533813477 0.5438305139541626 0.22512926161289215
0.81232070922851562 0.55536526441574097 0.18963046371936798
0.99984097480773926 0.57330459356307983 0.2067519873380661
0 0.76458644866943359 0.25911584496498108
0.20109820365905762 0.75793766975402832 0.26222580671310425
0.48762011528015137 0.74549037218093872 0.26412853598594666
0.73751348257064819 0.75146734714508057 0.2581443190574646
0.97298002243041992 0.779712975025177 0.24881218373775482
0.25468897819519043 0.96433979272842407 0.42954319715499878
0.34808683395385742 0.96251219511032104 0.43695250153541565
0.51317071914672852 0.95803642272949219 0.4580053985118866
0.71015876531600952 0.95975899696350098 0.47244554758071899
0.91622257232666016 0.96395176649093628 0.4945104718208313
0.13058742880821228 0.053185932338237762 0.52362024784088135
0.34459599852561951 0.043607763946056366 0.5347563624382019
0.64638561010360718 0.010114477016031742 0.56133860349655151
0.88199818134307861 0 0.53522288799285889
1 0.26233264803886414 0.54441004991531372
0.12943658232688904 0.25301387906074524 0.52670806646347046
0.3577420711517334 0.27953854203224182 0.53919684886932373
0.640735924243927 0.31014972925186157 0.56596153974533081
0.86960035562515259 0.3120918869972229 0.54589307308197021
1 0.41758942604064941 0.56459355354309082
0.0084412461146712303 0.56916451454162598 0.55804252624511719
0.32817801833152771 0.572459876537323 0.56306463479995728
0.6134912371635437 0.58507800102233887 0.57668203115463257
0.82325929403305054 0.5912785530090332 0.57491612434387207
0.9989851713180542 0.60760372877120972 0.57728457450866699
0.29301631450653076 0.78800278902053833 0.57894879579544067
0.4072805643081665 0.78378713130950928 0.58030134439468384
0.5416218638420105 0.76575154066085815 0.5463898777961731
0.75180578231811523 0.76324731111526489 0.54300409555435181
0.97795253992080688 0.77304065227508545 0.52357399463653564
0.33032572269439697 0.96806573867797852 0.60105836391448975
0.38860362768173218 0.96681427955627441 0.59770262241363525
0.53480994701385498 0.9620850682258606 0.60443496704101562
0.71369040012359619 0.95978409051895142 0.61780679225921631
0.92165261507034302 0.96392214298248291 0.63448512554168701
0.3857039213180542 0.12990564107894897 0.77352344989776611
0.49555757641792297 0.13969255983829498 0.77723026275634766
0.69451069831848145 0.20015183091163635 0.78843647241592407
0.87528938055038452 0.28292971849441528 0.80254209041595459
1 0.30855104327201843 0.77320849895477295
0.38555613160133362 0.30728381872177124 0.76894038915634155
0.49031707644462585 0.31765040755271912 0.77319115400314331
0.68186789751052856 0.36266958713531494 0.78540843725204468
0.86187511682510376 0.42383882403373718 0.80225026607513428
1 0.4286540150642395 0.77475845813751221
0.23408706486225128 0.51485157012939453 0.75035601854324341
0.38008570671081543 0.52147966623306274 0.75674605369567871
0.63650751113891602 0.57241165637969971 0.77765554189682007
0.83084642887115479 0.62102371454238892 0.79985445737838745
0.99978041648864746 0.61248350143432617 0.77784925699234009
0.29180741310119629 0.77994298934936523 0.78440743684768677
0.40025916695594788 0.7805473804473877 0.78588777780532837
0.59469401836395264 0.78400802612304688 0.79053539037704468
0.80140966176986694 0.79869633913040161 0.80346900224685669
0.97698980569839478 0.80168074369430542 0.80298507213592529
0.43733868002891541 0.97507250308990479 0.80058485269546509
0.4969184398651123 0.97332650423049927 0.80204057693481445
0.63000506162643433 0.96849483251571655 0.807716965675354
0.74893426895141602 0.96272855997085571 0.79324072599411011
0.93745368719100952 0.96445620059967041 0.80422288179397583
0.6254737377166748 0.41090747714042664 0.9721146821975708
0.66503030061721802 0.42300659418106079 0.97154909372329712
0.76025974750518799 0.45925664901733398 0.96999800205230713
0.8836713433265686 0.52600711584091187 0.96792125701904297
0.99995285272598267 0.55898654460906982 0.96920305490493774
0.61554688215255737 0.49427118897438049 0.96971821784973145
0.65581375360488892 0.50344192981719971 0.96961265802383423
0.75116539001464844 0.53063535690307617 0.96793913841247559
0.87695056200027466 0.58324050903320312 0.96651911735534668
1 0.60973423719406128 0.96789956092834473
0.55720055103302002 0.61628615856170654 0.96513664722442627
0.61173754930496216 0.62842762470245361 0.96511256694793701
0.72100943326950073 0.64757281541824341 0.9642370343208313
0.85981243848800659 0.68567574024200439 0.96395409107208252
0.99827450513839722 0.71270221471786499 0.96643662452697754
0.4412040114402771 0.75961595773696899 0.96316194534301758
0.49195718765258789 0.75841987133026123 0.96262848377227783
0.61475569009780884 0.75627636909484863 0.96186178922653198
0.8259395956993103 0.80139744281768799 0.96396738290786743
0.98428177833557129 0.84327441453933716 0.96760255098342896
0.4668886661529541 0.96433448791503906 0.97026979923248291
0.51650720834732056 0.96460360288619995 0.97038745880126953
0.64035528898239136 0.96539801359176636 0.97056120634078979
0.80535924434661865 0.96653294563293457 0.97077363729476929
0.97001641988754272 0.97124016284942627 0.97312694787979126
