Textures/37.cube
# Created by: G'MIC (https://gmic.eu)
TITLE "Fuji_160C_2.cube"
# LUT size
LUT_3D_SIZE 33
# Data domain
DOMAIN_MIN 0.0 0.0 0.0
DOMAIN_MAX 1.0 1.0 1.0
# LUT data points
0.015736401081085205 0.015931056812405586 0.011695214547216892
0.033158529549837112 0.016648231074213982 0.011497225612401962
0.052823107689619064 0.017796782776713371 0.01228521391749382
0.073400013148784637 0.019753362983465195 0.012491055764257908
0.09746166318655014 0.02085774764418602 0.013369661755859852
0.12615053355693817 0.020299948751926422 0.013997633010149002
0.16026914119720459 0.017602153122425079 0.014674368314445019
0.19691728055477142 0.011035370640456676 0.014930648729205132
0.23726403713226318 0.002822875278070569 0.014817932620644569
0.28007420897483826 1.2483219506975729e-05 0.014563627541065216
0.32403993606567383 0 0.014224274083971977
0.37014898657798767 0 0.012594997882843018
0.41636067628860474 0 0.010858646593987942
0.4637395441532135 0 0.0090944012627005577
0.51046329736709595 0 0.0062754051759839058
0.5554320216178894 0 0.0033336938358843327
0.59984952211380005 0 0.0014888510340824723
0.64261490106582642 0 0.00023721663455944508
0.68216520547866821 0 0
0.7196727991104126 0 0
0.75401830673217773 0 0
0.78619146347045898 0 0
0.81681060791015625 0 0
0.84521377086639404 0 0
0.87291139364242554 0 0
0.89872926473617554 0 0
0.92385977506637573 0 0
0.94781291484832764 0.014770442619919777 0
0.97132819890975952 0.075550168752670288 0
0.9927666187286377 0.12156916409730911 0
0.99995285272598267 0.15805383026599884 0
0.99997198581695557 0.18789215385913849 0
0.99999380111694336 0.21635152399539948 0
0.014612176455557346 0.033307556062936783 0.0126540781930089
0.030685562640428543 0.033479973673820496 0.012679614126682281
0.051093734800815582 0.035101041197776794 0.012137547135353088
0.073724105954170227 0.035425435751676559 0.011948877945542336
0.099434532225131989 0.035371843725442886 0.012723714113235474
0.12839938700199127 0.033981341868638992 0.013060767203569412
0.1619924008846283 0.030598042532801628 0.013690261170268059
0.19891020655632019 0.024849379435181618 0.013962149620056152
0.2392270565032959 0.016065016388893127 0.014162640087306499
0.28121864795684814 0.0045944941230118275 0.013450014404952526
0.32517960667610168 0.00012454413808882236 0.012592650018632412
0.37119084596633911 0 0.011183949187397957
0.41721877455711365 0 0.0095010539516806602
0.46373564004898071 0 0.0071310070343315601
0.51012825965881348 0 0.0040576457977294922
0.55552560091018677 0 0.0020342243369668722
0.59948843717575073 0 0.00060851598391309381
0.64201265573501587 0 4.0144899685401469e-05
0.68127775192260742 0 0
0.71866297721862793 0 0
0.75316649675369263 0 0
0.78542453050613403 0 0
0.81569784879684448 0 0
0.84419369697570801 0 0
0.8717728853225708 0 0
0.89830392599105835 0 0
0.92282682657241821 0.0027662431821227074 0
0.94704288244247437 0.046942856162786484 0
0.97034537792205811 0.1001502126455307 0
0.99237287044525146 0.13850648701190948 0
1 0.170824334025383 0
0.99996209144592285 0.19865162670612335 0
0.99999552965164185 0.2254871279001236 0
0.013719583861529827 0.051358029246330261 0.013511760160326958
0.027757449075579643 0.05086904764175415 0.013939353637397289
0.046145115047693253 0.051857952028512955 0.013603692874312401
0.070992633700370789 0.054081417620182037 0.012794393114745617
0.098597794771194458 0.053347323089838028 0.011951752007007599
0.13007500767707825 0.051356889307498932 0.01202644407749176
0.16443227231502533 0.048844747245311737 0.012442750856280327
0.20082370936870575 0.043899968266487122 0.01231351587921381
0.24095997214317322 0.036312814801931381 0.012541771866381168
0.28293508291244507 0.025197554379701614 0.011581062339246273
0.32680666446685791 0.011928088963031769 0.010907468385994434
0.37219467759132385 0.0018590383697301149 0.0090854084119200706
0.41771820187568665 1.4468931112787686e-05 0.0068670003674924374
0.46428784728050232 0 0.0050654155202209949
0.51056993007659912 0 0.0025443313643336296
0.55517846345901489 0 0.00087571411859244108
0.59930187463760376 0 9.6886586106847972e-05
0.64142483472824097 0 0
0.68071216344833374 0 0
0.71808868646621704 0 0
0.75214052200317383 0 0
0.78425955772399902 0 0
0.81469100713729858 0 0
0.84351503849029541 0 0
0.87068134546279907 0 0
0.89684593677520752 0.0017664451152086258 0
0.92202621698379517 0.032569814473390579 0
0.94598054885864258 0.084647588431835175 0
0.96920251846313477 0.1247551292181015 0
0.99117600917816162 0.15703488886356354 0
0.99995124340057373 0.18586255609989166 0
0.99999707937240601 0.21165205538272858 0
0.99999839067459106 0.23687320947647095 0
0.0095242802053689957 0.072936996817588806 0.014778242446482182
0.02207997627556324 0.072326116263866425 0.015140625648200512
0.039217501878738403 0.072943635284900665 0.01470382884144783
0.063500411808490753 0.073946885764598846 0.014084138907492161
0.09380359947681427 0.076689131557941437 0.012549662031233311
0.12807135283946991 0.077250689268112183 0.011469924822449684
0.16478197276592255 0.073891796171665192 0.010735231451690197
0.20302765071392059 0.069709166884422302 0.0099330134689807892
0.24316370487213135 0.064631469547748566 0.0098033985123038292
0.28474214673042297 0.057360883802175522 0.0086964862421154976
0.3278907835483551 0.046816147863864899 0.0074506187811493874
0.37335941195487976 0.032483916729688644 0.0060147149488329887
0.4183860719203949 0.01573466882109642 0.0038940801750868559
0.46432000398635864 0.004669535905122757 0.0019809540826827288
0.51042062044143677 0.00044573712511919439 0.00052899593720212579
0.55482488870620728 0 0.00012242066441103816
0.59856325387954712 0 0
0.64037579298019409 0 0
0.67962515354156494 0 0
0.7162778377532959 0 0
0.75114709138870239 0 0
0.7827954888343811 0 0
0.81320589780807495 0 0
0.84141778945922852 0.00037417918792925775 0
0.86915081739425659 0.0090636610984802246 0
0.89559966325759888 0.042959369719028473 0
0.92032289505004883 0.086343981325626373 0
0.944782555103302 0.12176802754402161 0
0.96827518939971924 0.15296304225921631 0
0.99056285619735718 0.18045014142990112 0
0.99999511241912842 0.2066912055015564 0
0.99997860193252563 0.23033492267131805 0
1 0.25367137789726257 0
0.0015969328815117478 0.098159484565258026 0.014118468388915062
0.010699666105210781 0.097184300422668457 0.014700805768370628
0.028076138347387314 0.097586967051029205 0.014715215191245079
0.053894072771072388 0.098770111799240112 0.013912886381149292
0.083867542445659637 0.099991485476493835 0.01260855607688427
0.12113839387893677 0.10402624309062958 0.01049115601927042
0.16116325557231903 0.10528359562158585 0.0085544371977448463
0.20099838078022003 0.10197886824607849 0.0068304454907774925
0.24367193877696991 0.096415422856807709 0.0054501448757946491
0.28666925430297852 0.091186508536338806 0.0045803934335708618
0.32944127917289734 0.085186406970024109 0.00323457270860672
0.37419116497039795 0.076939553022384644 0.0018140756292268634
0.41886055469512939 0.06621050089597702 0.00075165904127061367
0.46454799175262451 0.052733100950717926 0.00023551196500193328
0.51027965545654297 0.036307342350482941 3.3477725082775578e-05
0.55409747362136841 0.021515302360057831 0
0.59759575128555298 0.01127932034432888 0
0.63910633325576782 0.0052716000936925411 0
0.67797625064849854 0.0030548668000847101 0
0.71491891145706177 0.002669257577508688 0
0.74871039390563965 0.0040239798836410046 0
0.7806362509727478 0.0088218618184328079 0
0.81123638153076172 0.020066838711500168 0
0.83964210748672485 0.042564485222101212 0
0.86706149578094482 0.073811933398246765 0
0.89352381229400635 0.10391891747713089 0
0.91822624206542969 0.13124494254589081 0
0.94293463230133057 0.15750759840011597 0
0.96617966890335083 0.182268425822258 0
0.98854196071624756 0.20619532465934753 0
0.99995201826095581 0.22869135439395905 0
0.99997431039810181 0.24998319149017334 0
1 0.27080252766609192 0
0 0.12797433137893677 0.011421737261116505
0.00053146807476878166 0.1273074746131897 0.012067322619259357
0.0099960379302501678 0.12678740918636322 0.012573988176882267
0.037470504641532898 0.12776611745357513 0.011797139421105385
0.072275690734386444 0.12898004055023193 0.010514162480831146
0.10915748775005341 0.13028489053249359 0.0090796016156673431
0.15232643485069275 0.1349528580904007 0.0056756841950118542
0.19642223417758942 0.13762211799621582 0.0029086482245475054
0.2401922196149826 0.13487750291824341 0.0014240142190828919
0.28488171100616455 0.13002899289131165 0.00073053117375820875
0.32941335439682007 0.12301402539014816 0.00024806850706227124
0.37464699149131775 0.11743677407503128 7.4472955020610243e-05
0.41924756765365601 0.11168532818555832 1.602958764124196e-05
0.46430906653404236 0.10473942756652832 0
0.50945258140563965 0.097002893686294556 0
0.55280905961990356 0.088324256241321564 0
0.59603714942932129 0.079832486808300018 0
0.63733679056167603 0.072613023221492767 0
0.67589306831359863 0.067862682044506073 0
0.71224403381347656 0.067732036113739014 0
0.74668753147125244 0.073236539959907532 0
0.77788478136062622 0.083152331411838531 0
0.80855941772460938 0.097099795937538147 0
0.83714550733566284 0.11391568183898926 0
0.86474984884262085 0.13232371211051941 0
0.89094787836074829 0.15213364362716675 0
0.91616928577423096 0.1723974198102951 0
0.94037848711013794 0.19313585758209229 0
0.96389269828796387 0.21386027336120605 0
0.98627787828445435 0.23382087051868439 0
0.99990594387054443 0.25374594330787659 0
1 0.27278825640678406 0
0.99999141693115234 0.29138049483299255 0
0 0.16115690767765045 0.0060561033897101879
0 0.1602136492729187 0.0068223620764911175
0.00015673068992327899 0.1593121737241745 0.0074796043336391449
0.012827512808144093 0.1598956435918808 0.0073658879846334457
0.05219852551817894 0.16093894839286804 0.0059276088140904903
0.095870137214660645 0.16292837262153625 0.0043189688585698605
0.13798056542873383 0.16401971876621246 0.0025453900452703238
0.18492281436920166 0.1686728298664093 0.00049946067156270146
0.23460096120834351 0.17321577668190002 4.6528355596819893e-05
0.28025451302528381 0.17153617739677429 0
0.32610180974006653 0.16748455166816711 0
0.3732035756111145 0.16082847118377686 0
0.41897502541542053 0.15410725772380829 0
0.46414652466773987 0.14924515783786774 0
0.50827956199645996 0.14485418796539307 0
0.55170214176177979 0.140700563788414 0
0.5944373607635498 0.13693588972091675 0
0.63512581586837769 0.13369859755039215 0
0.67328310012817383 0.1327226310968399 0
0.70955771207809448 0.13389196991920471 0
0.74354380369186401 0.13797555863857269 0
0.77488815784454346 0.14425930380821228 0
0.80558174848556519 0.15412399172782898 0
0.83368790149688721 0.16561751067638397 0
0.8611103892326355 0.17932699620723724 0
0.88796597719192505 0.19488000869750977 0
0.91284048557281494 0.21092727780342102 0
0.93728286027908325 0.22815366089344025 0
0.96087068319320679 0.24585981667041779 0
0.98335379362106323 0.26309159398078918 0
0.99943119287490845 0.28097823262214661 0
1 0.29783639311790466 0
0.99996143579483032 0.31488248705863953 0
0 0.19707220792770386 0.0012020550202578306
0 0.19637672603130341 0.0012556781293824315
0 0.19498533010482788 0.0018472557421773672
0.00050882389768958092 0.19445271790027618 0.0018704551039263606
0.02256535179913044 0.19596727192401886 0.0014547499595209956
0.076464422047138214 0.19729496538639069 0.00066621776204556227
0.12450924515724182 0.19876611232757568 0.00019866562797687948
0.17018453776836395 0.20004059374332428 4.4506930862553418e-05
0.22086764872074127 0.20459358394145966 0
0.27406913042068481 0.21125113964080811 0
0.32092121243476868 0.21001927554607391 0
0.36861526966094971 0.20645150542259216 0
0.41501438617706299 0.20093715190887451 0
0.4612966775894165 0.19361512362957001 0
0.5066642165184021 0.18830963969230652 0
0.54925692081451416 0.18502116203308105 0
0.59133374691009521 0.18330413103103638 0
0.63216358423233032 0.18227766454219818 0
0.66980117559432983 0.18208952248096466 0
0.70599657297134399 0.18391644954681396 0
0.73967504501342773 0.18769931793212891 0
0.7710692286491394 0.19329454004764557 0
0.80144029855728149 0.20083263516426086 0
0.83005332946777344 0.21041399240493774 0
0.85801100730895996 0.22182328999042511 0
0.88444983959197998 0.23433883488178253 0
0.90960496664047241 0.2481723427772522 0
0.93429684638977051 0.26318597793579102 0
0.95795696973800659 0.2782541811466217 0
0.98062562942504883 0.29338753223419189 0
0.99857640266418457 0.3088487982749939 0
1 0.32321345806121826 0
0.99995720386505127 0.33851757645606995 0
0 0.23483105003833771 0
0 0.23430286347866058 0
0 0.23304054141044617 1.4185476970851596e-07
0 0.2318703681230545 1.8902148440247402e-05
0.001720721716992557 0.23228771984577179 1.4894750165694859e-05
0.043609924614429474 0.23366251587867737 1.5604023246851284e-06
0.10563424974679947 0.23541325330734253 0
0.15637066960334778 0.23696477711200714 0
0.20569610595703125 0.23865632712841034 0
0.25737506151199341 0.24241712689399719 0
0.3136991560459137 0.25101593136787415 0
0.36273431777954102 0.2503984272480011 0
0.4096866250038147 0.24764402210712433 0
0.45636621117591858 0.24291925132274628 0
0.50217902660369873 0.23700322210788727 0
0.54634779691696167 0.23044365644454956 0
0.58819770812988281 0.22705388069152832 0
0.62861841917037964 0.22666256129741669 0
0.66620850563049316 0.22731326520442963 0
0.70203077793121338 0.22940428555011749 0
0.73542916774749756 0.23286767303943634 0
0.7667115330696106 0.23772495985031128 0
0.79698371887207031 0.2443559467792511 0
0.82583814859390259 0.25263583660125732 0
0.85362434387207031 0.26210105419158936 0
0.88007915019989014 0.27325582504272461 0
0.90542501211166382 0.28495210409164429 0
0.93038976192474365 0.29757487773895264 0
0.95390957593917847 0.31107863783836365 0
0.97700774669647217 0.32416990399360657 0
0.99701207876205444 0.33754724264144897 0
1 0.35043489933013916 0
0.99999582767486572 0.36384737491607666 0
0 0.27384790778160095 0
0 0.27315953373908997 0
0 0.27215853333473206 0
0 0.27103474736213684 0
0 0.26987668871879578 0
0.0094180898740887642 0.27107158303260803 0
0.076919957995414734 0.27277266979217529 0
0.13860784471035004 0.27433347702026367 0
0.1917242705821991 0.27581998705863953 0
0.24237997829914093 0.27698597311973572 0
0.29477035999298096 0.28093686699867249 0
0.35358208417892456 0.29006335139274597 0
0.40343236923217773 0.29119431972503662 0
0.44994634389877319 0.28861662745475769 0
0.49636238813400269 0.28470516204833984 0
0.54031193256378174 0.2802431583404541 0
0.58321088552474976 0.2743561863899231 0
0.62402564287185669 0.26959073543548584 0
0.66154730319976807 0.26891279220581055 0
0.69724106788635254 0.27129939198493958 0
0.73027634620666504 0.2743287980556488 0
0.76160764694213867 0.27886268496513367 0
0.79220712184906006 0.28465160727500916 0
0.82108235359191895 0.29186993837356567 0
0.84861403703689575 0.30011659860610962 0
0.8754236102104187 0.31016668677330017 0
0.90096879005432129 0.3204808235168457 0
0.92577087879180908 0.33151921629905701 0
0.9499390721321106 0.3433978259563446 0
0.97320139408111572 0.35511171817779541 0
0.99500232934951782 0.36692282557487488 0
1 0.37788006663322449 0
1 0.39009180665016174 0
0 0.31291544437408447 0
0 0.31250929832458496 0
0 0.31142935156822205 0
0 0.31013143062591553 0
0 0.30827629566192627 0
0.00011091802298324183 0.30854970216751099 0
0.03431393951177597 0.30970644950866699 0
0.11454398185014725 0.31136247515678406 0
0.17522722482681274 0.31325709819793701 0
0.22860118746757507 0.31447330117225647 0
0.27987375855445862 0.31590193510055542 0
0.3334241509437561 0.31888240575790405 0
0.39302581548690796 0.32957053184509277 0
0.44301503896713257 0.33165934681892395 0
0.4894435703754425 0.32992130517959595 0
0.53369355201721191 0.3266676664352417 0
0.57644945383071899 0.32271456718444824 0
0.6177821159362793 0.31828796863555908 0
0.65558379888534546 0.31391778588294983 0
0.69177764654159546 0.31137657165527344 0
0.72493356466293335 0.31334120035171509 0
0.75657588243484497 0.31754279136657715 0
0.7867618203163147 0.32234320044517517 0
0.81576865911483765 0.32938572764396667 0
0.84358125925064087 0.33697113394737244 0
0.87071210145950317 0.34573274850845337 0
0.89594525098800659 0.35480773448944092 0
0.92101788520812988 0.36446043848991394 0
0.94530254602432251 0.37507855892181396 0
0.9688107967376709 0.38475704193115234 0
0.9913753867149353 0.3948979377746582 0
1 0.40427163243293762 0
1 0.41484612226486206 0
0 0.35266584157943726 0
0 0.35197609663009644 0
0 0.35093405842781067 0
0 0.34981584548950195 0
0 0.34791955351829529 0
0 0.34647217392921448 0
0.0044833160936832428 0.34767034649848938 0
0.07765786349773407 0.34901756048202515 0
0.15400058031082153 0.35059627890586853 0
0.21259847283363342 0.35248059034347534 0
0.26600077748298645 0.35375809669494629 0
0.31841734051704407 0.35498350858688354 0
0.37030833959579468 0.35758277773857117 0
0.43044641613960266 0.36815729737281799 0
0.48163819313049316 0.3723418116569519 0
0.5261499285697937 0.37080860137939453 0
0.56931990385055542 0.3687288761138916 0
0.61003535985946655 0.36546218395233154 0
0.64803320169448853 0.36211121082305908 0
0.68440288305282593 0.35857734084129333 0
0.7180325984954834 0.35516822338104248 0
0.74975132942199707 0.35556036233901978 0
0.78050273656845093 0.35992074012756348 0
0.80976355075836182 0.36608496308326721 0
0.83745682239532471 0.37271994352340698 0
0.86498075723648071 0.38055786490440369 0
0.8906174898147583 0.38878551125526428 0
0.91587823629379272 0.39737001061439514 0
0.94054156541824341 0.4065977931022644 0
0.96411806344985962 0.41526046395301819 0
0.98766356706619263 0.42428037524223328 0
0.99984675645828247 0.43235501646995544 0
0.99998295307159424 0.44203218817710876 0
0 0.39106374979019165 0
0 0.39095157384872437 0
0 0.38960984349250793 0
0 0.38813015818595886 0
0 0.38621917366981506 0
0 0.38448575139045715 0
0 0.38439899682998657 0
0.032219316810369492 0.38558086752891541 0
0.12758843600749969 0.38706207275390625 0
0.1943555623292923 0.38872861862182617 0
0.25146490335464478 0.39024579524993896 0
0.30553928017616272 0.39159005880355835 0
0.3570285439491272 0.39299884438514709 0
0.40809541940689087 0.39458653330802917 0
0.46746394038200378 0.40479898452758789 0
0.51852774620056152 0.41117957234382629 0
0.56137466430664062 0.41013798117637634 0
0.60184413194656372 0.40828204154968262 0
0.63989496231079102 0.40607109665870667 0
0.67597907781600952 0.40351176261901855 0
0.70993179082870483 0.40053629875183105 0
0.74226057529449463 0.39834263920783997 0
0.77392297983169556 0.39735710620880127 0
0.80343794822692871 0.40066292881965637 0
0.83167409896850586 0.40640765428543091 0
0.85896515846252441 0.41326305270195007 0
0.88488984107971191 0.42055830359458923 0
0.91092866659164429 0.42838761210441589 0
0.93524843454360962 0.43648284673690796 0
0.95929443836212158 0.44421368837356567 0
0.98271965980529785 0.45163300633430481 0
0.99900311231613159 0.45906859636306763 0
0.99998760223388672 0.46739870309829712 0
0 0.42872810363769531 0
0 0.42821371555328369 0
0 0.42734599113464355 0
0 0.42597663402557373 0
0 0.42438051104545593 0
0 0.4222356379032135 0
0 0.42059758305549622 0
0.0041523948311805725 0.42144480347633362 0
0.091434836387634277 0.42284289002418518 0
0.17417897284030914 0.42439389228820801 0
0.23590847849845886 0.42574456334114075 0
0.29159852862358093 0.42681971192359924 0
0.34436526894569397 0.42847380042076111 0
0.39518466591835022 0.42957413196563721 0
0.44560065865516663 0.43118098378181458 0
0.50152921676635742 0.44032159447669983 0
0.55357307195663452 0.44858720898628235 0
0.59409612417221069 0.44793903827667236 0
0.63147419691085815 0.44657015800476074 0
0.66750460863113403 0.44492107629776001 0
0.70140963792800903 0.44282713532447815 0
0.73428571224212646 0.44159224629402161 0
0.76604700088500977 0.44046160578727722 0
0.7962837815284729 0.43996721506118774 0
0.82486337423324585 0.44052928686141968 0
0.85296738147735596 0.44514307379722595 0
0.87907242774963379 0.45181748270988464 0
0.90496456623077393 0.45858564972877502 0
0.92967891693115234 0.4654298722743988 0
0.95371538400650024 0.47198492288589478 0
0.97746890783309937 0.47828122973442078 0
0.99711960554122925 0.48440858721733093 0
0.99999541044235229 0.49200370907783508 0
0 0.4658416211605072 0
0 0.46485579013824463 0
0 0.46401739120483398 0
0 0.46348583698272705 0
0 0.46138176321983337 0
0 0.45926928520202637 0
0 0.45698288083076477 0
0 0.45660459995269775 0
0.045995540916919708 0.45766159892082214 0
0.14990551769733429 0.45898500084877014 0
0.21853362023830414 0.46001997590065002 0
0.27810674905776978 0.46146717667579651 0
0.33143752813339233 0.46251577138900757 0
0.38300684094429016 0.4638211727142334 0
0.43287643790245056 0.4647749662399292 0
0.48100021481513977 0.46620640158653259 0
0.53462105989456177 0.47436520457267761 0
0.58519703149795532 0.48382335901260376 0
0.62372338771820068 0.48427742719650269 0
0.65946489572525024 0.4832148551940918 0
0.69325274229049683 0.48223075270652771 0
0.72580802440643311 0.48156064748764038 0
0.75785833597183228 0.48096492886543274 0
0.78838926553726196 0.48065149784088135 0
0.81762415170669556 0.48047053813934326 0
0.84629303216934204 0.48017266392707825 0
0.8732035756111145 0.48239952325820923 0
0.89938902854919434 0.48778480291366577 0
0.92494100332260132 0.49388182163238525 0
0.94880455732345581 0.49992454051971436 0
0.97257000207901001 0.50553655624389648 0
0.99487501382827759 0.51123285293579102 0
1 0.51812148094177246 0
0 0.5005190372467041 0
0 0.49969249963760376 0
0 0.49881097674369812 0
0 0.49748548865318298 0
0 0.49622869491577148 0
0 0.49423938989639282 0
0 0.49182766675949097 0
0 0.48989897966384888 0
0.01453828439116478 0.49053254723548889 0
0.1226203665137291 0.49181583523750305 0
0.20143288373947144 0.49260947108268738 0
0.26471921801567078 0.49375632405281067 0
0.31952956318855286 0.49473240971565247 0
0.37181353569030762 0.49607723951339722 0
0.42184814810752869 0.49732255935668945 0
0.46920299530029297 0.49760565161705017 0
0.51562589406967163 0.49906215071678162 0
0.5657120943069458 0.50596529245376587 0
0.61488842964172363 0.51657736301422119 0
0.65146619081497192 0.5175546407699585 0
0.68549400568008423 0.51789063215255737 0
0.71822011470794678 0.51754111051559448 0
0.75033050775527954 0.51761984825134277 0
0.78071564435958862 0.51755410432815552 0
0.81002652645111084 0.51799017190933228 0
0.83884322643280029 0.51802092790603638 0
0.86609166860580444 0.51810014247894287 0
0.89294224977493286 0.51813918352127075 0
0.91824668645858765 0.52071201801300049 0
0.94306373596191406 0.52568686008453369 0
0.96702748537063599 0.53081142902374268 0
0.99063569307327271 0.53553330898284912 0
0.99998599290847778 0.54182440042495728 0
0 0.53324645757675171 0
0 0.53282445669174194 0
0 0.53180509805679321 0
0 0.53083318471908569 0
0 0.52947300672531128 0
0 0.52779167890548706 0
0 0.52557975053787231 0
0 0.52327650785446167 0
0.0015907651977613568 0.52169841527938843 0
0.090270444750785828 0.52302724123001099 0
0.18473801016807556 0.52382504940032959 0
0.25171822309494019 0.52495622634887695 0
0.30852237343788147 0.52560842037200928 0
0.36144337058067322 0.52659648656845093 0
0.41171258687973022 0.52743136882781982 0
0.45869702100753784 0.5284838080406189 0
0.50438350439071655 0.52910459041595459 0
0.54789423942565918 0.53004467487335205 0
0.59386682510375977 0.53551274538040161 0
0.64206236600875854 0.54725396633148193 0
0.67803484201431274 0.55009418725967407 0
0.71044272184371948 0.55035042762756348 0
0.74307143688201904 0.55176824331283569 0
0.77326875925064087 0.55230110883712769 0
0.80253416299819946 0.55278289318084717 0
0.83161824941635132 0.55334371328353882 0
0.85892325639724731 0.55345499515533447 0
0.8855898380279541 0.55311965942382812 0
0.91156494617462158 0.55272489786148071 0
0.93697142601013184 0.55316460132598877 0
0.96175789833068848 0.55594116449356079 0
0.9863121509552002 0.56042563915252686 0
0.99979615211486816 0.56581956148147583 0
0 0.56425929069519043 0
0 0.56369805335998535 0
0 0.56294888257980347 0
0 0.5617448091506958 0
0 0.5606236457824707 0
0 0.55888879299163818 0
0 0.55680054426193237 0
