Textures/38.cube
# Created by: G'MIC (https://gmic.eu)
TITLE "Fuji_400H_2.cube"
# LUT size
LUT_3D_SIZE 5
# Data domain
DOMAIN_MIN 0.0 0.0 0.0
DOMAIN_MAX 1.0 1.0 1.0
# LUT data points
0.021749027073383331 0.023779649287462234 0.016299404203891754
0.22120226919651031 0.027646902948617935 0.015195495449006557
0.60231530666351318 0 0.00012596623855642974
0.88505244255065918 0 0
0.99999380111694336 0.22483786940574646 0
0 0.22301903367042542 0.010810182429850101
0.1947883814573288 0.23210491240024567 0.00020628665515687317
0.60019141435623169 0.25139644742012024 0
0.86636537313461304 0.28963875770568848 0
0.99999582767486572 0.36705312132835388 0
0 0.52755856513977051 0
0.02232329361140728 0.51521122455596924 2.9646851544384845e-05
0.5222092866897583 0.53288424015045166 0
0.81403654813766479 0.55676209926605225 0
0.99999701976776123 0.56357318162918091 0
0 0.74354660511016846 0.15321731567382812
0.20147837698459625 0.7359919548034668 0.17005231976509094
0.49708661437034607 0.73098868131637573 0.16377463936805725
0.74708312749862671 0.74199110269546509 0.060343600809574127
0.98034584522247314 0.76246613264083862 4.5601977035403252e-05
0.42061114311218262 0.9407888650894165 0.48854559659957886
0.4725545346736908 0.93924140930175781 0.50008106231689453
0.58735090494155884 0.93529939651489258 0.53127270936965942
0.7408374547958374 0.94439184665679932 0.51894611120223999
0.94105559587478638 0.95631694793701172 0.49725353717803955
0.057884257286787033 0.038552537560462952 0.21007631719112396
0.25590977072715759 0.027963872998952866 0.22241413593292236
0.63226652145385742 0 0.22847864031791687
0.89116460084915161 0.032553385943174362 0.26121231913566589
0.99998295307159424 0.27517357468605042 0.28913551568984985
0 0.25667008757591248 0.23588502407073975
0.26813763380050659 0.26895782351493835 0.24491135776042938
0.63353127241134644 0.27123594284057617 0.24624927341938019
0.87257736921310425 0.31034627556800842 0.24579884111881256
0.99999582767486572 0.38964158296585083 0.2696477472782135
0 0.56601661443710327 0.26580193638801575
0.20991362631320953 0.55081415176391602 0.26064658164978027
0.55537319183349609 0.5497165322303772 0.23889777064323425
0.82258439064025879 0.5584254264831543 0.17731964588165283
0.99995285272598267 0.56753921508789062 0.1931159496307373
0.074238739907741547 0.75397646427154541 0.32139131426811218
0.28735619783401489 0.74666517972946167 0.32856741547584534
0.5140606164932251 0.73440444469451904 0.33167240023612976
0.75088399648666382 0.74594211578369141 0.29611495137214661
0.98082399368286133 0.76230430603027344 0.26193857192993164
0.43944722414016724 0.94266819953918457 0.53765994310379028
0.48784032464027405 0.94086909294128418 0.54660582542419434
0.59701144695281982 0.93642133474349976 0.57157468795776367
0.74538677930831909 0.94386577606201172 0.56798392534255981
0.9424893856048584 0.95627671480178833 0.55002683401107788
0.12505578994750977 0.054561663419008255 0.5392078161239624
0.3476298451423645 0.03028758242726326 0.55028927326202393
0.65972703695297241 2.7801253963843919e-05 0.57622039318084717
0.88917273283004761 0 0.55457162857055664
1 0.26535758376121521 0.55304187536239624
0.036278016865253448 0.25311148166656494 0.54616731405258179
0.3522321879863739 0.28037074208259583 0.56013888120651245
0.65604877471923828 0.30821874737739563 0.58228826522827148
0.87648898363113403 0.3096638023853302 0.56204462051391602
1 0.4284711480140686 0.57189738750457764
0 0.58288609981536865 0.57084155082702637
0.3144022524356842 0.58691954612731934 0.57608681917190552
0.62378591299057007 0.59515315294265747 0.58655959367752075
0.82600748538970947 0.59755033254623413 0.58059948682785034
0.99808353185653687 0.61039948463439941 0.58359289169311523
0.35921308398246765 0.78074240684509277 0.58776986598968506
0.45997428894042969 0.77560955286026001 0.59284836053848267
0.5771414041519165 0.75577384233474731 0.57341313362121582
0.76212406158447266 0.75780206918716431 0.56127101182937622
0.98317188024520874 0.76041078567504883 0.53196865320205688
0.47788238525390625 0.94998800754547119 0.64341950416564941
0.51415663957595825 0.94852554798126221 0.64403295516967773
0.61670082807540894 0.94313180446624756 0.65640699863433838
0.75663870573043823 0.94391566514968872 0.66771787405014038
0.94975709915161133 0.95777660608291626 0.65554863214492798
0.40043887495994568 0.11380568146705627 0.76931393146514893
0.5101391077041626 0.1203543022274971 0.77234673500061035
0.70428001880645752 0.18479962646961212 0.77910476922988892
0.87837040424346924 0.28020694851875305 0.7889283299446106
1 0.31701046228408813 0.76194775104522705
0.39281827211380005 0.30557286739349365 0.76542544364929199
0.50178766250610352 0.31656748056411743 0.76845872402191162
0.69125199317932129 0.36424458026885986 0.77619373798370361
0.86348778009414673 0.43060073256492615 0.78735512495040894
1 0.44211399555206299 0.76355832815170288
0.22352828085422516 0.51966196298599243 0.74343502521514893
0.38733106851577759 0.52720564603805542 0.74873775243759155
0.64691346883773804 0.58071130514144897 0.76471209526062012
0.83280175924301147 0.62931352853775024 0.78352564573287964
0.99932682514190674 0.6217116117477417 0.76810324192047119
0.34608307480812073 0.77604949474334717 0.7700047492980957
0.4425482451915741 0.77651691436767578 0.77132970094680786
0.61919504404067993 0.77970343828201294 0.77525711059570312
0.81129378080368042 0.79308003187179565 0.78688812255859375
0.98469346761703491 0.79428720474243164 0.78542447090148926
0.50512993335723877 0.96514743566513062 0.78912800550460815
0.55411571264266968 0.96373248100280762 0.79180127382278442
0.67002707719802856 0.95872336626052856 0.79774343967437744
0.78546047210693359 0.95076006650924683 0.79188966751098633
0.96614450216293335 0.96072077751159668 0.79089254140853882
0.63220870494842529 0.41625538468360901 0.95017248392105103
0.6706240177154541 0.43004518747329712 0.94942975044250488
0.76235842704772949 0.47047296166419983 0.94794416427612305
0.88618767261505127 0.54000920057296753 0.94588017463684082
0.99995285272598267 0.57124149799346924 0.94818699359893799
0.62484920024871826 0.50387036800384521 0.94760745763778687
0.6634904146194458 0.51453125476837158 0.94752240180969238
0.7553669810295105 0.54361671209335327 0.94587564468383789
0.88140326738357544 0.59535247087478638 0.94482439756393433
1 0.61822408437728882 0.9472927451133728
0.5805017352104187 0.62595891952514648 0.94333285093307495
0.63043308258056641 0.63803714513778687 0.9432787299156189
0.73241233825683594 0.65591329336166382 0.94319498538970947
0.8693881630897522 0.68960326910018921 0.94360196590423584
0.99999141693115234 0.71132838726043701 0.94813364744186401
0.48611554503440857 0.7590562105178833 0.94415581226348877
0.52993857860565186 0.75845170021057129 0.94401705265045166
0.63862991333007812 0.75686872005462646 0.94311606884002686
0.83953201770782471 0.79601418972015381 0.94689732789993286
0.99963688850402832 0.83079349994659424 0.95326089859008789
0.48562568426132202 0.96507358551025391 0.95902478694915771
0.53041118383407593 0.96532964706420898 0.95919859409332275
0.64507055282592773 0.96654343605041504 0.95990240573883057
0.805306077003479 0.96802359819412231 0.96107107400894165
0.99706393480300903 0.97328531742095947 0.96530485153198242
