Textures/38.cube
# Created by: G'MIC (https://gmic.eu)
TITLE "Fuji_400H_2.cube"
# LUT size
LUT_3D_SIZE 33
# Data domain
DOMAIN_MIN 0.0 0.0 0.0
DOMAIN_MAX 1.0 1.0 1.0
# LUT data points
0.021749027073383331 0.023779649287462234 0.016299404203891754
0.034831251949071884 0.024440629407763481 0.016080407425761223
0.051945850253105164 0.025595732033252716 0.016269298270344734
0.073914125561714172 0.027255464345216751 0.016419738531112671
0.097741715610027313 0.029271701350808144 0.016745634377002716
0.12395443022251129 0.030632944777607918 0.01658174954354763
0.15344761312007904 0.031607750803232193 0.01651589572429657
0.18519575893878937 0.030526867136359215 0.016224915161728859
0.22120226919651031 0.027646902948617935 0.015195495449006557
0.26137927174568176 0.021872976794838905 0.014222333207726479
0.30504769086837769 0.012038667686283588 0.012813004665076733
0.35292074084281921 0.0020322392228990793 0.010765749961137772
0.40178367495536804 0 0.0080456957221031189
0.45272618532180786 0 0.0056026959791779518
0.50401365756988525 0 0.0033016009256243706
0.55405491590499878 0 0.0011692862026393414
0.60231530666351318 0 0.00012596623855642974
0.64810639619827271 0 0
0.69107311964035034 0 0
0.73328059911727905 0 0
0.76970797777175903 0 0
0.80260944366455078 0 0
0.83257961273193359 0 0
0.85960710048675537 0 0
0.88505244255065918 0 0
0.90901643037796021 0.0016913817962631583 0
0.93182176351547241 0.036728423088788986 0
0.95361059904098511 0.085472047328948975 0
0.97529399394989014 0.12182530760765076 0
0.99435120820999146 0.15116234123706818 0
0.99995285272598267 0.1778462827205658 0
0.99997198581695557 0.20139838755130768 0
0.99999380111694336 0.22483786940574646 0
0.020808055996894836 0.037410158663988113 0.017164712771773338
0.032903615385293961 0.038177907466888428 0.016686988994479179
0.051516167819499969 0.040762688964605331 0.015912944450974464
0.074306085705757141 0.043149266391992569 0.015116145834326744
0.098592378199100494 0.045351080596446991 0.015216952189803123
0.12436558306217194 0.04647408053278923 0.015005618333816528
0.15343904495239258 0.047266557812690735 0.014654899016022682
0.18520672619342804 0.047256831079721451 0.014225468970835209
0.22219341993331909 0.045698117464780807 0.013698971830308437
0.26209834218025208 0.040589924901723862 0.012377642095088959
0.30588531494140625 0.03163287416100502 0.010811313055455685
0.35333064198493958 0.018352288752794266 0.0087668076157569885
0.40238556265830994 0.0042149531655013561 0.0062182657420635223
0.45282918214797974 3.7449655792443082e-05 0.0037975616287440062
0.50367933511734009 0 0.0017769999103620648
0.55320179462432861 0 0.0005243116756901145
0.60113304853439331 0 2.1420069970190525e-05
0.64705479145050049 0 0
0.69040989875793457 0 0
0.73166638612747192 0 0
0.7684934139251709 0 0
0.801566481590271 0 0
0.83123743534088135 0 0
0.85813981294631958 0 0
0.88391232490539551 0.00053146842401474714 0
0.90798062086105347 0.023500602692365646 0
0.9306488037109375 0.070685245096683502 0
0.95268464088439941 0.10817961394786835 0
0.974048912525177 0.1386113166809082 0
0.99379056692123413 0.1647072434425354 0
1 0.18927617371082306 0
0.99996209144592285 0.21110120415687561 0
0.99999552965164185 0.233379065990448 0
0.018990524113178253 0.055213682353496552 0.017791606485843658
0.030913269147276878 0.055149704217910767 0.017890013754367828
0.047972604632377625 0.057390719652175903 0.016924761235713959
0.071413084864616394 0.06065656989812851 0.015042449347674847
0.097219757735729218 0.063007108867168427 0.013810772448778152
0.12509141862392426 0.064353376626968384 0.01284553948789835
0.15501792728900909 0.065570466220378876 0.012598396278917789
0.18709735572338104 0.065694250166416168 0.011982380412518978
0.22346684336662292 0.064719706773757935 0.011089525185525417
0.26364296674728394 0.061470560729503632 0.010064485482871532
0.30754861235618591 0.055641576647758484 0.0085342861711978912
0.35458725690841675 0.045174822211265564 0.0062476187013089657
0.40292289853096008 0.030258877202868462 0.0038598082028329372
0.45330974459648132 0.012882155366241932 0.0022173896431922913
0.50391030311584473 0.00183005107101053 0.00082967511843889952
0.55284339189529419 1.4893555089656729e-05 9.532640251563862e-05
0.60073882341384888 0 8.511285614076769e-07
0.64645183086395264 0 0
0.69026708602905273 0 0
0.73123550415039062 0 0
0.76758968830108643 0 0
0.79984980821609497 0 0
0.83010309934616089 3.1738265533931553e-05 0
0.85733073949813843 0.0035139084793627262 0
0.88264411687850952 0.027068540453910828 0
0.90682590007781982 0.068297639489173889 0
0.92967629432678223 0.10237430781126022 0
0.95162492990493774 0.13146227598190308 0
0.97286063432693481 0.15736530721187592 0
0.99270540475845337 0.18064077198505402 0
0.99995124340057373 0.20297414064407349 0
0.99999707937240601 0.22324781119823456 0
0.99999839067459106 0.24435235559940338 0
0.013951028697192669 0.077670402824878693 0.018517196178436279
0.026016660034656525 0.076928675174713135 0.018982894718647003
0.042629677802324295 0.078339911997318268 0.018119437620043755
0.065623961389064789 0.080343596637248993 0.016419688239693642
0.092967286705970764 0.084080927073955536 0.014078396372497082
0.12264887243509293 0.08699488639831543 0.012244779616594315
0.15501467883586884 0.087883040308952332 0.010230501182377338
0.18922142684459686 0.088002748787403107 0.0088717164471745491
0.22581884264945984 0.087498292326927185 0.0075297928415238857
0.26604294776916504 0.085751436650753021 0.0065412307158112526
0.3092782199382782 0.082412391901016235 0.0047746147029101849
0.35655671358108521 0.076511546969413757 0.0033319520298391581
0.4048277735710144 0.067706778645515442 0.0017388806445524096
0.45505651831626892 0.055419061332941055 0.00055467739002779126
0.50519675016403198 0.038862660527229309 7.8161974670365453e-05
0.55420792102813721 0.020992495119571686 0
0.60203224420547485 0.0090209124609827995 0
0.64805972576141357 0.0035890068393200636 0
0.69199478626251221 0.0016882179770618677 0
0.73206984996795654 0.0018284028628841043 0
0.76811879873275757 0.0042409319430589676 0
0.80033606290817261 0.011525499634444714 0
0.83011245727539062 0.02874615415930748 0
0.85659879446029663 0.05675988644361496 0
0.88223105669021606 0.086255088448524475 0
0.90671712160110474 0.11297618597745895 0
0.92901325225830078 0.13720998167991638 0
0.95101577043533325 0.16019940376281738 0
0.97261101007461548 0.18233975768089294 0
0.99283653497695923 0.20274518430233002 0
0.99999845027923584 0.22233153879642487 0
0.99997860193252563 0.24111399054527283 0
1 0.260467529296875 0
0.0052436105906963348 0.10063688457012177 0.018321553245186806
0.017506444826722145 0.099470742046833038 0.019495617598295212
0.034137662500143051 0.10019470006227493 0.019189430400729179
0.057735424488782883 0.10199276357889175 0.017514042556285858
0.084409363567829132 0.10434935986995697 0.014895353466272354
0.11604371666908264 0.10841350257396698 0.011890809051692486
0.14984478056430817 0.11199196428060532 0.0092687718570232391
0.1857183426618576 0.11314116418361664 0.006180222611874342
0.22570320963859558 0.11275942623615265 0.0038618522230535746
0.26773205399513245 0.11231616884469986 0.0025890904944390059
0.31103292107582092 0.11062073707580566 0.0017808217089623213
0.35787144303321838 0.10730278491973877 0.00057335227029398084
0.40575742721557617 0.10266986489295959 0.00019958964549005032
0.45526435971260071 0.096503801643848419 1.1915800314454827e-05
0.50508946180343628 0.088306784629821777 0
0.5532306432723999 0.078387580811977386 0
0.60082459449768066 0.068547695875167847 0
0.64787507057189941 0.06021108478307724 0
0.69100302457809448 0.056130863726139069 0
0.73026472330093384 0.058384712785482407 0
0.76584535837173462 0.066994555294513702 0
0.79771816730499268 0.080141343176364899 0
0.82732868194580078 0.096174776554107666 0
0.85397863388061523 0.11349988728761673 0
0.87982231378555298 0.1320672333240509 0
0.904121994972229 0.1512167900800705 0
0.92658072710037231 0.17009322345256805 0
0.94899255037307739 0.18919548392295837 0
0.97052830457687378 0.20763427019119263 0
0.99107611179351807 0.22523303329944611 0
0.99997621774673462 0.24264125525951385 0
0.99997431039810181 0.25953254103660583 0
1 0.27689594030380249 0
0.0002870328607968986 0.12718220055103302 0.018097735941410065
0.0059765689074993134 0.12615056335926056 0.019342062994837761
0.022145351395010948 0.12539421021938324 0.019742786884307861
0.04709431529045105 0.12697108089923859 0.018160561099648476
0.075858518481254578 0.12878935039043427 0.016030585393309593
0.10669222474098206 0.13183410465717316 0.012905096635222435
0.14310763776302338 0.13642354309558868 0.008692324161529541
0.18118007481098175 0.14070919156074524 0.00485655153170228
0.22229155898094177 0.14269955456256866 0.0022626311983913183
0.26594087481498718 0.14265008270740509 0.0005818390054628253
0.31149566173553467 0.1411912590265274 8.5396568465512246e-05
0.35912561416625977 0.13939626514911652 4.255642579664709e-06
0.40663480758666992 0.13728111982345581 1.9859664917021291e-06
0.45541462302207947 0.13428211212158203 0
0.50466138124465942 0.13016712665557861 0
0.55288034677505493 0.12568859755992889 0
0.60179924964904785 0.12217667698860168 0
0.64821815490722656 0.11987016350030899 0
0.68999511003494263 0.11951226741075516 0
0.72864282131195068 0.12234940379858017 0
0.76392829418182373 0.12865173816680908 0
0.79596215486526489 0.13729125261306763 0
0.82487529516220093 0.14817614853382111 0
0.85200077295303345 0.16029636561870575 0
0.8776283860206604 0.17459486424922943 0
0.90171903371810913 0.18950431048870087 0
0.92479580640792847 0.20470619201660156 0
0.94692796468734741 0.22013914585113525 0
0.96829134225845337 0.23586980998516083 0
0.98868435621261597 0.25120729207992554 0
0.9999467134475708 0.26627105474472046 0
1 0.28107604384422302 0
0.99999141693115234 0.29687279462814331 0
0 0.15613949298858643 0.01712813600897789
9.4475275545846671e-05 0.15520015358924866 0.018437705934047699
0.0065118945203721523 0.15356087684631348 0.019790984690189362
0.030754808336496353 0.15406873822212219 0.019271682947874069
0.062991403043270111 0.1562240868806839 0.016342548653483391
0.096490927040576935 0.1589406281709671 0.013307273387908936
0.1320931613445282 0.16208145022392273 0.0092809861525893211
0.17284087836742401 0.16703906655311584 0.0043904976919293404
0.21677984297275543 0.17257459461688995 0.001046157325617969
0.26132649183273315 0.17516131699085236 4.9223603127757087e-05
0.3083702027797699 0.17600277066230774 0
0.35786086320877075 0.17494145035743713 0
0.40705350041389465 0.17320762574672699 0
0.45579168200492859 0.17159152030944824 0
0.50586491823196411 0.17037589848041534 0
0.55546128749847412 0.16937112808227539 0
0.60329341888427734 0.16829045116901398 0
0.64780020713806152 0.16791953146457672 0
0.68885505199432373 0.16938060522079468 0
0.72704190015792847 0.17264005541801453 0
0.76144546270370483 0.17797902226448059 0
0.79278808832168579 0.1846805065870285 0
0.82203185558319092 0.19330406188964844 0
0.84898674488067627 0.20306213200092316 0
0.87442213296890259 0.21422320604324341 0
0.89866667985916138 0.22655652463436127 0
0.92156344652175903 0.23889565467834473 0
0.9441412091255188 0.25217923521995544 0
0.9657900333404541 0.26597133278846741 0
0.98645645380020142 0.279185950756073 0
0.99969011545181274 0.29240238666534424 0
1 0.30538752675056458 0
0.99996143579483032 0.31981632113456726 0
0 0.18720912933349609 0.0153206717222929
0 0.18654291331768036 0.01671215333044529
0.0001023820077534765 0.18505273759365082 0.018038593232631683
0.0089726326987147331 0.18394197523593903 0.019175639376044273
0.042793020606040955 0.18583516776561737 0.016987886279821396
0.08213159441947937 0.18873676657676697 0.013286678120493889
0.12061147391796112 0.19161123037338257 0.0088733760640025139
0.16060185432434082 0.19526813924312592 0.0039334846660494804
0.2072010338306427 0.20079952478408813 0.00067317934008315206
0.25616312026977539 0.20729337632656097 0
0.30346661806106567 0.21078987419605255 0
0.35345503687858582 0.21224942803382874 0
0.40428650379180908 0.21192289888858795 0
0.45606279373168945 0.21095995604991913 0
0.50762587785720825 0.21026398241519928 0
0.55552250146865845 0.20963859558105469 0
0.60202896595001221 0.20997875928878784 0
0.64556556940078735 0.21113733947277069 0
0.68556463718414307 0.21291089057922363 0
0.72287487983703613 0.21593675017356873 0
0.75706809759140015 0.22076551616191864 0
0.7884218692779541 0.22686928510665894 0
0.8178068995475769 0.2341892272233963 0
0.84498769044876099 0.24243389070034027 0
0.8703727126121521 0.25194573402404785 0
0.89455163478851318 0.26217657327651978 0
0.91794592142105103 0.27297389507293701 0
0.94045090675354004 0.28438550233840942 0
0.96209347248077393 0.29580998420715332 0
0.98305338621139526 0.30712619423866272 0
0.99909418821334839 0.3186456561088562 0
1 0.32986527681350708 0
0.99995720386505127 0.34231707453727722 0
0 0.22301903367042542 0.010810182429850101
0 0.22274747490882874 0.012536833062767982
0 0.22090645134449005 0.014054004102945328
0.00012220154167152941 0.21894307434558868 0.016532724723219872
0.012977089732885361 0.21936541795730591 0.015151219442486763
0.059845734387636185 0.2217821478843689 0.011679471470415592
0.10592667758464813 0.22531653940677643 0.0069501088000833988
0.14961415529251099 0.22853085398674011 0.0023946776054799557
0.1947883814573288 0.23210491240024567 0.00020628665515687317
0.24473899602890015 0.23759777843952179 0
0.29864248633384705 0.24598348140716553 0
0.35032880306243896 0.25022593140602112 0
0.40237957239151001 0.25313869118690491 0
0.45376595854759216 0.25382563471794128 0
0.50550860166549683 0.25316426157951355 0
0.5542566180229187 0.2516714334487915 0
0.60019141435623169 0.25139644742012024 0
0.64318692684173584 0.25265136361122131 0
0.68272912502288818 0.25483393669128418 0
0.71960777044296265 0.25818488001823425 0
0.75312298536300659 0.26261600852012634 0
0.78448545932769775 0.26836833357810974 0
0.8134036660194397 0.27414748072624207 0
0.84048712253570557 0.28139185905456543 0
0.86636537313461304 0.28963875770568848 0
0.89092397689819336 0.29819473624229431 0
0.91417306661605835 0.30744761228561401 0
0.93693125247955322 0.31717082858085632 0
0.95861667394638062 0.32675814628601074 0
0.9797741174697876 0.33652374148368835 0
0.9978100061416626 0.34665676951408386 0
1 0.35633990168571472 0
0.99999582767486572 0.36705312132835388 0
0 0.25926250219345093 0.0052565732039511204
0 0.25978407263755798 0.0065056527964770794
0 0.25814983248710632 0.0082867546007037163
0 0.25599563121795654 0.010985407046973705
0.00029205228202044964 0.25429061055183411 0.012438174337148666
0.024984268471598625 0.25656014680862427 0.0088945263996720314
0.084748625755310059 0.26007682085037231 0.0044617275707423687
0.13538277149200439 0.26345929503440857 0.0011051674373447895
0.18494400382041931 0.26787856221199036 3.3903288567671552e-05
0.23432943224906921 0.27247411012649536 0
0.28807535767555237 0.27898788452148438 0
0.34645479917526245 0.28765374422073364 0
0.39871740341186523 0.29214489459991455 0
0.45025208592414856 0.29475495219230652 0
0.50153565406799316 0.29593557119369507 0
0.54961669445037842 0.29547610878944397 0
0.59586614370346069 0.29411372542381287 0
0.63897621631622314 0.29293698072433472 0
0.67804813385009766 0.29439538717269897 0
0.71491092443466187 0.29762324690818787 0
0.74826836585998535 0.30155786871910095 0
0.77903729677200317 0.30642658472061157 0
0.80848979949951172 0.31178784370422363 0
0.83572232723236084 0.31837847828865051 0
0.86147403717041016 0.32522934675216675 0
0.8861081600189209 0.33316218852996826 0
0.90937727689743042 0.34082549810409546 0
0.93236351013183594 0.34919285774230957 0
0.95463186502456665 0.35770916938781738 0
0.97587543725967407 0.36609816551208496 0
0.99592119455337524 0.3748670220375061 0
1 0.3830312192440033 0
1 0.39297321438789368 0
0 0.29758009314537048 0.00066644581966102123
0 0.29840859770774841 0.0011438819346949458
0 0.29709550738334656 0.0019727824255824089
0 0.29507133364677429 0.0039680842310190201
0 0.29337063431739807 0.0066811861470341682
0.0020114926155656576 0.29428073763847351 0.0055752880871295929
0.051351413130760193 0.2977898120880127 0.0020466004498302937
0.11783271282911301 0.30169022083282471 0.00018940887821372598
0.17329052090644836 0.30610135197639465 0
0.22478695213794708 0.31022778153419495 0
0.27679169178009033 0.31444022059440613 0
0.33334660530090332 0.32015091180801392 0
0.39334553480148315 0.32941949367523193 0
0.44551703333854675 0.33364835381507874 0
0.4958573579788208 0.33625578880310059 0
0.54344183206558228 0.33698993921279907 0
0.58932977914810181 0.33684676885604858 0
0.63234180212020874 0.33591300249099731 0
0.67193788290023804 0.33505803346633911 0
0.70849829912185669 0.33542639017105103 0
0.74181777238845825 0.33826011419296265 0
0.77300214767456055 0.34310141205787659 0
0.80211383104324341 0.34767845273017883 0
0.82975125312805176 0.35360133647918701 0
0.85577356815338135 0.35964968800544739 0
0.88054615259170532 0.366212397813797 0
0.90407097339630127 0.3727012574672699 0
0.92710268497467041 0.38001054525375366 0
0.94951820373535156 0.38739770650863647 0
0.97099930047988892 0.39459609985351562 0
0.99259489774703979 0.4016895592212677 0
1 0.40880578756332397 0
1 0.41691452264785767 0
0 0.34096223115921021 0
0 0.34185269474983215 0
0 0.34072929620742798 3.4328852052567527e-05
0 0.33869007229804993 0.00017203038441948593
0 0.33621975779533386 0.0010430696420371532
0 0.33448094129562378 0.001951053156517446
0.014139258302748203 0.33705493807792664 0.00041316667920909822
0.091440156102180481 0.34016016125679016 0
0.15652260184288025 0.34344583749771118 0
0.21230082213878632 0.34717696905136108 0
0.26555648446083069 0.35096010565757751 0
0.31967556476593018 0.3547709584236145 0
0.37547671794891357 0.35998496413230896 0
0.43602579832077026 0.36893749237060547 0
0.48852053284645081 0.37377631664276123 0
0.53622829914093018 0.37628096342086792 0
0.58246570825576782 0.37802329659461975 0
0.62505620718002319 0.37821832299232483 0
0.66442310810089111 0.37800103425979614 0
0.70141726732254028 0.3779233992099762 0
0.73534500598907471 0.37758395075798035 0
0.76680594682693481 0.37972995638847351 0
0.79631668329238892 0.38391360640525818 0
0.82402235269546509 0.38904032111167908 0
0.84980356693267822 0.39423462748527527 0
0.87503218650817871 0.4003155529499054 0
0.89907371997833252 0.4061177670955658 0
0.92260748147964478 0.41228249669075012 0
0.94525063037872314 0.41835352778434753 0
0.96720081567764282 0.42430961132049561 0
0.98926055431365967 0.43018695712089539 0
0.99994039535522461 0.43615835905075073 0
0.99998295307159424 0.44372144341468811 0
0 0.38049331307411194 0
0 0.38296410441398621 0
0 0.38144001364707947 0
0 0.3793562650680542 0
0 0.37692314386367798 0
0 0.37412315607070923 0.00013036123709753156
0.00055346614681184292 0.37402760982513428 3.1915042200125754e-05
0.052611365914344788 0.37700742483139038 0
0.1368231475353241 0.38051396608352661 0
0.19844323396682739 0.38387158513069153 0
0.25457897782325745 0.3874698281288147 0
0.30933493375778198 0.39112046360969543 0
0.36345455050468445 0.39526361227035522 0
0.41838347911834717 0.39905253052711487 0
0.47878032922744751 0.40823480486869812 0
0.5295640230178833 0.41309484839439392 0
0.5745851993560791 0.4149664044380188 0
0.61712163686752319 0.41625544428825378 0
0.65615689754486084 0.41727977991104126 0
0.69302624464035034 0.41768309473991394 0
0.72688740491867065 0.41771388053894043 0
0.75854283571243286 0.41783767938613892 0
0.78924274444580078 0.41849374771118164 0
0.81726104021072388 0.4218595027923584 0
0.84372854232788086 0.4262734055519104 0
0.86881381273269653 0.43119901418685913 0
0.89286446571350098 0.43602871894836426 0
0.91678959131240845 0.44168800115585327 0
0.93952429294586182 0.44668674468994141 0
0.96189582347869873 0.45169374346733093 0
0.98457729816436768 0.45693185925483704 0
0.9994850754737854 0.46177548170089722 0
0.99998760223388672 0.46813434362411499 0
0 0.42057844996452332 0
0 0.42185908555984497 0
0 0.42077013850212097 0
0 0.41885578632354736 0
0 0.41649523377418518 0
0 0.41357967257499695 0
0 0.41141819953918457 0
0.017486488446593285 0.41364908218383789 0
0.11192253232002258 0.41629868745803833 0
0.18295690417289734 0.42004865407943726 0
0.24202355742454529 0.42289531230926514 0
0.29817765951156616 0.42609691619873047 0
0.35220116376876831 0.42967155575752258 0
0.40576890110969543 0.43279114365577698 0
0.45977872610092163 0.43630179762840271 0
0.51702409982681274 0.44431576132774353 0
0.56661736965179443 0.44992008805274963 0
0.60880476236343384 0.45213505625724792 0
0.64746612310409546 0.45348522067070007 0
0.684059739112854 0.45445987582206726 0
0.71817505359649658 0.45495980978012085 0
0.75014716386795044 0.45593112707138062 0
0.78099024295806885 0.45638683438301086 0
0.80992311239242554 0.45700708031654358 0
0.83658599853515625 0.45778611302375793 0
0.86224347352981567 0.46117299795150757 0
0.88673841953277588 0.46556055545806885 0
0.91076022386550903 0.47009339928627014 0
0.93388593196868896 0.47412878274917603 0
0.95684677362442017 0.47882384061813354 0
0.9796525239944458 0.48313599824905396 0
0.99796289205551147 0.48686540126800537 0
0.99999541044235229 0.4920918345451355 0
0 0.45761975646018982 0
0 0.45964014530181885 0
0 0.45915091037750244 0
0 0.45739835500717163 0
0 0.45466023683547974 0
0 0.45210671424865723 0
0 0.44862565398216248 0
0.0011719546746462584 0.44869661331176758 0
0.078651122748851776 0.45066845417022705 0
0.16519759595394135 0.45351016521453857 0
0.22842547297477722 0.45645380020141602 0
0.28647524118423462 0.45947682857513428 0
0.34048730134963989 0.46239525079727173 0
0.39345130324363708 0.46534270048141479 0
0.4462830126285553 0.46844658255577087 0
0.49775484204292297 0.47169035673141479 0
0.55282819271087646 0.47953912615776062 0
0.60049349069595337 0.4853191077709198 0
0.63959139585494995 0.48749694228172302 0
0.67584109306335449 0.48927232623100281 0
0.71001631021499634 0.4906400740146637 0
0.74225068092346191 0.49162182211875916 0
0.77294796705245972 0.49271124601364136 0
0.80174225568771362 0.49301275610923767 0
0.82932138442993164 0.49344760179519653 0
0.85620594024658203 0.49379783868789673 0
0.88105237483978271 0.49494239687919617 0
0.90528672933578491 0.49828258156776428 0
0.9292023777961731 0.50215595960617065 0
0.95229512453079224 0.50569456815719604 0
0.97532063722610474 0.50936943292617798 0
0.99607396125793457 0.51292997598648071 0
1 0.51755708456039429 0
0 0.49318769574165344 0
0 0.49537661671638489 0
0 0.4943605363368988 0
0 0.49286782741546631 0
0 0.49055811762809753 0
0 0.48806148767471313 0
0 0.48449352383613586 0
0 0.48220744729042053 0
0.045220416039228439 0.48396778106689453 0
0.14768734574317932 0.48630997538566589 0
0.21627362072467804 0.48877063393592834 0
0.276396244764328 0.49162143468856812 0
0.33087757229804993 0.49425607919692993 0
0.38393571972846985 0.4970746636390686 0
0.43625965714454651 0.49968975782394409 0
0.48529505729675293 0.50176399946212769 0
0.53446251153945923 0.50451600551605225 0
0.58587294816970825 0.51156723499298096 0
0.63124310970306396 0.51803666353225708 0
0.6673283576965332 0.51965957880020142 0
0.70160073041915894 0.52207309007644653 0
0.73413825035095215 0.52386772632598877 0
0.76518362760543823 0.52473753690719604 0
0.79385536909103394 0.52581983804702759 0
0.82161480188369751 0.52612566947937012 0
0.84858512878417969 0.52610898017883301 0
0.87385386228561401 0.52610611915588379 0
0.89894729852676392 0.52612829208374023 0
0.92313641309738159 0.52772367000579834 0
0.94689184427261353 0.53094899654388428 0
0.97036659717559814 0.53385794162750244 0
0.99291509389877319 0.53682792186737061 0
1 0.54056215286254883 0
0 0.52755856513977051 0
0 0.52912843227386475 0
0 0.52797394990921021 0
0 0.52693343162536621 0
0 0.52471238374710083 0
0 0.5224035382270813 0
0 0.51959574222564697 0
0 0.51617032289505005 0
0.02232329361140728 0.51521122455596924 2.9646851544384845e-05
0.13049699366092682 0.5175517201423645 0
0.20513565838336945 0.51962196826934814 0
