Textures/39.cube
# Created by: G'MIC (https://gmic.eu)
TITLE "Fuji_800Z_2.cube"
# LUT size
LUT_3D_SIZE 5
# Data domain
DOMAIN_MIN 0.0 0.0 0.0
DOMAIN_MAX 1.0 1.0 1.0
# LUT data points
0.04486541822552681 0.046743091195821762 0.037262383848428726
0.24186612665653229 0.032989062368869781 0.03549627959728241
0.58594769239425659 0 0.017292732372879982
0.88200515508651733 0 0
0.99999380111694336 0.087948791682720184 0
0.046121496707201004 0.20381619036197662 0.063852265477180481
0.20754627883434296 0.23687458038330078 0.036920327693223953
0.5699383020401001 0.26177185773849487 0
0.85853427648544312 0.27527400851249695 0
0.99999582767486572 0.32421675324440002 0
0.042813234031200409 0.43888452649116516 0.11882215738296509
0.19021357595920563 0.42161929607391357 0.12385148555040359
0.497231125831604 0.52649009227752686 0.024179846048355103
0.81552428007125854 0.57330316305160522 0
0.99936914443969727 0.56427061557769775 0
0.21940861642360687 0.65698367357254028 0.22607621550559998
0.28522473573684692 0.64228606224060059 0.22397497296333313
0.46150943636894226 0.66487926244735718 0.22258256375789642
0.73528730869293213 0.74339359998703003 0.22246752679347992
0.97692191600799561 0.80163246393203735 0.21010525524616241
0.58031678199768066 0.89831340312957764 0.57287567853927612
0.60316002368927002 0.89641338586807251 0.57668346166610718
0.6633942723274231 0.89203161001205444 0.58890730142593384
0.7838103175163269 0.9241713285446167 0.60867220163345337
0.93160992860794067 0.95468074083328247 0.62301057577133179
0.079155206680297852 0.060662306845188141 0.2009139209985733
0.26579722762107849 0.055300019681453705 0.2171812504529953
0.6427949070930481 0 0.22762173414230347
0.89772927761077881 0 0.23574323952198029
0.99998295307159424 0.10743367671966553 0.23616912961006165
0.0439566969871521 0.2606569230556488 0.22299456596374512
0.27629327774047852 0.2714608907699585 0.23654662072658539
0.61369174718856812 0.26591649651527405 0.23249423503875732
0.87394815683364868 0.27413943409919739 0.22347874939441681
0.99999582767486572 0.32926639914512634 0.22745984792709351
0.18765699863433838 0.51224291324615479 0.27102223038673401
0.28594231605529785 0.48525404930114746 0.26564478874206543
0.53259050846099854 0.54421532154083252 0.25999739766120911
0.81802177429199219 0.56669241189956665 0.20395249128341675
0.99981606006622314 0.56566894054412842 0.20005212724208832
0.30133199691772461 0.68574398756027222 0.33608794212341309
0.35199493169784546 0.67239886522293091 0.32916516065597534
0.48087084293365479 0.66655701398849487 0.32197514176368713
0.74252021312713623 0.74773973226547241 0.3552185595035553
0.97391939163208008 0.79989492893218994 0.35492968559265137
0.5908210277557373 0.90355575084686279 0.60551470518112183
0.61247801780700684 0.90137666463851929 0.60786336660385132
0.6686631441116333 0.89519363641738892 0.6146777868270874
0.78469002246856689 0.92333012819290161 0.63650453090667725
0.93229609727859497 0.95506149530410767 0.65454000234603882
0.15159216523170471 0.084504768252372742 0.49780920147895813
0.33262601494789124 0.085153914988040924 0.51076352596282959
0.63728797435760498 0.04213208332657814 0.55416411161422729
0.93545526266098022 0 0.55942249298095703
1 0.21206134557723999 0.53810983896255493
0.11734490841627121 0.25744056701660156 0.51088470220565796
0.34165099263191223 0.28378084301948547 0.52699768543243408
0.63670057058334351 0.31276035308837891 0.5630335807800293
0.91494637727737427 0.32673612236976624 0.56577211618423462
1 0.39333584904670715 0.55702292919158936
0.14012156426906586 0.58289450407028198 0.5513729453086853
0.34974604845046997 0.58608168363571167 0.55805456638336182
0.60953664779663086 0.58960616588592529 0.5712592601776123
0.83145564794540405 0.58434206247329712 0.56153464317321777
0.99986493587493896 0.5909382700920105 0.55684399604797363
0.46728655695915222 0.75576937198638916 0.58340799808502197
0.51802480220794678 0.74826020002365112 0.58553051948547363
0.57382029294967651 0.70786261558532715 0.54629647731781006
0.76129782199859619 0.7603912353515625 0.58249348402023315
0.96926003694534302 0.79219692945480347 0.56625336408615112
0.61500018835067749 0.92112308740615845 0.68948841094970703
0.63363188505172729 0.91883569955825806 0.68807524442672729
0.68419390916824341 0.91077768802642822 0.68525713682174683
0.78310686349868774 0.92133498191833496 0.69829446077346802
0.93572449684143066 0.95661801099777222 0.72590440511703491
0.34690126776695251 0.14427922666072845 0.75772833824157715
0.45728170871734619 0.15249396860599518 0.76147645711898804
0.66608184576034546 0.19978064298629761 0.77129489183425903
0.87587535381317139 0.28003382682800293 0.79319304227828979
1 0.34635353088378906 0.78759431838989258
0.34592553973197937 0.30535909533500671 0.7562103271484375
0.45512500405311584 0.316354900598526 0.76034700870513916
0.65958470106124878 0.35975006222724915 0.77049046754837036
0.86326038837432861 0.42857110500335693 0.79276877641677856
1 0.47977137565612793 0.79238629341125488
0.19759161770343781 0.51050651073455811 0.73785543441772461
0.35651078820228577 0.51891559362411499 0.74419772624969482
0.62897038459777832 0.57568508386611938 0.76230078935623169
0.8337399959564209 0.63062816858291626 0.78989434242248535
0.99999934434890747 0.66245841979980469 0.80320727825164795
0.45538431406021118 0.7887040376663208 0.77701902389526367
0.51748758554458618 0.78938835859298706 0.77872973680496216
0.65038603544235229 0.78997701406478882 0.78278845548629761
0.80671244859695435 0.79597967863082886 0.79205125570297241
0.9768218994140625 0.79669880867004395 0.78786182403564453
0.671764075756073 0.95074748992919922 0.8201591968536377
0.69091784954071045 0.94953352212905884 0.82042813301086426
0.73984163999557495 0.94466257095336914 0.81882321834564209
0.79626733064651489 0.92988955974578857 0.79791033267974854
0.94572150707244873 0.96034669876098633 0.82662224769592285
0.60883969068527222 0.3929695188999176 0.94728851318359375
0.65472936630249023 0.40679547190666199 0.94646483659744263
0.76352077722549438 0.44883689284324646 0.94509321451187134
0.89570683240890503 0.52754384279251099 0.94341671466827393
0.99995285272598267 0.57193845510482788 0.94931000471115112
0.60585421323776245 0.48337048292160034 0.94473111629486084
0.65163558721542358 0.49463829398155212 0.94465982913970947
0.75911241769790649 0.52652657032012939 0.94330322742462158
0.89020735025405884 0.58554732799530029 0.94215309619903564
1 0.62113535404205322 0.9480050802230835
0.560699462890625 0.61466503143310547 0.94029909372329712
0.61923748254776001 0.62662404775619507 0.94029515981674194
0.73576360940933228 0.6461297869682312 0.9400489330291748
0.87395715713500977 0.68436437845230103 0.94074803590774536
0.99881637096405029 0.71916919946670532 0.94742846488952637
0.50030428171157837 0.77702802419662476 0.93861937522888184
0.53637820482254028 0.7728305459022522 0.93839442729949951
0.63249820470809937 0.75931376218795776 0.939106285572052
0.83431267738342285 0.79850578308105469 0.94224882125854492
0.98464453220367432 0.84575957059860229 0.94964784383773804
0.65687716007232666 0.9703642725944519 0.94834399223327637
0.68018263578414917 0.97014909982681274 0.94869428873062134
0.74545097351074219 0.96960908174514771 0.94998174905776978
0.84764945507049561 0.96877330541610718 0.95190352201461792
0.97329080104827881 0.97071784734725952 0.95741534233093262
