Textures/39.cube
# Created by: G'MIC (https://gmic.eu)
TITLE "Fuji_800Z_2.cube"
# LUT size
LUT_3D_SIZE 33
# Data domain
DOMAIN_MIN 0.0 0.0 0.0
DOMAIN_MAX 1.0 1.0 1.0
# LUT data points
0.04486541822552681 0.046743091195821762 0.037262383848428726
0.055959537625312805 0.047411896288394928 0.037218570709228516
0.071157358586788177 0.047828178852796555 0.037575516849756241
0.092872157692909241 0.047909744083881378 0.037238422781229019
0.11717903614044189 0.047827020287513733 0.037004195153713226
0.14459478855133057 0.046330839395523071 0.037263896316289902
0.1747448742389679 0.044245392084121704 0.03705761581659317
0.20669999718666077 0.039835017174482346 0.03644060343503952
0.24186612665653229 0.032989062368869781 0.03549627959728241
0.27904742956161499 0.023585271090269089 0.034757506102323532
0.31859117746353149 0.011932872235774994 0.033579114824533463
0.36088764667510986 0.0017638709396123886 0.031617488712072372
0.40427395701408386 0 0.029439082369208336
0.44931560754776001 0 0.027341226115822792
0.49534773826599121 0 0.024630598723888397
0.54053795337677002 0 0.021488765254616737
0.58594769239425659 0 0.017292732372879982
0.62976378202438354 0 0.012898202054202557
0.67244493961334229 0 0.00773641187697649
0.71573382616043091 0 0.0035167348105460405
0.75489318370819092 0 0.00071762182051315904
0.79116499423980713 0 1.8724827896221541e-05
0.82451492547988892 0 0
0.85404545068740845 0 0
0.88200515508651733 0 0
0.90839356184005737 0 0
0.93350076675415039 0 0
0.95708394050598145 0 0
0.98027509450912476 0 0
0.99822735786437988 0 0
0.99995285272598267 0.0030304735992103815 0
0.99997198581695557 0.039479821920394897 0
0.99999380111694336 0.087948791682720184 0
0.04614190012216568 0.05698254331946373 0.039335235953330994
0.054733134806156158 0.058755423873662949 0.038582820445299149
0.070568561553955078 0.061548009514808655 0.037790823727846146
0.092323347926139832 0.062791198492050171 0.036694113165140152
0.11685100942850113 0.063180513679981232 0.036792583763599396
0.14375419914722443 0.062331780791282654 0.036269623786211014
0.17350989580154419 0.060854543000459671 0.035893827676773071
0.20583648979663849 0.057491794228553772 0.03530053049325943
0.24128641188144684 0.05260167270898819 0.034753542393445969
0.2786390483379364 0.04484625905752182 0.033479683101177216
0.31828027963638306 0.034077711403369904 0.031929951161146164
0.3602791428565979 0.019488411024212837 0.030004300177097321
0.40365222096443176 0.0053987288847565651 0.028402796015143394
0.44854709506034851 0.00014411879237741232 0.025897009298205376
0.49404066801071167 0 0.022744359448552132
0.53922510147094727 0 0.019531663507223129
0.58400708436965942 0 0.01541813462972641
0.62803703546524048 0 0.010901916772127151
0.67131495475769043 0 0.0056156078353524208
0.71393567323684692 0 0.0018976499559357762
0.75340098142623901 0 0.00021987169748172164
0.7898213267326355 0 0
0.82263946533203125 0 0
0.85241645574569702 0 0
0.8807753324508667 0 0
0.90732645988464355 0 0
0.93202066421508789 0 0
0.95587557554244995 0 0
0.97922307252883911 0 0
0.99776142835617065 0.0018431907519698143 0
1 0.030513208359479904 0
0.99996209144592285 0.074076153337955475 0
0.99999552965164185 0.11022035032510757 0
0.047471661120653152 0.070265255868434906 0.041572671383619308
0.055081292986869812 0.071423836052417755 0.041286490857601166
0.06797606498003006 0.07503817230463028 0.039302859455347061
0.090267017483711243 0.079542189836502075 0.037174485623836517
0.11505775153636932 0.080296263098716736 0.035641204565763474
0.14298112690448761 0.079737760126590729 0.034765347838401794
0.17342454195022583 0.078661724925041199 0.034446127712726593
0.2056826651096344 0.076585486531257629 0.033673603087663651
0.24109572172164917 0.072989620268344879 0.032727502286434174
0.27837279438972473 0.068178758025169373 0.031644623726606369
0.31795912981033325 0.060921166092157364 0.030479053035378456
0.3597361147403717 0.050325281918048859 0.028385810554027557
0.40293216705322266 0.036178320646286011 0.026237497106194496
0.44771340489387512 0.019186800345778465 0.023919569328427315
0.49318191409111023 0.00545875309035182 0.020867185667157173
0.53791838884353638 0.00027216627495363355 0.017299812287092209
0.58264398574829102 0 0.012825020588934422
0.62659764289855957 0 0.0080757569521665573
0.67047226428985596 0 0.0037313592620193958
0.71299457550048828 0 0.00086863810429349542
0.75180500745773315 0 8.0857207649387419e-06
0.78800129890441895 0 0
0.82133549451828003 0 0
0.85104107856750488 0 0
0.87926667928695679 0 0
0.90583443641662598 0 0
0.9309161901473999 0 0
0.9548528790473938 0.00033772626193240285 0
0.9779970645904541 0.0090041374787688255 0
0.99696815013885498 0.037647366523742676 0
0.99995285272598267 0.07529420405626297 0
0.99999707937240601 0.10597100853919983 0
0.99999839067459106 0.13440059125423431 0
0.048490233719348907 0.088120222091674805 0.043996918946504593
0.056503087282180786 0.08803538978099823 0.044426612555980682
0.066732078790664673 0.091074466705322266 0.042656954377889633
0.084697499871253967 0.095676422119140625 0.039770562201738358
0.11236138641834259 0.10154382884502411 0.035867836326360703
0.14213170111179352 0.10324148088693619 0.03410618007183075
0.17298288643360138 0.10188200324773788 0.032515082508325577
0.20552019774913788 0.099941350519657135 0.031485050916671753
0.24081231653690338 0.097640752792358398 0.030289752408862114
0.27807071805000305 0.094773821532726288 0.029312215745449066
0.31748044490814209 0.090633243322372437 0.027697736397385597
0.35961976647377014 0.084522128105163574 0.025943448767066002
0.40253642201423645 0.076442122459411621 0.02364276722073555
0.4472523033618927 0.06594635546207428 0.020737644284963608
0.49274906516075134 0.051709957420825958 0.0174598079174757
0.53757232427597046 0.033962015062570572 0.013067914173007011
0.58266252279281616 0.018058739602565765 0.0087627293542027473
0.62744176387786865 0.0076460917480289936 0.0042913220822811127
0.67125725746154785 0.0024590741377323866 0.0010813111439347267
0.71311378479003906 0.0008299577166326344 0.00011330648703733459
0.75198620557785034 8.1743804912548512e-05 0
0.78795474767684937 0 0
0.82047879695892334 3.9896651287563145e-05 0
0.85015952587127686 0.00077675946522504091 0
0.87833064794540405 0.0025139728095382452 0
0.90523368120193481 0.0081484680995345116 0
0.93014436960220337 0.020303845405578613 0
0.95428979396820068 0.042971149086952209 0
0.97742217779159546 0.071856088936328888 0
0.99705517292022705 0.097144171595573425 0
0.99999845027923584 0.12044981122016907 0
0.99997860193252563 0.14197583496570587 0
1 0.16483816504478455 0
0.049162514507770538 0.10619881749153137 0.047044642269611359
0.057195216417312622 0.10554401576519012 0.04791075736284256
0.066482484340667725 0.10752411931753159 0.04697897657752037
0.080506019294261932 0.11217135190963745 0.044169161468744278
0.10287974029779434 0.11764860153198242 0.039812088012695312
0.13601896166801453 0.12594097852706909 0.034529291093349457
0.17044666409492493 0.12887382507324219 0.031372122466564178
0.2034275233745575 0.12769894301891327 0.029241373762488365
0.23921689391136169 0.12522037327289581 0.02733156830072403
0.27648398280143738 0.12349843978881836 0.025810252875089645
0.31583821773529053 0.12094447016716003 0.02423199824988842
0.35823595523834229 0.11754587292671204 0.022100850939750671
0.40065953135490417 0.11313368380069733 0.019402781501412392
0.44529736042022705 0.10771691799163818 0.016350105404853821
0.49062564969062805 0.1004599928855896 0.012622127309441566
0.53475219011306763 0.09160131961107254 0.0085334153845906258
0.58012336492538452 0.081919088959693909 0.0042001465335488319
0.62592130899429321 0.071522898972034454 0.0012281611561775208
0.66912740468978882 0.061690807342529297 0.00012238322233315557
0.71055454015731812 0.053308304399251938 8.511285614076769e-07
0.74863743782043457 0.048343557864427567 0
0.78446149826049805 0.047208409756422043 0
0.81739318370819092 0.049731016159057617 0
0.84718412160873413 0.055985789746046066 0
0.87538635730743408 0.066481411457061768 0
0.90201425552368164 0.079492054879665375 0
0.92715883255004883 0.093947999179363251 0
0.95184892416000366 0.10984891653060913 0
0.97483170032501221 0.12578226625919342 0
0.99545425176620483 0.14201420545578003 0
1 0.15825599431991577 0
0.99997431039810181 0.17517742514610291 0
1 0.19384346902370453 0
0.049494411796331406 0.12810385227203369 0.050822626799345016
0.058588650077581406 0.12691082060337067 0.051967456936836243
0.06742742657661438 0.1266874223947525 0.051994763314723969
0.079415455460548401 0.13114015758037567 0.049622196704149246
0.097704149782657623 0.13663959503173828 0.045766141265630722
0.12491865456104279 0.14404986798763275 0.040331963449716568
0.16325011849403381 0.15413403511047363 0.032733283936977386
0.20179131627082825 0.15930439531803131 0.027401337400078773
0.23830647766590118 0.15838471055030823 0.024913012981414795
0.27534464001655579 0.15615342557430267 0.022156547755002975
0.31403487920761108 0.15329885482788086 0.019483610987663269
0.35554042458534241 0.15109226107597351 0.01697288453578949
0.39823630452156067 0.14880353212356567 0.013669643551111221
0.44246998429298401 0.14589336514472961 0.0098976586014032364
0.48763549327850342 0.14250779151916504 0.0062507814727723598
0.53233945369720459 0.13804891705513 0.0029472853057086468
0.57906579971313477 0.13378381729125977 0.00070363568374887109
0.62419557571411133 0.12984274327754974 5.4046664445195347e-05
0.66682779788970947 0.1258016973733902 0
0.70752763748168945 0.12281621247529984 0
0.74574846029281616 0.12221378833055496 0
0.78131842613220215 0.12290652841329575 0
0.81408321857452393 0.1250244528055191 0
0.84419018030166626 0.12878182530403137 0
0.87242954969406128 0.13459160923957825 0
0.89930039644241333 0.14197167754173279 0
0.92473548650741577 0.15078862011432648 0
0.94897168874740601 0.16085904836654663 0
0.97237437963485718 0.17212271690368652 0
0.99362683296203613 0.18379224836826324 0
0.99999845027923584 0.19652490317821503 0
1 0.20989637076854706 0
0.99999141693115234 0.22523297369480133 0
0.049174994230270386 0.15149250626564026 0.054820273071527481
0.058518365025520325 0.15062105655670166 0.055653493851423264
0.068148314952850342 0.1488477885723114 0.056519463658332825
0.080114006996154785 0.15141445398330688 0.055517751723527908
0.095767490565776825 0.15689799189567566 0.051761195063591003
0.11848408728837967 0.16405954957008362 0.046944078058004379
0.14970698952674866 0.17251494526863098 0.040238868445158005
0.19153079390525818 0.18445758521556854 0.030149022117257118
0.23608854413032532 0.19253450632095337 0.021660447120666504
0.27465680241584778 0.19245320558547974 0.017723971977829933
0.31403139233589172 0.19093543291091919 0.01406975369900465
0.35468170046806335 0.18791864812374115 0.010376211255788803
0.39584454894065857 0.18541723489761353 0.0063525955192744732
0.43996241688728333 0.18354709446430206 0.0032260254956781864
0.48552829027175903 0.1825074702501297 0.00099967082496732473
0.53212577104568481 0.18130707740783691 0.00013156833301763982
0.57814401388168335 0.1794268786907196 0
0.62208467721939087 0.17753428220748901 0
0.66400396823883057 0.17647558450698853 0
0.70447003841400146 0.175779789686203 0
0.74231374263763428 0.17633354663848877 0
0.77734553813934326 0.17715543508529663 0
0.81020522117614746 0.17938460409641266 0
0.84046453237533569 0.1822551041841507 0
0.86861729621887207 0.18662317097187042 0
0.89601391553878784 0.19206668436527252 0
0.92113578319549561 0.19849479198455811 0
0.94577616453170776 0.20614531636238098 0
0.9692654013633728 0.21479043364524841 0
0.99113929271697998 0.22375461459159851 0
0.99999380111694336 0.23458622395992279 0
1 0.24551832675933838 0
0.99996143579483032 0.25889414548873901 0
0.048491615802049637 0.17600907385349274 0.059270475059747696
0.058550309389829636 0.17531789839267731 0.060215964913368225
0.069069460034370422 0.17340953648090363 0.061060857027769089
0.081068694591522217 0.17287896573543549 0.061325725167989731
0.095514684915542603 0.17821234464645386 0.058326356112957001
0.11538151651620865 0.18489690124988556 0.054099537432193756
0.14239247143268585 0.19335775077342987 0.047585081309080124
0.17682874202728271 0.20295572280883789 0.038950759917497635
0.22311787307262421 0.21674911677837372 0.026056405156850815
0.27285611629486084 0.22841580212116241 0.013854095712304115
0.31356722116470337 0.2293422669172287 0.0079636452719569206
0.35499194264411926 0.22788619995117188 0.0037184897810220718
0.39667317271232605 0.22585445642471313 0.0011145147727802396
0.43937364220619202 0.22312928736209869 0.00013135299377609044
0.48425713181495667 0.22189123928546906 7.0927371780271642e-06
0.52895873785018921 0.22131359577178955 0
0.57401251792907715 0.22103868424892426 0
0.61755788326263428 0.22069516777992249 0
0.65899175405502319 0.22064054012298584 0
0.69885236024856567 0.22061477601528168 0
0.73641490936279297 0.22204482555389404 0
0.77172392606735229 0.22365064918994904 0
0.80460131168365479 0.22570784389972687 0
0.83496391773223877 0.22837041318416595 0
0.86372429132461548 0.23203277587890625 0
0.89073920249938965 0.23637990653514862 0
0.91666591167449951 0.24139662086963654 0
0.94148397445678711 0.24751494824886322 0
0.9649614691734314 0.25448352098464966 0
0.98743528127670288 0.26211383938789368 0
0.99993634223937988 0.27033445239067078 0
1 0.27970010042190552 0
0.99995720386505127 0.2908303439617157 0
0.046121496707201004 0.20381619036197662 0.063852265477180481
0.057352986186742783 0.20279178023338318 0.065114013850688934
0.068893484771251678 0.20112857222557068 0.065554223954677582
0.082264423370361328 0.19878380000591278 0.066815569996833801
0.09656263142824173 0.20137272775173187 0.065212070941925049
0.11458029597997665 0.20822986960411072 0.061555922031402588
0.13881750404834747 0.21667614579200745 0.055711701512336731
0.16931959986686707 0.2262510359287262 0.047712206840515137
0.20754627883434296 0.23687458038330078 0.036920327693223953
0.25656327605247498 0.25171130895614624 0.020601121708750725
0.31218317151069641 0.26768481731414795 0.0042621656320989132
0.35667109489440918 0.27021020650863647 0.00039200115134008229
0.40000545978546143 0.27023831009864807 1.4468931112787686e-05
0.44269618391990662 0.2686971127986908 0
0.48555189371109009 0.26605033874511719 0
0.52712476253509521 0.26282474398612976 0
0.5699383020401001 0.26177185773849487 0
0.61257684230804443 0.26260116696357727 0
0.65367835760116577 0.26319366693496704 0
0.69337034225463867 0.26444920897483826 0
0.73078060150146484 0.26606559753417969 0
0.76611602306365967 0.26816427707672119 0
0.79884487390518188 0.26971668004989624 0
0.82960611581802368 0.2721964418888092 0
0.85853427648544312 0.27527400851249695 0
0.88624697923660278 0.27894997596740723 0
0.91182738542556763 0.2830645740032196 0
0.93679046630859375 0.2880607545375824 0
0.96057891845703125 0.29354289174079895 0
0.98324817419052124 0.29983028769493103 0
0.99933946132659912 0.30699169635772705 0
1 0.31442743539810181 0
0.99999582767486572 0.32421675324440002 0
0.044098936021327972 0.23115956783294678 0.068817541003227234
0.055872835218906403 0.23109644651412964 0.070106416940689087
0.068258278071880341 0.22917337715625763 0.070737272500991821
0.082841508090496063 0.22625227272510529 0.072214022278785706
0.097982972860336304 0.22529448568820953 0.072453103959560394
0.11479446291923523 0.23143516480922699 0.068926326930522919
0.13704486191272736 0.23982825875282288 0.064040161669254303
0.16479150950908661 0.24961245059967041 0.05713324248790741
0.19975154101848602 0.2608521580696106 0.047267865389585495
0.24177971482276917 0.2739584743976593 0.033193483948707581
0.29410773515701294 0.29037001729011536 0.013823377899825573
0.35577049851417542 0.30979198217391968 0.0004259617708157748
0.4023531973361969 0.31426280736923218 0
0.44531947374343872 0.31399828195571899 0
0.48823449015617371 0.31217128038406372 0
0.52900081872940063 0.30962049961090088 0
0.56842625141143799 0.30586940050125122 0
0.60748374462127686 0.30301889777183533 0
0.6470026969909668 0.30262768268585205 0
0.68637871742248535 0.30449497699737549 0
0.72355848550796509 0.30629986524581909 0
0.75873255729675293 0.30834311246871948 0
0.79237961769104004 0.31042948365211487 0
0.82332879304885864 0.31295105814933777 0
0.85238200426101685 0.31546515226364136 0
0.8803027868270874 0.31847009062767029 0
0.90622812509536743 0.32193019986152649 0
0.93154674768447876 0.32624387741088867 0
0.95554649829864502 0.33121678233146667 0
0.97842115163803101 0.33620467782020569 0
0.99775713682174683 0.34206011891365051 0
1 0.34874764084815979 0
1 0.35734328627586365 0
0.04085097461938858 0.25995767116546631 0.074120797216892242
0.053802389651536942 0.25991633534431458 0.075314775109291077
0.067303434014320374 0.25812458992004395 0.076104231178760529
0.082988947629928589 0.25559991598129272 0.077756896615028381
0.099251724779605865 0.25308465957641602 0.078934937715530396
0.11656529456377029 0.25679746270179749 0.077280662953853607
0.13711161911487579 0.26495447754859924 0.072798594832420349
0.16285361349582672 0.27483820915222168 0.066505476832389832
0.19519002735614777 0.28611597418785095 0.05801212415099144
0.23357804119586945 0.29866841435432434 0.045581638813018799
0.27844348549842834 0.31258296966552734 0.028406817466020584
0.33351060748100281 0.32971194386482239 0.0073542040772736073
0.3982594907283783 0.35208922624588013 7.9967838246375322e-05
0.44715884327888489 0.35838913917541504 0
0.49000141024589539 0.35738617181777954 0
0.52978348731994629 0.35504236817359924 0
0.56923419237136841 0.35214126110076904 0
0.6071392297744751 0.34867370128631592 0
0.64286327362060547 0.34468185901641846 0
0.67880493402481079 0.34257367253303528 0
0.71548748016357422 0.34406986832618713 0
0.75076377391815186 0.34625285863876343 0
0.7843165397644043 0.34827101230621338 0
0.81575733423233032 0.35091918706893921 0
0.84529578685760498 0.35332134366035461 0
0.87327808141708374 0.35592767596244812 0
0.8994603157043457 0.35897147655487061 0
0.92483103275299072 0.36226683855056763 0
0.94930702447891235 0.36618837714195251 0
0.97261351346969604 0.37059217691421509 0
0.99438482522964478 0.3756367564201355 0
1 0.3809870183467865 0
1 0.38810116052627563 0
0.03747279942035675 0.29227170348167419 0.080645129084587097
0.051616065204143524 0.29235553741455078 0.081813357770442963
0.066304571926593781 0.29030615091323853 0.082431450486183167
0.083242341876029968 0.28811940550804138 0.08404182642698288
0.10090003907680511 0.28476551175117493 0.085549831390380859
0.11838371306657791 0.28339290618896484 0.085743270814418793
0.13812656700611115 0.29044196009635925 0.081922300159931183
0.16214548051357269 0.29981914162635803 0.076432675123214722
0.19145478308200836 0.31052115559577942 0.068968556821346283
0.22649618983268738 0.32253894209861755 0.058661900460720062
0.26693046092987061 0.33568793535232544 0.044052675366401672
0.31495293974876404 0.35020497441291809 0.022954331710934639
0.36966502666473389 0.3673073947429657 0.0036135781556367874
0.43740370869636536 0.39207643270492554 1.7022571228153538e-06
0.48961919546127319 0.40122199058532715 0
0.53046524524688721 0.4001731276512146 0
0.57006418704986572 0.39855223894119263 0
0.60747814178466797 0.39562869071960449 0
0.64318102598190308 0.39220884442329407 0
0.67762064933776855 0.38869404792785645 0
0.71024864912033081 0.38510537147521973 0
0.7432437539100647 0.38444358110427856 0
0.77684938907623291 0.38620856404304504 0
0.80831807851791382 0.38860434293746948 0
0.83798986673355103 0.39063200354576111 0
0.86649584770202637 0.39317485690116882 0
0.89363229274749756 0.39590057730674744 0
0.91899716854095459 0.39865288138389587 0
0.94365662336349487 0.40208175778388977 0
0.96745544672012329 0.40576142072677612 0
0.99064749479293823 0.40995651483535767 0
0.99995285272598267 0.41438597440719604 0
0.99998295307159424 0.42132082581520081 0
0.03416399285197258 0.32188922166824341 0.087001964449882507
0.049580346792936325 0.32293573021888733 0.088567346334457397
0.06542852520942688 0.32114067673683167 0.08934396505355835
0.083079308271408081 0.31853139400482178 0.090606935322284698
0.10141570866107941 0.31531089544296265 0.091790810227394104
0.12032847851514816 0.31169673800468445 0.093377552926540375
0.13935843110084534 0.31444317102432251 0.091415680944919586
0.16189657151699066 0.32322993874549866 0.086526870727539062
0.18959785997867584 0.33388859033584595 0.080178916454315186
0.22156842052936554 0.34556147456169128 0.071687452495098114
0.25936934351921082 0.35900202393531799 0.059729006141424179
0.30335894227027893 0.37300622463226318 0.042163975536823273
0.35247522592544556 0.38850951194763184 0.018459038808941841
0.40820896625518799 0.40517261624336243 0.0014551171334460378
0.47686848044395447 0.43087413907051086 0
0.53085744380950928 0.44315055012702942 0
0.57008206844329834 0.44179323315620422 0
0.60750621557235718 0.4396817684173584 0
0.64273750782012939 0.43679222464561462 0
0.67663305997848511 0.43335172533988953 0
0.7089809775352478 0.42992237210273743 0
0.73944228887557983 0.42630854249000549 0
0.76968282461166382 0.42301839590072632 0
0.80007022619247437 0.42307275533676147 0
0.82997298240661621 0.42512398958206177 0
0.85873699188232422 0.42714095115661621 0
0.88545018434524536 0.42927297949790955 0
0.91194134950637817 0.4319995641708374 0
0.93711143732070923 0.43479201197624207 0
0.96103638410568237 0.43760773539543152 0
0.98472887277603149 0.44142106175422668 0
0.99953174591064453 0.44538149237632751 0
0.99998760223388672 0.45120048522949219 0
0.03216925635933876 0.35251849889755249 0.094342954456806183
0.048226084560155869 0.35305991768836975 0.095510639250278473
0.064555101096630096 0.35114353895187378 0.096386909484863281
0.08342299610376358 0.34876513481140137 0.097411796450614929
0.10254462063312531 0.34551718831062317 0.0986219123005867
0.12185161560773849 0.34124189615249634 0.099937520921230316
0.14118121564388275 0.33949342370033264 0.10051967948675156
0.16277334094047546 0.34694841504096985 0.096814826130867004
0.18825653195381165 0.35714176297187805 0.091064684092998505
0.21879889070987701 0.368287593126297 0.084354564547538757
0.25346416234970093 0.38087514042854309 0.074852876365184784
0.29358729720115662 0.39455798268318176 0.060544416308403015
0.33904990553855896 0.40954267978668213 0.041280489414930344
0.38953185081481934 0.4251360297203064 0.015409880317747593
0.44580739736557007 0.44219750165939331 0.0006174095906317234
0.51254349946975708 0.46685785055160522 0
0.56983602046966553 0.48300758004188538 0
0.60718011856079102 0.48191666603088379 0
0.64219319820404053 0.47953066229820251 0
0.67558044195175171 0.47661545872688293 0
0.70765870809555054 0.47331812977790833 0
0.73818135261535645 0.46975803375244141 0
0.7674868106842041 0.46550938487052917 0
0.79526412487030029 0.4617646336555481 0
0.82237660884857178 0.45899328589439392 0
0.85055381059646606 0.4597088098526001 0
0.87799113988876343 0.46152326464653015 0
0.90440207719802856 0.46367654204368591 0
0.92983180284500122 0.46592703461647034 0
0.95440715551376343 0.4686468243598938 0
0.97838133573532104 0.47186976671218872 0
0.99757289886474609 0.47503894567489624 0
0.99999541044235229 0.47991141676902771 0
0.032251559197902679 0.38143506646156311 0.10185664147138596
0.04877835139632225 0.38255688548088074 0.10292794555425644
0.065908811986446381 0.38096621632575989 0.10399117320775986
0.085062801837921143 0.37900876998901367 0.10533407330513
0.1039704754948616 0.37500053644180298 0.10569466650485992
0.12379612773656845 0.37135022878646851 0.10719478875398636
0.14355297386646271 0.36690428853034973 0.10870269685983658
0.1638660728931427 0.36968335509300232 0.10720719397068024
0.18764084577560425 0.37873607873916626 0.10201264917850494
0.21603105962276459 0.38984233140945435 0.096245929598808289
0.24842910468578339 0.40167826414108276 0.088463224470615387
0.28613963723182678 0.41520854830741882 0.078005246818065643
0.32775962352752686 0.4291747510433197 0.063390232622623444
0.37451335787773132 0.44420793652534485 0.042538892477750778
