Textures/4.cube
# Created by: G'MIC (https://gmic.eu)
TITLE "BleachBypass3.cube"
# LUT size
LUT_3D_SIZE 33
# Data domain
DOMAIN_MIN 0.0 0.0 0.0
DOMAIN_MAX 1.0 1.0 1.0
# LUT data points
0.084576338529586792 0.082507006824016571 0.080762222409248352
0.089649654924869537 0.082863427698612213 0.080825746059417725
0.095915466547012329 0.084324382245540619 0.082352533936500549
0.10216265171766281 0.08552464097738266 0.083667613565921783
0.11336161196231842 0.0889134481549263 0.087221376597881317
0.12833128869533539 0.093804061412811279 0.092059783637523651
0.14348253607749939 0.098848424851894379 0.097117021679878235
0.15674372017383575 0.10296683758497238 0.10106103867292404
0.16761326789855957 0.1054525151848793 0.10335308313369751
0.17796872556209564 0.10760106891393661 0.10563890635967255
0.18830625712871552 0.10982509702444077 0.10807611048221588
0.19920015335083008 0.11228154599666595 0.11061571538448334
0.21616826951503754 0.11703671514987946 0.11536983400583267
0.23515418171882629 0.12258005142211914 0.12113473564386368
0.25424173474311829 0.1283227801322937 0.12681485712528229
0.27003303170204163 0.13228754699230194 0.13060498237609863
0.28488248586654663 0.13530473411083221 0.1338939368724823
0.29949656128883362 0.13818918168544769 0.13674251735210419
0.31405353546142578 0.14121660590171814 0.1400153785943985
0.32934823632240295 0.14441500604152679 0.14335480332374573
0.35084900259971619 0.15025585889816284 0.14927271008491516
0.37440669536590576 0.15676373243331909 0.15585103631019592
0.3978443443775177 0.16332288086414337 0.16263295710086823
0.41775426268577576 0.1674140989780426 0.16677059233188629
0.43703237175941467 0.17139919102191925 0.17093230783939362
0.45651385188102722 0.17544935643672943 0.17491428554058075
0.47515136003494263 0.17941395938396454 0.17909534275531769
0.49375924468040466 0.18345578014850616 0.1832861453294754
0.49803903698921204 0.18434210121631622 0.18431404232978821
0.49803903698921204 0.1843140572309494 0.1843140572309494
0.49803903698921204 0.1843140572309494 0.1843140572309494
0.49803903698921204 0.1843140572309494 0.1843140572309494
0.49803903698921204 0.1843140572309494 0.1843140572309494
0.096735425293445587 0.096045739948749542 0.092001438140869141
0.094161532819271088 0.09116770327091217 0.084397032856941223
0.0984654501080513 0.091170027852058411 0.083733707666397095
0.10488323867321014 0.092603385448455811 0.085156984627246857
0.11525976657867432 0.095836102962493896 0.088223807513713837
0.13040277361869812 0.1006745919585228 0.09322134405374527
0.14526255428791046 0.10570834577083588 0.098319932818412781
0.15931679308414459 0.11045746505260468 0.10240398347377777
0.17147284746170044 0.11421473324298859 0.10517535358667374
0.18206650018692017 0.1167033314704895 0.10766290128231049
0.1924433708190918 0.11889921873807907 0.10992810130119324
0.20316196978092194 0.12132776528596878 0.11236966401338577
0.21945314109325409 0.12594118714332581 0.11719121783971786
0.23864784836769104 0.13143742084503174 0.12293484807014465
0.25769832730293274 0.13717584311962128 0.12875719368457794
0.27481573820114136 0.14218443632125854 0.13279326260089874
0.29032990336418152 0.1457897424697876 0.13621832430362701
0.30490976572036743 0.14871539175510406 0.13946971297264099
0.31949931383132935 0.15165324509143829 0.14251053333282471
0.33410781621932983 0.1545708179473877 0.14588174223899841
0.35522574186325073 0.15964461863040924 0.15141725540161133
0.37833318114280701 0.16608625650405884 0.15807972848415375
0.40226006507873535 0.17232559621334076 0.16456766426563263
0.42325210571289062 0.17782057821750641 0.16946429014205933
0.44244757294654846 0.18154712021350861 0.17353881895542145
0.46157383918762207 0.18503905832767487 0.17745929956436157
0.48020586371421814 0.18847917020320892 0.18128575384616852
0.49835866689682007 0.19191454350948334 0.1851075291633606
0.50294113159179688 0.19229385256767273 0.18586607277393341
0.50294119119644165 0.19168210029602051 0.18586607277393341
0.50250309705734253 0.19088104367256165 0.18586607277393341
0.50148230791091919 0.19020776450634003 0.18579511344432831
0.50114381313323975 0.1895517110824585 0.18500183522701263
0.11030169576406479 0.11032998561859131 0.10470950603485107
0.10622156411409378 0.1047583743929863 0.095378592610359192
0.10302086919546127 0.099709369242191315 0.08699323982000351
0.10797788202762604 0.10020557045936584 0.087002046406269073
0.11742968112230301 0.10280256718397141 0.089746758341789246
0.13227611780166626 0.10780751705169678 0.094557538628578186
0.14734061062335968 0.11264006048440933 0.099487707018852234
0.1613115519285202 0.11742217838764191 0.10370367765426636
0.17423813045024872 0.12190049886703491 0.1067139133810997
0.18611586093902588 0.125420942902565 0.10930617153644562
0.19672919809818268 0.12786833941936493 0.11174597591161728
0.20725317299365997 0.13015551865100861 0.1144322007894516
0.22292885184288025 0.13454657793045044 0.11877921968698502
0.24204930663108826 0.14017629623413086 0.12473618984222412
0.26125746965408325 0.14586146175861359 0.13059371709823608
0.27892059087753296 0.15113057196140289 0.13497485220432281
0.29546350240707397 0.15612891316413879 0.13868536055088043
0.31086784601211548 0.15964475274085999 0.14189188182353973
0.32517784833908081 0.16247172653675079 0.14526596665382385
0.34019386768341064 0.1653740406036377 0.1484684944152832
0.36016172170639038 0.17067871987819672 0.15401551127433777
0.38368391990661621 0.17662854492664337 0.16062748432159424
0.40701022744178772 0.18317891657352448 0.16727276146411896
0.42894873023033142 0.18928268551826477 0.17236809432506561
0.44979748129844666 0.1942741721868515 0.17693585157394409
0.46912193298339844 0.19807177782058716 0.18093079328536987
0.48803931474685669 0.20157638192176819 0.18471047282218933
0.50650632381439209 0.2048153281211853 0.18878178298473358
0.51302856206893921 0.20565603673458099 0.19011428952217102
0.51210218667984009 0.20523664355278015 0.19005578756332397
0.51151943206787109 0.20446737110614777 0.1892755925655365
0.51151943206787109 0.20366358757019043 0.1892155259847641
0.51093161106109619 0.20291265845298767 0.1892155259847641
0.11726243793964386 0.11815396696329117 0.11058931052684784
0.11327918618917465 0.11441837251186371 0.10218556970357895
0.10886373370885849 0.10891927778720856 0.092543460428714752
0.11133530735969543 0.10782100260257721 0.089292012155056
0.11956716328859329 0.11006736755371094 0.091066822409629822
0.13426609337329865 0.11479321867227554 0.095929443836212158
0.14917421340942383 0.11976047605276108 0.10095389932394028
0.16332429647445679 0.12440637499094009 0.10507910698652267
0.1762697845697403 0.12887977063655853 0.10812655836343765
0.18908832967281342 0.13344788551330566 0.11113274097442627
0.20070779323577881 0.13698120415210724 0.11403438448905945
0.2115212082862854 0.13937960565090179 0.11653435975313187
0.2264249175786972 0.14331229031085968 0.1206352636218071
0.24545790255069733 0.14916414022445679 0.12674927711486816
0.26486921310424805 0.15469656884670258 0.13244397938251495
0.28226405382156372 0.16015896201133728 0.13718162477016449
0.29928374290466309 0.16530004143714905 0.14099001884460449
0.31609198451042175 0.17013080418109894 0.14474767446517944
0.33142706751823425 0.17372672259807587 0.14827725291252136
0.34610950946807861 0.17676489055156708 0.15173487365245819
0.3654385507106781 0.18129360675811768 0.15661513805389404
0.38873389363288879 0.1878054141998291 0.16320706903934479
0.41254398226737976 0.19388771057128906 0.17014069855213165
0.43444427847862244 0.1997109055519104 0.17524024844169617
0.45566046237945557 0.20552413165569305 0.17982614040374756
0.47644683718681335 0.21081125736236572 0.18429857492446899
0.49552944302558899 0.21472100913524628 0.18821074068546295
0.51427972316741943 0.21815992891788483 0.19233416020870209
0.52205896377563477 0.2192598432302475 0.19354122877120972
0.52205896377563477 0.21858280897140503 0.1934640109539032
0.52168530225753784 0.21815022826194763 0.19346398115158081
0.52075880765914917 0.21741271018981934 0.1934640109539032
0.52026158571243286 0.21661923825740814 0.19319373369216919
0.12191663682460785 0.12379429489374161 0.11497309058904648
0.1177886426448822 0.12062720209360123 0.10663555562496185
0.11286398023366928 0.11611993610858917 0.096566475927829742
0.11550872027873993 0.11576184630393982 0.092965379357337952
0.12233131378889084 0.11729923635721207 0.092869073152542114
0.13615500926971436 0.12184774875640869 0.097368538379669189
0.15124520659446716 0.12684260308742523 0.10236874967813492
0.16527630388736725 0.13154014945030212 0.10678958892822266
0.17827145755290985 0.13589020073413849 0.10987231880426407
0.1909123957157135 0.14042127132415771 0.11267223954200745
0.20354960858821869 0.1448071151971817 0.11567504703998566
0.21562813222408295 0.14841726422309875 0.11856801062822342
0.2297833263874054 0.15222547948360443 0.12270258367061615
0.24902233481407166 0.1579696387052536 0.12846197187900543
0.2685110867023468 0.16378098726272583 0.13470058143138885
0.28631550073623657 0.16905343532562256 0.13945955038070679
0.30347046256065369 0.17414569854736328 0.14329460263252258
0.32044234871864319 0.1793486475944519 0.14717675745487213
0.33678659796714783 0.18437843024730682 0.15086063742637634
0.35220915079116821 0.18784959614276886 0.15429536998271942
0.37063539028167725 0.19240778684616089 0.15929496288299561
0.39384377002716064 0.19828012585639954 0.16595911979675293
0.41778498888015747 0.20494881272315979 0.17280249297618866
0.43983155488967896 0.21086779236793518 0.17825940251350403
0.46101275086402893 0.21650665998458862 0.18271730840206146
0.48229840397834778 0.22228510677814484 0.18726025521755219
0.50288224220275879 0.22745440900325775 0.19159455597400665
0.52198594808578491 0.23127305507659912 0.19576847553253174
0.53201282024383545 0.23260198533535004 0.19771219789981842
0.53115880489349365 0.23210351169109344 0.19771219789981842
0.53055906295776367 0.23142719268798828 0.19752725958824158
0.53055554628372192 0.23082053661346436 0.19681338965892792
0.53007924556732178 0.23011735081672668 0.19681340456008911
0.12736000120639801 0.13021990656852722 0.12024061381816864
0.1264154464006424 0.1299063116312027 0.11583638936281204
0.12118033319711685 0.1263464093208313 0.10551287978887558
0.11904381215572357 0.12474963068962097 0.096766896545886993
0.12527666985988617 0.12647165358066559 0.095532752573490143
0.13904115557670593 0.13082481920719147 0.099486991763114929
0.15382952988147736 0.13537889719009399 0.10431487858295441
0.16786709427833557 0.13998575508594513 0.10886859148740768
0.18075534701347351 0.14413632452487946 0.11187180876731873
0.19326198101043701 0.14834882318973541 0.11479700356721878
0.20576086640357971 0.15262496471405029 0.11766570061445236
0.21858412027359009 0.15683466196060181 0.12093459069728851
0.23265741765499115 0.16132034361362457 0.12451999634504318
0.25227123498916626 0.16691362857818604 0.13078245520591736
0.27153736352920532 0.17269720137119293 0.13652037084102631
0.28969919681549072 0.17799961566925049 0.14173097908496857
0.30680125951766968 0.18310734629631042 0.1456199586391449
0.32393792271614075 0.18849457800388336 0.1495748907327652
0.34093132615089417 0.19355659186840057 0.15347066521644592
0.3577907383441925 0.198382169008255 0.1574501246213913
0.37584942579269409 0.2029174417257309 0.16208323836326599
0.39927676320075989 0.20946553349494934 0.16871541738510132
0.42275339365005493 0.21555244922637939 0.17536108195781708
0.44520282745361328 0.22189359366893768 0.18117178976535797
0.46633651852607727 0.22761620581150055 0.18570719659328461
0.48781561851501465 0.23348981142044067 0.19021330773830414
0.50879865884780884 0.23922209441661835 0.19470126926898956
0.52926206588745117 0.24414262175559998 0.19903607666492462
0.54104650020599365 0.24615998566150665 0.20161575078964233
0.54114699363708496 0.24544939398765564 0.20106221735477448
0.54082882404327393 0.2450217604637146 0.20106221735477448
0.5398716926574707 0.24437455832958221 0.20106221735477448
0.5392155647277832 0.2437184751033783 0.20106221735477448
0.1330077201128006 0.13851752877235413 0.12546387314796448
0.13540089130401611 0.14152039587497711 0.12505669891834259
0.13432390987873077 0.14216230809688568 0.11995303630828857
0.12988169491291046 0.13996164500713348 0.10867583006620407
0.12986002862453461 0.13943736255168915 0.10051752626895905
0.14351546764373779 0.14475584030151367 0.10384803265333176
0.15862388908863068 0.14973385632038116 0.10853002965450287
0.17291708290576935 0.15397366881370544 0.11315780133008957
0.18559226393699646 0.15806667506694794 0.11622928828001022
0.1981033980846405 0.16200888156890869 0.11915744096040726
0.2103438675403595 0.16604959964752197 0.12203370034694672
0.22304901480674744 0.170177161693573 0.12503798305988312
0.23740389943122864 0.17470923066139221 0.12860462069511414
0.25723147392272949 0.1815347820520401 0.13487891852855682
0.27649566531181335 0.18625368177890778 0.14078858494758606
0.29514917731285095 0.19186891615390778 0.14590318500995636
0.31240108609199524 0.19664078950881958 0.14977724850177765
0.32957518100738525 0.20150370895862579 0.15350116789340973
0.34627413749694824 0.20604583621025085 0.15737515687942505
0.36315298080444336 0.21079674363136292 0.16109904646873474
0.38194262981414795 0.21666663885116577 0.16577117145061493
0.40550142526626587 0.22278188169002533 0.17235739529132843
0.42915824055671692 0.22881466150283813 0.17887991666793823
0.45153132081031799 0.23443171381950378 0.18481409549713135
0.4726925790309906 0.24004177749156952 0.18920274078845978
0.4936993420124054 0.2453312873840332 0.19370251893997192
0.51478642225265503 0.25108817219734192 0.1981198638677597
0.53573441505432129 0.25648707151412964 0.2026197612285614
0.54997062683105469 0.25997921824455261 0.20531071722507477
0.55016356706619263 0.2591116726398468 0.20531071722507477
0.54987305402755737 0.25842595100402832 0.20531074702739716
0.54967337846755981 0.25832247734069824 0.20506812632083893
0.54938578605651855 0.257403165102005 0.20441213250160217
0.13963212072849274 0.14835965633392334 0.13174594938755035
0.14475429058074951 0.15259946882724762 0.13329607248306274
0.1468813419342041 0.1557781994342804 0.13159668445587158
0.14324483275413513 0.15563905239105225 0.12190400063991547
0.14013668894767761 0.15423363447189331 0.11072827875614166
0.14773757755756378 0.15765810012817383 0.10834266245365143
0.16340145468711853 0.16394039988517761 0.1130049079656601
0.1781085878610611 0.16852110624313354 0.11782649159431458
0.190935879945755 0.17273326218128204 0.12092898041009903
0.20339173078536987 0.17664860188961029 0.12390504777431488
0.2157428115606308 0.18068867921829224 0.12687978148460388
0.22837269306182861 0.18497209250926971 0.12986373901367188
0.24174365401268005 0.18956638872623444 0.13330991566181183
0.26181337237358093 0.1964082270860672 0.13930003345012665
0.2824452817440033 0.20302294194698334 0.14563283324241638
0.30103141069412231 0.20833854377269745 0.15110170841217041
0.31830063462257385 0.21351787447929382 0.15505893528461456
0.33545747399330139 0.21791356801986694 0.15886606276035309
0.35245105624198914 0.22296351194381714 0.16267970204353333
0.36968955397605896 0.22744067013263702 0.16644111275672913
0.38841915130615234 0.23341488838195801 0.17089515924453735
0.41304996609687805 0.24120374023914337 0.17776601016521454
0.43727415800094604 0.24708421528339386 0.18445071578025818
0.45993703603744507 0.25312983989715576 0.19060793519020081
0.48125126957893372 0.25822010636329651 0.19496922194957733
0.50239217281341553 0.26386958360671997 0.19938521087169647
0.52316856384277344 0.26924684643745422 0.20374390482902527
0.54420781135559082 0.27419540286064148 0.20807673037052155
0.56013029813766479 0.27881968021392822 0.2116277664899826
0.56113439798355103 0.27796775102615356 0.21127457916736603
0.56006503105163574 0.2764122486114502 0.21074768900871277
0.55988562107086182 0.27535799145698547 0.21045768260955811
0.55950379371643066 0.2752038836479187 0.21045768260955811
0.14678569138050079 0.1586320698261261 0.13793490827083588
0.15622977912425995 0.16468693315982819 0.14276716113090515
0.1617700457572937 0.16931593418121338 0.14348065853118896
0.15692096948623657 0.17002753913402557 0.13404212892055511
0.15167573094367981 0.16932429373264313 0.12229349464178085
0.15601791441440582 0.17188538610935211 0.11686338484287262
0.16729715466499329 0.17674665153026581 0.11766140162944794
0.18312294781208038 0.18308959901332855 0.12229079753160477
0.19615328311920166 0.18760013580322266 0.12569050490856171
0.20865911245346069 0.1915755420923233 0.12881016731262207
0.22119376063346863 0.19564302265644073 0.13167572021484375
0.23397792875766754 0.19974991679191589 0.13483701646327972
0.24652120471000671 0.203923299908638 0.13828812539577484
0.26613044738769531 0.21105135977268219 0.14400210976600647
0.28732135891914368 0.21877643465995789 0.15051418542861938
0.30790260434150696 0.22497047483921051 0.15640275180339813
0.3248993456363678 0.23016943037509918 0.16044381260871887
0.34174832701683044 0.23513089120388031 0.16428233683109283
0.35874184966087341 0.23948641121387482 0.16799743473529816
0.3759804368019104 0.24449259042739868 0.17182166874408722
0.39389172196388245 0.24955704808235168 0.17594994604587555
0.41845804452896118 0.25712355971336365 0.18263214826583862
0.44444736838340759 0.26542693376541138 0.18990862369537354
0.46829989552497864 0.27194708585739136 0.19653348624706268
0.48990687727928162 0.27757114171981812 0.20094996690750122
0.51131445169448853 0.28275623917579651 0.20537714660167694
0.53216588497161865 0.28806194663047791 0.20967882871627808
0.55311912298202515 0.29368075728416443 0.21409641206264496
0.57077771425247192 0.29754072427749634 0.2176782637834549
0.57231885194778442 0.29693490266799927 0.21774625778198242
0.57173192501068115 0.29648381471633911 0.21767601370811462
0.5714612603187561 0.29594895243644714 0.2176060676574707
0.57005041837692261 0.29445350170135498 0.21679972112178802
0.15481671690940857 0.16914010047912598 0.1444646418094635
0.16497513651847839 0.17558518052101135 0.14938805997371674
0.17394562065601349 0.18152754008769989 0.15332156419754028
0.17206767201423645 0.18371295928955078 0.14698943495750427
0.16492556035518646 0.18358156085014343 0.13462479412555695
0.16473950445652008 0.18552666902542114 0.12568575143814087
0.17311461269855499 0.18869416415691376 0.12267765402793884
0.18583828210830688 0.19417929649353027 0.12492272257804871
0.20110464096069336 0.20065651834011078 0.12916785478591919
0.21343141794204712 0.20506900548934937 0.1325022280216217
0.22597247362136841 0.20922674238681793 0.13516108691692352
0.23880387842655182 0.2132284939289093 0.1385381668806076
0.25152161717414856 0.21747083961963654 0.14209355413913727
0.270131915807724 0.22441123425960541 0.1474539041519165
0.29159528017044067 0.23216310143470764 0.15411224961280823
0.31260719895362854 0.23969785869121552 0.16049952805042267
0.33125603199005127 0.24583710730075836 0.16505512595176697
0.34844771027565002 0.25082230567932129 0.16895054280757904
0.36508068442344666 0.25568774342536926 0.17267496883869171
0.38146105408668518 0.26045951247215271 0.17653042078018188
0.39883670210838318 0.26553314924240112 0.18059127032756805
0.42274889349937439 0.27322298288345337 0.18693660199642181
0.44952577352523804 0.28184238076210022 0.19441086053848267
0.47499796748161316 0.2897774875164032 0.20148251950740814
0.49764403700828552 0.29583340883255005 0.20653776824474335
0.51917064189910889 0.30127400159835815 0.21102048456668854
0.54041242599487305 0.3070569634437561 0.21539266407489777
0.56164616346359253 0.31218627095222473 0.22009274363517761
0.58052915334701538 0.31701511144638062 0.22405172884464264
0.58281654119491577 0.3173973560333252 0.22439306974411011
0.58267980813980103 0.31627339124679565 0.22406697273254395
0.58207249641418457 0.31476819515228271 0.22344748675823212
0.58178102970123291 0.3135947585105896 0.22344745695590973
0.16320173442363739 0.17982280254364014 0.151079922914505
0.17335616052150726 0.18613368272781372 0.15617896616458893
0.18261168897151947 0.1922539621591568 0.16022634506225586
0.1843215674161911 0.19638575613498688 0.15763166546821594
0.17994894087314606 0.19795976579189301 0.14859543740749359
0.17562536895275116 0.19912678003311157 0.13621260225772858
0.17756578326225281 0.19993016123771667 0.12664830684661865
0.18961282074451447 0.20497944951057434 0.12814022600650787
0.20393954217433929 0.21157392859458923 0.13167101144790649
0.21815013885498047 0.21760785579681396 0.13514859974384308
0.23100928962230682 0.22204886376857758 0.13846555352210999
0.24382878839969635 0.22622638940811157 0.1416199654340744
0.25654348731040955 0.2305510938167572 0.14513303339481354
0.27428004145622253 0.23683935403823853 0.15031751990318298
0.29584366083145142 0.24464204907417297 0.15678577125072479
0.31685554981231689 0.2523270845413208 0.16335256397724152
0.33652043342590332 0.25958326458930969 0.16822035610675812
0.35424843430519104 0.26562625169754028 0.17239488661289215
0.37124183773994446 0.27038669586181641 0.17608112096786499
0.38828670978546143 0.27526617050170898 0.1801801323890686
0.40486457943916321 0.28023329377174377 0.18386627733707428
0.42696771025657654 0.28748407959938049 0.18991179764270782
0.45354670286178589 0.29594746232032776 0.19749251008033752
0.479500412940979 0.30416989326477051 0.20467749238014221
0.50378131866455078 0.31219008564949036 0.21030277013778687
0.52593016624450684 0.31838229298591614 0.21528105437755585
0.54725784063339233 0.32423493266105652 0.21952953934669495
0.56884509325027466 0.32923135161399841 0.22399181127548218
0.58920019865036011 0.33399102091789246 0.22839109599590302
0.59421008825302124 0.33447706699371338 0.22924861311912537
0.59325355291366577 0.33447706699371338 0.22924861311912537
0.59272861480712891 0.33446213603019714 0.22924861311912537
0.59218794107437134 0.3321995735168457 0.22886672616004944
0.17179712653160095 0.19061358273029327 0.15788494050502777
0.18196927011013031 0.19703209400177002 0.16273936629295349
0.19144779443740845 0.2032807320356369 0.16728544235229492
0.19441811740398407 0.20774486660957336 0.1657382994890213
0.19322921335697174 0.21116986870765686 0.16034716367721558
0.19041578471660614 0.21355803310871124 0.15051369369029999
0.18751345574855804 0.21298892796039581 0.13607096672058105
0.19362595677375793 0.21579180657863617 0.13091084361076355
0.20726673305034637 0.22227011620998383 0.13439479470252991
0.22160595655441284 0.22896876931190491 0.13790322840213776
0.23529399931430817 0.23479972779750824 0.1414506584405899
0.2484576553106308 0.23933963477611542 0.14465713500976562
0.2611214816570282 0.24347643554210663 0.14806334674358368
0.278424471616745 0.24954763054847717 0.1531539261341095
0.30013555288314819 0.25733229517936707 0.15964558720588684
0.32117736339569092 0.26507735252380371 0.16618993878364563
0.34080585837364197 0.27247092127799988 0.17142395675182343
0.35939842462539673 0.27945894002914429 0.17577530443668365
0.37690448760986328 0.2855679988861084 0.17976751923561096
0.39395418763160706 0.2904905378818512 0.18378984928131104
0.41085121035575867 0.29518678784370422 0.18738102912902832
0.43148738145828247 0.30159714818000793 0.1931116133928299
0.45803552865982056 0.3101019561290741 0.20022349059581757
0.48374873399734497 0.31845718622207642 0.20764407515525818
0.50823307037353516 0.32676208019256592 0.21366934478282928
0.5320124626159668 0.33452698588371277 0.21846076846122742
0.55392533540725708 0.34038066864013672 0.22336496412754059
0.575550377368927 0.34591498970985413 0.22806380689144135
0.59684485197067261 0.35120600461959839 0.23242472112178802
0.60457533597946167 0.35201603174209595 0.23382644355297089
0.60439890623092651 0.35179746150970459 0.23349690437316895
0.60368835926055908 0.35179746150970459 0.23349688947200775
0.60334980487823486 0.35166874527931213 0.23349690437316895
0.18021248281002045 0.20125250518321991 0.16438367962837219
0.19035857915878296 0.20759959518909454 0.16947448253631592
