Textures/4.cube
# Created by: G'MIC (https://gmic.eu)
TITLE "BleachBypass3.cube"
# LUT size
LUT_3D_SIZE 5
# Data domain
DOMAIN_MIN 0.0 0.0 0.0
DOMAIN_MAX 1.0 1.0 1.0
# LUT data points
0.084576338529586792 0.082507006824016571 0.080762222409248352
0.16761326789855957 0.1054525151848793 0.10335308313369751
0.28488248586654663 0.13530473411083221 0.1338939368724823
0.43703237175941467 0.17139919102191925 0.17093230783939362
0.49803903698921204 0.1843140572309494 0.1843140572309494
0.14678569138050079 0.1586320698261261 0.13793490827083588
0.19615328311920166 0.18760013580322266 0.12569050490856171
0.3248993456363678 0.23016943037509918 0.16044381260871887
0.48990687727928162 0.27757114171981812 0.20094996690750122
0.57005041837692261 0.29445350170135498 0.21679972112178802
0.21540999412536621 0.24557648599147797 0.1940179169178009
0.25123929977416992 0.2864624559879303 0.17797748744487762
0.3653942346572876 0.34850084781646729 0.19089555740356445
0.53933292627334595 0.40986058115959167 0.23413753509521484
0.6573796272277832 0.44444587826728821 0.25882372260093689
0.29506447911262512 0.35217732191085815 0.26792317628860474
0.36775895953178406 0.41370388865470886 0.29860854148864746
0.41030362248420715 0.48861971497535706 0.22397555410861969
0.58775961399078369 0.56501674652099609 0.26886117458343506
0.74983662366867065 0.62487941980361938 0.30571892857551575
0.38292789459228516 0.47723984718322754 0.34630051255226135
0.4942345917224884 0.54908937215805054 0.40654832124710083
0.52068012952804565 0.64024442434310913 0.32613959908485413
0.64812380075454712 0.75391173362731934 0.31086668372154236
0.84864521026611328 0.83853620290756226 0.35866013169288635
0.11497975885868073 0.11340627819299698 0.15226384997367859
0.20023450255393982 0.14132401347160339 0.17018003761768341
0.31340360641479492 0.172181636095047 0.22404290735721588
0.4844195544719696 0.20074394345283508 0.27142149209976196
0.56546354293823242 0.21389536559581757 0.28540775179862976
0.14316065609455109 0.19192586839199066 0.18785229325294495
0.23504400253295898 0.22319643199443817 0.21287032961845398
0.37271076440811157 0.26449498534202576 0.25165331363677979
0.54364365339279175 0.31130075454711914 0.29704907536506653
0.63170641660690308 0.32825154066085815 0.31438100337982178
0.2281583845615387 0.27338549494743347 0.23892879486083984
0.32505327463150024 0.32549157738685608 0.28998705744743347
0.40708598494529724 0.38951283693313599 0.28183147311210632
0.58818608522415161 0.4487902820110321 0.32592672109603882
0.71267622709274292 0.48216846585273743 0.35200655460357666
0.32446712255477905 0.38256362080574036 0.3183024525642395
0.41908121109008789 0.4479125440120697 0.37240183353424072
0.48232084512710571 0.53011918067932129 0.36023560166358948
0.63093775510787964 0.60775530338287354 0.35881170630455017
0.80128204822540283 0.66737151145935059 0.3972930908203125
0.41324010491371155 0.51205819845199585 0.40122556686401367
0.52849668264389038 0.58573871850967407 0.4632868766784668
0.63188952207565308 0.66927546262741089 0.50752997398376465
0.69054889678955078 0.79761022329330444 0.40421423316001892
0.89516043663024902 0.8835521936416626 0.44696870446205139
0.14218915998935699 0.14025528728961945 0.23758450150489807
0.23550699651241302 0.17009411752223969 0.27474945783615112
0.35501271486282349 0.20935364067554474 0.30018475651741028
0.49584922194480896 0.25219732522964478 0.3582284152507782
0.66065382957458496 0.2864680290222168 0.43286579847335815
0.17167778313159943 0.22898578643798828 0.28347194194793701
0.27899640798568726 0.2730267345905304 0.33455881476402283
0.42479431629180908 0.32156172394752502 0.35727962851524353
0.5723082423210144 0.36594274640083313 0.43240785598754883
0.72661274671554565 0.38897711038589478 0.48226973414421082
0.20458073914051056 0.33905601501464844 0.33307090401649475
0.32383322715759277 0.39210042357444763 0.38558956980705261
0.47153863310813904 0.44718575477600098 0.42641067504882812
0.67192399501800537 0.51260906457901001 0.48925343155860901
0.80429863929748535 0.54781299829483032 0.52555108070373535
0.28876474499702454 0.44389280676841736 0.37455460429191589
0.43830606341362 0.4888274073600769 0.42902395129203796
0.57108199596405029 0.55470114946365356 0.49372157454490662
0.71129065752029419 0.685569167137146 0.53549492359161377
0.89652681350708008 0.74773901700973511 0.58390265703201294
0.40866145491600037 0.56209605932235718 0.45441371202468872
0.56837725639343262 0.6246834397315979 0.53117799758911133
0.69108808040618896 0.704662024974823 0.60280758142471313
0.79827988147735596 0.85287916660308838 0.62156736850738525
0.99391907453536987 0.97907441854476929 0.6482887864112854
0.17566022276878357 0.17332412302494049 0.35280001163482666
0.28206488490104675 0.20772165060043335 0.41243717074394226
0.40525102615356445 0.24348285794258118 0.42245298624038696
0.55580902099609375 0.28772097826004028 0.46743419766426086
0.72541427612304688 0.3380148708820343 0.53618323802947998
0.20778873562812805 0.27290007472038269 0.40926027297973633
0.3267953097820282 0.32001003623008728 0.47167390584945679
0.46483978629112244 0.36696204543113708 0.52530378103256226
0.6459621787071228 0.4264620840549469 0.54496645927429199
0.80877262353897095 0.48210015892982483 0.61284804344177246
0.24366079270839691 0.39427086710929871 0.47009512782096863
0.37310382723808289 0.45177575945854187 0.53606182336807251
0.52041482925415039 0.51153331995010376 0.60320007801055908
0.7400626540184021 0.58098536729812622 0.62358289957046509
0.90945571660995483 0.64307743310928345 0.7291557788848877
0.28414475917816162 0.54033017158508301 0.53694760799407959
0.42483264207839966 0.60859888792037964 0.60509443283081055
0.58397519588470459 0.67771649360656738 0.6730731725692749
0.80380839109420776 0.76692104339599609 0.74175167083740234
0.99750036001205444 0.83500516414642334 0.80404013395309448
0.36481946706771851 0.6859588623046875 0.59115535020828247
0.54021042585372925 0.73905712366104126 0.64807116985321045
0.72774404287338257 0.77535152435302734 0.69876092672348022
0.89149934053421021 0.84561073780059814 0.76937031745910645
1 1 0.88875263929367065
0.21649391949176788 0.21379248797893524 0.502174973487854
0.33491387963294983 0.2511238157749176 0.57355576753616333
0.46935263276100159 0.28950810432434082 0.64155656099319458
0.61500668525695801 0.32378211617469788 0.59480106830596924
0.79161739349365234 0.37595921754837036 0.66469049453735352
0.25146293640136719 0.32443758845329285 0.56967473030090332
0.38239720463752747 0.37449827790260315 0.64438378810882568
0.52833175659179688 0.4242282509803772 0.72038948535919189
0.70526719093322754 0.47446104884147644 0.71997588872909546
0.8755488395690918 0.52659481763839722 0.74773895740509033
0.29009625315666199 0.45755872130393982 0.64257103204727173
0.43177971243858337 0.51830857992172241 0.71992892026901245
0.59063011407852173 0.58083963394165039 0.7990153431892395
0.77131360769271851 0.64381712675094604 0.86796772480010986
0.96433377265930176 0.69939249753952026 0.83758449554443359
0.33364090323448181 0.61630553007125854 0.7212444543838501
0.48630735278129578 0.68780815601348877 0.80137640237808228
0.65616464614868164 0.76142829656600952 0.88345903158187866
0.84460175037384033 0.83799159526824951 0.96807986497879028
1 0.89107012748718262 0.92965883016586304
0.38560938835144043 0.81065183877944946 0.80924731492996216
0.549652099609375 0.89370250701904297 0.8921930193901062
0.73055559396743774 0.97833853960037231 0.97684866189956665
0.93102586269378662 1 1
1 1 1
