Textures/40.cube
# Created by: G'MIC (https://gmic.eu)
TITLE "Fuji_Astia_100_Generic.cube"
# LUT size
LUT_3D_SIZE 5
# Data domain
DOMAIN_MIN 0.0 0.0 0.0
DOMAIN_MAX 1.0 1.0 1.0
# LUT data points
0.0074568726122379303 0.007309433538466692 0.0072497418150305748
0.21586380898952484 0.0070262923836708069 0.0036765630356967449
0.50196051597595215 0.0066994591616094112 0.0012719500809907913
0.76772886514663696 0.0066994600929319859 0
0.99330061674118042 0.0038458667695522308 0
0.082710400223731995 0.22459162771701813 0.034265164285898209
0.22285236418247223 0.22434650361537933 0.028597151860594749
0.50980383157730103 0.22066983580589294 0.018033731728792191
0.76985281705856323 0.21930417418479919 0.010056781582534313
0.99328023195266724 0.21674859523773193 0.004911771509796381
0.00099578837398439646 0.51372551918029785 0.078958988189697266
0.22247891128063202 0.5120619535446167 0.074321992695331573
0.50940388441085815 0.50980377197265625 0.065214678645133972
0.76458334922790527 0.50913095474243164 0.055039204657077789
0.98537415266036987 0.50588256120681763 0.045647043734788895
0.034376449882984161 0.76495105028152466 0.074501551687717438
0.23581917583942413 0.76495105028152466 0.072495140135288239
0.50988215208053589 0.76290833950042725 0.068510405719280243
0.75876230001449585 0.76130890846252441 0.062772542238235474
0.97516334056854248 0.75923216342926025 0.05676652118563652
0.13895681500434875 0.9917483925819397 0.074434928596019745
0.29826220870018005 0.9917483925819397 0.070125535130500793
0.529743492603302 0.98966145515441895 0.05708906427025795
0.7530825138092041 0.9896240234375 0.035356435924768448
0.98660147190093994 0.9896240234375 0.0082208430394530296
0.0083555057644844055 0.0079248547554016113 0.21835102140903473
0.21544134616851807 0.0069732391275465488 0.20806828141212463
0.50196051597595215 0.0066994591616094112 0.19497594237327576
0.76725703477859497 0.004026173148304224 0.18125540018081665
0.99330061674118042 0.0036765625700354576 0.16902507841587067
0.082657739520072937 0.22434650361537933 0.22874435782432556
0.22378942370414734 0.22304052114486694 0.2232690155506134
0.50980383157730103 0.22059603035449982 0.21011815965175629
0.76985281705856323 0.21799889206886292 0.19715844094753265
0.99313032627105713 0.21650347113609314 0.18528319895267487
0.00107067811768502 0.51240140199661255 0.24156144261360168
0.22316710650920868 0.50980377197265625 0.23649311065673828
0.50962859392166138 0.50980377197265625 0.22568298876285553
0.76478946208953857 0.50588256120681763 0.21321383118629456
0.98516833782196045 0.50588256120681763 0.20112660527229309
0.036089669913053513 0.76489484310150146 0.25804483890533447
0.23630362749099731 0.76315343379974365 0.25465229153633118
0.51008814573287964 0.76203197240829468 0.24567048251628876
0.75875800848007202 0.76102948188781738 0.23417405784130096
0.97516334056854248 0.75902014970779419 0.22221095860004425
0.13984432816505432 0.9917483925819397 0.28406867384910583
0.29839330911636353 0.9913794994354248 0.28134733438491821
0.529743492603302 0.9896240234375 0.2746213972568512
0.75309544801712036 0.9896240234375 0.26503914594650269
0.98660147190093994 0.9893757700920105 0.25204521417617798
0.0091929445043206215 0.0066994591616094112 0.50062918663024902
0.2144608199596405 0.0067003099247813225 0.49157649278640747
0.50196051597595215 0.0051825866103172302 0.47829359769821167
0.76683026552200317 0.0036765630356967449 0.46588817238807678
0.99308300018310547 0.0036765625700354576 0.4545922577381134
0.083605222404003143 0.2234574556350708 0.50987410545349121
0.2233961820602417 0.22147169709205627 0.50491154193878174
0.50980383157730103 0.22039906680583954 0.49282652139663696
0.76962590217590332 0.21674838662147522 0.48077932000160217
0.99301791191101074 0.21401605010032654 0.47030109167098999
0.0009610590641386807 0.50980383157730103 0.52158397436141968
0.22357712686061859 0.50980377197265625 0.51763021945953369
0.50967466831207275 0.50951844453811646 0.50847882032394409
0.76468384265899658 0.5058826208114624 0.49777430295944214
0.98516833782196045 0.5056159496307373 0.48658755421638489
0.038285981863737106 0.76312565803527832 0.53218626976013184
0.23770780861377716 0.7623475193977356 0.5293116569519043
0.51050043106079102 0.76134473085403442 0.52159088850021362
0.75815367698669434 0.75923210382461548 0.51286041736602783
0.97516334056854248 0.75808823108673096 0.50246453285217285
0.14029191434383392 0.9896240234375 0.54420441389083862
0.29826220870018005 0.9896240234375 0.5415656566619873
0.5299869179725647 0.9896240234375 0.53647863864898682
0.75349444150924683 0.9896240234375 0.52887576818466187
0.98660147190093994 0.98669785261154175 0.51874935626983643
0.0081187719479203224 0.0066994591616094112 0.74960142374038696
0.2144608199596405 0.0066549931652843952 0.74072974920272827
0.50196051597595215 0.0041468646377325058 0.72825759649276733
0.76683026552200317 0.0036765630356967449 0.71623480319976807
0.99297374486923218 0.0036765625700354576 0.7054247260093689
0.083672702312469482 0.22090582549571991 0.7584155797958374
0.22275136411190033 0.22042480111122131 0.75302660465240479
0.50980383157730103 0.21764738857746124 0.74162983894348145
0.76895427703857422 0.21650345623493195 0.73002564907073975
0.99297374486923218 0.21282663941383362 0.71930110454559326
0.0014962884597480297 0.50980383157730103 0.76955568790435791
0.22440224885940552 0.50980377197265625 0.76497524976730347
0.50930690765380859 0.5058826208114624 0.7559770941734314
0.76442116498947144 0.5058826208114624 0.74570339918136597
0.98512458801269531 0.50196057558059692 0.73567277193069458
0.040487825870513916 0.76200973987579346 0.77715218067169189
0.2385944128036499 0.76199573278427124 0.77399986982345581
0.51059365272521973 0.76053649187088013 0.76735550165176392
0.75896871089935303 0.75823765993118286 0.75857889652252197
0.97516334056854248 0.75710773468017578 0.74989157915115356
0.14050014317035675 0.9896240234375 0.78513097763061523
0.29836013913154602 0.9896240234375 0.78306561708450317
0.52988821268081665 0.9896240234375 0.77794724702835083
0.75349444150924683 0.9890778660774231 0.77081316709518433
0.98660147190093994 0.98660159111022949 0.76191896200180054
0.0079736923798918724 0.0066994591616094112 0.97063422203063965
0.21449515223503113 0.004275213461369276 0.96185106039047241
0.50196051597595215 0.0036765625700354576 0.9498746395111084
0.76593154668807983 0.0036765630356967449 0.93802714347839355
0.99297374486923218 0.0034109165426343679 0.92718935012817383
0.085152409970760345 0.22042480111122131 0.97875833511352539
0.22357955574989319 0.22021888196468353 0.97462159395217896
0.50980383157730103 0.21663624048233032 0.96304112672805786
0.76895427703857422 0.21372544765472412 0.95133918523788452
0.99297374486923218 0.21258154511451721 0.94096726179122925
0.0016120250802487135 0.50980383157730103 0.9896240234375
0.22540010511875153 0.50605553388595581 0.98660159111022949
0.50978302955627441 0.5058826208114624 0.97833377122879028
0.76453274488449097 0.50379055738449097 0.9671788215637207
0.98509341478347778 0.50196057558059692 0.95868748426437378
0.043854128569364548 0.76102948188781738 0.99477106332778931
0.23932357132434845 0.76102948188781738 0.99228560924530029
0.51077437400817871 0.75919145345687866 0.98869884014129639
0.75897413492202759 0.75778776407241821 0.9823647141456604
0.97516334056854248 0.7554667592048645 0.97324728965759277
0.13852383196353912 0.9896240234375 0.99819576740264893
0.29910358786582947 0.9896240234375 0.99812090396881104
0.52965962886810303 0.98929822444915771 0.99637484550476074
0.75308948755264282 0.98660159111022949 0.9917483925819397
0.98660147190093994 0.98660159111022949 0.9865952730178833
