Textures/40.cube
# Created by: G'MIC (https://gmic.eu)
TITLE "Fuji_Astia_100_Generic.cube"
# LUT size
LUT_3D_SIZE 33
# Data domain
DOMAIN_MIN 0.0 0.0 0.0
DOMAIN_MAX 1.0 1.0 1.0
# LUT data points
0.0074568726122379303 0.007309433538466692 0.0072497418150305748
0.030006829649209976 0.0070262923836708069 0.0068296813406050205
0.056158322840929031 0.0070262933149933815 0.0065209600143134594
0.08202604204416275 0.0070262923836708069 0.0061502554453909397
0.10785327851772308 0.0070262923836708069 0.0055441027507185936
0.13355249166488647 0.0070262923836708069 0.0050510657019913197
0.15776215493679047 0.0070262923836708069 0.0044499798677861691
0.18635641038417816 0.0070262923836708069 0.0037558476906269789
0.21586380898952484 0.0070262923836708069 0.0036765630356967449
0.2467321902513504 0.0070262923836708069 0.0035841159988194704
0.28379020094871521 0.0073265926912426949 0.0032155406661331654
0.32431656122207642 0.0079248547554016113 0.0025384943000972271
0.36356207728385925 0.0071028606034815311 0.0020801783539354801
0.39918303489685059 0.0066994600929319859 0.0017458656802773476
0.43366006016731262 0.0066994591616094112 0.0015523942420259118
0.46764728426933289 0.0066994591616094112 0.0014899863163009286
0.50196051597595215 0.0066994591616094112 0.0012719500809907913
0.53667241334915161 0.0066994591616094112 0.00087885995162650943
0.57210081815719604 0.0063765021041035652 0.00045478632091544569
0.60473859310150146 0.0066834678873419762 0.00032683348399586976
0.63888907432556152 0.0066994591616094112 0.00027065890026278794
0.6710783839225769 0.0061760768294334412 0.00015987032384146005
0.70359456539154053 0.0047328006476163864 6.1564969655591995e-05
0.73602950572967529 0.0049890470691025257 1.0213543646386825e-05
0.76772886514663696 0.0066994600929319859 0
0.79836612939834595 0.0062126899138092995 0
0.82892155647277832 0.0037345660384744406 0
0.85957002639770508 0.003914837259799242 0
0.88792133331298828 0.0063921357505023479 0
0.91666674613952637 0.0046904850751161575 0
0.9439539909362793 0.0036781227681785822 0
0.97140538692474365 0.0040136100724339485 0
0.99330061674118042 0.0038458667695522308 0
0.013390196487307549 0.03071892261505127 0.0082053393125534058
0.030962392687797546 0.030625605955719948 0.007734149694442749
0.055542267858982086 0.030371181666851044 0.0074149053543806076
0.082026034593582153 0.030140286311507225 0.0069598881527781487
0.10751622170209885 0.029810298234224319 0.0067804576829075813
0.13281409442424774 0.029926158487796783 0.0067017283290624619
0.15751639008522034 0.029565701261162758 0.0066830790601670742
0.18584571778774261 0.029166629537940025 0.0061305738054215908
0.21643754839897156 0.029166629537940025 0.0047069541178643703
0.24873916804790497 0.029166629537940025 0.0037230858579277992
0.28454607725143433 0.029261030256748199 0.0036765625700354576
0.3245779275894165 0.030007688328623772 0.0036445034202188253
0.36391785740852356 0.028745654970407486 0.0033012644853442907
0.39918303489685059 0.027537375688552856 0.0027213324792683125
0.43366006016731262 0.027696104720234871 0.0024511669762432575
0.46764728426933289 0.027463585138320923 0.0023579329717904329
0.50198781490325928 0.026171183213591576 0.0018075009575113654
0.53907012939453125 0.025872757658362389 0.0014434586046263576
0.57319527864456177 0.025245087221264839 0.0012242709053680301
0.60475218296051025 0.025412438437342644 0.00067831407068297267
0.63888907432556152 0.025272782891988754 0.00035179976839572191
0.67173439264297485 0.024539392441511154 0.00032683333847671747
0.70359444618225098 0.024346292018890381 0.00032683333847671747
0.73602950572967529 0.024346292018890381 0.00028456066502258182
0.76772880554199219 0.02519749291241169 0.00014852193999104202
0.79836606979370117 0.024825336411595345 0
0.82892155647277832 0.023875987157225609 0
0.85959959030151367 0.024060383439064026 0
0.88782697916030884 0.02434629388153553 0
0.91666674613952637 0.024079708382487297 0
0.94395387172698975 0.022816309705376625 0
0.97140538692474365 0.022893944755196571 0
0.99330061674118042 0.02259746752679348 0
0.021930646151304245 0.056291058659553528 0.0090831797569990158
0.0375511534512043 0.056256067007780075 0.0088511025533080101
0.056638207286596298 0.056141935288906097 0.0085213519632816315
0.08202604204416275 0.05574248731136322 0.0082080764696002007
0.10751622170209885 0.055426131933927536 0.0078273899853229523
0.13225238025188446 0.055250197649002075 0.0074478099122643471
0.15751639008522034 0.055159304291009903 0.0071033397689461708
0.18576394021511078 0.054359991103410721 0.0067838956601917744
0.21650345623493195 0.054230865091085434 0.0066941399127244949
0.25065359473228455 0.053978469222784042 0.0061909612268209457
0.28574651479721069 0.054248418658971786 0.0049467757344245911
0.32542732357978821 0.054295625537633896 0.0037740811239928007
0.36460384726524353 0.053571205586194992 0.0036765630356967449
0.40147113800048828 0.052391421049833298 0.0036187933292239904
0.43577367067337036 0.052369143813848495 0.0034501769114285707
0.46793025732040405 0.052354782819747925 0.0031818316783756018
0.50429946184158325 0.051458682864904404 0.0025785905309021473
0.5401960015296936 0.051190361380577087 0.0020345398224890232
0.57418298721313477 0.05053282156586647 0.0016066421521827579
0.60526949167251587 0.050374079495668411 0.0013400729512795806
0.63888907432556152 0.050326891243457794 0.0010570655576884747
0.6719897985458374 0.049739163368940353 0.00058586022350937128
0.70359456539154053 0.049475528299808502 0.00033541559241712093
0.73603373765945435 0.049192320555448532 0.00032683339668437839
0.76772886514663696 0.050283603370189667 0.00032640781137160957
0.79836612939834595 0.049494624137878418 0.00021434255177155137
0.82919341325759888 0.048447836190462112 3.205917528248392e-05
0.8597220778465271 0.048447839915752411 0
0.88783121109008789 0.048447839915752411 0
0.91666674613952637 0.04842018336057663 0
0.94395387172698975 0.046998526901006699 0
0.97140538692474365 0.046606875956058502 0
0.99330061674118042 0.046486720442771912 0
0.03301851823925972 0.082068935036659241 0.011536801233887672
0.048171382397413254 0.08202604204416275 0.010752595029771328
0.063547328114509583 0.08202604204416275 0.010247349739074707
0.08354438841342926 0.08202604204416275 0.0096307247877120972
0.10751622170209885 0.08202604204416275 0.0092363981530070305
0.13137251138687134 0.08202604204416275 0.0089590717107057571
0.15751639008522034 0.08202604204416275 0.0086673321202397346
0.18643787503242493 0.081662960350513458 0.008258412592113018
0.21650347113609314 0.080436408519744873 0.0076425601728260517
0.25065359473228455 0.080228924751281738 0.0070287655107676983
0.28698664903640747 0.080228924751281738 0.0067319408990442753
0.32703998684883118 0.080228917300701141 0.0063606798648834229
0.36570397019386292 0.080228924751281738 0.0051499358378350735
0.40304067730903625 0.078835882246494293 0.0043956371955573559
0.43758180737495422 0.078311465680599213 0.0038130979519337416
0.47142428159713745 0.078104712069034576 0.0037526327650994062
0.50588256120681763 0.078104712069034576 0.0035286101046949625
0.5401960015296936 0.078104712069034576 0.0030226740054786205
0.57418298721313477 0.07776883989572525 0.0025548972189426422
0.60691720247268677 0.07730267196893692 0.0020021612290292978
0.63888907432556152 0.07634146511554718 0.0016146271955221891
0.6728174090385437 0.076307132840156555 0.0013579418882727623
0.70363754034042358 0.076307132840156555 0.0011397990165278316
0.73678398132324219 0.076307132840156555 0.00090964359696954489
0.76777482032775879 0.076307132840156555 0.00063306244555860758
0.79882562160491943 0.075769141316413879 0.00032683333847671747
0.82982015609741211 0.074282504618167877 0.00031406641937792301
0.85972213745117188 0.074183054268360138 0.00022129341959953308
0.88858121633529663 0.074247397482395172 0.0001136256760219112
0.91675680875778198 0.074183054268360138 1.9150393200106919e-05
0.9439539909362793 0.073976747691631317 0
0.97140538692474365 0.073726356029510498 0
0.99330061674118042 0.073112808167934418 0
0.046569809317588806 0.10756771266460419 0.01505578588694334
0.059754233807325363 0.10751623660326004 0.014451337046921253
0.07370469719171524 0.10751622170209885 0.013807273469865322
0.090271405875682831 0.10751623660326004 0.013086448423564434
0.10869234800338745 0.10751623660326004 0.012424543499946594
0.13137251138687134 0.10751623660326004 0.011865761131048203
0.15789081156253815 0.10742106288671494 0.011315510608255863
0.18696561455726624 0.10666056722402573 0.010784804821014404
0.21672473847866058 0.10638126730918884 0.010124458931386471
0.25106024742126465 0.10580041259527206 0.009348670020699501
0.28905957937240601 0.10571886599063873 0.0088321715593338013
0.32909843325614929 0.10586047917604446 0.0076629212126135826
0.36758717894554138 0.10525926202535629 0.0067470092326402664
0.40310460329055786 0.10446901619434357 0.0066588213667273521
0.43758180737495422 0.10384279489517212 0.0063060079701244831
0.47156858444213867 0.10359468311071396 0.0059452070854604244
0.5058826208114624 0.10359468311071396 0.004679651465266943
0.5401960015296936 0.10359468311071396 0.003995231818407774
0.57418298721313477 0.10353617370128632 0.0036801861133426428
0.60838776826858521 0.10275597870349884 0.0030850409530103207
0.63932996988296509 0.10234177112579346 0.0026375832967460155
0.67287582159042358 0.10189171135425568 0.0022584535181522369
0.70460104942321777 0.10189171135425568 0.0019047481473535299
0.73720067739486694 0.1015273705124855 0.0017276547150686383
0.76791268587112427 0.10125871002674103 0.0014705067733302712
0.79918283224105835 0.10103839635848999 0.0010918206535279751
0.82982009649276733 0.1001315712928772 0.00082148099318146706
0.85982775688171387 0.099673226475715637 0.00049691722961142659
0.88920044898986816 0.09975045919418335 0.00032683348399586976
0.91750472784042358 0.099673233926296234 0.00030895968666300178
0.94442296028137207 0.099673226475715637 0.00021264032693579793
0.97140538692474365 0.099673226475715637 0.00011163970339111984
0.99330061674118042 0.099149860441684723 0
0.061564065515995026 0.13333329558372498 0.019494045525789261
0.072446919977664948 0.13333329558372498 0.018916480243206024
0.084315590560436249 0.13331025838851929 0.018328340724110603
0.09920889139175415 0.13270498812198639 0.01771470345556736
0.11426706612110138 0.13211171329021454 0.01690220832824707
0.1329655796289444 0.13154448568820953 0.016016591340303421
0.15947525203227997 0.13153591752052307 0.015271302312612534
0.18791015446186066 0.13153591752052307 0.014640357345342636
0.2203022837638855 0.13153272867202759 0.014041629619896412
0.25408497452735901 0.13139981031417847 0.013055138289928436
0.29151508212089539 0.13133817911148071 0.012268149293959141
0.33201408386230469 0.13089855015277863 0.011164688505232334
0.36938819289207458 0.12969844043254852 0.010058250278234482
0.40513214468955994 0.1294117271900177 0.0092960270121693611
0.43832728266716003 0.1294117271900177 0.0087554333731532097
0.47156858444213867 0.12875720858573914 0.0082666901871562004
0.50600177049636841 0.12761437892913818 0.0070891440846025944
0.54033905267715454 0.12761439383029938 0.0064245285466313362
0.57418298721313477 0.12761437892913818 0.0056923814117908478
0.60866028070449829 0.12761437892913818 0.0046878429129719734
0.64183562994003296 0.12711119651794434 0.0040819044224917889
0.672923743724823 0.12680551409721375 0.0037285145372152328
0.70588874816894531 0.12694709002971649 0.0030030324123799801
0.73758184909820557 0.12641128897666931 0.0027245576493442059
0.76850491762161255 0.12560687959194183 0.0025811402592808008
0.80004405975341797 0.12549024820327759 0.0021005119197070599
0.83047550916671753 0.12549024820327759 0.0017790941055864096
0.86047661304473877 0.12546136975288391 0.0013585913693532348
0.88946074247360229 0.12529012560844421 0.0011279212776571512
0.91756558418273926 0.12419743835926056 0.00089208903955295682
0.94485282897949219 0.12371136248111725 0.00062174949562177062
0.97140538692474365 0.12369266152381897 0.0004383666964713484
0.99330061674118042 0.12369266152381897 0.00031321530696004629
0.076373569667339325 0.16143792867660522 0.023915687575936317
0.085655108094215393 0.16143792867660522 0.023491280153393745
0.096116028726100922 0.16143792867660522 0.023056633770465851
0.10856127738952637 0.16143794357776642 0.022261790931224823
0.12277371436357498 0.16143794357776642 0.021626478061079979
0.13995769619941711 0.16138707101345062 0.020733235403895378
0.16152459383010864 0.16075341403484344 0.019659524783492088
0.18810710310935974 0.16007035970687866 0.019021272659301758
0.22042481601238251 0.16003452241420746 0.018361316993832588
0.25578388571739197 0.15942546725273132 0.017293360084295273
0.29454329609870911 0.15853078663349152 0.016334133222699165
0.33444657921791077 0.15841493010520935 0.015321286395192146
0.37213194370269775 0.15841493010520935 0.013563094660639763
0.4070262610912323 0.15828469395637512 0.012353484518826008
0.4414266049861908 0.15751639008522034 0.011748906224966049
0.47429049015045166 0.15751639008522034 0.011087140068411827
0.50959300994873047 0.15687835216522217 0.010242818854749203
0.54402577877044678 0.15737715363502502 0.0093135172501206398
0.57618969678878784 0.15665139257907867 0.0086488900706171989
0.60867047309875488 0.15612758696079254 0.0074684508144855499
0.64281034469604492 0.15533219277858734 0.0065890592522919178
0.67372691631317139 0.15484099090099335 0.0060406620614230633
0.70706206560134888 0.15527011454105377 0.0051318877376616001
0.73765337467193604 0.15452346205711365 0.0046294704079627991
0.76927250623703003 0.15449342131614685 0.0043158815242350101
0.80049419403076172 0.15449343621730804 0.0034573634620755911
0.830718994140625 0.15449343621730804 0.0030986575875431299
0.86078429222106934 0.15383803844451904 0.0025767486076802015
0.88946074247360229 0.15359462797641754 0.0023253033868968487
0.91756558418273926 0.15359462797641754 0.0020513024646788836
0.94490426778793335 0.15359462797641754 0.0016826823120936751
0.97140538692474365 0.15347868204116821 0.0014430719893425703
0.99330061674118042 0.15277911722660065 0.0010571017628535628
0.088807374238967896 0.19027774035930634 0.029130611568689346
0.096566937863826752 0.19027771055698395 0.02852172963321209
0.10552319139242172 0.19027774035930634 0.028331387788057327
0.11675164103507996 0.19027774035930634 0.027666216716170311
0.12987127900123596 0.19027774035930634 0.027063343673944473
0.14795579016208649 0.19023534655570984 0.025938021019101143
0.16735421121120453 0.18988673388957977 0.024746401235461235
0.19054329395294189 0.18986918032169342 0.023764790967106819
0.22305804491043091 0.18986918032169342 0.022924477234482765
0.25856661796569824 0.18986918032169342 0.021739082410931587
0.29749462008476257 0.18986919522285461 0.020586095750331879
0.33739116787910461 0.18934242427349091 0.019515076652169228
0.37287577986717224 0.18725498020648956 0.01806260459125042
0.40702629089355469 0.18725498020648956 0.016842423006892204
0.44150319695472717 0.18704983592033386 0.015928534790873528
0.47549042105674744 0.18635641038417816 0.014747412875294685
0.50980383157730103 0.18635641038417816 0.013787989504635334
0.54411762952804565 0.18635641038417816 0.01250317320227623
0.57810461521148682 0.18619132041931152 0.011466286145150661
0.60942703485488892 0.18594788014888763 0.010712075978517532
0.64281028509140015 0.18594788014888763 0.0097725316882133484
0.67490661144256592 0.18594788014888763 0.0092182811349630356
0.70751655101776123 0.18594788014888763 0.0080727823078632355
0.73815363645553589 0.18594788014888763 0.0075665055774152279
0.76985281705856323 0.1847379207611084 0.0072185862809419632
0.80098026990890503 0.18333318829536438 0.0059921629726886749
0.830718994140625 0.18357507884502411 0.0055854306556284428
0.86078429222106934 0.18298950791358948 0.0047164023853838444
0.88946074247360229 0.18243440985679626 0.004295919556170702
0.91756558418273926 0.18243440985679626 0.0036960204597562551
0.94549661874771118 0.18243440985679626 0.0032775350846350193
0.97140538692474365 0.18233779072761536 0.0028140116482973099
0.99330061674118042 0.1820981353521347 0.0023391060531139374
0.082710400223731995 0.22459162771701813 0.034265164285898209
0.08974350243806839 0.22459162771701813 0.033728845417499542
0.097555071115493774 0.22459159791469574 0.033519010990858078
0.10972035676240921 0.22459162771701813 0.033224962651729584
0.12542335689067841 0.22459159791469574 0.032377913594245911
0.1438094824552536 0.22454626858234406 0.031554486602544785
0.16336971521377563 0.22434650361537933 0.030517909675836563
0.18864041566848755 0.22434650361537933 0.02961043082177639
0.22285236418247223 0.22434650361537933 0.028597151860594749
0.26062244176864624 0.22434650361537933 0.027304250746965408
0.29919478297233582 0.22434647381305695 0.025492500513792038
0.33903402090072632 0.22323960065841675 0.024224862456321716
0.37603083252906799 0.22168856859207153 0.02309645339846611
0.40882030129432678 0.22156843543052673 0.021569535136222839
0.44150319695472717 0.22156843543052673 0.020522445440292358
0.47549042105674744 0.22128838300704956 0.01944425143301487
0.50980383157730103 0.22066983580589294 0.018033731728792191
0.54411762952804565 0.22066983580589294 0.016855956986546516
0.57810461521148682 0.22055795788764954 0.01585840992629528
0.610576331615448 0.22042481601238251 0.014674956910312176
0.64281034469604492 0.22042481601238251 0.013730984181165695
0.67565715312957764 0.22042481601238251 0.01267353817820549
0.70751655101776123 0.22042481601238251 0.011890777386724949
0.73815363645553589 0.22042481601238251 0.010725328698754311
0.76985281705856323 0.21930417418479919 0.010056781582534313
0.80098026990890503 0.21764738857746124 0.0092274444177746773
0.830718994140625 0.21818754076957703 0.008504500612616539
0.86078429222106934 0.21785916388034821 0.007725574541836977
0.88946074247360229 0.21680007874965668 0.0072692115791141987
0.91756558418273926 0.2171819806098938 0.0066560478881001472
0.94479662179946899 0.21713049709796906 0.0058882748708128929
0.97136968374252319 0.21674861013889313 0.0053950571455061436
0.99328023195266724 0.21674859523773193 0.004911771509796381
0.084734261035919189 0.26388898491859436 0.040972940623760223
0.089486494660377502 0.26388898491859436 0.040669497102499008
0.095845334231853485 0.26388895511627197 0.040451820939779282
0.10502949357032776 0.26388898491859436 0.039871804416179657
0.11742746084928513 0.26388898491859436 0.039185356348752975
0.13258959352970123 0.26343458890914917 0.038614235818386078
0.15288223326206207 0.26237514615058899 0.037700168788433075
0.18417760729789734 0.26233649253845215 0.036580607295036316
0.22140675783157349 0.26233649253845215 0.035569701343774796
0.26086580753326416 0.26233649253845215 0.034273192286491394
0.30089846253395081 0.2617419958114624 0.032583732157945633
0.3389432430267334 0.26086577773094177 0.030827755108475685
0.37465286254882812 0.26086577773094177 0.029556535184383392
0.40789097547531128 0.26086577773094177 0.028456373140215874
0.44150319695472717 0.26057910919189453 0.027283770963549614
0.47549042105674744 0.25996717810630798 0.025383343920111656
0.50980383157730103 0.25996723771095276 0.023908086121082306
0.54411762952804565 0.25996723771095276 0.022780997678637505
0.57810461521148682 0.25937008857727051 0.021390173584222794
0.61040830612182617 0.2584151029586792 0.020069638267159462
0.64281028509140015 0.2584151029586792 0.01935197040438652
0.67515003681182861 0.2581920325756073 0.01777615025639534
0.70751255750656128 0.25827589631080627 0.016774594783782959
0.73814666271209717 0.25751659274101257 0.015744701027870178
0.7697216272354126 0.25726166367530823 0.014663545414805412
0.80084908008575439 0.25694477558135986 0.013736169785261154
0.830718994140625 0.25694477558135986 0.012738366611301899
0.8604472279548645 0.25670135021209717 0.011699238792061806
0.88946074247360229 0.25604599714279175 0.010947969742119312
0.9170224666595459 0.25604599714279175 0.010415168479084969
0.94374990463256836 0.25604599714279175 0.0096555892378091812
0.9695398211479187 0.25604599714279175 0.0088616916909813881
0.99297374486923218 0.25604599714279175 0.0085484860464930534
0.065519511699676514 0.30302295088768005 0.047425325959920883
0.071172118186950684 0.30302295088768005 0.047322344034910202
0.07871062308549881 0.30302295088768005 0.046956043690443039
0.08926844596862793 0.30302295088768005 0.046703297644853592
0.10158460587263107 0.30302295088768005 0.045978613197803497
0.11643685400485992 0.30230319499969482 0.045355301350355148
0.14147266745567322 0.30212420225143433 0.044325612485408783
0.17845825850963593 0.30212420225143433 0.043191332370042801
0.21933390200138092 0.30212420225143433 0.041716795414686203
0.26040679216384888 0.30212420225143433 0.040114682167768478
0.30007460713386536 0.30201923847198486 0.038902014493942261
0.33888882398605347 0.30089846253395081 0.037140224128961563
0.37287577986717224 0.30089846253395081 0.035860836505889893
0.40702629089355469 0.30065667629241943 0.034630395472049713
0.44150319695472717 0.29999968409538269 0.032712314277887344
0.47549042105674744 0.29999968409538269 0.031528092920780182
0.50980383157730103 0.29973921179771423 0.0303353201597929
0.54411762952804565 0.29910114407539368 0.028273111209273338
0.57810461521148682 0.29910114407539368 0.027362501248717308
0.60902285575866699 0.29893773794174194 0.026019793003797531
0.64281028509140015 0.29854151606559753 0.024352280423045158
0.67376434803009033 0.29820263385772705 0.02348008006811142
0.7070087194442749 0.29820263385772705 0.021938992664217949
0.7376255989074707 0.29820263385772705 0.020488886162638664
0.76874828338623047 0.29762637615203857 0.019712623208761215
0.79997003078460693 0.29697725176811218 0.018632559105753899
0.82989501953125 0.29697725176811218 0.017486192286014557
0.85955560207366943 0.29678109288215637 0.016414791345596313
0.88807886838912964 0.29549863934516907 0.015599618665874004
0.91591781377792358 0.29607090353965759 0.014569082297384739
0.9434281587600708 0.29519864916801453 0.0137264309450984
0.96907514333724976 0.29517990350723267 0.013023759238421917
0.99245041608810425 0.29517990350723267 0.012200711295008659
0.044479373842477798 0.34050890803337097 0.055318370461463928
0.047771759331226349 0.34011411666870117 0.054601848125457764
0.052027285099029541 0.34011414647102356 0.053920812904834747
0.058748722076416016 0.33998191356658936 0.053107023239135742
0.068373359739780426 0.33931422233581543 0.052830249071121216
0.090335004031658173 0.33920192718505859 0.052354376763105392
0.13229110836982727 0.33891686797142029 0.051960792392492294
0.17503730952739716 0.33888885378837585 0.050686847418546677
0.21870933473110199 0.33888885378837585 0.048643946647644043
0.26086577773094177 0.33888885378837585 0.047453317791223526
0.29999968409538269 0.33888885378837585 0.045682072639465332
0.33888885378837585 0.33888885378837585 0.044387932866811752
0.37287577986717224 0.33888885378837585 0.043611742556095123
0.4070262610912323 0.33888885378837585 0.041483040899038315
0.44150319695472717 0.33888885378837585 0.040055323392152786
0.47549042105674744 0.33877179026603699 0.038342606276273727
0.50980383157730103 0.33844923973083496 0.037012185901403427
0.54411762952804565 0.33807602524757385 0.035585783421993256
0.57706063985824585 0.33743837475776672 0.033597059547901154
0.60867315530776978 0.33574375510215759 0.032527387142181396
0.64236950874328613 0.33529427647590637 0.031179329380393028
0.67295074462890625 0.33509773015975952 0.029516091570258141
0.70601004362106323 0.33496752381324768 0.028472743928432465
0.73737764358520508 0.33496752381324768 0.026705509051680565
0.76797902584075928 0.33496752381324768 0.02568427287042141
0.79918289184570312 0.33496752381324768 0.024630703032016754
0.82933342456817627 0.33496752381324768 0.023218218237161636
0.85827243328094482 0.33496752381324768 0.02200561948120594
0.88734030723571777 0.33496752381324768 0.021132655441761017
0.91466999053955078 0.33496752381324768 0.019863961264491081
