Textures/41.cube
# Created by: G'MIC (https://gmic.eu)
TITLE "Fuji_Astia_100F.cube"
# LUT size
LUT_3D_SIZE 5
# Data domain
DOMAIN_MIN 0.0 0.0 0.0
DOMAIN_MAX 1.0 1.0 1.0
# LUT data points
0.0079432269558310509 0.0083968285471200943 0.0062652677297592163
0.2283056229352951 0.0058401706628501415 0.0029100170359015465
0.48512756824493408 0.021913653239607811 0.010326497256755829
0.74375003576278687 0.056716922670602798 0.050478279590606689
0.97218811511993408 0.091111958026885986 0.1280667632818222
0.11556687951087952 0.25601550936698914 0.13250698149204254
0.28632292151451111 0.2517373263835907 0.120933897793293
0.53590506315231323 0.22347056865692139 0.098953105509281158
0.77735656499862671 0.13670723140239716 0.077971875667572021
0.98838472366333008 0.092892386019229889 0.11274615675210953
0.24233950674533844 0.50588256120681763 0.24508751928806305
0.38562455773353577 0.50980228185653687 0.22599753737449646
0.63000786304473877 0.50904887914657593 0.1974913626909256
0.86561739444732666 0.4817500114440918 0.21491050720214844
1 0.35588812828063965 0.237190842628479
0.38698983192443848 0.73655837774276733 0.36437904834747314
0.49185138940811157 0.74079245328903198 0.35348084568977356
0.71539628505706787 0.75124078989028931 0.32338836789131165
0.9789729118347168 0.75711244344711304 0.27438980340957642
1 0.72858548164367676 0.30090835690498352
0.55538612604141235 0.92026138305664062 0.45334964990615845
0.63052713871002197 0.92539972066879272 0.44674214720726013
0.8093152642250061 0.93811458349227905 0.42595183849334717
1 0.95549750328063965 0.3939133882522583
1 0.9669463038444519 0.34754225611686707
0 0.0041551697067916393 0.13918869197368622
0.18532045185565948 0.0046137920580804348 0.13079950213432312
0.4375651478767395 0.021905075758695602 0.13725988566875458
0.70623904466629028 0.056781288236379623 0.15777590870857239
0.94448161125183105 0.091094791889190674 0.2024807333946228
0.088899552822113037 0.24776099622249603 0.2503068745136261
0.24165827035903931 0.24042318761348724 0.24070416390895844
0.48526084423065186 0.2088705450296402 0.21752841770648956
0.73770570755004883 0.12153935432434082 0.16907268762588501
0.96108531951904297 0.092007622122764587 0.18371918797492981
0.23442676663398743 0.50588256120681763 0.30987876653671265
0.35886359214782715 0.50980377197265625 0.31130406260490417
0.5741841197013855 0.50563156604766846 0.3238215446472168
0.80791777372360229 0.47584116458892822 0.33657005429267883
0.99996101856231689 0.34259933233261108 0.30574050545692444
0.43758359551429749 0.74048960208892822 0.36041849851608276
0.53257232904434204 0.74449723958969116 0.3497566282749176
0.74346280097961426 0.75429010391235352 0.32001322507858276
0.97659128904342651 0.75810110569000244 0.30669021606445312
1 0.72445368766784668 0.4381660521030426
0.59227502346038818 0.92518371343612671 0.45212426781654358
0.66232860088348389 0.92992627620697021 0.44428431987762451
0.83255237340927124 0.94237405061721802 0.42482101917266846
1 0.95922601222991943 0.39358049631118774
1 0.9693487286567688 0.34780588746070862
0 0.0014685601927340031 0.25360068678855896
0.16965071856975555 0.007423856295645237 0.24098697304725647
0.41426244378089905 0.023554535582661629 0.23909468948841095
0.68059259653091431 0.057680089026689529 0.24549192190170288
0.92055612802505493 0.091094791889190674 0.27002662420272827
0.07077992707490921 0.23119179904460907 0.3825094997882843
0.20715436339378357 0.22154338657855988 0.36605316400527954
0.44807678461074829 0.1812463104724884 0.32597082853317261
0.6992872953414917 0.094579771161079407 0.26096481084823608
0.92838281393051147 0.09199359267950058 0.26708376407623291
0.069650851190090179 0.50153344869613647 0.50931030511856079
0.250262051820755 0.50189769268035889 0.50583517551422119
0.49552637338638306 0.49483588337898254 0.49459007382392883
0.74565768241882324 0.46131816506385803 0.47128230333328247
0.96748989820480347 0.30798611044883728 0.3903924822807312
0.36460340023040771 0.74062472581863403 0.52205675840377808
0.44720211625099182 0.7444460391998291 0.52944618463516235
0.62418162822723389 0.75083601474761963 0.54720014333724976
0.82920444011688232 0.75152182579040527 0.57263278961181641
0.9999929666519165 0.71497970819473267 0.60076916217803955
0.66783267259597778 0.93432241678237915 0.44746378064155579
0.72890233993530273 0.93899238109588623 0.44035720825195312
0.88166314363479614 0.95072686672210693 0.42113596200942993
1 0.96653598546981812 0.39217939972877502
1 0.97513490915298462 0.35595422983169556
8.3694312706938945e-06 0 0.36249351501464844
0.18008989095687866 0.0078949183225631714 0.35211527347564697
0.40575072169303894 0.027355248108506203 0.34422829747200012
0.66174995899200439 0.05980425700545311 0.33771559596061707
0.89806222915649414 0.09199359267950058 0.3420773446559906
0.10722410678863525 0.19242215156555176 0.48178932070732117
0.22033520042896271 0.17625609040260315 0.45974689722061157
0.43476641178131104 0.13061802089214325 0.41027256846427917
0.6734926700592041 0.062525860965251923 0.34498149156570435
0.90146499872207642 0.092892393469810486 0.34819892048835754
0.075959809124469757 0.48643112182617188 0.6481967568397522
0.22915282845497131 0.4857010543346405 0.64060491323471069
0.46761098504066467 0.47469404339790344 0.61715537309646606
0.71099865436553955 0.43124407529830933 0.57028019428253174
0.93152469396591187 0.24064645171165466 0.43924775719642639
0.18759189546108246 0.73833286762237549 0.76021146774291992
0.31066834926605225 0.74051743745803833 0.75818496942520142
0.52097010612487793 0.74542629718780518 0.75257885456085205
0.74308782815933228 0.74265027046203613 0.74259209632873535
0.96029716730117798 0.69783169031143188 0.71514397859573364
0.71562051773071289 0.94334763288497925 0.51007205247879028
0.7578742504119873 0.94716060161590576 0.51673763990402222
0.85893255472183228 0.9567413330078125 0.5439496636390686
0.96089184284210205 0.96859699487686157 0.61547833681106567
1 0.97134339809417725 0.74347800016403198
0.041287142783403397 0.0039454004727303982 0.44882538914680481
0.23494391143321991 0.015687562525272369 0.43686842918395996
0.43426445126533508 0.035044461488723755 0.42482861876487732
0.66646707057952881 0.064454987645149231 0.410959392786026
0.88725030422210693 0.093791164457798004 0.4024665355682373
0.19033806025981903 0.11215369403362274 0.51344138383865356
0.29042205214500427 0.095904305577278137 0.49158293008804321
0.46638861298561096 0.052755896002054214 0.44269365072250366
0.68071234226226807 0.067241854965686798 0.42143142223358154
0.89100641012191772 0.094499818980693817 0.41257306933403015
0.24303530156612396 0.4525914192199707 0.71594095230102539
0.33262291550636292 0.44775623083114624 0.705391526222229
0.51543909311294556 0.42622894048690796 0.67225027084350586
0.721382737159729 0.35897508263587952 0.60522061586380005
0.91298311948776245 0.12409588694572449 0.43713760375976562
0.29704278707504272 0.73018777370452881 0.87748676538467407
0.37874549627304077 0.73099040985107422 0.87202632427215576
0.54544764757156372 0.73109948635101318 0.85817462205886841
0.73562860488891602 0.71970671415328979 0.83295625448226929
0.93734633922576904 0.65289109945297241 0.77407526969909668
0.45047447085380554 0.94530767202377319 0.97227174043655396
0.50010949373245239 0.94882786273956299 0.97165656089782715
0.61723971366882324 0.95495837926864624 0.97025811672210693
0.7712855339050293 0.96539497375488281 0.96895861625671387
0.96972823143005371 0.97016346454620361 0.96759432554244995
