Textures/41.cube
# Created by: G'MIC (https://gmic.eu)
TITLE "Fuji_Astia_100F.cube"
# LUT size
LUT_3D_SIZE 33
# Data domain
DOMAIN_MIN 0.0 0.0 0.0
DOMAIN_MAX 1.0 1.0 1.0
# LUT data points
0.0079432269558310509 0.0083968285471200943 0.0062652677297592163
0.030420569702982903 0.007620654534548521 0.0052515114657580853
0.055175330489873886 0.0072874161414802074 0.0049213101156055927
0.081268720328807831 0.0069319582544267178 0.0046965195797383785
0.10779718309640884 0.0066838935017585754 0.0044051520526409149
0.13511539995670319 0.0063703120686113834 0.0041028331033885479
0.1630861759185791 0.0060531939379870892 0.0038123051635921001
0.1957777738571167 0.0059604179114103317 0.0033052242361009121
0.2283056229352951 0.0058401706628501415 0.0029100170359015465
0.26068213582038879 0.0057955076918005943 0.0029675476253032684
0.29252853989601135 0.0089398734271526337 0.0030795137863606215
0.32569271326065063 0.010758483782410622 0.003529638983309269
0.3574674129486084 0.011775922030210495 0.0041810097172856331
0.38928729295730591 0.011806517839431763 0.0051814792677760124
0.4212382435798645 0.015284299850463867 0.0062332046218216419
0.45246756076812744 0.01910058781504631 0.0083533646538853645
0.48512756824493408 0.021913653239607811 0.010326497256755829
0.51845043897628784 0.024600500240921974 0.012781486846506596
0.55139130353927612 0.028660520911216736 0.015898831188678741
0.58480864763259888 0.033350840210914612 0.019903210923075676
0.61743223667144775 0.03774508461356163 0.024504115805029869
0.64936649799346924 0.042445603758096695 0.029825543984770775
0.68131762742996216 0.046656660735607147 0.036457352340221405
0.7125360369682312 0.051592722535133362 0.043468423187732697
0.74375003576278687 0.056716922670602798 0.050478279590606689
0.77444738149642944 0.061846617609262466 0.058619245886802673
0.80475914478302002 0.065277956426143646 0.066966965794563293
0.83477973937988281 0.069526068866252899 0.075646713376045227
0.86425894498825073 0.073931410908699036 0.084670364856719971
0.89250856637954712 0.078451469540596008 0.094629369676113129
0.92039763927459717 0.082546256482601166 0.10511589795351028
0.94666355848312378 0.086846813559532166 0.11658826470375061
0.97218811511993408 0.091111958026885986 0.1280667632818222
0.019078504294157028 0.035300016403198242 0.016231447458267212
0.041075576096773148 0.033675458282232285 0.014376665465533733
0.065876387059688568 0.032281424850225449 0.013130865059792995
0.09168647974729538 0.031105047091841698 0.012323237955570221
0.11796996742486954 0.029980333521962166 0.011339813470840454
0.14493055641651154 0.02914426289498806 0.010365264490246773
0.1731981635093689 0.028270989656448364 0.0093411533161997795
0.20599658787250519 0.027458200231194496 0.0081014949828386307
0.23781532049179077 0.026375681161880493 0.0068196281790733337
0.26999488472938538 0.025701886042952538 0.0055673723109066486
0.30165556073188782 0.025239598006010056 0.004767764825373888
0.33422693610191345 0.024249283596873283 0.0041399127803742886
0.36593875288963318 0.021442394703626633 0.0035751131363213062
0.39727893471717834 0.019661841914057732 0.0033196154981851578
0.42865824699401855 0.018839100375771523 0.0036022667773067951
0.45977899432182312 0.020112769678235054 0.0045159780420362949
0.49222630262374878 0.022395232692360878 0.0061577875167131424
0.52534306049346924 0.024918042123317719 0.0076071885414421558
0.55832403898239136 0.029166871681809425 0.0098924515768885612
0.59131425619125366 0.033415190875530243 0.013377614319324493
0.62356299161911011 0.038109827786684036 0.017314039170742035
0.65521955490112305 0.042810257524251938 0.022260867059230804
0.68686795234680176 0.047344785183668137 0.028482040390372276
0.71767133474349976 0.05179673433303833 0.035386059433221817
0.74841302633285522 0.056991554796695709 0.042764276266098022
0.77894282341003418 0.06192813441157341 0.050954431295394897
0.80908107757568359 0.065453499555587769 0.059366833418607712
0.83875125646591187 0.069526068866252899 0.068800449371337891
0.86801844835281372 0.074207320809364319 0.0781741663813591
0.89598739147186279 0.079200223088264465 0.088346123695373535
0.92344129085540771 0.082598134875297546 0.099260009825229645
0.94982540607452393 0.086846813559532166 0.11074387282133102
0.97507965564727783 0.09130077064037323 0.12292167544364929
0.03408321738243103 0.065496087074279785 0.027580367401242256
0.052338134497404099 0.0636330246925354 0.02531072124838829
0.072977319359779358 0.062146078795194626 0.023758683353662491
0.098205193877220154 0.060513250529766083 0.022485081106424332
0.12468415498733521 0.058976598083972931 0.020925611257553101
0.15126442909240723 0.057749345898628235 0.019612783566117287
0.18023058772087097 0.056852687150239944 0.018215678632259369
0.21304699778556824 0.055576197803020477 0.01641332171857357
0.24454671144485474 0.054664555937051773 0.014468880370259285
0.27661818265914917 0.053767673671245575 0.012880749069154263
0.30815368890762329 0.053028859198093414 0.011416899971663952
0.34067508578300476 0.051530744880437851 0.010030729696154594
0.37254101037979126 0.048246338963508606 0.0087533155456185341
0.40360027551651001 0.044605977833271027 0.0081306425854563713
0.43463766574859619 0.041240125894546509 0.0073130461387336254
0.46556475758552551 0.037210084497928619 0.0070247901603579521
0.4974769651889801 0.032821197062730789 0.0063980692066252232
0.53000432252883911 0.029825977981090546 0.0067246030084788799
0.56239795684814453 0.0299966000020504 0.0077090682461857796
0.59538519382476807 0.033641532063484192 0.010291146114468575
0.62719666957855225 0.038544792681932449 0.014531093649566174
0.65868264436721802 0.042810257524251938 0.018935374915599823
0.69020324945449829 0.04739004373550415 0.024810846894979477
0.72073894739151001 0.052502039819955826 0.031839422881603241
0.75133019685745239 0.057249024510383606 0.039194744080305099
0.78168535232543945 0.06192813441157341 0.047500267624855042
0.81175321340560913 0.065515927970409393 0.055954992771148682
0.84112536907196045 0.069589264690876007 0.065453626215457916
0.87011802196502686 0.074549131095409393 0.075024187564849854
0.89795458316802979 0.079248085618019104 0.085537716746330261
0.92541325092315674 0.082598134875297546 0.096446320414543152
0.95155203342437744 0.086898297071456909 0.10813694447278976
0.97676724195480347 0.091596849262714386 0.12048786878585815
0.052868332713842392 0.09821784496307373 0.043933868408203125
0.06829158216714859 0.096518367528915405 0.0414431132376194
0.083857834339141846 0.094416029751300812 0.039706464856863022
0.10504455119371414 0.092636607587337494 0.037460461258888245
0.13110135495662689 0.090576387941837311 0.03523625060915947
0.15748271346092224 0.089275844395160675 0.034097012132406235
0.18729420006275177 0.0882391557097435 0.03125280886888504
0.21982115507125854 0.086469702422618866 0.029028091579675674
0.2510857880115509 0.085217766463756561 0.026483455672860146
0.28287830948829651 0.083893083035945892 0.023835984990000725
0.31462478637695312 0.082405723631381989 0.021709369495511055
0.34716525673866272 0.080343335866928101 0.019741469994187355
0.37885963916778564 0.07731463760137558 0.017831362783908844
0.40987256169319153 0.073835454881191254 0.016524123027920723
0.44077849388122559 0.070800580084323883 0.015299190767109394
0.47157451510429382 0.066892698407173157 0.014485925436019897
0.50385934114456177 0.061551805585622787 0.013360799290239811
0.53590977191925049 0.055651586502790451 0.012397090904414654
0.56758272647857666 0.04901484027504921 0.011950114741921425
0.5998300313949585 0.042974211275577545 0.011195939965546131
0.63106238842010498 0.040693122893571854 0.012855676934123039
0.6621544361114502 0.042985487729310989 0.016810109838843346
0.69347286224365234 0.047899775207042694 0.022004688158631325
0.72374457120895386 0.052532464265823364 0.029310954734683037
0.75413185358047485 0.057665187865495682 0.036595173180103302
0.78422880172729492 0.061935223639011383 0.044786546379327774
0.81405818462371826 0.065764814615249634 0.053501695394515991
0.84342318773269653 0.069708101451396942 0.063235707581043243
0.87220627069473267 0.074987374246120453 0.072876207530498505
0.89993613958358765 0.079248085618019104 0.083550482988357544
0.92730069160461426 0.082598134875297546 0.094601958990097046
0.95330393314361572 0.087258651852607727 0.10663212835788727
0.9783177375793457 0.091977991163730621 0.11873368173837662
0.072483755648136139 0.13110944628715515 0.063195712864398956
0.08480805903673172 0.12938402593135834 0.061349745839834213
0.098388835787773132 0.12753832340240479 0.059571791440248489
0.11520802974700928 0.12565411627292633 0.057401403784751892
0.137014240026474 0.12365873903036118 0.055011074990034103
0.16324861347675323 0.12222307920455933 0.052256215363740921
0.19441138207912445 0.1202903687953949 0.049558445811271667
0.22633002698421478 0.11838646978139877 0.046620678156614304
0.25749394297599792 0.11636421084403992 0.043252661824226379
0.2891656756401062 0.11413934081792831 0.040016207844018936
0.3208349347114563 0.11176472902297974 0.037007622420787811
0.35316798090934753 0.10889988392591476 0.033892437815666199
0.38495355844497681 0.10565154254436493 0.030863553285598755
0.41578081250190735 0.10218294709920883 0.028739549219608307
0.44644144177436829 0.098848938941955566 0.026814850047230721
0.47717231512069702 0.094197660684585571 0.025649365037679672
0.50954383611679077 0.089137278497219086 0.023654241114854813
0.54148280620574951 0.083757750689983368 0.022670533508062363
0.57301008701324463 0.07721053808927536 0.021941136568784714
0.60509109497070312 0.069799333810806274 0.020654965192079544
0.63565009832382202 0.060885254293680191 0.019468259066343307
0.66589432954788208 0.052116595208644867 0.019005579873919487
0.69667434692382812 0.049507439136505127 0.02101995050907135
0.7264862060546875 0.052532471716403961 0.02769898995757103
0.75660610198974609 0.057752415537834167 0.035283185541629791
0.78677797317504883 0.062651403248310089 0.043541356921195984
0.81632161140441895 0.06603085994720459 0.052324771881103516
0.84555745124816895 0.070419959723949432 0.061835121363401413
0.87406766414642334 0.07500014454126358 0.071625851094722748
0.90170192718505859 0.079248085618019104 0.082424700260162354
0.92874419689178467 0.083290167152881622 0.093447446823120117
0.95455557107925415 0.087718866765499115 0.10557235032320023
0.97977513074874878 0.09199359267950058 0.11795195192098618
0.091408789157867432 0.1618921309709549 0.082867726683616638
0.10211499035358429 0.16091319918632507 0.082117728888988495
0.11410815268754959 0.15979656577110291 0.080300465226173401
0.12938036024570465 0.15765209496021271 0.078388474881649017
0.14651916921138763 0.15680794417858124 0.075866833329200745
0.16986899077892303 0.15505401790142059 0.073498845100402832
0.2019633948802948 0.15309374034404755 0.070255056023597717
0.23285463452339172 0.15133237838745117 0.067170217633247375
0.26393994688987732 0.1487787663936615 0.063668079674243927
0.29533621668815613 0.14589245617389679 0.060143277049064636
0.32702341675758362 0.14284510910511017 0.056783437728881836
0.35940209031105042 0.13939937949180603 0.053134553134441376
0.39082968235015869 0.13575486838817596 0.049035098403692245
0.42156952619552612 0.1315571516752243 0.045799750834703445
0.45220863819122314 0.12711356580257416 0.043019801378250122
0.48285600543022156 0.12180796265602112 0.040830302983522415
0.5149800181388855 0.11622875183820724 0.037879925221204758
0.54693710803985596 0.11035455763339996 0.036389444023370743
0.57830184698104858 0.10375305265188217 0.03545740619301796
0.6100577712059021 0.096633896231651306 0.034341365098953247
0.64080798625946045 0.087831884622573853 0.033372916281223297
0.67060500383377075 0.078411862254142761 0.031813532114028931
0.70091289281845093 0.068060055375099182 0.029883166775107384
0.7300679087638855 0.059667367488145828 0.030077822506427765
0.75940388441085815 0.058668147772550583 0.034808017313480377
0.78928905725479126 0.062744997441768646 0.042542923241853714
0.81873899698257446 0.066176749765872955 0.051632940769195557
0.84782034158706665 0.070588037371635437 0.061209384351968765
0.87627243995666504 0.075526632368564606 0.070975258946418762
0.90362471342086792 0.079259797930717468 0.081639669835567474
0.93073403835296631 0.083496913313865662 0.09298357367515564
0.95631229877471924 0.087745383381843567 0.10524465143680573
0.98110973834991455 0.09199359267950058 0.11743051558732986
0.10871264338493347 0.19509653747081757 0.10244634002447128
0.11839116364717484 0.19445405900478363 0.1003868579864502
0.12975060939788818 0.19368551671504974 0.10031180083751678
0.14379173517227173 0.19207054376602173 0.098843492567539215
0.15990631282329559 0.19124191999435425 0.096419550478458405
0.18048793077468872 0.19055673480033875 0.094300746917724609
0.20962291955947876 0.18842077255249023 0.091567225754261017
0.23950518667697906 0.18721981346607208 0.088447622954845428
0.27091780304908752 0.18493680655956268 0.085473135113716125
0.30189979076385498 0.18275998532772064 0.08245772123336792
0.3336397111415863 0.17950448393821716 0.079154044389724731
0.3659864068031311 0.17583388090133667 0.075433038175106049
0.39734372496604919 0.17198555171489716 0.071306437253952026
0.42812922596931458 0.16762718558311462 0.067592106759548187
0.45888569951057434 0.16244898736476898 0.064262166619300842
0.48956194519996643 0.15606996417045593 0.061074953526258469
0.5215192437171936 0.14950929582118988 0.057211805135011673
0.55365264415740967 0.1421893835067749 0.054415240883827209
0.58488458395004272 0.13468018174171448 0.052515547722578049
0.61650073528289795 0.12658967077732086 0.051316715776920319
0.64721840620040894 0.1175416111946106 0.049261853098869324
0.67677211761474609 0.10831056535243988 0.048431359231472015
0.70697301626205444 0.098696872591972351 0.046263854950666428
0.73586267232894897 0.087333403527736664 0.045379739254713058
0.7642095685005188 0.075270242989063263 0.042861897498369217
0.79320746660232544 0.066762804985046387 0.04263760894536972
0.82210129499435425 0.066532932221889496 0.049553301185369492
0.85100841522216797 0.071010135114192963 0.058992080390453339
0.87906861305236816 0.075898692011833191 0.069306366145610809
0.90637767314910889 0.080031022429466248 0.079941973090171814
0.93310552835464478 0.083496913313865662 0.091421462595462799
0.95859444141387939 0.087745383381843567 0.10334490239620209
0.98334360122680664 0.09199359267950058 0.1161235123872757
0.11187171936035156 0.22539356350898743 0.11723301559686661
0.12195225059986115 0.22520667314529419 0.11693616956472397
0.13330112397670746 0.22487413883209229 0.11642958223819733
0.14736957848072052 0.22395786643028259 0.11451680213212967
0.16496050357818604 0.22256211936473846 0.11312027275562286
0.18857762217521667 0.22147208452224731 0.11068282276391983
0.21765689551830292 0.22124199569225311 0.1086791530251503
0.24713712930679321 0.22062699496746063 0.10573436319828033
0.27815160155296326 0.217683345079422 0.10349169373512268
0.30909404158592224 0.21655371785163879 0.10085848718881607
0.34063512086868286 0.21349795162677765 0.097843140363693237
0.37281033396720886 0.21013183891773224 0.094753868877887726
0.40389701724052429 0.20680193603038788 0.09150291234254837
0.43452876806259155 0.20301274955272675 0.088409431278705597
0.46555647253990173 0.19814079999923706 0.085302926599979401
0.49655503034591675 0.19209304451942444 0.081884086132049561
0.52834826707839966 0.18526738882064819 0.078537054359912872
0.56051206588745117 0.17707131803035736 0.075192734599113464
0.59193223714828491 0.16828791797161102 0.072408288717269897
0.62325435876846313 0.15867720544338226 0.070008784532546997
0.65369689464569092 0.14828796684741974 0.067463323473930359
0.6832650899887085 0.13823270797729492 0.066091075539588928
0.71328884363174438 0.12782259285449982 0.063272200524806976
0.7421610951423645 0.1169762909412384 0.062363918870687485
0.77019941806793213 0.10479447245597839 0.059778761118650436
0.7988893985748291 0.090303756296634674 0.055974368005990982
0.82653629779815674 0.076491422951221466 0.053637050092220306
0.85464930534362793 0.072839967906475067 0.057451684027910233
0.88251596689224243 0.075941599905490875 0.067167013883590698
0.90947544574737549 0.080146893858909607 0.078037895262241364
0.93604463338851929 0.083496913313865662 0.089534059166908264
0.96135157346725464 0.087968461215496063 0.1017269566655159
0.98574185371398926 0.092781595885753632 0.11476799845695496
0.11556687951087952 0.25601550936698914 0.13250698149204254
0.12354431301355362 0.25569450855255127 0.13173156976699829
0.13368359208106995 0.25550273060798645 0.13085471093654633
0.14889845252037048 0.25514930486679077 0.12997795641422272
0.17034350335597992 0.25456959009170532 0.12886574864387512
0.19863471388816833 0.25381907820701599 0.12666027247905731
0.2266920804977417 0.25299146771430969 0.1250113844871521
0.25632438063621521 0.25211566686630249 0.12277930229902267
0.28632292151451111 0.2517373263835907 0.120933897793293
0.3172554075717926 0.24949929118156433 0.11848912388086319
0.34842157363891602 0.24784418940544128 0.11578251421451569
0.38027620315551758 0.24447791278362274 0.11298662424087524
0.41106715798377991 0.24191088974475861 0.11007537692785263
0.44177505373954773 0.23874606192111969 0.1072530597448349
0.47283962368965149 0.23444473743438721 0.10436736792325974
0.50403720140457153 0.22956705093383789 0.10133180767297745
0.53590506315231323 0.22347056865692139 0.098953105509281158
0.56798332929611206 0.21599544584751129 0.095910750329494476
0.59973150491714478 0.20704849064350128 0.094004280865192413
0.63113081455230713 0.19692942500114441 0.091392017900943756
0.66126185655593872 0.18544420599937439 0.089090026915073395
0.69078433513641357 0.17407326400279999 0.085817590355873108
0.72047704458236694 0.16158555448055267 0.083265885710716248
0.74910354614257812 0.14951534569263458 0.080276213586330414
0.77735656499862671 0.13670723140239716 0.077971875667572021
0.80567377805709839 0.12264753878116608 0.074376761913299561
0.83309948444366455 0.10663896054029465 0.070773720741271973
0.86022508144378662 0.090162403881549835 0.066365130245685577
0.88673478364944458 0.079630434513092041 0.066533401608467102
0.91326278448104858 0.080379173159599304 0.075540140271186829
0.93939995765686035 0.084265418350696564 0.087280653417110443
0.96462678909301758 0.088638089597225189 0.099588930606842041
0.98838472366333008 0.092892386019229889 0.11274615675210953
0.12372130155563354 0.28624743223190308 0.1464424729347229
0.12977063655853271 0.2861194908618927 0.1461639404296875
0.13956835865974426 0.28602585196495056 0.14541143178939819
0.15802918374538422 0.28593191504478455 0.14465312659740448
0.18397808074951172 0.2858755886554718 0.14337258040904999
0.21011081337928772 0.28566807508468628 0.14208464324474335
0.23757354915142059 0.28533098101615906 0.14058510959148407
0.26656469702720642 0.28465458750724792 0.13884088397026062
0.29608550667762756 0.28325587511062622 0.13735885918140411
0.32653895020484924 0.2820761501789093 0.1353766918182373
0.35720741748809814 0.28158429265022278 0.13316690921783447
0.38830545544624329 0.27826768159866333 0.13049671053886414
0.41869077086448669 0.27681878209114075 0.12810206413269043
0.44942742586135864 0.27393576502799988 0.12592209875583649
0.48063993453979492 0.27016055583953857 0.12349189072847366
0.51194643974304199 0.26623004674911499 0.12077858299016953
0.54404282569885254 0.26114213466644287 0.11832959949970245
0.57640367746353149 0.25457397103309631 0.11625725775957108
0.60797375440597534 0.2465876042842865 0.11387691646814346
0.63948893547058105 0.23751214146614075 0.11208132654428482
0.66958296298980713 0.22698996961116791 0.11017115414142609
0.69885814189910889 0.2158253937959671 0.10790430009365082
0.72844904661178589 0.20225329697132111 0.10533624887466431
0.75708103179931641 0.18814475834369659 0.10190118849277496
0.78518116474151611 0.17319104075431824 0.098016813397407532
0.81339824199676514 0.15725341439247131 0.093871563673019409
0.8404853343963623 0.14155964553356171 0.089935474097728729
0.8674350380897522 0.12469064444303513 0.085462495684623718
0.89338964223861694 0.10518439114093781 0.080027513206005096
0.91833865642547607 0.088780038058757782 0.077582418918609619
0.94368821382522583 0.084775298833847046 0.084437675774097443
0.9686439037322998 0.088869363069534302 0.096783429384231567
0.99164044857025146 0.09302346408367157 0.11025147885084152
0.12396090477705002 0.31643426418304443 0.15811726450920105
0.13695254921913147 0.3163398802280426 0.15792493522167206
0.15422476828098297 0.3163398802280426 0.15701597929000854
0.17616039514541626 0.31633079051971436 0.15667355060577393
0.19899587333202362 0.31629860401153564 0.15568795800209045
0.22344575822353363 0.31617999076843262 0.15471597015857697
0.25065910816192627 0.31602704524993896 0.15340344607830048
0.27798089385032654 0.31601300835609436 0.15193778276443481
0.30752965807914734 0.31600832939147949 0.15023434162139893
0.33687072992324829 0.31535214185714722 0.14862248301506042
0.36684960126876831 0.31313475966453552 0.14682409167289734
0.39740678668022156 0.31209152936935425 0.14479422569274902
0.42729127407073975 0.31072798371315002 0.14303500950336456
0.45795029401779175 0.30812984704971313 0.14092965424060822
0.4892900288105011 0.30466589331626892 0.13895271718502045
0.52058559656143188 0.30168789625167847 0.13706323504447937
0.55283015966415405 0.29740619659423828 0.13534709811210632
0.58539497852325439 0.29170763492584229 0.13367180526256561
0.61699354648590088 0.28529489040374756 0.1327003687620163
0.64827233552932739 0.27741995453834534 0.1318276971578598
0.67847418785095215 0.26833432912826538 0.13066487014293671
0.70755618810653687 0.25853991508483887 0.12939776480197906
0.73718619346618652 0.2463410496711731 0.12720336019992828
0.76560789346694946 0.23265986144542694 0.12438066303730011
0.79369944334030151 0.21646347641944885 0.12094477564096451
0.82162618637084961 0.19845570623874664 0.11626527458429337
0.84868675470352173 0.18094110488891602 0.11126349121332169
0.87513172626495361 0.16208045184612274 0.10597676783800125
0.90093749761581421 0.14203260838985443 0.10058687627315521
0.92561167478561401 0.12071854621171951 0.094750650227069855
0.94961696863174438 0.097481556236743927 0.088954247534275055
0.97323703765869141 0.090330399572849274 0.093896031379699707
0.99441027641296387 0.093791164457798004 0.10693968087434769
0.14812283217906952 0.34763079881668091 0.16915139555931091
0.16193026304244995 0.34763079881668091 0.16864323616027832
0.17650154232978821 0.34763079881668091 0.1681227833032608
0.19409070909023285 0.34763079881668091 0.16790787875652313
0.21498872339725494 0.34763079881668091 0.16732209920883179
0.23951010406017303 0.34759333729743958 0.16639724373817444
0.26471909880638123 0.34738859534263611 0.16558900475502014
0.29125171899795532 0.34730702638626099 0.16425992548465729
0.31970700621604919 0.34692943096160889 0.16272296011447906
0.34877017140388489 0.34673205018043518 0.16134612262248993
0.37778019905090332 0.34662747383117676 0.15979215502738953
0.4075620174407959 0.34542098641395569 0.158347487449646
0.43714222311973572 0.34322035312652588 0.15685513615608215
0.4674837589263916 0.34232357144355774 0.15517033636569977
0.49906909465789795 0.33893173933029175 0.15314346551895142
0.53032225370407104 0.3364163339138031 0.15160471200942993
0.56279349327087402 0.33292502164840698 0.15000079572200775
0.59527355432510376 0.32855567336082458 0.14874017238616943
0.62687665224075317 0.32317802309989929 0.14795573055744171
0.6579892635345459 0.31659790873527527 0.14822253584861755
0.68808698654174805 0.30887773633003235 0.14842735230922699
0.71730870008468628 0.30043172836303711 0.14862194657325745
0.74639773368835449 0.2901158332824707 0.14825522899627686
0.77495533227920532 0.27823635935783386 0.14678052067756653
0.80285829305648804 0.26388517022132874 0.14440537989139557
0.83065682649612427 0.24746978282928467 0.14047190546989441
0.85760557651519775 0.22816836833953857 0.135531947016716
