Textures/42.cube
# Created by: G'MIC (https://gmic.eu)
TITLE "Fuji_FP-100c_3.cube"
# LUT size
LUT_3D_SIZE 5
# Data domain
DOMAIN_MIN 0.0 0.0 0.0
DOMAIN_MAX 1.0 1.0 1.0
# LUT data points
0.031862333416938782 0.057894773781299591 0.067088156938552856
0.18361783027648926 0.047627102583646774 0.068245664238929749
0.5043482780456543 0 0.065377131104469299
0.79903674125671387 0 0.066591165959835052
0.99986124038696289 0.10575303435325623 0.085947424173355103
0.0094390399754047394 0.19481255114078522 0.073998652398586273
0.23324096202850342 0.2143980860710144 0.048439104110002518
0.58648508787155151 0.23438653349876404 0.05713774636387825
0.83058851957321167 0.23727834224700928 0.063278377056121826
0.99999582767486572 0.30783805251121521 0.097901679575443268
0 0.48543116450309753 0.079984880983829498
0.21041229367256165 0.47590088844299316 0.081322334706783295
0.52670395374298096 0.51865279674530029 0
0.82657837867736816 0.53420990705490112 0
1 0.57117575407028198 0.17008817195892334
0 0.70554828643798828 0.13684351742267609
0.22101457417011261 0.6953386664390564 0.13593770563602448
0.47994422912597656 0.70348811149597168 0.080457776784896851
0.75415843725204468 0.73522746562957764 0
0.99461460113525391 0.76032066345214844 0
0.47573018074035645 0.93725359439849854 0.42913931608200073
0.53298401832580566 0.93352621793746948 0.42848587036132812
0.67731952667236328 0.93018513917922974 0.44712859392166138
0.83615487813949585 0.94373458623886108 0.40779575705528259
0.99968010187149048 0.96028387546539307 0.30995902419090271
0.042059466242790222 0.052388086915016174 0.20574542880058289
0.27901148796081543 9.8086267826147377e-05 0.25100994110107422
0.50164675712585449 0.0022472313139587641 0.23889818787574768
0.79619920253753662 0 0.23071378469467163
0.99893659353256226 0.13757643103599548 0.23779314756393433
0.052977770566940308 0.21357177197933197 0.25137162208557129
0.28634607791900635 0.25968882441520691 0.27960601449012756
0.59294921159744263 0.2616877555847168 0.27139642834663391
0.82503491640090942 0.26573383808135986 0.25657209753990173
0.99999582767486572 0.32316368818283081 0.25850310921669006
0.00011595217802096158 0.54547005891799927 0.28996685147285461
0.25630089640617371 0.53139477968215942 0.27976283431053162
0.56196689605712891 0.54945158958435059 0.23062397539615631
0.83953940868377686 0.56069272756576538 0.27584648132324219
0.99995285272598267 0.58152079582214355 0.32276478409767151
0 0.73038917779922485 0.28996336460113525
0.25179585814476013 0.72051149606704712 0.28582915663719177
0.50219517946243286 0.71572577953338623 0.26761913299560547
0.76556694507598877 0.74517577886581421 0.17202430963516235
0.99601978063583374 0.76821637153625488 0.22566172480583191
0.46986377239227295 0.94134718179702759 0.4879646897315979
0.52831572294235229 0.93793731927871704 0.48665723204612732
0.67475366592407227 0.93326127529144287 0.50149470567703247
0.83516871929168701 0.94426226615905762 0.47499546408653259
0.99938207864761353 0.96147626638412476 0.39643868803977966
0.071860320866107941 0.010373782366514206 0.50060838460922241
0.32939735054969788 0 0.54753214120864868
0.7213369607925415 0 0.62110769748687744
0.75191670656204224 0.2157200425863266 0.51580691337585449
0.98015177249908447 0.22006265819072723 0.50853711366653442
0.052483417093753815 0.21458792686462402 0.50827431678771973
0.33065077662467957 0.23394215106964111 0.55668282508850098
0.71485793590545654 0.23531836271286011 0.62885427474975586
0.76652878522872925 0.37177303433418274 0.54478943347930908
0.99278521537780762 0.3230384886264801 0.50363153219223022
0.17485491931438446 0.53224754333496094 0.55674034357070923
0.35571977496147156 0.55767679214477539 0.57292348146438599
0.63336843252182007 0.62440377473831177 0.61780989170074463
0.82446402311325073 0.59324002265930176 0.57360297441482544
0.99572056531906128 0.57713788747787476 0.53085494041442871
0.27339768409729004 0.77529215812683105 0.5926673412322998
0.38705328106880188 0.77363646030426025 0.58581852912902832
0.55400931835174561 0.75796139240264893 0.54632008075714111
0.78695946931838989 0.7700645923614502 0.50682634115219116
0.99283063411712646 0.79184544086456299 0.56101101636886597
0.42609182000160217 0.95243638753890991 0.62102407217025757
0.49139764904975891 0.94883066415786743 0.61743229627609253
0.65087634325027466 0.94287401437759399 0.62075614929199219
0.82701325416564941 0.94550627470016479 0.61755460500717163
0.99648904800415039 0.96404939889907837 0.56795412302017212
0.27101343870162964 0 0.76395332813262939
0.41927668452262878 0 0.77955961227416992
0.72285068035125732 0 0.82670658826828003
0.98090469837188721 0 0.85211968421936035
0.98138886690139771 0.38548955321311951 0.75909525156021118
0.26444539427757263 0.21281762421131134 0.75470113754272461
0.40878945589065552 0.20589445531368256 0.77089077234268188
0.70580577850341797 0.18725410103797913 0.82005685567855835
0.96351504325866699 0.28112170100212097 0.85057544708251953
0.96926271915435791 0.49238809943199158 0.76763230562210083
0.072392158210277557 0.45026049017906189 0.68396079540252686
0.27235308289527893 0.467275470495224 0.70675677061080933
0.61328339576721191 0.5403895378112793 0.78072148561477661
0.90467756986618042 0.61791461706161499 0.83892500400543213
0.93547827005386353 0.65903741121292114 0.7806437611579895
0.33785352110862732 0.73766398429870605 0.76088798046112061
0.42806658148765564 0.74497061967849731 0.76503986120223999
0.6258271336555481 0.77414393424987793 0.78530740737915039
0.8411141037940979 0.83397340774536133 0.83246934413909912
0.97523993253707886 0.80225265026092529 0.7871813178062439
0.52853751182556152 0.96111631393432617 0.85308170318603516
0.56587809324264526 0.95980620384216309 0.8470771312713623
0.67071926593780518 0.95807278156280518 0.83182597160339355
0.80917394161224365 0.95356857776641846 0.79659169912338257
0.9841381311416626 0.96931344270706177 0.77895903587341309
0.59213119745254517 0.19544400274753571 0.98309987783432007
0.65242022275924683 0.16444164514541626 0.98415017127990723
0.8101697564125061 0.049490146338939667 0.99121081829071045
0.99993139505386353 0 0.99929040670394897
0.99995285272598267 0.30127045512199402 0.99756407737731934
0.5779951810836792 0.35584133863449097 0.977852463722229
0.63859403133392334 0.34328716993331909 0.9795793890953064
0.79551678895950317 0.31735926866531372 0.98708194494247437
0.99600857496261597 0.29325023293495178 0.99777394533157349
1 0.4501815140247345 0.99591928720474243
0.46131023764610291 0.55726879835128784 0.96048277616500854
0.54587745666503906 0.56108421087265015 0.96296274662017822
0.72700613737106323 0.564677894115448 0.97215789556503296
0.9435315728187561 0.5856393575668335 0.98637723922729492
0.99999141693115234 0.66083222627639771 0.98869991302490234
0.37744224071502686 0.76108640432357788 0.94200819730758667
0.42106729745864868 0.7569659948348999 0.94086015224456787
0.54907405376434326 0.74966228008270264 0.94208639860153198
0.84467649459838867 0.78245580196380615 0.96856063604354858
0.99999541044235229 0.84442532062530518 0.98220396041870117
0.61972916126251221 0.9498211145401001 0.96800220012664795
0.64430522918701172 0.94994616508483887 0.96773600578308105
0.72368133068084717 0.9533265233039856 0.96929752826690674
0.8449094295501709 0.96100801229476929 0.97283226251602173
0.97796165943145752 0.98364889621734619 0.98369556665420532
