Textures/42.cube
# Created by: G'MIC (https://gmic.eu)
TITLE "Fuji_FP-100c_3.cube"
# LUT size
LUT_3D_SIZE 33
# Data domain
DOMAIN_MIN 0.0 0.0 0.0
DOMAIN_MAX 1.0 1.0 1.0
# LUT data points
0.031862333416938782 0.057894773781299591 0.067088156938552856
0.036010704934597015 0.058326471596956253 0.0670657679438591
0.043080467730760574 0.058182571083307266 0.067475765943527222
0.054795306175947189 0.057914081960916519 0.067630909383296967
0.072129711508750916 0.057749252766370773 0.067979790270328522
0.096044130623340607 0.056713588535785675 0.068127483129501343
0.12330464273691177 0.055132944136857986 0.068697668612003326
0.15201328694820404 0.052168425172567368 0.068529963493347168
0.18361783027648926 0.047627102583646774 0.068245664238929749
0.21765153110027313 0.040926340967416763 0.068274140357971191
0.25430041551589966 0.031429849565029144 0.068108692765235901
0.29386442899703979 0.018515272065997124 0.067643456161022186
0.33452457189559937 0.0043237823992967606 0.066976815462112427
0.37701272964477539 0 0.066905781626701355
0.42000630497932434 0 0.066477455198764801
0.46238887310028076 0 0.065773442387580872
0.5043482780456543 0 0.065377131104469299
0.54517495632171631 0 0.06511659175157547
0.58611428737640381 0 0.064882166683673859
0.62994587421417236 0 0.06522814929485321
0.66838151216506958 0 0.064899444580078125
0.70391565561294556 0 0.065279580652713776
0.73722511529922485 0 0.065808564424514771
0.76818603277206421 0 0.06598760187625885
0.79903674125671387 0 0.066591165959835052
0.82908707857131958 0 0.066969633102416992
0.8586922287940979 0 0.068101167678833008
0.88702595233917236 0 0.069028347730636597
0.91418552398681641 0 0.070909835398197174
0.93945944309234619 0 0.072751276195049286
0.96440744400024414 0.010497823357582092 0.076089046895503998
0.98794758319854736 0.058138519525527954 0.079600244760513306
0.99986124038696289 0.10575303435325623 0.085947424173355103
0.033081710338592529 0.060479022562503815 0.067788496613502502
0.038393858820199966 0.060700297355651855 0.067559190094470978
0.046459145843982697 0.060944367200136185 0.067815952003002167
0.058383174240589142 0.061256468296051025 0.06810731440782547
0.076631076633930206 0.061310902237892151 0.068600855767726898
0.10018712282180786 0.060916576534509659 0.068380601704120636
0.12690800428390503 0.059513460844755173 0.0685463547706604
0.15575668215751648 0.057313632220029831 0.068288177251815796
0.18835464119911194 0.053597826510667801 0.068721860647201538
0.22287267446517944 0.047463346272706985 0.068259298801422119
0.25970610976219177 0.038792259991168976 0.067819356918334961
0.29943898320198059 0.027046442031860352 0.067553654313087463
0.34015744924545288 0.012942918576300144 0.066989652812480927
0.38220340013504028 0.0010545563418418169 0.066453732550144196
0.42489352822303772 0 0.065895125269889832
0.4667840301990509 0 0.065526559948921204
0.50797879695892334 0 0.065340504050254822
0.54891800880432129 0 0.065231300890445709
0.59056240320205688 0 0.064733624458312988
0.63349217176437378 0 0.064672768115997314
0.67216789722442627 0 0.065157905220985413
0.70747721195220947 0 0.065264537930488586
0.7403685450553894 0 0.06559666246175766
0.77116256952285767 0 0.065633296966552734
0.80198979377746582 0 0.066655009984970093
0.83225554227828979 0 0.067076139152050018
0.86122453212738037 0 0.067858986556529999
0.88919448852539062 0 0.069143421947956085
0.9161980152130127 0 0.070935025811195374
0.94141089916229248 0.0035498419310897589 0.073236241936683655
0.96627599000930786 0.040016103535890579 0.076588407158851624
0.98962932825088501 0.083972945809364319 0.08034331351518631
0.99995017051696777 0.12330805510282516 0.086460322141647339
0.034902952611446381 0.064588919281959534 0.068555712699890137
0.041275188326835632 0.064645476639270782 0.068456754088401794
0.050148062407970428 0.065912947058677673 0.067997895181179047
0.064773648977279663 0.066184490919113159 0.067799538373947144
0.083444036543369293 0.066535830497741699 0.067953057587146759
0.10691922158002853 0.066598027944564819 0.068329907953739166
0.13393634557723999 0.066303923726081848 0.068785101175308228
0.16299079358577728 0.064328737556934357 0.06846165657043457
0.19533684849739075 0.061203572899103165 0.068223409354686737
0.22986987233161926 0.056596614420413971 0.068076781928539276
0.26691633462905884 0.050034668296575546 0.067980758845806122
0.30634397268295288 0.039694517850875854 0.067061655223369598
0.34666916728019714 0.02691950649023056 0.066462531685829163
0.38857558369636536 0.012116651050746441 0.06646188348531723
0.43066877126693726 0.0014138183323666453 0.066094420850276947
0.47186020016670227 4.6812069740553852e-06 0.065705567598342896
0.51302570104598999 0 0.065193012356758118
0.55372321605682373 0 0.064982794225215912
0.59651166200637817 0 0.065064713358879089
0.63844794034957886 0 0.065164260566234589
0.67635649442672729 0 0.06492934376001358
0.71094435453414917 0 0.065234392881393433
0.74358409643173218 0 0.065763629972934723
0.77485579252243042 0 0.06607450544834137
0.80523598194122314 0 0.066677138209342957
0.83516466617584229 0 0.06691153347492218
0.86437594890594482 0 0.068199105560779572
0.8922426700592041 1.9857234292430803e-05 0.069108679890632629
0.91892516613006592 0.0060071111656725407 0.071660079061985016
0.94384849071502686 0.036831725388765335 0.07365986704826355
0.96878921985626221 0.076806969940662384 0.077095836400985718
0.99158656597137451 0.11063868552446365 0.081405274569988251
0.99999839067459106 0.14484924077987671 0.088550485670566559
0.036888826638460159 0.073424592614173889 0.069598697125911713
0.045427538454532623 0.073724165558815002 0.069673985242843628
0.055570360273122787 0.075195290148258209 0.069010250270366669
0.072185471653938293 0.076944649219512939 0.067749425768852234
0.094296671450138092 0.078307472169399261 0.066533729434013367
0.11815044283866882 0.078027188777923584 0.067239880561828613
0.1446031779050827 0.0774875208735466 0.068024024367332458
0.1736244410276413 0.076075389981269836 0.068331532180309296
0.20537677407264709 0.073785476386547089 0.068077132105827332
0.23991918563842773 0.070769228041172028 0.0676717609167099
0.27636662125587463 0.065764062106609344 0.067539721727371216
0.31606701016426086 0.05914418026804924 0.0671096071600914
0.35618725419044495 0.049692872911691666 0.066785417497158051
0.39744436740875244 0.037827160209417343 0.066476695239543915
0.43951037526130676 0.023292584344744682 0.065812043845653534
0.48048204183578491 0.0096228579059243202 0.065138079226016998
0.5211944580078125 0.0023279266897588968 0.065099857747554779
0.56307196617126465 0.00025265628937631845 0.06507524847984314
0.60624140501022339 0 0.064890436828136444
0.6461644172668457 0 0.064575180411338806
0.68292039632797241 0 0.06510181725025177
0.71650779247283936 0 0.065292529761791229
0.74804651737213135 0 0.065286919474601746
0.7779276967048645 0 0.065855041146278381
0.80802994966506958 0 0.0665101557970047
0.83778613805770874 0.0004487529513426125 0.067321918904781342
0.8659052848815918 0.0044683394953608513 0.067909009754657745
0.89341330528259277 0.019976900890469551 0.069104649126529694
0.91981649398803711 0.049790635704994202 0.071532756090164185
0.94455468654632568 0.080875232815742493 0.073727123439311981
0.96859562397003174 0.10869409888982773 0.077127844095230103
0.99113333225250244 0.13419419527053833 0.081245973706245422
1 0.16396746039390564 0.088295117020606995
0.037238124758005142 0.08736041933298111 0.069949202239513397
0.047893237322568893 0.087406367063522339 0.069850839674472809
0.059330537915229797 0.088794402778148651 0.069862626492977142
0.075506597757339478 0.091066345572471619 0.068323187530040741
0.097807623445987701 0.093564055860042572 0.066399276256561279
0.12517820298671722 0.09494694322347641 0.065064042806625366
0.15285104513168335 0.094575949013233185 0.065518595278263092
0.18212276697158813 0.093367815017700195 0.066136345267295837
0.21548247337341309 0.092077568173408508 0.066759809851646423
0.25097629427909851 0.090307846665382385 0.067362666130065918
0.28808444738388062 0.087511412799358368 0.067147515714168549
0.32743799686431885 0.082962021231651306 0.066567644476890564
0.36739712953567505 0.077398583292961121 0.066092461347579956
0.40844583511352539 0.070725336670875549 0.065808974206447601
0.44980311393737793 0.062222521752119064 0.065458670258522034
0.48928827047348022 0.051731288433074951 0.065163828432559967
0.53067570924758911 0.040823265910148621 0.06503431499004364
0.5742231011390686 0.030569443479180336 0.06461188942193985
0.61554157733917236 0.02222261019051075 0.064653977751731873
0.65385138988494873 0.016898537054657936 0.064338885247707367
0.6894073486328125 0.014427967369556427 0.064538285136222839
0.72203123569488525 0.013455139473080635 0.064744114875793457
0.75318753719329834 0.014809473417699337 0.065233282744884491
0.78290373086929321 0.018954271450638771 0.065584108233451843
0.81248652935028076 0.027352511882781982 0.066221967339515686
0.84189057350158691 0.041261374950408936 0.066866673529148102
0.86970341205596924 0.06007978692650795 0.06798408180475235
0.89686930179595947 0.081285290420055389 0.069524236023426056
0.92273974418640137 0.10170502215623856 0.071795180439949036
0.94701236486434937 0.12192622572183609 0.074448272585868835
0.97057873010635376 0.14229167997837067 0.077576108276844025
0.99285978078842163 0.16385069489479065 0.082510918378829956
1 0.18920533359050751 0.089539796113967896
0.034952487796545029 0.10813280194997787 0.070721931755542755
0.048092938959598541 0.10825026780366898 0.070722781121730804
0.062092486768960953 0.10813978314399719 0.070759274065494537
0.078370705246925354 0.1106942892074585 0.069206394255161285
0.099633410573005676 0.11344297975301743 0.067055746912956238
0.12795133888721466 0.11714806407690048 0.064455121755599976
0.16076791286468506 0.11892480403184891 0.061845332384109497
0.19232062995433807 0.11827555298805237 0.061867445707321167
0.22592850029468536 0.11709075421094894 0.062907539308071136
0.2613125741481781 0.1156197190284729 0.064200937747955322
0.29930141568183899 0.11416653543710709 0.065420091152191162
0.33937084674835205 0.11209817230701447 0.065677396953105927
0.37896165251731873 0.10927696526050568 0.06527198851108551
0.41912758350372314 0.10563603788614273 0.065028853714466095
0.45982792973518372 0.10127288848161697 0.065060824155807495
0.50030338764190674 0.096618719398975372 0.064533151686191559
0.54408586025238037 0.092614017426967621 0.064130976796150208
0.58604943752288818 0.088833600282669067 0.064073666930198669
0.62486922740936279 0.08517909049987793 0.063742086291313171
0.6618577241897583 0.081619307398796082 0.063442610204219818
0.69626134634017944 0.080647185444831848 0.06371743232011795
0.72793412208557129 0.080891519784927368 0.064272195100784302
0.75814652442932129 0.082789383828639984 0.064348168671131134
0.78756529092788696 0.087843134999275208 0.064792022109031677
0.81677669286727905 0.095442540943622589 0.06577736884355545
0.84563863277435303 0.10531795024871826 0.066577926278114319
0.87314361333847046 0.11693279445171356 0.067960835993289948
0.899849534034729 0.13079774379730225 0.069534257054328918
0.9254341721534729 0.1454189270734787 0.072210103273391724
0.949474036693573 0.16093015670776367 0.074980020523071289
0.97282016277313232 0.17757211625576019 0.078836522996425629
0.99428784847259521 0.1955476701259613 0.08366868644952774
0.99999141693115234 0.21810407936573029 0.091468550264835358
0.029710927978157997 0.13304337859153748 0.071032710373401642
0.045383129268884659 0.13362221419811249 0.071229279041290283
0.062481231987476349 0.13275273144245148 0.071698084473609924
0.080655641853809357 0.13434892892837524 0.070661932229995728
0.10115302354097366 0.137220099568367 0.067890986800193787
0.12793013453483582 0.14119450747966766 0.064807705581188202
0.16098809242248535 0.14545410871505737 0.060896445065736771
0.19756454229354858 0.14755021035671234 0.056819982826709747
0.23355485498905182 0.14699189364910126 0.055887296795845032
0.26966235041618347 0.1461443305015564 0.057410541921854019
0.30846819281578064 0.14593441784381866 0.059451665729284286
0.34992477297782898 0.14560957252979279 0.061851225793361664
0.39123523235321045 0.14558868110179901 0.063826568424701691
0.43219241499900818 0.14409945905208588 0.064486317336559296
0.47440552711486816 0.14267598092556 0.063870042562484741
0.51803350448608398 0.14196091890335083 0.063407808542251587
0.55987638235092163 0.14064176380634308 0.06332823634147644
0.59918516874313354 0.13867005705833435 0.062761068344116211
0.63603228330612183 0.13702850043773651 0.062626548111438751
0.67130494117736816 0.13613232970237732 0.062511831521987915
0.70395606756210327 0.13626408576965332 0.062743537127971649
0.73443305492401123 0.13649304211139679 0.063016548752784729
0.76399326324462891 0.13830593228340149 0.063903972506523132
0.79227280616760254 0.1417410671710968 0.064202405512332916
0.82053899765014648 0.14678455889225006 0.064822107553482056
0.84842610359191895 0.15397770702838898 0.066036805510520935
0.87532049417495728 0.16226731240749359 0.067277275025844574
0.90141302347183228 0.1724327951669693 0.069260545074939728
0.92644792795181274 0.18409356474876404 0.072042271494865417
0.95014023780822754 0.19650636613368988 0.07496216893196106
0.97293680906295776 0.20982907712459564 0.079097315669059753
0.99403804540634155 0.22465923428535461 0.083849959075450897
0.99996143579483032 0.24481257796287537 0.092234931886196136
0.022030128166079521 0.16103564202785492 0.072802364826202393
0.039930611848831177 0.16206459701061249 0.072957262396812439
0.060302373021841049 0.1609405130147934 0.073118805885314941
0.081592261791229248 0.16052226722240448 0.072939641773700714
0.10243967175483704 0.16380326449871063 0.07020927220582962
0.12793470919132233 0.16774868965148926 0.06661667674779892
0.15886023640632629 0.17248477041721344 0.061945021152496338
0.19591979682445526 0.17806243896484375 0.055892515927553177
0.23701827228069305 0.18119767308235168 0.049064718186855316
0.27718043327331543 0.18166142702102661 0.046925783157348633
0.31617972254753113 0.18112672865390778 0.048824824392795563
0.35770362615585327 0.18167892098426819 0.05168645828962326
0.40101760625839233 0.1833588182926178 0.055412974208593369
0.44800066947937012 0.1862189769744873 0.058640327304601669
0.49434465169906616 0.18833921849727631 0.061299379914999008
0.53526198863983154 0.18820497393608093 0.060959119349718094
0.57498019933700562 0.18734429776668549 0.060603965073823929
0.61254924535751343 0.18648439645767212 0.060481254011392593
0.64730393886566162 0.18529349565505981 0.060461204499006271
0.68108004331588745 0.1848931610584259 0.060316551476716995
0.71256840229034424 0.18479941785335541 0.060931127518415451
0.74217236042022705 0.18544654548168182 0.06153646856546402
0.77084392309188843 0.1867646723985672 0.062295183539390564
0.79876857995986938 0.18967738747596741 0.063474662601947784
0.82668167352676392 0.1937640905380249 0.064209252595901489
0.85418230295181274 0.19956588745117188 0.065321184694766998
0.87988662719726562 0.2061249315738678 0.067288905382156372
0.90538603067398071 0.21447131037712097 0.070114180445671082
0.92976617813110352 0.22364448010921478 0.072687543928623199
0.9527093768119812 0.23388178646564484 0.076201125979423523
0.9751514196395874 0.24519422650337219 0.080702364444732666
0.99585551023483276 0.25804367661476135 0.086120761930942535
0.99995720386505127 0.27532583475112915 0.094439379870891571
0.0094390399754047394 0.19481255114078522 0.073998652398586273
0.029315829277038574 0.19534136354923248 0.074745148420333862
0.05394228920340538 0.19409532845020294 0.075085893273353577
0.080490872263908386 0.19270175695419312 0.075413547456264496
0.10372637957334518 0.19404390454292297 0.073547802865505219
0.12865576148033142 0.19822265207767487 0.069471225142478943
0.15819111466407776 0.20317298173904419 0.064275644719600677
0.19289948046207428 0.20873507857322693 0.057321097701787949
0.23324096202850342 0.2143980860710144 0.048439104110002518
0.2768436074256897 0.21863044798374176 0.038201648741960526
0.32093742489814758 0.22038456797599792 0.032990828156471252
0.36482086777687073 0.22168609499931335 0.034951459616422653
0.40939632058143616 0.22456829249858856 0.038808085024356842
0.45498070120811462 0.22711284458637238 0.043628137558698654
0.50152230262756348 0.23019662499427795 0.048602495342493057
0.54602128267288208 0.23328207433223724 0.05418386310338974
0.58648508787155151 0.23438653349876404 0.05713774636387825
0.62255311012268066 0.23334670066833496 0.057390481233596802
0.65626192092895508 0.23245662450790405 0.057734671980142593
0.68869626522064209 0.23186665773391724 0.058036863803863525
0.71908730268478394 0.23134179413318634 0.058885842561721802
0.74806535243988037 0.23163826763629913 0.060238607227802277
0.77586627006530762 0.23234152793884277 0.060698974877595901
0.80306023359298706 0.23393340408802032 0.061950735747814178
0.83058851957321167 0.23727834224700928 0.063278377056121826
0.85738766193389893 0.24214155972003937 0.065030507743358612
0.88272422552108765 0.24756382405757904 0.067035146057605743
0.90765202045440674 0.25415506958961487 0.069948792457580566
0.93178385496139526 0.26209402084350586 0.073268808424472809
0.9545484185218811 0.27069491147994995 0.077440910041332245
0.9770084023475647 0.28074130415916443 0.082558378577232361
0.99629265069961548 0.29179668426513672 0.088732257485389709
0.99999582767486572 0.30783805251121521 0.097901679575443268
0.00074982165824621916 0.22948288917541504 0.075869813561439514
0.013399551622569561 0.2313302755355835 0.076367288827896118
0.042437240481376648 0.22965852916240692 0.076651021838188171
0.075101405382156372 0.2280554324388504 0.077364005148410797
0.1035296842455864 0.2270120233297348 0.076713331043720245
0.12906104326248169 0.23068301379680634 0.07304585725069046
0.15820322930812836 0.23565942049026489 0.067279599606990814
0.19155861437320709 0.24207177758216858 0.059940211474895477
0.23107121884822845 0.24989624321460724 0.04975554347038269
0.27635166049003601 0.25809368491172791 0.036078043282032013
0.32445332407951355 0.26508134603500366 0.020861169323325157
0.37173619866371155 0.26624378561973572 0.011298571713268757
0.41633787751197815 0.26778364181518555 0.013743774965405464
0.46065163612365723 0.26964715123176575 0.018652655184268951
0.50569701194763184 0.27229809761047363 0.024529114365577698
0.54933714866638184 0.27485582232475281 0.031982980668544769
0.5921674370765686 0.27776271104812622 0.041378170251846313
0.6319994330406189 0.27989879250526428 0.049930483102798462
0.66621458530426025 0.28015342354774475 0.053739044815301895
0.69780439138412476 0.27926352620124817 0.054969597607851028
0.72717899084091187 0.27807217836380005 0.055915020406246185
0.7547869086265564 0.2773338258266449 0.057622447609901428
0.78223180770874023 0.27735409140586853 0.059158056974411011
0.80899995565414429 0.27888190746307373 0.060819342732429504
0.8355591893196106 0.2810320258140564 0.062536522746086121
0.86138063669204712 0.284414142370224 0.064710110425949097
0.88604527711868286 0.28848782181739807 0.067533314228057861
0.9101831316947937 0.29367133975028992 0.070701628923416138
0.9336090087890625 0.29988083243370056 0.074706487357616425
0.95568639039993286 0.30674523115158081 0.079330325126647949
0.97784054279327393 0.31515771150588989 0.08435840904712677
0.99659836292266846 0.32424086332321167 0.090447217226028442
1 0.3389286994934082 0.1007235124707222
0 0.26722756028175354 0.076542586088180542
0.0012055330444127321 0.26981055736541748 0.077099569141864777
0.022404890507459641 0.26857694983482361 0.077493920922279358
0.063639730215072632 0.26717689633369446 0.078182414174079895
0.10028991103172302 0.2660655677318573 0.079087041318416595
0.13011965155601501 0.26873248815536499 0.076206021010875702
0.15978351235389709 0.27426499128341675 0.069590829312801361
0.19320967793464661 0.28120487928390503 0.061574801802635193
0.23207394778728485 0.28910976648330688 0.050667915493249893
0.2744540274143219 0.29689925909042358 0.035702377557754517
0.32142779231071472 0.30514794588088989 0.017407257109880447
0.3717750608921051 0.31135478615760803 0.0020657319109886885
0.41931936144828796 0.31272897124290466 0.00012071246601408347
0.46403646469116211 0.31311994791030884 0.00065845070639625192
0.50759243965148926 0.3144400417804718 0.0020881376694887877
0.54965788125991821 0.31576153635978699 0.005765165202319622
0.59156054258346558 0.31792661547660828 0.012426936067640781
0.63217329978942871 0.32080119848251343 0.023793170228600502
0.67062532901763916 0.32386434078216553 0.037566769868135452
0.70558583736419678 0.32570090889930725 0.049109514802694321
0.73536485433578491 0.3251991868019104 0.053375985473394394
0.76252472400665283 0.32401189208030701 0.055934309959411621
0.78931832313537598 0.32283660769462585 0.057594697922468185
0.81609261035919189 0.32360970973968506 0.060307499021291733
0.84160971641540527 0.32529571652412415 0.062736265361309052
0.86676299571990967 0.32740172743797302 0.065886907279491425
0.89066094160079956 0.33058169484138489 0.068986706435680389
0.9142005443572998 0.33469179272651672 0.072877272963523865
0.93749839067459106 0.33987784385681152 0.077884338796138763
0.95924866199493408 0.34563082456588745 0.083224743604660034
0.98080605268478394 0.35262322425842285 0.089130640029907227
0.9980309009552002 0.36131027340888977 0.09637848287820816
1 0.37330347299575806 0.10677944123744965
0 0.30861222743988037 0.076938875019550323
0 0.31151953339576721 0.077239073812961578
0.0038806705269962549 0.31030011177062988 0.077718935906887054
0.043571926653385162 0.30900335311889648 0.078539706766605377
0.090694405138492584 0.30700016021728516 0.079612784087657928
0.12804102897644043 0.30609646439552307 0.079065501689910889
0.15853077173233032 0.31024268269538879 0.073210127651691437
0.19083030521869659 0.31549131870269775 0.064640164375305176
0.22662056982517242 0.32139298319816589 0.053634379059076309
0.26627412438392639 0.3282092809677124 0.038852278143167496
0.30943498015403748 0.33523771166801453 0.020136764273047447
0.35753554105758667 0.34319570660591125 0.0024866899475455284
0.40711641311645508 0.34947657585144043 0
0.4543011486530304 0.34999135136604309 0
0.49917924404144287 0.35056877136230469 0
0.54159832000732422 0.35195782780647278 0
0.58337956666946411 0.3536783754825592 0.00015408018953166902
0.62346440553665161 0.35552042722702026 0.0013991462765261531
0.66187530755996704 0.35849291086196899 0.0070832916535437107
0.69958019256591797 0.36186051368713379 0.020906710997223854
0.7346537709236145 0.36552906036376953 0.039557620882987976
0.76530301570892334 0.36718115210533142 0.05238351970911026
0.79208135604858398 0.36587601900100708 0.056639816612005234
0.81789678335189819 0.3656352162361145 0.05971720814704895
0.84282618761062622 0.36590403318405151 0.062638066709041595
0.86764031648635864 0.36753484606742859 0.066398896276950836
0.89132142066955566 0.36942663788795471 0.070399664342403412
0.91432183980941772 0.37218430638313293 0.074774853885173798
0.93650680780410767 0.375722736120224 0.079699158668518066
0.95803302526473999 0.38010379672050476 0.08502843976020813
0.97928625345230103 0.38563555479049683 0.091597609221935272
0.99707132577896118 0.392404705286026 0.098530545830726624
0.99998295307159424 0.40417608618736267 0.11048360913991928
0 0.34970459342002869 0.076652579009532928
0 0.3543333113193512 0.077589385211467743
1.5638535842299461e-05 0.35261574387550354 0.078046634793281555
0.018195584416389465 0.35043340921401978 0.078614123165607452
0.075351603329181671 0.34794148802757263 0.079504422843456268
0.12196854501962662 0.34530606865882874 0.080611929297447205
0.15692757070064545 0.34660798311233521 0.076539508998394012
0.18889366090297699 0.35116150975227356 0.068087317049503326
0.22436416149139404 0.35718902945518494 0.056838702410459518
0.26295948028564453 0.36373633146286011 0.04163597896695137
0.30432385206222534 0.37049171328544617 0.022233493626117706
0.34990975260734558 0.37776109576225281 0.0033093243837356567
