Textures/43.cube
# Created by: G'MIC (https://gmic.eu)
TITLE "Fuji_FP-100c_Cool_3.cube"
# LUT size
LUT_3D_SIZE 33
# Data domain
DOMAIN_MIN 0.0 0.0 0.0
DOMAIN_MAX 1.0 1.0 1.0
# LUT data points
0.015526226721704006 0.058969426900148392 0.077583193778991699
0.019044822081923485 0.059124153107404709 0.078053422272205353
0.025143114849925041 0.059356648474931717 0.078559786081314087
0.036226406693458557 0.059660360217094421 0.078991860151290894
0.054439309984445572 0.059511203318834305 0.079386807978153229
0.078588970005512238 0.058954507112503052 0.079926185309886932
0.10608769953250885 0.058341860771179199 0.080648668110370636
0.13530793786048889 0.055951762944459915 0.080878034234046936
0.16727571189403534 0.05234561488032341 0.080835126340389252
0.20167970657348633 0.047149103134870529 0.081421904265880585
0.23862503468990326 0.039487868547439575 0.081740863621234894
0.27868214249610901 0.027986569330096245 0.08211575448513031
0.3196168839931488 0.014135009609162807 0.082144998013973236
0.36245974898338318 0.0016441963380202651 0.08316802978515625
0.40607616305351257 0 0.083840623497962952
0.44868803024291992 0 0.084563054144382477
0.49091723561286926 0 0.085970290005207062
0.53165847063064575 0 0.087734512984752655
0.57251012325286865 0 0.089311584830284119
0.61568844318389893 0 0.091884851455688477
0.6536567211151123 0 0.093801364302635193
0.6878046989440918 0 0.096626438200473785
0.7197721004486084 0 0.099078238010406494
0.74921995401382446 0 0.10164380818605423
0.77818447351455688 0 0.1044454500079155
0.80664986371994019 0 0.10711988061666489
0.83407497406005859 0 0.11069715023040771
0.860420823097229 0.00020070360915269703 0.11391209065914154
0.88583254814147949 0.017293663695454597 0.11809491366147995
0.90922027826309204 0.060736488550901413 0.12219712138175964
0.93256127834320068 0.098389945924282074 0.12740227580070496
0.95423334836959839 0.12970989942550659 0.1332443505525589
0.97787070274353027 0.16198579967021942 0.14088460803031921
0.016431005671620369 0.061373554170131683 0.079101905226707458
0.020710809156298637 0.061735920608043671 0.079040691256523132
0.02795947901904583 0.06213117390871048 0.079127080738544464
0.039951201528310776 0.06233370304107666 0.079759761691093445
0.05898839607834816 0.063343845307826996 0.080437123775482178
0.082895055413246155 0.062945060431957245 0.080300286412239075
0.11010836064815521 0.062543034553527832 0.080839425325393677
0.13918384909629822 0.060736369341611862 0.080768458545207977
0.17213921248912811 0.05799856036901474 0.081663668155670166
0.20686958730220795 0.053435292094945908 0.081652067601680756
0.24420821666717529 0.046531520783901215 0.081978045403957367
0.28431788086891174 0.036505229771137238 0.082454361021518707
0.32571029663085938 0.023854538798332214 0.082639649510383606
0.36786416172981262 0.0089680161327123642 0.083545215427875519
0.41090655326843262 0.00031838213908486068 0.083850368857383728
0.45314380526542664 0 0.085181720554828644
0.49449625611305237 0 0.086395084857940674
0.53543281555175781 0 0.088426917791366577
0.5770263671875 0 0.090156055986881256
0.61912709474563599 0 0.092475257813930511
0.6571502685546875 0 0.094668202102184296
0.69134050607681274 0 0.097480662167072296
0.72246843576431274 0 0.099521942436695099
0.75202262401580811 0 0.10223877429962158
0.78124088048934937 0 0.10527197271585464
0.80952537059783936 0 0.10826874524354935
0.83630228042602539 7.6591808465309441e-05 0.11150328814983368
0.86244475841522217 0.010640213266015053 0.11484153568744659
0.88751375675201416 0.04866458848118782 0.11925738304853439
0.91102397441864014 0.085145004093647003 0.12355498969554901
0.93402200937271118 0.11611971259117126 0.1288115382194519
0.95552581548690796 0.14422361552715302 0.13446442782878876
0.97888451814651489 0.17421373724937439 0.14187140762805939
0.017172249034047127 0.065421491861343384 0.080387681722640991
0.022427653893828392 0.065833486616611481 0.080254383385181427
0.03089619055390358 0.067014075815677643 0.079870708286762238
0.046203974634408951 0.067883953452110291 0.079593077301979065
0.065635330975055695 0.06836293637752533 0.080050259828567505
0.089813984930515289 0.068796835839748383 0.080757886171340942
0.11720496416091919 0.068778641521930695 0.081553764641284943
0.14670112729072571 0.067337192595005035 0.08156333863735199
0.17933715879917145 0.065347753465175629 0.081783927977085114
0.21423415839672089 0.061776198446750641 0.082262538373470306
0.25160321593284607 0.056811098009347916 0.082616247236728668
0.29129272699356079 0.048412982374429703 0.082769326865673065
0.33213889598846436 0.037696067243814468 0.08316919207572937
0.37474146485328674 0.024426344782114029 0.084147103130817413
0.41699537634849548 0.0099387019872665405 0.084967873990535736
0.45866009593009949 0.0012152428971603513 0.086331985890865326
0.49986663460731506 8.7594598880968988e-06 0.087707646191120148
0.54043769836425781 0 0.089326076209545135
0.58312618732452393 0 0.091201849281787872
0.62442231178283691 0 0.093771085143089294
0.66108202934265137 0 0.096107661724090576
0.694527268409729 0 0.098130889236927032
0.72613292932510376 0 0.10075452923774719
0.75557243824005127 0 0.10351455956697464
0.78414171934127808 3.0142780360620236e-06 0.10612695664167404
0.81236308813095093 0.0011544625740498304 0.10935264825820923
0.8395346999168396 0.015625597909092903 0.11270280927419662
0.86514317989349365 0.048722114413976669 0.11607486009597778
0.89012175798416138 0.081856206059455872 0.12018498033285141
0.91313564777374268 0.10982900857925415 0.12471499294042587
0.93611997365951538 0.13667063415050507 0.13029100000858307
0.95796942710876465 0.1620544046163559 0.13617810606956482
0.98154330253601074 0.19039362668991089 0.14432202279567719
0.017700795084238052 0.074621692299842834 0.081881478428840637
0.025172943249344826 0.07519976794719696 0.082115545868873596
0.035267196595668793 0.076231256127357483 0.081526495516300201
0.053537279367446899 0.078553065657615662 0.080186076462268829
0.076918162405490875 0.079722136259078979 0.079614169895648956
0.10148528218269348 0.080457776784896851 0.080275781452655792
0.12856501340866089 0.079917892813682556 0.081243842840194702
0.15779604017734528 0.079173527657985687 0.08204110711812973
0.18981918692588806 0.077565796673297882 0.082214973866939545
0.22480316460132599 0.075274884700775146 0.082713276147842407
0.26182067394256592 0.071474187076091766 0.083268187940120697
0.30134907364845276 0.066101931035518646 0.083535082638263702
0.34206995368003845 0.058821301907300949 0.084029071033000946
0.38360971212387085 0.049281861633062363 0.085283823311328888
0.42618650197982788 0.037393659353256226 0.086462333798408508
0.46743613481521606 0.02442089281976223 0.087317653000354767
0.50815510749816895 0.012358094565570354 0.08913121372461319
0.55004966259002686 0.0054094796068966389 0.091023564338684082
0.59224939346313477 0.0022289850749075413 0.093009598553180695
0.63193541765213013 0.0010311093647032976 0.094796434044837952
0.6676526665687561 0.00082959613064303994 0.097514890134334564
0.70004290342330933 0.0012059935834258795 0.099784761667251587
0.7300305962562561 0.0027819694951176643 0.10202572494745255
0.75855273008346558 0.0070824325084686279 0.10435187071561813
0.78666132688522339 0.017672708258032799 0.10768303275108337
0.81455707550048828 0.038385331630706787 0.11039744317531586
0.84062093496322632 0.06374184787273407 0.11331662535667419
0.86633360385894775 0.088764235377311707 0.11715331673622131
0.89089095592498779 0.11269791424274445 0.12155916541814804
0.91364544630050659 0.13506560027599335 0.12584659457206726
0.93591958284378052 0.15712942183017731 0.1308567076921463
0.95725178718566895 0.1791803389787674 0.13703201711177826
0.98073047399520874 0.20537339150905609 0.14504964649677277
0.015922959893941879 0.08831874281167984 0.08336523175239563
0.025607969611883163 0.088650651276111603 0.083341456949710846
0.037833143025636673 0.089956492185592651 0.083049654960632324
0.055652402341365814 0.092419333755970001 0.081960387527942657
0.07989829033613205 0.095382750034332275 0.080083839595317841
0.10873337090015411 0.096860446035861969 0.078876972198486328
0.13705305755138397 0.096680626273155212 0.079755693674087524
0.16688202321529388 0.096252121031284332 0.080920256674289703
0.2005416601896286 0.095100358128547668 0.082220964133739471
0.23625405132770538 0.093962840735912323 0.083627469837665558
0.27383676171302795 0.092018082737922668 0.084348052740097046
0.31338754296302795 0.088684841990470886 0.084929056465625763
0.3537011444568634 0.084237612783908844 0.085737347602844238
0.39520946145057678 0.079094074666500092 0.086796678602695465
0.43673250079154968 0.072683222591876984 0.088125400245189667
0.476796954870224 0.065068632364273071 0.089201740920543671
0.51793158054351807 0.057428706437349319 0.091033034026622772
0.56137824058532715 0.050393052399158478 0.092813193798065186
0.60192579030990601 0.045178633183240891 0.094633661210536957
0.63969540596008301 0.041969932615756989 0.096886493265628815
0.67390257120132446 0.042038090527057648 0.098828420042991638
0.70523923635482788 0.045645330101251602 0.10123322159051895
0.73481684923171997 0.052502140402793884 0.10368699580430984
0.76296824216842651 0.063194125890731812 0.10644567757844925
0.79114097356796265 0.077058479189872742 0.10916873812675476
0.81801515817642212 0.092786543071269989 0.11217689514160156
0.84405159950256348 0.109420046210289 0.11528748273849487
0.86926782131195068 0.12773798406124115 0.1193942055106163
0.89283466339111328 0.14578743278980255 0.12314444780349731
0.91568481922149658 0.16414684057235718 0.12799054384231567
0.93728256225585938 0.18281789124011993 0.13295963406562805
0.9589461088180542 0.20262590050697327 0.13909462094306946
0.98193967342376709 0.22607830166816711 0.14722622931003571
0.010901513509452343 0.10910912603139877 0.085348732769489288
0.023119591176509857 0.10926287621259689 0.085613586008548737
0.037968520075082779 0.10954576730728149 0.085579298436641693
0.05730072408914566 0.1118171438574791 0.084100618958473206
0.080607838928699493 0.11506779491901398 0.082257121801376343
0.11109157651662827 0.11903953552246094 0.079792812466621399
0.14521680772304535 0.12118472903966904 0.077678367495536804
0.17797596752643585 0.12066785991191864 0.078202418982982635
0.21130399405956268 0.1196756511926651 0.080217503011226654
0.24739687144756317 0.11895344406366348 0.082461468875408173
0.28572183847427368 0.11789195239543915 0.084648825228214264
0.32584774494171143 0.1165723130106926 0.086494088172912598
0.36584392189979553 0.11476927995681763 0.08747640997171402
0.40633022785186768 0.11218246817588806 0.0883951336145401
0.44725501537322998 0.10877973586320877 0.089917264878749847
0.48792046308517456 0.10518211126327515 0.090993292629718781
0.53128242492675781 0.10303297638893127 0.093146249651908875
0.57310664653778076 0.10126263648271561 0.094816334545612335
0.61123490333557129 0.099787376821041107 0.096794269979000092
0.64759820699691772 0.09965166449546814 0.098430901765823364
0.68071556091308594 0.1014007031917572 0.10075149685144424
0.71110934019088745 0.10486789047718048 0.10314209759235382
0.7402077317237854 0.10970621556043625 0.10555914789438248
0.76730132102966309 0.11676806956529617 0.10792437940835953
0.79477643966674805 0.12607552111148834 0.11115270107984543
0.82171803712844849 0.13744311034679413 0.11388805508613586
0.84730064868927002 0.1506066769361496 0.11752527207136154
0.87201720476150513 0.16459503769874573 0.12121923267841339
0.89560627937316895 0.17947256565093994 0.12556324899196625
0.9177626371383667 0.19516398012638092 0.13000711798667908
0.93953347206115723 0.21151664853096008 0.13574197888374329
0.96071863174438477 0.22929486632347107 0.14200021326541901
0.98377186059951782 0.25082623958587646 0.15053702890872955
0.0030971728265285492 0.13439138233661652 0.087947532534599304
0.016242101788520813 0.13481579720973969 0.088499613106250763
0.035342134535312653 0.13399745523929596 0.088635757565498352
0.057235635817050934 0.13575519621372223 0.087697491049766541
0.080645106732845306 0.13892997801303864 0.085334032773971558
0.11003243178129196 0.14307944476604462 0.082501679658889771
0.14503985643386841 0.14764617383480072 0.079126752912998199
0.18312591314315796 0.15036509931087494 0.075331561267375946
0.21990464627742767 0.14959198236465454 0.075511142611503601
0.25641721487045288 0.14890575408935547 0.078144997358322144
0.29536443948745728 0.14904162287712097 0.081692546606063843
0.33710256218910217 0.14930599927902222 0.085863776504993439
0.3788464367389679 0.14977720379829407 0.08936021476984024
0.42000687122344971 0.14927732944488525 0.091155633330345154
0.46239003539085388 0.14828428626060486 0.092345193028450012
0.50574147701263428 0.14841404557228088 0.094052456319332123
0.54756325483322144 0.14806026220321655 0.095572419464588165
0.58592569828033447 0.14757657051086426 0.097129486501216888
0.62245351076126099 0.14772921800613403 0.098802626132965088
0.6567651629447937 0.14854821562767029 0.10102902352809906
0.68808352947235107 0.15028031170368195 0.10299113392829895
0.71717512607574463 0.15254829823970795 0.10524288564920425
0.74488979578018188 0.15683810412883759 0.10769651830196381
0.77162450551986694 0.16226482391357422 0.11053610593080521
0.79814106225967407 0.16939859092235565 0.11289611458778381
0.82445424795150757 0.17824611067771912 0.11603445559740067
0.84885114431381226 0.18817223608493805 0.11930113285779953
0.87296062707901001 0.19960089027881622 0.12326936423778534
0.89622139930725098 0.21226026117801666 0.12755668163299561
0.91800355911254883 0.22527684271335602 0.13234773278236389
0.93928384780883789 0.23933140933513641 0.1374237984418869
0.9599754810333252 0.25425365567207336 0.14368513226509094
0.98290586471557617 0.27468433976173401 0.15291117131710052
9.762954869074747e-05 0.16230082511901855 0.091988451778888702
0.0072070243768393993 0.16309258341789246 0.09276251494884491
0.028587633743882179 0.16221164166927338 0.092958740890026093
0.055738490074872971 0.16174750030040741 0.092817775905132294
0.080394461750984192 0.16515511274337769 0.090636968612670898
0.10903862863779068 0.16967606544494629 0.08740861713886261
0.14235636591911316 0.17472168803215027 0.08307233452796936
0.1812896728515625 0.18042925000190735 0.077967628836631775
0.22393769025802612 0.18398387730121613 0.072742775082588196
0.26506847143173218 0.18441775441169739 0.071518734097480774
0.3041747510433197 0.18432493507862091 0.0751008540391922
0.34591728448867798 0.18484941124916077 0.079981394112110138
0.38952964544296265 0.18699803948402405 0.084920011460781097
0.43621724843978882 0.19006162881851196 0.090288206934928894
0.48270907998085022 0.19281706213951111 0.094498790800571442
0.5233185887336731 0.19315892457962036 0.096176505088806152
0.56248623132705688 0.19330553710460663 0.097884885966777802
0.59926825761795044 0.19359971582889557 0.099622584879398346
0.63361847400665283 0.19384738802909851 0.10126625746488571
0.66617798805236816 0.19451671838760376 0.10304801911115646
0.69607943296432495 0.19612869620323181 0.10538468509912491
0.72433328628540039 0.19826288521289825 0.10779988020658493
0.75118464231491089 0.20155869424343109 0.1104380264878273
0.77761733531951904 0.20611533522605896 0.11313767731189728
0.80338412523269653 0.2120300829410553 0.11598493903875351
0.82888013124465942 0.21935014426708221 0.11901639401912689
0.85320204496383667 0.22777292132377625 0.12256442755460739
0.87676906585693359 0.23753999173641205 0.12680976092815399
0.89881604909896851 0.24778284132480621 0.13100320100784302
0.92046266794204712 0.25887212157249451 0.13603277504444122
0.94130808115005493 0.27093380689620972 0.14152517914772034
0.96196264028549194 0.28462877869606018 0.14796288311481476
0.9840657114982605 0.3022037148475647 0.1567390114068985
0 0.19561949372291565 0.096957705914974213
0.00083932757843285799 0.19680221378803253 0.097691699862480164
0.017487488687038422 0.19545938074588776 0.098024964332580566
0.051124043762683868 0.19417160749435425 0.098454341292381287
0.079903177917003632 0.19581814110279083 0.096803560853004456
0.10851508378982544 0.20013818144798279 0.093427225947380066
0.14107982814311981 0.20509432256221771 0.089002989232540131
0.17746476829051971 0.21066699922084808 0.083599783480167389
0.21984298527240753 0.21693836152553558 0.076606199145317078
0.26504182815551758 0.22118128836154938 0.069169975817203522
0.30987760424613953 0.22297209501266479 0.065958090126514435
0.35387656092643738 0.2245766669511795 0.069885618984699249
0.39868605136871338 0.22739514708518982 0.07582208514213562
0.4442584216594696 0.23056234419345856 0.082024224102497101
0.49032047390937805 0.23392397165298462 0.088868305087089539
0.53435760736465454 0.23768623173236847 0.09563659131526947
0.57438504695892334 0.23934118449687958 0.10007867217063904
0.60951399803161621 0.23946134746074677 0.10206490010023117
0.64216893911361694 0.23954053223133087 0.10388917475938797
0.67322289943695068 0.23980967700481415 0.10570385307073593
0.70225340127944946 0.24080976843833923 0.10822566598653793
0.72959744930267334 0.24260692298412323 0.11063698679208755
0.75570499897003174 0.24452613294124603 0.11275914311408997
0.78129971027374268 0.24803093075752258 0.11582977324724197
0.80684167146682739 0.25282716751098633 0.11889544129371643
0.83160638809204102 0.25919622182846069 0.12205566465854645
0.85552257299423218 0.26628333330154419 0.1258428543806076
0.87842357158660889 0.27414315938949585 0.13014990091323853
0.90059715509414673 0.28297519683837891 0.1346450001001358
0.92172145843505859 0.29295054078102112 0.13980638980865479
0.94242960214614868 0.30374079942703247 0.14549122750759125
0.96257209777832031 0.31563639640808105 0.15239565074443817
0.98491448163986206 0.3319854736328125 0.16194656491279602
0 0.23079615831375122 0.1018979400396347
0 0.2325529158115387 0.10296455770730972
0.0052392734214663506 0.23139432072639465 0.10316148400306702
0.040078300982713699 0.22981929779052734 0.10389658808708191
0.077702663838863373 0.229013592004776 0.10357159376144409
0.10784405469894409 0.23232974112033844 0.10016188770532608
0.14016714692115784 0.23768948018550873 0.095995634794235229
0.17601801455020905 0.24408140778541565 0.090016782283782959
0.21775834262371063 0.25195926427841187 0.082970596849918365
0.26471012830734253 0.26094335317611694 0.0735369473695755
0.31438076496124268 0.26765832304954529 0.062654972076416016
0.36165228486061096 0.26911613345146179 0.055403295904397964
0.4065743088722229 0.27077558636665344 0.060361441224813461
0.45086506009101868 0.27303865551948547 0.067948393523693085
0.49556303024291992 0.27556759119033813 0.07617950439453125
0.53833770751953125 0.27860960364341736 0.08452799916267395
0.58006727695465088 0.2823755145072937 0.094044744968414307
0.61847132444381714 0.28561654686927795 0.10235262662172318
0.65172582864761353 0.2863495945930481 0.10666628181934357
0.68185931444168091 0.28652283549308777 0.10894868522882462
0.70931637287139893 0.28640833497047424 0.11172182857990265
0.7355344295501709 0.28686153888702393 0.1139824241399765
0.76127147674560547 0.28828981518745422 0.11665306240320206
0.78648573160171509 0.29102888703346252 0.11967293173074722
0.81097358465194702 0.2944970428943634 0.12246362864971161
0.83513742685317993 0.29957684874534607 0.12608297169208527
0.85783523321151733 0.30481076240539551 0.12976156175136566
0.88013571500778198 0.31135651469230652 0.13412776589393616
0.90177977085113525 0.31865590810775757 0.13887695968151093
0.92222326993942261 0.3266756534576416 0.14412723481655121
0.94273602962493896 0.33577346801757812 0.14997000992298126
0.962135910987854 0.34599912166595459 0.15658411383628845
0.98460990190505981 0.36120060086250305 0.16662611067295074
0 0.26880526542663574 0.1066611260175705
0 0.27138668298721313 0.10777883231639862
0.00014876328350510448 0.27023741602897644 0.10801863670349121
0.02211337722837925 0.26908260583877563 0.10913792997598648
0.071312882006168365 0.26811853051185608 0.10964071750640869
0.10791173577308655 0.27077701687812805 0.10765885561704636
0.14119096100330353 0.27675873041152954 0.10287342220544815
0.17799517512321472 0.28343069553375244 0.097039364278316498
0.21861320734024048 0.29139462113380432 0.089635699987411499
0.26293641328811646 0.29930266737937927 0.079700641334056854
0.31116169691085815 0.30768206715583801 0.06719662994146347
0.36247190833091736 0.31411820650100708 0.051863014698028564
0.41036137938499451 0.31561058759689331 0.040308110415935516
0.45505222678184509 0.31626060605049133 0.045128319412469864
0.49824413657188416 0.31772807240486145 0.056199193000793457
0.53952103853225708 0.31961017847061157 0.067183375358581543
0.57988625764846802 0.32195743918418884 0.078486867249011993
0.61888515949249268 0.32540297508239746 0.090360254049301147
0.65582001209259033 0.32954022288322449 0.10203330963850021
0.68887889385223389 0.33235925436019897 0.11127223819494247
0.71687155961990356 0.33239763975143433 0.11556843668222427
0.74230509996414185 0.33251777291297913 0.11883388459682465
0.76735371351242065 0.332622230052948 0.12122524529695511
0.79204756021499634 0.33460602164268494 0.1246488094329834
0.81592053174972534 0.33728259801864624 0.12764577567577362
0.83963805437088013 0.34109413623809814 0.13146880269050598
0.86165624856948853 0.34527868032455444 0.13547588884830475
0.88339298963546753 0.35053524374961853 0.14016337692737579
0.9048951268196106 0.35691836476325989 0.1451127678155899
0.92485493421554565 0.36360478401184082 0.15073442459106445
0.94503104686737061 0.37153714895248413 0.15709149837493896
0.96488004922866821 0.38098454475402832 0.16453363001346588
0.98585361242294312 0.39358216524124146 0.17421698570251465
0 0.31008973717689514 0.1119144931435585
0 0.31317800283432007 0.11282183229923248
0 0.31218171119689941 0.11301588267087936
0.0061527458019554615 0.31107887625694275 0.11383930593729019
0.057141523808240891 0.30904781818389893 0.11473942548036575
0.10495253652334213 0.30817735195159912 0.11447881162166595
0.13970150053501129 0.31241714954376221 0.10998820513486862
0.17543455958366394 0.31764298677444458 0.10389260202646255
0.21346540749073029 0.3236248791217804 0.096470288932323456
0.25475665926933289 0.33053362369537354 0.087408401072025299
0.29925045371055603 0.33799338340759277 0.075940214097499847
0.34843990206718445 0.34582462906837463 0.05975031852722168
0.39886373281478882 0.35233217477798462 0.040333930402994156
0.44585230946540833 0.35295185446739197 0.023678557947278023
0.49059465527534485 0.3537922203540802 0.025933641940355301
0.53204160928726196 0.35530945658683777 0.040135025978088379
0.57245427370071411 0.35756987333297729 0.055223125964403152
0.61113995313644409 0.35988634824752808 0.069853626191616058
0.64749538898468018 0.36324852705001831 0.084036730229854584
0.68312132358551025 0.36771997809410095 0.098774373531341553
0.71596789360046387 0.37229052186012268 0.11290519684553146
0.74434351921081543 0.37499463558197021 0.12194308638572693
0.76954108476638794 0.37498202919960022 0.12561643123626709
0.7933381199836731 0.37574848532676697 0.12916725873947144
0.81658124923706055 0.37704992294311523 0.13243342936038971
0.83947902917861938 0.37989455461502075 0.13661149144172668
0.86156916618347168 0.3829500675201416 0.14072924852371216
0.88256442546844482 0.38662159442901611 0.14500455558300018
0.9033665657043457 0.39111813902854919 0.15036670863628387
0.92323744297027588 0.39631271362304688 0.15578307211399078
0.94289296865463257 0.40323507785797119 0.16188162565231323
0.96218931674957275 0.41048714518547058 0.16901353001594543
0.98385637998580933 0.42304950952529907 0.18002195656299591
0 0.35114774107933044 0.1168249174952507
0 0.35606029629707336 0.11820807307958603
0 0.35451653599739075 0.11872514337301254
0.00030744605464860797 0.35253274440765381 0.11920861154794693
0.036415424197912216 0.3499111533164978 0.11980372667312622
0.097926273941993713 0.34766268730163574 0.12076140195131302
0.13834057748317719 0.34859952330589294 0.11767598986625671
0.17360354959964752 0.35373842716217041 0.11163561046123505
