Textures/43.cube
# Created by: G'MIC (https://gmic.eu)
TITLE "Fuji_FP-100c_Cool_3.cube"
# LUT size
LUT_3D_SIZE 5
# Data domain
DOMAIN_MIN 0.0 0.0 0.0
DOMAIN_MAX 1.0 1.0 1.0
# LUT data points
0.015526226721704006 0.058969426900148392 0.077583193778991699
0.16727571189403534 0.05234561488032341 0.080835126340389252
0.49091723561286926 0 0.085970290005207062
0.77818447351455688 0 0.1044454500079155
0.97787070274353027 0.16198579967021942 0.14088460803031921
0 0.19561949372291565 0.096957705914974213
0.21984298527240753 0.21693836152553558 0.076606199145317078
0.57438504695892334 0.23934118449687958 0.10007867217063904
0.80684167146682739 0.25282716751098633 0.11889544129371643
0.98491448163986206 0.3319854736328125 0.16194656491279602
0 0.48753482103347778 0.13761620223522186
0.20018130540847778 0.47867453098297119 0.13924844563007355
0.51817727088928223 0.52223503589630127 0.0092288078740239143
0.79862058162689209 0.54163795709609985 0.077941969037055969
0.98096650838851929 0.58502799272537231 0.24350473284721375
0 0.70675373077392578 0.20988348126411438
0.22108833491802216 0.69681191444396973 0.20933771133422852
0.46965041756629944 0.70603752136230469 0.1808619350194931
0.72495949268341064 0.7400747537612915 0.015248671174049377
0.95209759473800659 0.76829147338867188 0.11738608777523041
0.45093426108360291 0.9359925389289856 0.48539349436759949
0.50381267070770264 0.93313890695571899 0.48506650328636169
0.63867127895355225 0.93116933107376099 0.50384384393692017
0.79015767574310303 0.94623631238937378 0.47970953583717346
0.96441608667373657 0.96409386396408081 0.42657023668289185
0.00068866717629134655 0.054968103766441345 0.21976055204868317
0.25690755248069763 0.0011820727959275246 0.26597532629966736
0.48713696002960205 0.012086685746908188 0.25964176654815674
0.7747962474822998 0.0042183352634310722 0.25816184282302856
0.96972650289535522 0.18768109381198883 0.27278688549995422
0.00069059798261150718 0.2148481160402298 0.27131554484367371
0.26896324753761292 0.26093623042106628 0.30042293667793274
0.57840079069137573 0.26820704340934753 0.29702499508857727
0.79988783597946167 0.28221037983894348 0.28813070058822632
0.97718650102615356 0.34799095988273621 0.29745769500732422
0 0.54612308740615845 0.32226467132568359
0.2461700439453125 0.53307986259460449 0.31350082159042358
0.54906570911407471 0.55261909961700439 0.2729867696762085
0.80718415975570679 0.56902098655700684 0.32008212804794312
0.97351443767547607 0.59550154209136963 0.37009665369987488
2.4362243493669666e-05 0.73083484172821045 0.33679047226905823
0.25049117207527161 0.72193467617034912 0.33369222283363342
0.48874020576477051 0.71848469972610474 0.32026448845863342
0.73340064287185669 0.75032472610473633 0.25405248999595642
0.95261311531066895 0.7765541672706604 0.31268122792243958
0.44446492195129395 0.94024878740310669 0.53854453563690186
0.49875026941299438 0.93732196092605591 0.53769934177398682
0.63522738218307495 0.93401467800140381 0.55236947536468506
0.78840839862823486 0.94711905717849731 0.53707826137542725
0.96177554130554199 0.96519029140472412 0.49156752228736877
4.255642579664709e-06 0.019552625715732574 0.50886809825897217
0.30377358198165894 0 0.55580931901931763
0.69593298435211182 0 0.63120239973068237
0.72761881351470947 0.23201365768909454 0.53240287303924561
0.94192886352539062 0.25543677806854248 0.52931535243988037
0.0024462991859763861 0.21676668524742126 0.5206713080406189
0.31000617146492004 0.23741863667964935 0.56901198625564575
0.6891096830368042 0.24873366951942444 0.64168167114257812
0.7393452525138855 0.38243582844734192 0.56344115734100342
0.95451068878173828 0.34958341717720032 0.52678227424621582
0.15364906191825867 0.53359150886535645 0.57542598247528076
0.34105765819549561 0.55924361944198608 0.591880202293396
0.60476386547088623 0.62696129083633423 0.63806337118148804
0.78659415245056152 0.60164964199066162 0.59716016054153442
0.95287293195724487 0.59148448705673218 0.55966770648956299
0.25890925526618958 0.77539354562759399 0.61952883005142212
0.3692454993724823 0.77417373657226562 0.61330693960189819
0.53000950813293457 0.76060175895690918 0.57732433080673218
0.7472156286239624 0.77536320686340332 0.54404878616333008
0.94421237707138062 0.8007817268371582 0.60212010145187378
0.39778536558151245 0.95160055160522461 0.66047686338424683
0.45929288864135742 0.94832730293273926 0.65725415945053101
0.60941094160079956 0.94374459981918335 0.66163474321365356
0.77838593721389771 0.94805812835693359 0.66266977787017822
0.95432072877883911 0.96764177083969116 0.63249504566192627
0.229826420545578 0 0.77500724792480469
0.39083883166313171 0 0.79123878479003906
0.69287228584289551 0 0.84038728475570679
0.93704921007156372 0 0.86734837293624878
0.93612551689147949 0.40698531270027161 0.77669614553451538
0.22732457518577576 0.21574793756008148 0.767170250415802
0.38316020369529724 0.21075017750263214 0.78418600559234619
0.67561167478561401 0.20610636472702026 0.83480489253997803
0.91791021823883057 0.31116795539855957 0.866629958152771
0.92263263463973999 0.50843948125839233 0.78615576028823853
0.0023403125815093517 0.45297366380691528 0.70015019178390503
0.24842987954616547 0.47037237882614136 0.72350168228149414
0.58291971683502197 0.54589730501174927 0.79862886667251587
0.85533565282821655 0.62819480895996094 0.85722333192825317
0.88629192113876343 0.66897106170654297 0.80172222852706909
0.3132244348526001 0.73972952365875244 0.78244137763977051
0.40072545409202576 0.7472454309463501 0.78658688068389893
0.58579957485198975 0.7779267430305481 0.80708318948745728
0.78799092769622803 0.83839917182922363 0.85437506437301636
0.92520451545715332 0.81011748313903809 0.81264972686767578
0.48138254880905151 0.96148025989532471 0.87694418430328369
0.51752233505249023 0.96043843030929565 0.87143868207931519
0.62009912729263306 0.9597819447517395 0.85795837640762329
0.75733810663223267 0.95696538686752319 0.82668709754943848
0.94181364774703979 0.97292023897171021 0.81593751907348633
0.55619573593139648 0.19516512751579285 0.99286538362503052
0.61632204055786133 0.16973157227039337 0.99383610486984253
0.77036547660827637 0.090948291122913361 0.998390793800354
0.97181540727615356 0.0048554581589996815 0.99993139505386353
0.99995285272598267 0.34719577431678772 0.99993574619293213
0.5396919846534729 0.35337400436401367 0.9888041615486145
0.60056990385055542 0.34369632601737976 0.99054914712905884
0.75387483835220337 0.32810300588607788 0.9963066577911377
0.95285874605178833 0.32625660300254822 1
1 0.47877824306488037 0.99974989891052246
0.41424432396888733 0.55326646566390991 0.97227400541305542
0.50085228681564331 0.5586090087890625 0.9746975302696228
0.68104511499404907 0.56754612922668457 0.98349010944366455
0.89521914720535278 0.59757131338119507 0.99539148807525635
0.99999141693115234 0.6748005747795105 0.99609571695327759
0.31631022691726685 0.7600167989730835 0.95467251539230347
0.36425718665122986 0.75603145360946655 0.9537280797958374
0.49640676379203796 0.74950230121612549 0.95480775833129883
0.79185742139816284 0.78736209869384766 0.9787561297416687
0.98187315464019775 0.85066646337509155 0.98923707008361816
0.56957411766052246 0.95222890377044678 0.97675168514251709
0.59370046854019165 0.95289814472198486 0.97654706239700317
0.67227435111999512 0.95673447847366333 0.97774410247802734
0.79546785354614258 0.96496403217315674 0.98042446374893188
0.94751298427581787 0.98668664693832397 0.98836416006088257
