Textures/44.cube
# Created by: G'MIC (https://gmic.eu)
TITLE "Fuji_FP-100c_Negative_3.cube"
# LUT size
LUT_3D_SIZE 33
# Data domain
DOMAIN_MIN 0.0 0.0 0.0
DOMAIN_MAX 1.0 1.0 1.0
# LUT data points
0.048113562166690826 0.10500691086053848 0.079533040523529053
0.04797731339931488 0.1050402969121933 0.079461120069026947
0.049168452620506287 0.10517492890357971 0.079911753535270691
0.051136501133441925 0.10489362478256226 0.07973024994134903
0.054713334888219833 0.10485680401325226 0.079803422093391418
0.060499023646116257 0.10463637858629227 0.079789690673351288
0.07025580108165741 0.10466097295284271 0.080488011240959167
0.08447730541229248 0.10378721356391907 0.080023400485515594
0.10428178310394287 0.10326146334409714 0.079799875617027283
0.1279672384262085 0.10262946784496307 0.079796820878982544
0.15681217610836029 0.10087106376886368 0.07979942113161087
0.19320762157440186 0.098086737096309662 0.079065702855587006
0.23601226508617401 0.092604950070381165 0.078141234815120697
0.28500902652740479 0.085332266986370087 0.077119037508964539
0.33751851320266724 0.073296144604682922 0.075976721942424774
0.38970270752906799 0.056384682655334473 0.074259757995605469
0.44244369864463806 0.031888950616121292 0.072500593960285187
0.49419486522674561 0.0056189554743468761 0.071131207048892975
0.54533267021179199 0 0.069334238767623901
0.59816426038742065 0 0.0681777223944664
0.64602106809616089 0 0.066669061779975891
0.68952631950378418 0 0.065618507564067841
0.72960013151168823 0 0.064761273562908173
0.76630014181137085 0.00041149483877234161 0.063760839402675629
0.80216753482818604 0.033359911292791367 0.063183918595314026
0.83671975135803223 0.09453728049993515 0.062938310205936432
0.86895853281021118 0.14556828141212463 0.065734028816223145
0.89888572692871094 0.19282105565071106 0.070735923945903778
0.92752420902252197 0.23894302546977997 0.079966947436332703
0.95430952310562134 0.28217092156410217 0.092829540371894836
0.98096460103988647 0.32428401708602905 0.1107172816991806
0.99906182289123535 0.3625921905040741 0.13192877173423767
0.99999380111694336 0.3999762237071991 0.1596701443195343
0.048596244305372238 0.10513780266046524 0.079921431839466095
0.04877685010433197 0.10524674504995346 0.079661279916763306
0.049870949238538742 0.10537226498126984 0.07997392863035202
0.052271448075771332 0.10521052777767181 0.079791463911533356
0.056234896183013916 0.10543651133775711 0.080456830561161041
0.062216702848672867 0.10528761148452759 0.079938255250453949
0.072226181626319885 0.10530082881450653 0.079948961734771729
0.087000481784343719 0.10494455695152283 0.079924352467060089
0.10771837830543518 0.10475671291351318 0.08025117963552475
0.13113559782505035 0.10383589565753937 0.079674713313579559
0.16032698750495911 0.10241634398698807 0.07915496826171875
0.19735924899578094 0.099581092596054077 0.078574180603027344
0.24068854749202728 0.094939813017845154 0.077892422676086426
0.28934440016746521 0.087669506669044495 0.076638177037239075
0.34106805920600891 0.076344609260559082 0.075109072029590607
0.39296761155128479 0.061376910656690598 0.07369125634431839
0.44490766525268555 0.039380535483360291 0.072091780602931976
0.49660271406173706 0.01287869643419981 0.07073172926902771
0.54776507616043091 0.00014025891141500324 0.069063544273376465
0.59956294298171997 0 0.067462347447872162
0.6473352313041687 0 0.066324107348918915
0.69048231840133667 0 0.065380781888961792
0.73006421327590942 0 0.064166456460952759
0.7665068507194519 0.0089740157127380371 0.063041850924491882
0.802653968334198 0.0590331070125103 0.062623560428619385
0.83687359094619751 0.11143065989017487 0.062940031290054321
0.86871224641799927 0.15794563293457031 0.065197587013244629
0.89878594875335693 0.20318368077278137 0.070737354457378387
0.92729401588439941 0.24755129218101501 0.080084390938282013
0.95403063297271729 0.28972521424293518 0.093200474977493286
0.98037052154541016 0.33055174350738525 0.1112578809261322
0.99892133474349976 0.36779671907424927 0.13268619775772095
0.99999552965164185 0.40431854128837585 0.16024309396743774
0.048337351530790329 0.10556884109973907 0.079898491501808167
0.048723988234996796 0.10568036139011383 0.07975391298532486
0.050223018974065781 0.10573457181453705 0.080286085605621338
0.053169213235378265 0.10599516332149506 0.080017790198326111
0.057678397744894028 0.10598304867744446 0.079568974673748016
0.064722917973995209 0.10618630051612854 0.079758167266845703
0.075807690620422363 0.10625032335519791 0.080284379422664642
0.091396570205688477 0.10637815296649933 0.079863741993904114
0.11159779876470566 0.10600639134645462 0.079662993550300598
0.13550370931625366 0.10540201514959335 0.079381145536899567
0.16557887196540833 0.10472018271684647 0.0793108269572258
0.20286349952220917 0.10185151547193527 0.078312858939170837
0.24632039666175842 0.097501419484615326 0.077136203646659851
0.29491168260574341 0.091228939592838287 0.076602153480052948
0.34648692607879639 0.081119097769260406 0.075054734945297241
0.39737081527709961 0.067490585148334503 0.073491036891937256
0.44879347085952759 0.049191132187843323 0.07175397127866745
0.49996870756149292 0.025475896894931793 0.070205621421337128
0.55186372995376587 0.004419086966663599 0.068769477307796478
0.60300254821777344 8.3337681644479744e-06 0.067763924598693848
0.64971375465393066 0 0.066276952624320984
0.69172012805938721 6.9041932874824852e-05 0.064536988735198975
0.73137003183364868 0.0062337308190762997 0.063256934285163879
0.76808321475982666 0.038951203227043152 0.062533438205718994
0.80345672369003296 0.085772931575775146 0.061991371214389801
0.83713501691818237 0.13044741749763489 0.062236014753580093
0.86888378858566284 0.17371958494186401 0.065067246556282043
0.89859277009963989 0.21630628407001495 0.070571675896644592
0.92692011594772339 0.25863781571388245 0.08065389096736908
0.95347398519515991 0.29900458455085754 0.093936406075954437
0.9794464111328125 0.33853632211685181 0.11176007241010666
0.99850839376449585 0.37498924136161804 0.13392508029937744
0.99999839067459106 0.41092616319656372 0.16192306578159332
0.048812370747327805 0.10656090080738068 0.080673232674598694
0.049629390239715576 0.1064969003200531 0.080640822649002075
0.05075136199593544 0.10667673498392105 0.080582380294799805
0.053981684148311615 0.10717213153839111 0.080064177513122559
0.060468524694442749 0.10751667618751526 0.079619146883487701
0.069334805011749268 0.10798357427120209 0.079807773232460022
0.081354297697544098 0.10811496526002884 0.079691320657730103
0.097707413136959076 0.10848415642976761 0.079553037881851196
0.1176484227180481 0.10840956121683121 0.079160109162330627
0.14250114560127258 0.10824104398488998 0.078993037343025208
0.17313596606254578 0.10728374868631363 0.078569598495960236
0.21148864924907684 0.10561386495828629 0.077907636761665344
0.25532445311546326 0.10164833068847656 0.077003210783004761
0.30385559797286987 0.095879442989826202 0.075919151306152344
0.35487443208694458 0.08734922856092453 0.074318863451480865
0.40547969937324524 0.076134994626045227 0.072766236960887909
0.45648479461669922 0.061911210417747498 0.071356683969497681
0.50801736116409302 0.043547011911869049 0.069546692073345184
0.55969780683517456 0.024956703186035156 0.06802571564912796
0.60935091972351074 0.012732412666082382 0.066807746887207031
0.65539354085922241 0.011410948820412159 0.065334774553775787
0.69651311635971069 0.021553643047809601 0.064004920423030853
0.7350115180015564 0.046238746494054794 0.062418151646852493
0.77086812257766724 0.079986169934272766 0.06126553937792778
0.80590271949768066 0.11717530339956284 0.060933168977499008
0.83965736627578735 0.15629544854164124 0.061848010867834091
0.87032830715179443 0.1955208033323288 0.064762413501739502
0.89978432655334473 0.23563866317272186 0.071669653058052063
0.92823308706283569 0.27611121535301208 0.082107275724411011
0.95488095283508301 0.315024733543396 0.096708871424198151
0.98097896575927734 0.35275799036026001 0.11551083624362946
0.99903041124343872 0.38778939843177795 0.13827243447303772
1 0.42213723063468933 0.16675847768783569
0.048744518309831619 0.10772046446800232 0.080715365707874298
0.050178170204162598 0.10784834623336792 0.080962613224983215
0.052052110433578491 0.10849098861217499 0.081556119024753571
0.054618470370769501 0.10876947641372681 0.080772601068019867
0.060872867703437805 0.10984497517347336 0.080202639102935791
0.073048710823059082 0.11106295883655548 0.079405687749385834
0.088307805359363556 0.11231280863285065 0.079160384833812714
0.10486944019794464 0.11233609914779663 0.07909819483757019
0.12545885145664215 0.11212104558944702 0.078837119042873383
0.15119196474552155 0.11210467666387558 0.078534513711929321
0.18267430365085602 0.11157424002885818 0.078297168016433716
0.22171126306056976 0.10997413098812103 0.077381506562232971
0.26534104347229004 0.10758485645055771 0.07629607617855072
0.31365898251533508 0.10335654020309448 0.074898675084114075
0.36369335651397705 0.096542954444885254 0.073948919773101807
0.412862628698349 0.087930388748645782 0.072145640850067139
0.46348989009857178 0.078244738280773163 0.070590101182460785
0.51553785800933838 0.066683217883110046 0.068792454898357391
0.56578868627548218 0.057027310132980347 0.067345313727855682
0.61400359869003296 0.051766492426395416 0.065521955490112305
0.65819370746612549 0.055098805576562881 0.064056046307086945
0.69875383377075195 0.068079680204391479 0.062441371381282806
0.73663920164108276 0.089169532060623169 0.061356976628303528
0.77225875854492188 0.11553923785686493 0.0597643181681633
0.80666792392730713 0.14699278771877289 0.059424184262752533
0.84001600742340088 0.18172454833984375 0.060524232685565948
0.87016171216964722 0.21776650846004486 0.064343862235546112
0.899769127368927 0.25567814707756042 0.071422412991523743
0.92745405435562134 0.29352647066116333 0.082758717238903046
0.95365148782730103 0.33039814233779907 0.098116956651210785
0.97982555627822876 0.36605492234230042 0.11710309982299805
0.99883449077606201 0.39966723322868347 0.14062373340129852
1 0.4323669970035553 0.16928887367248535
0.049614999443292618 0.1110246405005455 0.081815451383590698
0.051251571625471115 0.11108243465423584 0.082177527248859406
0.053390610963106155 0.11097037047147751 0.082409106194972992
0.056476149708032608 0.11197809875011444 0.081877619028091431
0.062541000545024872 0.11322612315416336 0.081074893474578857
0.074241340160369873 0.11524307727813721 0.080268129706382751
0.093736544251441956 0.11784687638282776 0.078970089554786682
0.11478868126869202 0.11953841894865036 0.078266717493534088
0.13654854893684387 0.1196318119764328 0.078121408820152283
0.16298380494117737 0.11925370991230011 0.077908799052238464
0.19508638978004456 0.11832334101200104 0.077336274087429047
0.23424132168292999 0.11766257137060165 0.076441220939159393
0.27804222702980042 0.11609268933534622 0.075366884469985962
0.32512974739074707 0.11347746104001999 0.073688805103302002
0.37420669198036194 0.10918424278497696 0.072396837174892426
0.42307195067405701 0.10351424664258957 0.070599205791950226
0.47456878423690796 0.097753353416919708 0.068970881402492523
0.52541333436965942 0.092848621308803558 0.067835651338100433
0.57343494892120361 0.089926965534687042 0.066000096499919891
0.6201360821723938 0.090707354247570038 0.063924945890903473
0.66320288181304932 0.097478128969669342 0.062095649540424347
0.70239108800888062 0.11016681790351868 0.060538671910762787
0.73944389820098877 0.12844729423522949 0.058956526219844818
0.77421766519546509 0.15159839391708374 0.057760555297136307
0.80840057134628296 0.17958395183086395 0.057672370225191116
0.84084808826446533 0.21111789345741272 0.059361852705478668
0.87136167287826538 0.24472086131572723 0.06406722217798233
0.89972472190856934 0.2797510027885437 0.072343848645687103
0.9273146390914917 0.31521680951118469 0.084139026701450348
0.95326507091522217 0.34975525736808777 0.10020684450864792
0.97893387079238892 0.38329848647117615 0.12057749927043915
0.99857503175735474 0.41452127695083618 0.14438784122467041
0.99999141693115234 0.44550719857215881 0.17330825328826904
0.049483571201562881 0.11596047878265381 0.083188891410827637
0.051982760429382324 0.11637748032808304 0.083508759737014771
0.055126845836639404 0.11609070748090744 0.084015510976314545
0.059054981917142868 0.11715750396251678 0.083931244909763336
0.064701229333877563 0.11882536858320236 0.082693219184875488
0.075851656496524811 0.12094498425722122 0.081724174320697784
0.093096546828746796 0.12427095323801041 0.080317564308643341
0.11967363208532333 0.1278407871723175 0.078143171966075897
0.14940920472145081 0.13098464906215668 0.076801255345344543
0.1779661625623703 0.13143840432167053 0.076098404824733734
0.21153146028518677 0.13170212507247925 0.07565220445394516
0.25073122978210449 0.13090579211711884 0.074963144958019257
0.29299503564834595 0.12901979684829712 0.07398715615272522
0.33903142809867859 0.1277088075876236 0.072577841579914093
0.3879050612449646 0.12606720626354218 0.07063572108745575
0.43778643012046814 0.12417743355035782 0.06922566145658493
0.48768264055252075 0.12267569452524185 0.067534185945987701
0.5360451340675354 0.12162704020738602 0.065633811056613922
0.58244580030441284 0.12308372557163239 0.063671186566352844
0.62751829624176025 0.12777799367904663 0.061638887971639633
0.66901975870132446 0.13671715557575226 0.059390049427747726
0.70660626888275146 0.14941689372062683 0.05724145844578743
0.74264818429946899 0.1664271205663681 0.05601351335644722
0.77679550647735596 0.18800517916679382 0.055144522339105606
0.80990093946456909 0.21351015567779541 0.05530606210231781
0.84200918674468994 0.24301813542842865 0.057757142931222916
0.87150245904922485 0.27374622225761414 0.06322845071554184
0.89985495805740356 0.30662998557090759 0.072827354073524475
0.92704933881759644 0.33987048268318176 0.086684204638004303
0.9529384970664978 0.37196284532546997 0.10408835113048553
0.97908467054367065 0.40305981040000916 0.12569335103034973
0.99860304594039917 0.43205639719963074 0.15008953213691711
0.99996143579483032 0.46196621656417847 0.18009540438652039
0.050055153667926788 0.12417825311422348 0.08629067987203598
0.053432989865541458 0.12448715418577194 0.086539514362812042
0.057228941470384598 0.12424111366271973 0.086902700364589691
0.062375113368034363 0.12453119456768036 0.087094523012638092
0.068555265665054321 0.12683059275150299 0.086343578994274139
0.078851267695426941 0.12948337197303772 0.084660470485687256
0.094698496162891388 0.13295756280422211 0.082951955497264862
0.1179068312048912 0.13720627129077911 0.080294489860534668
0.15365058183670044 0.14374984800815582 0.076818205416202545
0.19495312869548798 0.15010881423950195 0.073602698743343353
0.23033697903156281 0.15141716599464417 0.072533883154392242
0.26963314414024353 0.1518196165561676 0.071484088897705078
0.31203263998031616 0.15125091373920441 0.07021871954202652
0.35714909434318542 0.1492585688829422 0.069253221154212952
0.40447384119033813 0.14831611514091492 0.068554207682609558
0.45145133137702942 0.14871951937675476 0.066503353416919708
0.49911797046661377 0.15032985806465149 0.06493154913187027
0.54541480541229248 0.15278136730194092 0.062927931547164917
0.58998924493789673 0.15676984190940857 0.060245871543884277
0.63317656517028809 0.16360089182853699 0.057501617819070816
0.67296886444091797 0.17374302446842194 0.055553097277879715
0.70975577831268311 0.18683759868144989 0.053860586136579514
0.74492079019546509 0.20338845252990723 0.052271869033575058
0.77825838327407837 0.22388063371181488 0.051907144486904144
0.81101727485656738 0.24803628027439117 0.052640963345766068
0.84195852279663086 0.27490696310997009 0.055924490094184875
0.87136197090148926 0.30381938815116882 0.063197225332260132
0.89907985925674438 0.3343316912651062 0.074324063956737518
0.92591655254364014 0.3646315336227417 0.089168213307857513
0.95177263021469116 0.39428645372390747 0.10776764154434204
0.97772061824798584 0.42309218645095825 0.13017486035823822
0.99816387891769409 0.44997882843017578 0.15525881946086884
0.99995720386505127 0.4773993194103241 0.18511062860488892
0.051484469324350357 0.13527463376522064 0.090587548911571503
0.056011207401752472 0.13582688570022583 0.091267354786396027
0.061046980321407318 0.13545697927474976 0.092023931443691254
0.068000748753547668 0.13613720238208771 0.092904694378376007
0.074672535061836243 0.13759668171405792 0.092007480561733246
0.08420775830745697 0.14134134352207184 0.090405575931072235
0.098964057862758636 0.14600104093551636 0.087797962129116058
0.12098997831344604 0.15177334845066071 0.08453785628080368
0.15267735719680786 0.15851931273937225 0.080402173101902008
0.19703154265880585 0.16842776536941528 0.074294589459896088
0.24974900484085083 0.18021212518215179 0.067473210394382477
0.29236209392547607 0.18359237909317017 0.065005764365196228
0.33500757813453674 0.18497003614902496 0.063969433307647705
0.37838393449783325 0.18466483056545258 0.06317584216594696
0.42283973097801208 0.18328191339969635 0.062628977000713348
0.46656706929206848 0.18156974017620087 0.062170960009098053
0.51119911670684814 0.18260404467582703 0.060736626386642456
0.55589389801025391 0.18721181154251099 0.058064855635166168
0.59896910190582275 0.19336940348148346 0.055479820817708969
0.64045310020446777 0.20199693739414215 0.052443027496337891
0.67845755815505981 0.21266691386699677 0.050008919090032578
0.71407610177993774 0.22608545422554016 0.048615783452987671
0.74792152643203735 0.24216592311859131 0.047406386584043503
0.78065186738967896 0.2618354856967926 0.047867398709058762
0.81255871057510376 0.28454706072807312 0.050043493509292603
0.84291535615921021 0.31007832288742065 0.055069360882043839
0.87125730514526367 0.33658260107040405 0.063947953283786774
0.89877808094024658 0.3643856942653656 0.076912134885787964
0.92548781633377075 0.39228209853172302 0.093676827847957611
0.95109587907791138 0.41935110092163086 0.11367908865213394
0.97730320692062378 0.44587725400924683 0.13703443109989166
0.99808716773986816 0.47053602337837219 0.16237333416938782
0.99999582767486572 0.4960121214389801 0.19284991919994354
0.054444488137960434 0.15061353147029877 0.096991010010242462
0.059634197503328323 0.15187793970108032 0.097895003855228424
0.065721519291400909 0.15175770223140717 0.099072791635990143
0.074007324874401093 0.15221618115901947 0.10012560337781906
0.082634627819061279 0.15307900309562683 0.10046904534101486
0.091767452657222748 0.15728245675563812 0.098298773169517517
0.10603349655866623 0.16377322375774384 0.09575924277305603
0.12690223753452301 0.1709744781255722 0.091835930943489075
0.15681521594524384 0.18052755296230316 0.086762428283691406
0.19672954082489014 0.19169111549854279 0.080024287104606628
0.24935802817344666 0.20625962316989899 0.070018842816352844
0.31139293313026428 0.22346213459968567 0.055868979543447495
0.35639441013336182 0.22790935635566711 0.052002269774675369
0.39883044362068176 0.22854471206665039 0.050990048795938492
0.44145724177360535 0.22830575704574585 0.050641357898712158
0.48362073302268982 0.22731541097164154 0.050237167626619339
0.52506017684936523 0.22564424574375153 0.050459917634725571
0.56630343198776245 0.22545266151428223 0.050282791256904602
0.60688060522079468 0.23097220063209534 0.048234071582555771
0.64651280641555786 0.24069449305534363 0.045498073101043701
0.68307971954345703 0.25189268589019775 0.042815376073122025
0.71715718507766724 0.26477530598640442 0.041879128664731979
0.75029194355010986 0.28063049912452698 0.04156077653169632
0.78243523836135864 0.29978600144386292 0.043333560228347778
0.81315606832504272 0.32111698389053345 0.046759206801652908
0.8428528904914856 0.3449414074420929 0.054419267922639847
0.87078750133514404 0.36912751197814941 0.065565206110477448
0.89808100461959839 0.39453414082527161 0.080490007996559143
0.92466402053833008 0.42011141777038574 0.099042400717735291
0.95025938749313354 0.44474673271179199 0.12011685222387314
0.97672820091247559 0.46907773613929749 0.14463478326797485
0.99770760536193848 0.4914700984954834 0.1704556941986084
1 0.5153542160987854 0.20208784937858582
0.053512807935476303 0.17259998619556427 0.10470165312290192
0.060049016028642654 0.174184650182724 0.1058010533452034
0.067333512008190155 0.17459483444690704 0.10635513812303543
0.07779635488986969 0.17521600425243378 0.10781123489141464
0.089784607291221619 0.17616848647594452 0.10946174710988998
0.1005859449505806 0.18066976964473724 0.10868237912654877
0.11451919376850128 0.18798179924488068 0.10532885789871216
0.13490669429302216 0.19709646701812744 0.10103769600391388
0.16274163126945496 0.20847894251346588 0.095430329442024231
0.19953764975070953 0.22086477279663086 0.087650604546070099
0.24516759812831879 0.23496547341346741 0.077406615018844604
0.3027057945728302 0.25186201930046082 0.061420440673828125
0.36948537826538086 0.27345862984657288 0.037705697119235992
0.41660955548286438 0.279041588306427 0.029716916382312775
0.45865941047668457 0.2789866030216217 0.029644764959812164
0.49870982766151428 0.2781604528427124 0.029710646718740463
0.53864020109176636 0.27760744094848633 0.030370671302080154
0.57812583446502686 0.27691900730133057 0.032022055238485336
0.61522179841995239 0.2772650420665741 0.033862758427858353
0.6515541672706604 0.28091567754745483 0.035067517310380936
0.68638402223587036 0.29071801900863647 0.034445628523826599
0.71937727928161621 0.30389553308486938 0.034649975597858429
0.75154829025268555 0.31889846920967102 0.035285670310258865
0.78312653303146362 0.33714017271995544 0.03894168883562088
0.81326639652252197 0.35720080137252808 0.044944427907466888
0.84216344356536865 0.378888338804245 0.054865386337041855
0.86956691741943359 0.40087953209877014 0.068502791225910187
0.89676892757415771 0.42405244708061218 0.085401475429534912
0.92313951253890991 0.44703176617622375 0.10546992719173431
0.94866693019866943 0.46938484907150269 0.12758398056030273
0.9747428297996521 0.49108013510704041 0.15190325677394867
0.99706721305847168 0.51178139448165894 0.1780267208814621
1 0.5332377552986145 0.20875966548919678
0.046829003840684891 0.20415841042995453 0.11425799131393433
0.055387780070304871 0.20649817585945129 0.11577209085226059
0.065927237272262573 0.20677244663238525 0.11644584685564041
0.078910015523433685 0.20776909589767456 0.11823625117540359
0.094304561614990234 0.20851685106754303 0.12035436928272247
0.10990271717309952 0.21112199127674103 0.12136603891849518
0.12313432991504669 0.21881139278411865 0.1177268773317337
0.14144745469093323 0.22860795259475708 0.11303451657295227
0.16724176704883575 0.2399095892906189 0.10666528344154358
0.20068345963954926 0.25298166275024414 0.098539672791957855
0.24164856970310211 0.26693958044052124 0.087951935827732086
0.29190444946289062 0.28279754519462585 0.073040440678596497
0.35078305006027222 0.30071228742599487 0.050797447562217712
0.42051663994789124 0.32580029964447021 0.014087011106312275
0.47200214862823486 0.33408921957015991 0.004200945608317852
0.51199418306350708 0.33412063121795654 0.0046409359201788902
0.55149316787719727 0.33443039655685425 0.005284538958221674
0.58931857347488403 0.33440887928009033 0.0068583246320486069
0.62480688095092773 0.33482810854911804 0.0096130194142460823
0.6593017578125 0.33590695261955261 0.014237867668271065
0.69147312641143799 0.33809489011764526 0.020532885566353798
0.72260528802871704 0.34581577777862549 0.025910736992955208
0.75385284423828125 0.35962265729904175 0.029517248272895813
0.78469926118850708 0.37697061896324158 0.035571839660406113
0.81393224000930786 0.39527219533920288 0.044515147805213928
0.84261053800582886 0.41516554355621338 0.058422882109880447
0.8699030876159668 0.43533006310462952 0.074821904301643372
0.89661514759063721 0.45588621497154236 0.093972295522689819
0.92273414134979248 0.47651582956314087 0.11541731655597687
0.94879645109176636 0.49679875373840332 0.1382690817117691
0.9750593900680542 0.5164753794670105 0.16333432495594025
0.99716538190841675 0.53492248058319092 0.18976086378097534
