Textures/44.cube
# Created by: G'MIC (https://gmic.eu)
TITLE "Fuji_FP-100c_Negative_3.cube"
# LUT size
LUT_3D_SIZE 5
# Data domain
DOMAIN_MIN 0.0 0.0 0.0
DOMAIN_MAX 1.0 1.0 1.0
# LUT data points
0.048113562166690826 0.10500691086053848 0.079533040523529053
0.10428178310394287 0.10326146334409714 0.079799875617027283
0.44244369864463806 0.031888950616121292 0.072500593960285187
0.80216753482818604 0.033359911292791367 0.063183918595314026
0.99999380111694336 0.3999762237071991 0.1596701443195343
0.051484469324350357 0.13527463376522064 0.090587548911571503
0.15267735719680786 0.15851931273937225 0.080402173101902008
0.51119911670684814 0.18260404467582703 0.060736626386642456
0.81255871057510376 0.28454706072807312 0.050043493509292603
0.99999582767486572 0.4960121214389801 0.19284991919994354
0.038069795817136765 0.39831221103668213 0.20009468495845795
0.22415204346179962 0.41664353013038635 0.22324144840240479
0.51634913682937622 0.52899372577667236 0.12321877479553223
0.81979465484619141 0.59544450044631958 0.092135526239871979
1 0.6531718373298645 0.28614681959152222
0.31916418671607971 0.68629652261734009 0.42023652791976929
0.40999391674995422 0.69167673587799072 0.44152307510375977
0.56167954206466675 0.72875756025314331 0.45315423607826233
0.79278731346130371 0.79047971963882446 0.41686961054801941
1 0.83286798000335693 0.46517866849899292
0.73860293626785278 0.91168367862701416 0.71335440874099731
0.77019315958023071 0.91256654262542725 0.72126913070678711
0.84637874364852905 0.91492670774459839 0.74088811874389648
0.91507697105407715 0.9326210618019104 0.74034631252288818
0.99994474649429321 0.94551992416381836 0.74070072174072266
0.062903672456741333 0.10325481742620468 0.12932485342025757
0.14240948855876923 0.10205142945051193 0.13012102246284485
0.51816803216934204 0 0.18127994239330292
0.81645083427429199 0.12254316359758377 0.2665189802646637
0.99998295307159424 0.42485406994819641 0.36230689287185669
0.048954866826534271 0.14839152991771698 0.16779424250125885
0.20791776478290558 0.17674688994884491 0.20132830739021301
0.54234093427658081 0.20899887382984161 0.2384222000837326
0.8180500864982605 0.32538667321205139 0.28463709354400635
0.99999582767486572 0.51232022047042847 0.38023638725280762
0.21704769134521484 0.44071111083030701 0.33199653029441833
0.29411020874977112 0.45746996998786926 0.33202868700027466
0.5431639552116394 0.54268985986709595 0.31248196959495544
0.81826549768447876 0.59244179725646973 0.32142585515975952
0.99995285272598267 0.66074639558792114 0.42834657430648804
0.35967075824737549 0.69748872518539429 0.47607800364494324
0.43806657195091248 0.70379352569580078 0.49196881055831909
0.58540350198745728 0.73125803470611572 0.52037966251373291
0.79773056507110596 0.79359370470046997 0.49824577569961548
1 0.83140552043914795 0.54009205102920532
0.73809331655502319 0.91299325227737427 0.72016251087188721
0.77109074592590332 0.91359120607376099 0.72754806280136108
0.8504365086555481 0.91533070802688599 0.74660080671310425
0.92098492383956909 0.93166160583496094 0.75040483474731445
1 0.94501602649688721 0.75123763084411621
0.18890686333179474 0.056179367005825043 0.42135950922966003
0.37079232931137085 1.7731372281559743e-05 0.45135611295700073
0.62406462430953979 0.15888600051403046 0.49073624610900879
0.88804560899734497 0.29244968295097351 0.56648117303848267
1 0.47380763292312622 0.60055446624755859
0.0018035160610452294 0.13979774713516235 0.45587754249572754
0.35022875666618347 0.16903860867023468 0.49018195271492004
0.63144856691360474 0.35750874876976013 0.52856612205505371
0.87554609775543213 0.45605504512786865 0.58981889486312866
1 0.54531878232955933 0.6091543436050415
0.11878474056720734 0.43097493052482605 0.48134434223175049
0.30978041887283325 0.47223469614982605 0.5073474645614624
0.60482299327850342 0.57714253664016724 0.57251930236816406
0.81956273317337036 0.61995440721511841 0.59140247106552124
0.99995285272598267 0.68388915061950684 0.63220477104187012
0.43573847413063049 0.70382463932037354 0.59601432085037231
0.518096923828125 0.71926063299179077 0.61138862371444702
0.63606029748916626 0.74536943435668945 0.62816131114959717
0.81920403242111206 0.80196797847747803 0.64004272222518921
0.99998718500137329 0.82701516151428223 0.66622805595397949
0.7539559006690979 0.91313129663467407 0.74523472785949707
0.77590382099151611 0.91514188051223755 0.74656522274017334
0.84694051742553711 0.91856992244720459 0.75803482532501221
0.93565851449966431 0.92965638637542725 0.7771030068397522
1 0.94527095556259155 0.77978289127349854
0.49908906221389771 0 0.70006656646728516
0.62254178524017334 0 0.71483421325683594
0.82604038715362549 0.23653310537338257 0.74443191289901733
0.92035329341888428 0.55696338415145874 0.74904316663742065
1 0.6550668478012085 0.76543611288070679
0.44017815589904785 0.096779406070709229 0.7030443549156189
0.58602446317672729 0.14530369639396667 0.71795231103897095
0.80245482921600342 0.39632570743560791 0.74650663137435913
0.91419905424118042 0.6327555775642395 0.75536215305328369
1 0.70801252126693726 0.77257722616195679
0 0.37645819783210754 0.66618591547012329
0.057685509324073792 0.38688227534294128 0.68865054845809937
0.69303566217422485 0.55341863632202148 0.73791778087615967
0.90510064363479614 0.73925775289535522 0.76517629623413086
0.99999934434890747 0.79741150140762329 0.79024529457092285
0.2591693103313446 0.67216610908508301 0.67929840087890625
0.37197116017341614 0.68613654375076294 0.68901640176773071
0.59699064493179321 0.72990524768829346 0.7180667519569397
0.88217204809188843 0.8201298713684082 0.76904910802841187
0.99998718500137329 0.84305298328399658 0.78044384717941284
0.66237765550613403 0.91335242986679077 0.77942442893981934
0.70712012052536011 0.91491258144378662 0.78155851364135742
0.82840120792388916 0.91973716020584106 0.79146194458007812
0.94818246364593506 0.92876428365707397 0.8169025182723999
1 0.94596028327941895 0.83918315172195435
0.8275001049041748 0.15723882615566254 0.88839125633239746
0.86508256196975708 0.27514255046844482 0.88839250802993774
0.95145654678344727 0.49781164526939392 0.88744533061981201
0.99993139505386353 0.71490532159805298 0.88638901710510254
0.99995285272598267 0.819053053855896 0.87245059013366699
0.78710752725601196 0.30538630485534668 0.8875654935836792
0.83087903261184692 0.38288679718971252 0.88814479112625122
0.9303547739982605 0.5563235878944397 0.88752192258834839
1 0.74185460805892944 0.88841718435287476
1 0.83690559864044189 0.87748903036117554
0.54719918966293335 0.4099116325378418 0.88489729166030884
0.66610211133956909 0.47414615750312805 0.88578569889068604
0.85170948505401611 0.62168890237808228 0.8875199556350708
0.99999922513961792 0.78447705507278442 0.89317679405212402
0.99999141693115234 0.874053955078125 0.89170002937316895
0 0.70970433950424194 0.87294274568557739
0 0.70104056596755981 0.87530004978179932
0.095338433980941772 0.66797339916229248 0.88344520330429077
0.93902003765106201 0.8102533221244812 0.89994001388549805
0.99999541044235229 0.91708481311798096 0.91531264781951904
0.5684087872505188 0.90973281860351562 0.90359729528427124
0.60432106256484985 0.91103523969650269 0.90443533658981323
0.7104145884513855 0.91469591856002808 0.90764236450195312
0.87833547592163086 0.92375904321670532 0.9147840142250061
1 0.94830352067947388 0.93857479095458984
