Textures/45.cube
# Created by: G'MIC (https://gmic.eu)
TITLE "Fuji_Provia_100_Generic.cube"
# LUT size
LUT_3D_SIZE 33
# Data domain
DOMAIN_MIN 0.0 0.0 0.0
DOMAIN_MAX 1.0 1.0 1.0
# LUT data points
0.0072884159162640572 0.0066994591616094112 0.0066994586959481239
0.030808368697762489 0.0066994591616094112 0.0066994586959481239
0.05778547003865242 0.0066994600929319859 0.0066994596272706985
0.085312016308307648 0.0066994591616094112 0.0066994591616094112
0.1122516393661499 0.0066994591616094112 0.0067306673154234886
0.13861462473869324 0.0069486973807215691 0.0067743575200438499
0.16491840779781342 0.0070262923836708069 0.0067743584513664246
0.19673584401607513 0.0070262923836708069 0.0067743575200438499
0.23273502290248871 0.0070824520662426949 0.0067743584513664246
0.27475053071975708 0.0080559281632304192 0.0067743575200438499
0.31816005706787109 0.0088236471638083458 0.0067743575200438499
0.36264482140541077 0.0088236471638083458 0.0068320930004119873
0.40739363431930542 0.0080559281632304192 0.0070117674767971039
0.45394355058670044 0.008767472580075264 0.0073737837374210358
0.50241607427597046 0.0083652790635824203 0.0072322133928537369
0.54928576946258545 0.0084409574046730995 0.0072322124615311623
0.59296637773513794 0.0088236471638083458 0.0072322124615311623
0.63371652364730835 0.0090891309082508087 0.0070649031549692154
0.67270749807357788 0.0091503961011767387 0.0070262923836708069
0.71180897951126099 0.0091503961011767387 0.0071335425600409508
0.75139999389648438 0.010141894221305847 0.0074038137681782246
0.79096072912216187 0.010741830803453922 0.0072493730112910271
0.8309401273727417 0.0091503961011767387 0.0075902338139712811
0.86929565668106079 0.0096559310331940651 0.0075734634883701801
0.90679085254669189 0.010947752743959427 0.0075126234441995621
0.94256120920181274 0.010493010282516479 0.0079248556867241859
0.97626578807830811 0.010896272026002407 0.0078304745256900787
0.99850630760192871 0.011073707602918148 0.0076814936473965645
1 0.011507491581141949 0.0077392151579260826
1 0.010997121222317219 0.0079248547554016113
1 0.012168856337666512 0.0079248547554016113
1 0.01217314600944519 0.0079248547554016113
1 0.01217314600944519 0.0079248547554016113
0.0091843456029891968 0.025573162361979485 0.0066994586959481239
0.026567690074443817 0.02614387683570385 0.0066994586959481239
0.050704088062047958 0.026246832683682442 0.0066994600929319859
0.078192517161369324 0.026876689866185188 0.0066994600929319859
0.10519792884588242 0.027042442932724953 0.0066994586959481239
0.13140222430229187 0.027608830481767654 0.0066994586959481239
0.1583913117647171 0.028268065303564072 0.0066994586959481239
0.19059091806411743 0.028268065303564072 0.0066994586959481239
0.22683845460414886 0.028268065303564072 0.0066994586959481239
0.26920604705810547 0.029147939756512642 0.0066994586959481239
0.31286010146141052 0.030477365478873253 0.0066994586959481239
0.35735255479812622 0.030889313668012619 0.0066994586959481239
0.40199506282806396 0.030065421015024185 0.0068428739905357361
0.4486103355884552 0.030607990920543671 0.0072267530485987663
0.49697673320770264 0.030774226412177086 0.0071760527789592743
0.54376202821731567 0.03148452565073967 0.0071136532351374626
0.58737540245056152 0.031617708504199982 0.0070262923836708069
0.6279681921005249 0.032812580466270447 0.0070262923836708069
0.66684937477111816 0.033088315278291702 0.0070262923836708069
0.70597147941589355 0.033118739724159241 0.0070356517098844051
0.74583965539932251 0.03414463996887207 0.007300463505089283
0.78508967161178589 0.035127390176057816 0.0072532724589109421
0.82503336668014526 0.034375272691249847 0.0075516235083341599
0.86339294910430908 0.034790348261594772 0.0077271237969398499
0.90080070495605469 0.035987056791782379 0.007517694029957056
0.93665593862533569 0.036344297230243683 0.0079248556867241859
0.97050118446350098 0.03632558137178421 0.0079248547554016113
0.99666988849639893 0.036592811346054077 0.0078593343496322632
1 0.036807294934988022 0.0079002846032381058
1 0.03655705600976944 0.0079248547554016113
1 0.038230288773775101 0.0079248547554016113
1 0.038562152534723282 0.0079248547554016113
1 0.038147192448377609 0.0079248547554016113
0.015039833262562752 0.048447839915752411 0.0067811673507094383
0.029730888083577156 0.048658043146133423 0.0067811673507094383
0.048773922026157379 0.049165830016136169 0.0067125097848474979
0.074337638914585114 0.050143755972385406 0.0067811673507094383
0.10126352310180664 0.050245184451341629 0.0067811673507094383
0.12713177502155304 0.050329022109508514 0.0068529462441802025
0.15492227673530579 0.050572022795677185 0.006927842739969492
0.18788915872573853 0.050572022795677185 0.0069496864452958107
0.22442878782749176 0.0506281778216362 0.0069496864452958107
0.26696035265922546 0.052013471722602844 0.0069496864452958107
0.31088924407958984 0.053399018943309784 0.0070483703166246414
0.35495054721832275 0.054166737943887711 0.007230506744235754
0.39942798018455505 0.05298706516623497 0.007363785058259964
0.44621360301971436 0.054147783666849136 0.0080032730475068092
0.49470606446266174 0.054266318678855896 0.0079435799270868301
0.54118138551712036 0.054462850093841553 0.0079201795160770416
0.58466005325317383 0.054942883551120758 0.0077279047109186649
0.62512421607971191 0.055916566401720047 0.007752866018563509
0.66386371850967407 0.056376859545707703 0.0078472448512911797
0.70308661460876465 0.057115133851766586 0.0077789952047169209
0.74283939599990845 0.057562332600355148 0.0080208191648125648
0.78210747241973877 0.058372326195240021 0.008037986233830452
0.82200396060943604 0.058253519237041473 0.0080208191648125648
0.86031258106231689 0.058415025472640991 0.0082267932593822479
0.89747601747512817 0.059274807572364807 0.0081538446247577667
0.93353086709976196 0.059768561273813248 0.0083340704441070557
0.96717923879623413 0.060268636792898178 0.0081881731748580933
0.99490112066268921 0.061111174523830414 0.0082997418940067291
1 0.061111174523830414 0.0083169061690568924
1 0.061298415064811707 0.0082654133439064026
1 0.062137596309185028 0.0083512356504797935
1 0.062269069254398346 0.0083555262535810471
1 0.062106821686029434 0.0083555262535810471
0.022363189607858658 0.073284260928630829 0.0078784804791212082
0.036479540169239044 0.073284260928630829 0.0077497684396803379
0.052799280732870102 0.073284260928630829 0.0076253577135503292
0.072799183428287506 0.073327168822288513 0.0076253577135503292
0.097558990120887756 0.07401062548160553 0.007711158599704504
0.12307240813970566 0.074533067643642426 0.0078312782570719719
0.15206778049468994 0.07500014454126358 0.0079662250354886055
0.18576064705848694 0.075000137090682983 0.0082244528457522392
0.22253522276878357 0.075056292116641998 0.0082244528457522392
0.26566550135612488 0.075958244502544403 0.0082244528457522392
0.30948713421821594 0.076925046741962433 0.0083188563585281372
0.353496253490448 0.077205926179885864 0.0083660585805773735
0.39802473783493042 0.077205926179885864 0.0083059836179018021
0.44484788179397583 0.077653616666793823 0.0088010095059871674
0.49290934205055237 0.078461393713951111 0.0089172469452023506
0.53920590877532959 0.078921593725681305 0.0088996980339288712
0.58237183094024658 0.079165019094944 0.00864420086145401
0.62265992164611816 0.079820387065410614 0.0086793089285492897
0.66136038303375244 0.080135636031627655 0.0086363982409238815
0.70053285360336304 0.081113062798976898 0.0086008990183472633
0.7401130199432373 0.081258542835712433 0.0088587468490004539
0.77954047918319702 0.082416146993637085 0.0088314348831772804
0.81933379173278809 0.082222864031791687 0.0087885363027453423
0.85747891664505005 0.082843124866485596 0.0089172469452023506
0.89465057849884033 0.08347976952791214 0.0089172469452023506
0.9309237003326416 0.083784818649291992 0.0089172469452023506
0.96441435813903809 0.083984263241291046 0.0089172469452023506
0.99309629201889038 0.084167525172233582 0.0089172469452023506
1 0.084957867860794067 0.0089172469452023506
1 0.085049159824848175 0.0089172469452023506
1 0.085517264902591705 0.0089193740859627724
1 0.08608834445476532 0.0089385192841291428
1 0.086022049188613892 0.0089328475296497345
0.031911350786685944 0.097140498459339142 0.009778464213013649
0.044776815921068192 0.097140505909919739 0.009778464213013649
0.059260401874780655 0.097140498459339142 0.0096325688064098358
0.076276302337646484 0.097140498459339142 0.0094094714149832726
0.095618396997451782 0.097140498459339142 0.0093665709719061852
0.1196000725030899 0.098001845180988312 0.0093665709719061852
0.14960718154907227 0.098102502524852753 0.0095338821411132812
0.18323089182376862 0.098684020340442657 0.0097098071128129959
0.22236746549606323 0.09877467155456543 0.0097784651443362236
0.26532655954360962 0.098977185785770416 0.009778464213013649
0.30926716327667236 0.10016334056854248 0.0099200354889035225
0.35298454761505127 0.10106215626001358 0.0098978010937571526
0.39763158559799194 0.10106214880943298 0.0096068205311894417
0.44436967372894287 0.10108086466789246 0.010156105272471905
0.49192395806312561 0.10196071118116379 0.010456379503011703
0.53775185346603394 0.10209856927394867 0.010571849532425404
0.58066409826278687 0.10269589722156525 0.010057352483272552
0.62078821659088135 0.10269588232040405 0.010055011138319969
0.65925431251525879 0.1035747304558754 0.010120530612766743
0.69835364818572998 0.10408495366573334 0.010004699230194092
0.73823398351669312 0.10442190617322922 0.01036978792399168
0.77724575996398926 0.10498350113630295 0.010527767241001129
0.81690335273742676 0.10501782596111298 0.010223119519650936
0.85510468482971191 0.10577695816755295 0.01082812063395977
0.89269959926605225 0.10639030486345291 0.01097399927675724
0.92780077457427979 0.10666914284229279 0.010956430807709694
0.96170657873153687 0.10707695037126541 0.011099971830844879
0.99163973331451416 0.10800635814666748 0.011047323234379292
1 0.10800635814666748 0.010959937237203121
1 0.10839958488941193 0.011131562292575836
1 0.10890515893697739 0.011009692214429379
1 0.10890515148639679 0.011063870973885059
1 0.10931699723005295 0.01117487158626318
0.043098527938127518 0.12065278738737106 0.012038795277476311
0.054559633135795593 0.12121438980102539 0.012038795277476311
0.06720830500125885 0.12156850099563599 0.01200447604060173
0.082824617624282837 0.12156850099563599 0.01194519829005003
0.099251382052898407 0.12156850099563599 0.011577768251299858
0.11874067038297653 0.12156850099563599 0.011204482056200504
0.14812692999839783 0.12158254534006119 0.011285996995866299
0.1820867657661438 0.12171176820993423 0.011803619563579559
0.22263245284557343 0.12173191457986832 0.012047375552356243
0.26557305455207825 0.12240587174892426 0.01230283547192812
0.30950310826301575 0.12356672435998917 0.012667165137827396
0.35314759612083435 0.12369266152381897 0.012770929373800755
0.39791902899742126 0.12369266152381897 0.012525569647550583
0.44434639811515808 0.12455400079488754 0.012835565023124218
0.49173632264137268 0.12549024820327759 0.01334113348275423
0.53701251745223999 0.12552087008953094 0.013702318072319031
0.57938623428344727 0.12565362453460693 0.013165632262825966
0.61944383382797241 0.12565362453460693 0.013157052919268608
0.65774315595626831 0.12655150890350342 0.013294331729412079
0.69659942388534546 0.12757351994514465 0.013161342591047287
0.73618960380554199 0.12761437892913818 0.013411344960331917
0.77548384666442871 0.12823230028152466 0.01366215106099844
0.81493747234344482 0.12879395484924316 0.013185916468501091
0.85294795036315918 0.12941174209117889 0.013752248138189316
0.8897247314453125 0.12952747941017151 0.014013969339430332
0.92536205053329468 0.12957514822483063 0.013790464960038662
0.9586520791053772 0.13037125766277313 0.013848977163434029
0.98935770988464355 0.13137251138687134 0.013851884752511978
1 0.13137251138687134 0.01400989294052124
1 0.13144399225711823 0.014097942039370537
1 0.13159209489822388 0.013789649121463299
1 0.13243447244167328 0.013861390762031078
1 0.13264049589633942 0.013962091878056526
0.054090850055217743 0.14967338740825653 0.014644153416156769
0.063811168074607849 0.14967338740825653 0.014695634134113789
0.075135864317417145 0.14967337250709534 0.014580972492694855
0.088416509330272675 0.14967338740825653 0.014569696038961411
0.10380197316408157 0.15030090510845184 0.014542459510266781
0.12289561331272125 0.15057194232940674 0.014542459510266781
0.14777910709381104 0.15057194232940674 0.014542459510266781
0.18009130656719208 0.15057195723056793 0.014542459510266781
0.22205257415771484 0.15057194232940674 0.014554375782608986
0.26498013734817505 0.15132074058055878 0.014625433832406998
0.30810707807540894 0.151751309633255 0.014841525815427303
0.35215556621551514 0.15269580483436584 0.015183961950242519
0.3972887396812439 0.15269580483436584 0.014833725988864899
0.44387724995613098 0.15333248674869537 0.014817734248936176
0.49070394039154053 0.15359462797641754 0.01522257924079895
0.53536581993103027 0.15417511761188507 0.015639571473002434
0.57743239402770996 0.15449342131614685 0.01520894467830658
0.61697584390640259 0.15449343621730804 0.015162513591349125
0.65511530637741089 0.15509259700775146 0.015527627430856228
0.6939423680305481 0.15638867020606995 0.015303736552596092
0.73369467258453369 0.15661783516407013 0.015464433468878269
0.77274572849273682 0.15661783516407013 0.016006201505661011
0.81198471784591675 0.15710456669330597 0.015426990576088428
0.84984338283538818 0.15751639008522034 0.016027277335524559
0.88674604892730713 0.15767666697502136 0.016658762469887733
0.92219698429107666 0.15841493010520935 0.016202792525291443
0.95524460077285767 0.15867781639099121 0.016718443483114243
0.98619252443313599 0.15890167653560638 0.016432361677289009
0.99979227781295776 0.15931352972984314 0.01668156310915947
1 0.15984971821308136 0.016912585124373436
1 0.16053915023803711 0.016632279381155968
1 0.1605500727891922 0.016724376007914543
1 0.16116330027580261 0.016986805945634842
0.06363031268119812 0.1820259690284729 0.018140252679586411
0.072601810097694397 0.1820259690284729 0.018183151260018349
0.081972800195217133 0.1820259690284729 0.018087601289153099
0.09387931227684021 0.1820259690284729 0.018009547144174576
0.10902188718318939 0.18255366384983063 0.017849534749984741
0.12850944697856903 0.18284307420253754 0.017699383199214935
0.15136720240116119 0.18284307420253754 0.017643613740801811
0.17895510792732239 0.18284307420253754 0.017686514183878899
0.21942545473575592 0.18289455771446228 0.017859466373920441
0.26307043433189392 0.18372935056686401 0.018090324476361275
0.30615749955177307 0.1838354617357254 0.018290422856807709
0.35055717825889587 0.18415029346942902 0.018370378762483597
0.39574706554412842 0.18476742506027222 0.018274823203682899
0.44251686334609985 0.18594788014888763 0.018251422792673111
0.48937219381332397 0.18594788014888763 0.018370378762483597
0.53285866975784302 0.18634684383869171 0.018430843949317932
0.57413661479949951 0.1867649257183075 0.018374284729361534
0.6136777400970459 0.18676495552062988 0.018370378762483597
0.65199899673461914 0.1867649257183075 0.018411338329315186
0.69077205657958984 0.18895158171653748 0.018393788486719131
0.72994303703308105 0.18838873505592346 0.01838403195142746
0.76929193735122681 0.18910166621208191 0.018464000895619392
0.80837583541870117 0.18986918032169342 0.018378177657723427
0.84591418504714966 0.18986918032169342 0.018464000895619392
0.88298207521438599 0.18986918032169342 0.018464000895619392
0.91819751262664795 0.19032865762710571 0.018464000895619392
0.95108932256698608 0.19068607687950134 0.018563868477940559
0.98172760009765625 0.19068604707717896 0.018473079428076744
0.99897211790084839 0.19092635810375214 0.018621034920215607
1 0.19155411422252655 0.018674090504646301
1 0.19302795827388763 0.018681889399886131
1 0.1930575966835022 0.018653804436326027
1 0.1937909871339798 0.019186258316040039
0.053238954395055771 0.22058814764022827 0.018726255744695663
0.060428235679864883 0.22058814764022827 0.018915018066763878
0.069321505725383759 0.22058814764022827 0.019113970920443535
0.081240385770797729 0.22058814764022827 0.019564874470233917
0.097673192620277405 0.22099815309047699 0.019607782363891602
0.11915076524019241 0.22156843543052673 0.019607782363891602
0.14344358444213867 0.22156843543052673 0.019607782363891602
0.17375798523426056 0.22156843543052673 0.019607782363891602
0.21374228596687317 0.22156843543052673 0.019629629328846931
0.25868344306945801 0.22215864062309265 0.019766164943575859
0.30145302414894104 0.22246721386909485 0.019607782363891602
0.3462793231010437 0.22246721386909485 0.01982857845723629
0.39279568195343018 0.22246721386909485 0.020407790318131447
0.43962371349334717 0.22317801415920258 0.020386336371302605
0.48592308163642883 0.22411666810512543 0.020506471395492554
0.52882027626037598 0.22492432594299316 0.020364899188280106
0.56962740421295166 0.22549040615558624 0.020557966083288193
0.60865312814712524 0.22549042105674744 0.02064027450978756
0.64697408676147461 0.22549040615558624 0.020568497478961945
0.68611007928848267 0.22597569227218628 0.020688647404313087
0.72539585828781128 0.22638918459415436 0.021160606294870377
0.76411718130111694 0.22638918459415436 0.021074801683425903
0.80344104766845703 0.22695249319076538 0.021074792370200157
0.84078764915466309 0.22830034792423248 0.020958950743079185
0.87730598449707031 0.22843138873577118 0.021599821746349335
0.91276252269744873 0.22877684235572815 0.021565880626440048
0.94499713182449341 0.22941161692142487 0.021757785230875015
0.97622513771057129 0.22941164672374725 0.021686313673853874
0.99758952856063843 0.22941164672374725 0.02188589796423912
1 0.23021659255027771 0.021967418491840363
1 0.23031020164489746 0.022040367126464844
1 0.23031020164489746 0.021928800269961357
1 0.2309538871049881 0.022320812568068504
0.055775158107280731 0.25906860828399658 0.022647658362984657
0.061020970344543457 0.25906860828399658 0.022647658362984657
0.068308122456073761 0.25906860828399658 0.022659569978713989
0.077664397656917572 0.25916221737861633 0.022872801870107651
0.090543664991855621 0.25996717810630798 0.023137684911489487
0.10693849623203278 0.25996723771095276 0.023163428530097008
0.12822750210762024 0.25996723771095276 0.023163428530097008
0.16097377240657806 0.26036030054092407 0.023163428530097008
0.20632405579090118 0.26086577773094177 0.023317871615290642
0.2522127628326416 0.26086577773094177 0.023414591327309608
0.29603159427642822 0.26107174158096313 0.023427069187164307
0.34165254235267639 0.26176458597183228 0.023375591263175011
0.38884761929512024 0.26176458597183228 0.023654496297240257
0.43619450926780701 0.26249852776527405 0.024002073332667351
0.48192650079727173 0.26308378577232361 0.024109341204166412
0.52414107322692871 0.26388898491859436 0.023710280656814575
0.56441628932952881 0.26413235068321228 0.023753190413117409
0.60333305597305298 0.26478776335716248 0.024178758263587952
0.64146113395690918 0.26478776335716248 0.024018445983529091
0.681160569190979 0.26504990458488464 0.023998165503144264
0.72006237506866455 0.2656865119934082 0.024639036506414413
0.75889569520950317 0.26568654179573059 0.024377303197979927
0.79807400703430176 0.26620057225227356 0.024566087871789932
0.83525174856185913 0.26691198348999023 0.02451031468808651
0.87162601947784424 0.26773571968078613 0.024597685784101486
0.90656644105911255 0.26762336492538452 0.024809112772345543
0.93901687860488892 0.26839089393615723 0.024816131219267845
0.96996486186981201 0.26870915293693542 0.024848118424415588
0.99503171443939209 0.26870915293693542 0.025154715403914452
1 0.26883786916732788 0.02547341026365757
1 0.26960185170173645 0.025597831234335899
1 0.2696077823638916 0.025653617456555367
1 0.26967641711235046 0.025909500196576118
0.034604381769895554 0.29820263385772705 0.026130205020308495
0.040785182267427444 0.29820263385772705 0.026130205020308495
0.04914398118853569 0.29820263385772705 0.026137011125683784
0.060047842562198639 0.29820263385772705 0.026258859783411026
0.072664357721805573 0.29820260405540466 0.026307230815291405
0.090788289904594421 0.29820263385772705 0.026307230815291405
0.1131802499294281 0.29820263385772705 0.026307230815291405
0.14738941192626953 0.29859569668769836 0.026307230815291405
0.19782844185829163 0.29910114407539368 0.026307230815291405
0.24462828040122986 0.29913115501403809 0.026307230815291405
0.28982120752334595 0.30076590180397034 0.026401609182357788
0.33705195784568787 0.30089846253395081 0.026513151824474335
0.38463780283927917 0.30089846253395081 0.026594681665301323
0.43210884928703308 0.30120491981506348 0.026620429009199142
0.47765222191810608 0.3017309308052063 0.026534607633948326
0.51949578523635864 0.30212420225143433 0.026719123125076294
0.55930906534194946 0.30212420225143433 0.026822110638022423
0.59791165590286255 0.30285444855690002 0.026684794574975967
0.63617968559265137 0.30302295088768005 0.026787783950567245
0.67570626735687256 0.30302295088768005 0.027139598503708839
0.71478021144866943 0.30409184098243713 0.027023769915103912
0.75343358516693115 0.30482050776481628 0.027131021022796631
0.79240816831588745 0.30499753355979919 0.027255427092313766
0.82968157529830933 0.30550298094749451 0.027148179709911346
0.86549085378646851 0.30604591965675354 0.027514435350894928
0.90033978223800659 0.30604588985443115 0.02779802680015564
0.93266373872756958 0.30630874633789062 0.027750834822654724
0.9635317325592041 0.30694445967674255 0.027776570990681648
0.99113589525222778 0.30694442987442017 0.027823785319924355
1 0.30694445967674255 0.027819482609629631
1 0.30745148658752441 0.028029704466462135
1 0.30874159932136536 0.028029708191752434
1 0.30874159932136536 0.028205616399645805
0.021025560796260834 0.33921554684638977 0.029572675004601479
0.0238949004560709 0.33921554684638977 0.029667079448699951
0.027883933857083321 0.33921554684638977 0.029667079448699951
0.033328618854284286 0.33921554684638977 0.029667079448699951
0.041237074881792068 0.33921554684638977 0.029667079448699951
0.055017486214637756 0.33937901258468628 0.029919084161520004
0.075769200921058655 0.33965468406677246 0.029947951436042786
0.12682768702507019 0.34072262048721313 0.029947951436042786
0.18432067334651947 0.34133973717689514 0.02983599528670311
0.23369042575359344 0.34133973717689514 0.02974432148039341
0.28131479024887085 0.34133973717689514 0.029924547299742699
0.33052334189414978 0.34256660938262939 0.02996511198580265
0.37879264354705811 0.34313726425170898 0.030153876170516014
0.42619964480400085 0.34313726425170898 0.030149586498737335
0.47189417481422424 0.34313726425170898 0.030024399980902672
0.51313412189483643 0.34313726425170898 0.030228773131966591
0.55243575572967529 0.34422287344932556 0.030263099819421768
0.59104275703430176 0.34526169300079346 0.030202249065041542
0.62960648536682129 0.34526169300079346 0.030202245339751244
0.66930586099624634 0.34526169300079346 0.030325518921017647
0.70831620693206787 0.34526169300079346 0.030350485816597939
0.74691611528396606 0.34649720788002014 0.030372330918908119
0.78555184602737427 0.3470587432384491 0.030378570780158043
0.82279026508331299 0.3470587432384491 0.030378570780158043
0.85892766714096069 0.3470587432384491 0.030530309304594994
0.8933722972869873 0.34715238213539124 0.030659422278404236
0.92512339353561401 0.34854277968406677 0.030659426003694534
0.9557376503944397 0.34918275475502014 0.030659422278404236
0.98467463254928589 0.34918275475502014 0.030659426003694534
0.99965113401412964 0.34918275475502014 0.030659422278404236
1 0.34918275475502014 0.030917283147573471
1 0.34930288791656494 0.030940297991037369
1 0.34925144910812378 0.030858764424920082
0 0.3816993236541748 0.031660750508308411
0.00039843455306254327 0.38169929385185242 0.031707946211099625
0.0012531988322734833 0.3816993236541748 0.031707946211099625
0.0029854881577193737 0.38169929385185242 0.031707946211099625
0.0062602772377431393 0.38169929385185242 0.031746562570333481
0.011662422679364681 0.38202273845672607 0.031913921236991882
