Textures/45.cube
# Created by: G'MIC (https://gmic.eu)
TITLE "Fuji_Provia_100_Generic.cube"
# LUT size
LUT_3D_SIZE 5
# Data domain
DOMAIN_MIN 0.0 0.0 0.0
DOMAIN_MAX 1.0 1.0 1.0
# LUT data points
0.0072884159162640572 0.0066994591616094112 0.0066994586959481239
0.23273502290248871 0.0070824520662426949 0.0067743584513664246
0.59296637773513794 0.0088236471638083458 0.0072322124615311623
0.90679085254669189 0.010947752743959427 0.0075126234441995621
1 0.01217314600944519 0.0079248547554016113
0.053238954395055771 0.22058814764022827 0.018726255744695663
0.21374228596687317 0.22156843543052673 0.019629629328846931
0.56962740421295166 0.22549040615558624 0.020557966083288193
0.87730598449707031 0.22843138873577118 0.021599821746349335
1 0.2309538871049881 0.022320812568068504
0 0.52941161394119263 0.042321965098381042
0.10285966098308563 0.53333348035812378 0.042467862367630005
0.51762986183166504 0.53333348035812378 0.042934365570545197
0.82425516843795776 0.53725475072860718 0.043395780026912689
1 0.54117649793624878 0.043664894998073578
0 0.78962427377700806 0.031430754810571671
0.026721522212028503 0.79150331020355225 0.031000087037682533
0.47906020283699036 0.79332387447357178 0.030775388702750206
0.77047079801559448 0.79542499780654907 0.030737938359379768
0.98198807239532471 0.79746729135513306 0.030757198110222816
0 0.98547947406768799 0
0.17831748723983765 0.98570281267166138 0
0.50353264808654785 0.98692834377288818 0
0.73699402809143066 0.98872542381286621 0
0.9607577919960022 0.98995083570480347 0
0.011609251610934734 0.0067686843685805798 0.2230476588010788
0.23953899741172791 0.0075212027877569199 0.22355806827545166
0.59875321388244629 0.0088236471638083458 0.22542741894721985
0.9124377965927124 0.010353765450417995 0.22586822509765625
1 0.012168466113507748 0.22670745849609375
0.058655913919210434 0.21968957781791687 0.22149425745010376
0.22129030525684357 0.22156842052936554 0.22150829434394836
0.57538777589797974 0.22549040615558624 0.22240479290485382
0.88291305303573608 0.22843138873577118 0.22259753942489624
1 0.23071357607841492 0.22337900102138519
0 0.52941161394119263 0.21076205372810364
0.11918241530656815 0.53333181142807007 0.210837721824646
0.5235522985458374 0.53333348035812378 0.21094076335430145
0.82909250259399414 0.53725475072860718 0.21198830008506775
1 0.54117649793624878 0.21243180334568024
0 0.78962427377700806 0.20212407410144806
0.046648059040307999 0.79150331020355225 0.20216579735279083
0.48646900057792664 0.79330086708068848 0.20227226614952087
0.77583605051040649 0.79542499780654907 0.20336747169494629
0.986358642578125 0.79739058017730713 0.20392143726348877
0.00024693369050510228 0.98480397462844849 0.21821558475494385
0.19712278246879578 0.98570281267166138 0.21842148900032043
0.51081055402755737 0.98692834377288818 0.2188316136598587
0.74262237548828125 0.98872542381286621 0.21937422454357147
0.96544104814529419 0.98992359638214111 0.21934457123279572
0.017527177929878235 0.0066994591616094112 0.54328441619873047
0.24959239363670349 0.0070247314870357513 0.54465383291244507
0.6083219051361084 0.0088236471638083458 0.54509800672531128
0.92158782482147217 0.010405253618955612 0.54511594772338867
1 0.012147406116127968 0.54553753137588501
0.068650655448436737 0.21939732134342194 0.54107266664505005
0.23302870988845825 0.22156842052936554 0.54117649793624878
0.58488774299621582 0.22487322986125946 0.54117649793624878
0.89158332347869873 0.22843335568904877 0.54117888212203979
1 0.23031023144721985 0.54182636737823486
0 0.52941161394119263 0.53333348035812378
0.14361275732517242 0.53298956155776978 0.53333348035812378
0.53446710109710693 0.53333348035812378 0.53345108032226562
0.83856683969497681 0.53725475072860718 0.53439563512802124
1 0.5408322811126709 0.53577357530593872
0 0.78962427377700806 0.52941161394119263
0.087831012904644012 0.79087525606155396 0.52941161394119263
0.49948868155479431 0.79305583238601685 0.52941161394119263
0.78564727306365967 0.79542499780654907 0.52957499027252197
0.99322676658630371 0.79725015163421631 0.53035753965377808
0.007464961614459753 0.98480397462844849 0.53333348035812378
0.22819368541240692 0.98570281267166138 0.53333348035812378
0.52384614944458008 0.98692834377288818 0.53333348035812378
0.75296831130981445 0.98801302909851074 0.53347653150558472
0.9742962121963501 0.9897192120552063 0.53397315740585327
0.024351796135306358 0.0066994591616094112 0.81154018640518188
0.25856903195381165 0.0073628183454275131 0.81242173910140991
0.61653101444244385 0.0088213058188557625 0.81307315826416016
0.92990171909332275 0.0092202257364988327 0.81385320425033569
1 0.011585414409637451 0.81454592943191528
0.077370598912239075 0.2187705785036087 0.80762040615081787
0.24325332045555115 0.22141508758068085 0.80805104970932007
0.59328645467758179 0.22450989484786987 0.8089863657951355
0.89960753917694092 0.22797982394695282 0.80946189165115356
1 0.23031023144721985 0.81017333269119263
0 0.52941161394119263 0.80024528503417969
0.16343033313751221 0.53214502334594727 0.80069464445114136
0.5440935492515564 0.53333348035812378 0.80115997791290283
0.84701931476593018 0.53725475072860718 0.80168181657791138
1 0.53875494003295898 0.8021431565284729
0 0.78962427377700806 0.79354077577590942
0.12478373944759369 0.79060441255569458 0.79355102777481079
0.51126295328140259 0.79198575019836426 0.7938685417175293
0.79481476545333862 0.79495465755462646 0.79458683729171753
0.99713069200515747 0.79707705974578857 0.7954062819480896
0.030916569754481316 0.98480397462844849 0.79120290279388428
0.25528207421302795 0.98570281267166138 0.79135733842849731
0.53652042150497437 0.98692834377288818 0.79150331020355225
0.76273733377456665 0.98782694339752197 0.79150331020355225
0.98292213678359985 0.9896240234375 0.79157191514968872
0.027695175260305405 0.0066994591616094112 0.99844765663146973
0.26601311564445496 0.0066994591616094112 0.99844765663146973
0.62293392419815063 0.007999754510819912 0.99885106086730957
0.9354398250579834 0.0093863960355520248 0.99934643507003784
1 0.011176264844834805 0.99949628114700317
0.084587983787059784 0.21854594349861145 0.99722230434417725
0.25093528628349304 0.22104093432426453 0.99744266271591187
0.59979897737503052 0.22436089813709259 0.99812090396881104
0.90590524673461914 0.22707837820053101 0.99812567234039307
1 0.22991123795509338 0.99835234880447388
0 0.52941161394119263 0.99325454235076904
0.17861457169055939 0.53061813116073608 0.99392813444137573
0.55163460969924927 0.53333348035812378 0.99481362104415894
0.85316348075866699 0.53725475072860718 0.99508458375930786
1 0.53738737106323242 0.99554735422134399
0 0.78962427377700806 0.98905229568481445
0.14978407323360443 0.7902839183807373 0.98908150196075439
0.52009111642837524 0.79154068231582642 0.98989403247833252
0.80205446481704712 0.79428917169570923 0.99084961414337158
0.99905592203140259 0.79604274034500122 0.99084961414337158
0.05457146093249321 0.98480397462844849 0.98872542381286621
0.27515226602554321 0.98487740755081177 0.98872542381286621
0.54667109251022339 0.98692834377288818 0.98872542381286621
0.77063453197479248 0.98782694339752197 0.9896240234375
0.98850822448730469 0.9896240234375 0.9896240234375
