Textures/46.cube
# Created by: G'MIC (https://gmic.eu)
TITLE "Fuji_Provia_100F.cube"
# LUT size
LUT_3D_SIZE 5
# Data domain
DOMAIN_MIN 0.0 0.0 0.0
DOMAIN_MAX 1.0 1.0 1.0
# LUT data points
0.0068874536082148552 0.0073231365531682968 0.0043384255841374397
0.23537184298038483 0.0047351843677461147 0.0016719151753932238
0.50262153148651123 0.0023715216666460037 6.7806577135343105e-05
0.82593011856079102 3.1208048312691972e-05 0
1 0 0
0.10011767596006393 0.24622763693332672 0.11170294135808945
0.25735694169998169 0.24254260957241058 0.10448197275400162
0.51463687419891357 0.23258256912231445 0.084951363503932953
0.83298993110656738 0.21164920926094055 0.044712059199810028
1 0.16463093459606171 0.00034669259912334383
0.12160318344831467 0.51176458597183228 0.25005277991294861
0.28556936979293823 0.51121366024017334 0.24456429481506348
0.53870505094528198 0.50741058588027954 0.22601282596588135
0.84283488988876343 0.49824926257133484 0.18517571687698364
1 0.47712308168411255 0.11064964532852173
0.21273894608020782 0.80702632665634155 0.40804839134216309
0.34867823123931885 0.80702632665634155 0.40419670939445496
0.59214860200881958 0.80655926465988159 0.39068132638931274
0.85767298936843872 0.80312216281890869 0.3619440495967865
1 0.79536277055740356 0.28934654593467712
0.57296270132064819 1 0.60630279779434204
0.62327432632446289 1 0.60351473093032837
0.75447225570678711 1 0.59592008590698242
0.94997364282608032 1 0.57737654447555542
1 1 0.52391844987869263
5.6741907883406384e-07 0.0014102730201557279 0.12377031147480011
0.19293996691703796 0.0003268334548920393 0.11075393855571747
0.46979320049285889 0 0.089543439447879791
0.80413758754730225 0 0.044243142008781433
1 0 0.00042822363320738077
0.075780533254146576 0.22578583657741547 0.22934271395206451
0.22240151464939117 0.22179116308689117 0.22200785577297211
0.48662391304969788 0.21168115735054016 0.2045968770980835
0.80883884429931641 0.18920296430587769 0.16618512570858002
1 0.14022013545036316 0.083056733012199402
0.049368094652891159 0.50213247537612915 0.34544989466667175
0.25048002600669861 0.50072300434112549 0.34141436219215393
0.51549547910690308 0.49646183848381042 0.32625824213027954
0.82172995805740356 0.48631390929222107 0.29589149355888367
1 0.46300792694091797 0.22653767466545105
0.15933655202388763 0.80187994241714478 0.48226884007453918
0.31584557890892029 0.80145400762557983 0.47876521944999695
0.57095623016357422 0.79964512586593628 0.46817994117736816
0.83973991870880127 0.7966727614402771 0.44583830237388611
1 0.78707844018936157 0.39116743206977844
0.55122208595275879 1 0.66553646326065063
0.6028943657875061 1 0.66368228197097778
0.73687088489532471 1 0.65761417150497437
0.9332318902015686 1 0.642475426197052
1 1 0.59769266843795776
0 0 0.26524865627288818
0.14075575768947601 0 0.25705322623252869
0.42814680933952332 0 0.24257737398147583
0.76669013500213623 0 0.21252025663852692
1 0 0.1517535001039505
0.045374408364295959 0.19450826942920685 0.3677925169467926
0.17630572617053986 0.1898234486579895 0.3635714054107666
0.44707149267196655 0.17649425566196442 0.35156306624412537
0.7717551589012146 0.15047816932201385 0.32491043210029602
1 0.092046558856964111 0.26759853959083557
0.028137572109699249 0.480561763048172 0.48511072993278503
0.17973995208740234 0.4790712296962738 0.48246875405311584
0.47370600700378418 0.47337254881858826 0.47349044680595398
0.78541874885559082 0.46121230721473694 0.45296213030815125
1 0.43371036648750305 0.4074530303478241
0.020445635542273521 0.78696388006210327 0.62310761213302612
0.23133948445320129 0.78635036945343018 0.61947953701019287
0.52301836013793945 0.7845112681388855 0.61275357007980347
0.80187958478927612 0.78028202056884766 0.59735321998596191
1 0.76862543821334839 0.55782461166381836
0.50592607259750366 1 0.77211165428161621
0.56151664257049561 1 0.77096962928771973
0.70177406072616577 1 0.76711100339889526
0.90198475122451782 1 0.75663173198699951
1 1 0.72634822130203247
0 0 0.42895957827568054
0.061222229152917862 0 0.42627355456352234
0.36797329783439636 0 0.41825065016746521
0.71511059999465942 0 0.40023344755172729
1 0 0.36242356896400452
0.00052567792590707541 0.13671822845935822 0.53316992521286011
0.10780829936265945 0.13040220737457275 0.53074163198471069
0.38937455415725708 0.11418554931879044 0.52223116159439087
0.72072649002075195 0.081621170043945312 0.50247657299041748
1 0.020317336544394493 0.4603944718837738
0 0.44352394342422485 0.6482473611831665
0.098633266985416412 0.44153115153312683 0.64676094055175781
0.41559362411499023 0.43464121222496033 0.64095002412796021
0.73799550533294678 0.42021337151527405 0.62706518173217773
1 0.38765448331832886 0.59613293409347534
0 0.76461899280548096 0.77167081832885742
0.082140743732452393 0.76390713453292847 0.77019190788269043
0.46000882983207703 0.76161950826644897 0.76552414894104004
0.75616782903671265 0.75596874952316284 0.75608605146408081
1 0.74110597372055054 0.73151218891143799
0.43389788269996643 0.99859917163848877 0.90230810642242432
0.49704024195671082 0.99859917163848877 0.90156430006027222
0.65005427598953247 0.99880522489547729 0.90073448419570923
0.85899335145950317 0.99908602237701416 0.89446508884429932
1 0.99929201602935791 0.87680768966674805
0 0 0.60718840360641479
1.5745879863970913e-05 0 0.60684901475906372
0.28749570250511169 0 0.60238021612167358
0.65124416351318359 0 0.5918734073638916
0.99890601634979248 0 0.57024931907653809
0 0.036414593458175659 0.69346415996551514
0.01449591014534235 0.028862440958619118 0.69202917814254761
0.31178796291351318 0.014022473245859146 0.68573987483978271
0.65637922286987305 0.00095922814216464758 0.67205518484115601
0.99786144495010376 0 0.64497256278991699
3.7449655792443082e-05 0.38060149550437927 0.81183290481567383
0.0070152841508388519 0.37732592225074768 0.81101924180984497
0.33990186452865601 0.36757248640060425 0.80714362859725952
0.68046623468399048 0.34875598549842834 0.79828757047653198
0.99985027313232422 0.30665212869644165 0.77836686372756958
0 0.72485530376434326 0.92473453283309937
0 0.72381651401519775 0.92349213361740112
0.36441519856452942 0.72002959251403809 0.92070722579956055
0.6977618932723999 0.71207445859909058 0.91501718759536743
0.99997597932815552 0.69153422117233276 0.903056800365448
0.31150731444358826 0.99294489622116089 0.99816685914993286
0.39878034591674805 0.99294489622116089 0.99775493144989014
0.58102267980575562 0.99294477701187134 0.99689364433288574
0.813590407371521 0.99286991357803345 0.9946669340133667
0.99146550893783569 0.99157524108886719 0.99218642711639404
