Textures/46.cube
# Created by: G'MIC (https://gmic.eu)
TITLE "Fuji_Provia_100F.cube"
# LUT size
LUT_3D_SIZE 33
# Data domain
DOMAIN_MIN 0.0 0.0 0.0
DOMAIN_MAX 1.0 1.0 1.0
# LUT data points
0.0068874536082148552 0.0073231365531682968 0.0043384255841374397
0.02889593318104744 0.00708794966340065 0.0037619615904986858
0.055159617215394974 0.0069100800901651382 0.0035762868355959654
0.083504997193813324 0.0065578659996390343 0.0030113293323665857
0.112558513879776 0.0062251687049865723 0.0027954070828855038
0.14199669659137726 0.0058374465443193913 0.0024748253636062145
0.17120860517024994 0.0055585391819477081 0.0022606744896620512
0.20392683148384094 0.0053254417143762112 0.0020508039742708206
0.23537184298038483 0.0047351843677461147 0.0016719151753932238
0.26664531230926514 0.0049267178401350975 0.0012781725963577628
0.29784810543060303 0.005437314510345459 0.0011451527243480086
0.33072909712791443 0.0056003821082413197 0.00095481757307425141
0.36367809772491455 0.0044602323323488235 0.00058553519193083048
0.39695003628730774 0.0035340213216841221 0.00047390128020197153
0.43153363466262817 0.0033150769304484129 0.0001770347444107756
0.46615055203437805 0.0032967387232929468 0.00017703475896269083
0.50262153148651123 0.0023715216666460037 6.7806577135343105e-05
0.53991091251373291 0.0016994430916383862 5.1067718231934123e-06
0.57814896106719971 0.0014952223282307386 0
0.61785101890563965 0.0013894245494157076 0
0.65851151943206787 0.00090104195987805724 0
0.69973486661911011 0.00034399775904603302 0
0.74220222234725952 0.00044269321369938552 0
0.78381943702697754 0.00057156832190230489 0
0.82593011856079102 3.1208048312691972e-05 0
0.86752772331237793 0 0
0.90792292356491089 0 0
0.9481009840965271 0 0
0.98729819059371948 0 0
1 0 0
1 0 0
1 0 0
1 0 0
0.014564967714250088 0.031585749238729477 0.012556218542158604
0.03431304544210434 0.030746346339583397 0.011446138843894005
0.060499735176563263 0.030135491862893105 0.010882109403610229
0.089275799691677094 0.029471283778548241 0.010215620510280132
0.11909303814172745 0.029010981321334839 0.0094645265489816666
0.1483740508556366 0.028111198917031288 0.0090282503515481949
0.17791157960891724 0.027805458754301071 0.0082497075200080872
0.21040947735309601 0.026750922203063965 0.0077629303559660912
0.24127016961574554 0.025858581066131592 0.0068165096454322338
0.2721886932849884 0.025803970173001289 0.0060990196652710438
0.3028319776058197 0.025816842913627625 0.0052522066980600357
0.33514827489852905 0.025336813181638718 0.0047101676464080811
0.3679947555065155 0.023134570568799973 0.0040906229987740517
0.40154436230659485 0.021220363676548004 0.0033811882603913546
0.43537828326225281 0.020697521045804024 0.0027861567214131355
0.469816654920578 0.019534392282366753 0.0024893039371818304
0.50541460514068604 0.017799090594053268 0.0017598872072994709
0.54280519485473633 0.016650024801492691 0.0010352148674428463
0.58087587356567383 0.014786132611334324 0.00041336478898301721
0.62055754661560059 0.013773079961538315 6.0430127632571384e-05
0.66097694635391235 0.012318062596023083 0
0.70225578546524048 0.010282697156071663 0
0.74451613426208496 0.0096979942172765732 0
0.78596150875091553 0.0088942460715770721 0
0.82802605628967285 0.0060534635558724403 0
0.86970537900924683 0.0046454630792140961 0
0.91021156311035156 0.0035224927123636007 0
0.95062714815139771 0.0019923422951251268 0
0.98919099569320679 0.0011978499824181199 0
1 0.00013674801448360085 0
1 0 0
1 0 0
1 0 0
0.025311127305030823 0.060627568513154984 0.021479189395904541
0.043266385793685913 0.05985567718744278 0.020154168829321861
0.06474621593952179 0.0590408556163311 0.019462220370769501
0.093050584197044373 0.058188579976558685 0.018820604309439659
0.12319391220808029 0.057264551520347595 0.017492307350039482
0.15197490155696869 0.056702457368373871 0.01691712997853756
0.18211936950683594 0.055911455303430557 0.016383852809667587
0.21426469087600708 0.054735813289880753 0.014836397022008896
0.24426253139972687 0.053714651614427567 0.013904828578233719
0.27506479620933533 0.053160175681114197 0.012892858125269413
0.30566921830177307 0.052618034183979034 0.011908774264156818
0.33794024586677551 0.051976270973682404 0.010756240226328373
0.37058490514755249 0.049733851104974747 0.0095150945708155632
0.40351000428199768 0.047539912164211273 0.0083962883800268173
0.4370306134223938 0.046277668327093124 0.0076686092652380466
0.4711003303527832 0.044606801122426987 0.00670278025791049
0.50706356763839722 0.042280104011297226 0.0052076056599617004
0.54398202896118164 0.040267046540975571 0.0040539288893342018
0.5819162130355835 0.037951115518808365 0.0027364541310817003
0.6217118501663208 0.035995200276374817 0.0016489264089614153
0.66210925579071045 0.033303771167993546 0.00084782938938587904
0.70309829711914062 0.03058442659676075 0.00026037445059046149
0.7458341121673584 0.028793662786483765 2.3406038963003084e-05
0.78711289167404175 0.02646515890955925 0
0.82928526401519775 0.022300641983747482 0
0.87071150541305542 0.019702726975083351 0
0.91126704216003418 0.017432855442166328 0
0.95170533657073975 0.013795166276395321 0
0.99008017778396606 0.011384240351617336 0
1 0.0076457145623862743 0
1 0.0054124803282320499 0
1 0.0029391893185675144 0
1 0.0012654413003474474 0
0.040023177862167358 0.092662423849105835 0.034076351672410965
0.056519530713558197 0.09180469810962677 0.032895013689994812
0.074129708111286163 0.09095359593629837 0.031644992530345917
0.097377143800258636 0.090349778532981873 0.030735332518815994
0.12658423185348511 0.089894019067287445 0.029417850077152252
0.15506014227867126 0.089149720966815948 0.02815760113298893
0.18565359711647034 0.087997786700725555 0.027353754267096519
0.21738229691982269 0.086521804332733154 0.026063088327646255
0.24706113338470459 0.085931502282619476 0.024660810828208923
0.27742296457290649 0.084797084331512451 0.02312263660132885
0.30813029408454895 0.083695165812969208 0.021804030984640121
0.34013915061950684 0.082736305892467499 0.020136201754212379
0.37260591983795166 0.080908432602882385 0.018715612590312958
0.40546190738677979 0.078547701239585876 0.017163392156362534
0.43897479772567749 0.0770987868309021 0.015532804653048515
0.47294500470161438 0.074924349784851074 0.013916440308094025
0.50834512710571289 0.07259678840637207 0.012048330157995224
0.54530346393585205 0.070546552538871765 0.010025788098573685
0.58301824331283569 0.068036653101444244 0.0079746386036276817
0.62268632650375366 0.065740935504436493 0.0058413180522620678
0.66298794746398926 0.062195606529712677 0.0040750717744231224
0.70435041189193726 0.059035934507846832 0.0025672796182334423
0.74650651216506958 0.056274835020303726 0.0015637075994163752
0.78803694248199463 0.053089022636413574 0.00063352216966450214
0.82977628707885742 0.048536390066146851 7.4686533480416983e-05
0.87170624732971191 0.044993720948696136 0
0.91231673955917358 0.041167180985212326 0
0.95263075828552246 0.035777445882558823 0
0.99020379781723022 0.031630940735340118 0
1 0.025979364290833473 0
1 0.02093975804746151 0
1 0.01624835841357708 0
1 0.011285076849162579 0
0.056664410978555679 0.12415914237499237 0.049050856381654739
0.071153879165649414 0.12366646528244019 0.047784943133592606
0.087195418775081635 0.12306462228298187 0.047175444662570953
0.10670218616724014 0.1225099191069603 0.045629315078258514
0.13018161058425903 0.12157779932022095 0.043837152421474457
0.15774884819984436 0.12091367691755295 0.043231137096881866
0.18899664282798767 0.11984273791313171 0.041761957108974457
0.21957473456859589 0.11877363920211792 0.04030127078294754
0.24925847351551056 0.11754992604255676 0.038890920579433441
0.27931880950927734 0.1164618656039238 0.037094525992870331
0.30987834930419922 0.11519297212362289 0.035408124327659607
0.3420003354549408 0.11404821276664734 0.033443070948123932
0.37447178363800049 0.11222778260707855 0.03114483505487442
0.40725356340408325 0.10999823361635208 0.029286401346325874
0.44006404280662537 0.10827964544296265 0.027038794010877609
0.47365906834602356 0.1062164381146431 0.024972131475806236
0.50982522964477539 0.10385876148939133 0.021798374131321907
0.54640465974807739 0.10188224911689758 0.019229967147111893
0.58413362503051758 0.099113553762435913 0.016621798276901245
0.62378454208374023 0.096267253160476685 0.013446362689137459
0.66410046815872192 0.092409692704677582 0.01061207614839077
0.70519846677780151 0.089230924844741821 0.0082169258967041969
0.74723160266876221 0.086245499551296234 0.0059304675087332726
0.78848886489868164 0.082494907081127167 0.0039795786142349243
0.8303077220916748 0.077661797404289246 0.0020126542076468468
0.87179261445999146 0.073537878692150116 0.00069714518031105399
0.91236478090286255 0.069219291210174561 6.6175249230582267e-05
0.95301783084869385 0.063864119350910187 0
0.99047952890396118 0.058513332158327103 0
1 0.051933541893959045 0
1 0.045812785625457764 0
1 0.038319755345582962 0
1 0.030705912038683891 0
0.074571378529071808 0.15471164882183075 0.06543828547000885
0.087557554244995117 0.15424010157585144 0.06411249190568924
0.10190536826848984 0.15372419357299805 0.063254497945308685
0.11969421803951263 0.15303413569927216 0.062457118183374405
0.13814002275466919 0.1523803323507309 0.061041012406349182
0.16153286397457123 0.15149973332881927 0.059179749339818954
0.19245734810829163 0.1506277322769165 0.058316580951213837
0.22157503664493561 0.14970588684082031 0.056538902223110199
0.2510102391242981 0.14847458899021149 0.055183358490467072
0.28100228309631348 0.14716729521751404 0.053269393742084503
0.31158134341239929 0.14600728452205658 0.051634311676025391
0.34404385089874268 0.14454571902751923 0.049795303493738174
0.37606030702590942 0.14299881458282471 0.046905048191547394
0.40865671634674072 0.14123077690601349 0.04427143931388855
0.44177240133285522 0.13942956924438477 0.042253762483596802
0.47494238615036011 0.13728466629981995 0.0395805723965168
0.51097971200942993 0.13491715490818024 0.035604082047939301
0.54752087593078613 0.13274568319320679 0.03212999552488327
0.5851513147354126 0.13009414076805115 0.028673036023974419
0.62470018863677979 0.12732213735580444 0.024577111005783081
0.66526180505752563 0.12343873828649521 0.020668091252446175
0.70605993270874023 0.12033088505268097 0.017225967720150948
0.74802285432815552 0.11700893193483353 0.013650929555296898
0.78916209936141968 0.11303439736366272 0.010570451617240906
0.83076393604278564 0.10796540230512619 0.0076495017856359482
0.87197905778884888 0.10373491048812866 0.0047101126983761787
0.91225826740264893 0.099221624433994293 0.0023645521141588688
0.95321667194366455 0.093335434794425964 0.00071870582178235054
0.99025207757949829 0.087531454861164093 3.8442642107838765e-05
1 0.080816633999347687 0
1 0.074081666767597198 0
1 0.066259734332561493 0
1 0.057237498462200165 0
0.09356272965669632 0.18697291612625122 0.081471048295497894
0.10489428043365479 0.18665735423564911 0.080719001591205597
0.11782243102788925 0.18612167239189148 0.080719001591205597
0.13320533931255341 0.18567441403865814 0.080399565398693085
0.14993013441562653 0.18503528833389282 0.077988520264625549
0.17006795108318329 0.18430668115615845 0.076797410845756531
0.1956409364938736 0.18356595933437347 0.076082557439804077
0.22332090139389038 0.18266308307647705 0.073313482105731964
0.25300532579421997 0.18154904246330261 0.072875849902629852
0.28256949782371521 0.18034245073795319 0.070677421987056732
0.31336966156959534 0.17916333675384521 0.068954303860664368
0.34547919034957886 0.17763358354568481 0.067464351654052734
0.37779822945594788 0.17623080313205719 0.064727485179901123
0.40997239947319031 0.17492732405662537 0.061259809881448746
0.44307491183280945 0.17337535321712494 0.059754073619842529
0.47644993662834167 0.17120622098445892 0.056691065430641174
0.51184403896331787 0.16895593702793121 0.052482463419437408
0.54864639043807983 0.16714641451835632 0.048673272132873535
0.58636128902435303 0.16450077295303345 0.044758409261703491
0.62593644857406616 0.1619451642036438 0.040060911327600479
0.66650772094726562 0.15834710001945496 0.035278905183076859
0.70712852478027344 0.15535855293273926 0.03078908659517765
0.74920153617858887 0.15195998549461365 0.025654107332229614
0.79019773006439209 0.14814038574695587 0.021281294524669647
0.83150738477706909 0.14336812496185303 0.016825735569000244
0.87243747711181641 0.13902656733989716 0.012491404078900814
0.91256570816040039 0.13435907661914825 0.0087922960519790649
0.9533039927482605 0.1285536140203476 0.0054184100590646267
0.9901963472366333 0.12247928231954575 0.0023627029731869698
1 0.11561451107263565 0.0004555310879368335
1 0.10836223512887955 8.511285614076769e-07
1 0.10042791813611984 0
1 0.090960003435611725 0
0.099098682403564453 0.21635966002941132 0.097395516932010651
0.11028231680393219 0.21598681807518005 0.096319012343883514
0.12211731821298599 0.21558818221092224 0.09523385763168335
0.13651794195175171 0.21513301134109497 0.094206042587757111
0.15380129218101501 0.21462199091911316 0.093789875507354736
0.17457343637943268 0.214151531457901 0.092695467174053192
0.19824089109897614 0.21354487538337708 0.090305618941783905
0.22573466598987579 0.21278774738311768 0.089855208992958069
0.25509768724441528 0.2117140144109726 0.088423244655132294
0.28474697470664978 0.21048569679260254 0.086061753332614899
0.31545627117156982 0.20962247252464294 0.08517177402973175
0.34781667590141296 0.20823223888874054 0.08241020143032074
0.37946748733520508 0.20674057304859161 0.080448374152183533
0.41171300411224365 0.20570868253707886 0.077998645603656769
0.44459718465805054 0.20427003502845764 0.075178049504756927
0.47803109884262085 0.20228269696235657 0.07247498631477356
0.51319897174835205 0.2007395476102829 0.068830013275146484
0.55003219842910767 0.19860537350177765 0.064946383237838745
0.58795434236526489 0.19637537002563477 0.06079164519906044
0.62737089395523071 0.19373852014541626 0.056233778595924377
0.66789537668228149 0.19061017036437988 0.051371216773986816
0.70852094888687134 0.18779593706130981 0.046043958514928818
0.7502753734588623 0.18491183221340179 0.040772970765829086
0.79121297597885132 0.18130844831466675 0.035430155694484711
0.83218783140182495 0.17723499238491058 0.029762547463178635
0.87313461303710938 0.17295025289058685 0.023848719894886017
0.91296273469924927 0.16858617961406708 0.018584871664643288
0.95369362831115723 0.1633848249912262 0.013364206068217754
0.9901963472366333 0.1572100818157196 0.0087493723258376122
1 0.15088005363941193 0.0046713543124496937
1 0.14380179345607758 0.0015034261159598827
1 0.13545067608356476 7.0643662184011191e-05
1 0.12647956609725952 0
0.10011767596006393 0.24622763693332672 0.11170294135808945
0.10855229943990707 0.24594877660274506 0.11102930456399918
0.11912828683853149 0.24566952884197235 0.11102930456399918
0.13376091420650482 0.24542459845542908 0.11090859770774841
0.15250588953495026 0.24489347636699677 0.11030782759189606
0.17444321513175964 0.244424968957901 0.10835163295269012
0.20013198256492615 0.24395586550235748 0.10709957033395767
0.22860018908977509 0.24333213269710541 0.10649631917476654
0.25735694169998169 0.24254260957241058 0.10448197275400162
0.28720274567604065 0.24141833186149597 0.10309644043445587
0.31781527400016785 0.24055314064025879 0.10105738788843155
0.34986412525177002 0.23959483206272125 0.099056504666805267
0.38169679045677185 0.23815412819385529 0.096583962440490723
0.41354373097419739 0.23693352937698364 0.09476654976606369
0.44626057147979736 0.23588486015796661 0.091616593301296234
0.47961366176605225 0.23423504829406738 0.088323980569839478
0.51463687419891357 0.23258256912231445 0.084951363503932953
0.55160927772521973 0.23086629807949066 0.08114604651927948
0.58970880508422852 0.22851535677909851 0.07682470977306366
0.62948238849639893 0.22611543536186218 0.072183907032012939
0.66958880424499512 0.22355851531028748 0.067323848605155945
0.71012526750564575 0.22090734541416168 0.062124140560626984
0.7519267201423645 0.21785803139209747 0.056580837815999985
0.7925449013710022 0.21501930058002472 0.050718437880277634
0.83298993110656738 0.21164920926094055 0.044712059199810028
0.87412738800048828 0.20735257863998413 0.037826530635356903
0.91362756490707397 0.20350554585456848 0.031479068100452423
0.95418781042098999 0.19894726574420929 0.024861125275492668
0.99034410715103149 0.19316892325878143 0.018537541851401329
1 0.18750450015068054 0.012679806910455227
1 0.1809905618429184 0.0073765437118709087
1 0.1729724258184433 0.0030939013231545687
1 0.16463093459606171 0.00034669259912334383
0.11049188673496246 0.27714920043945312 0.12922675907611847
0.11624591797590256 0.27690425515174866 0.12865570187568665
0.12342222779989243 0.27659615874290466 0.12814021110534668
0.13429667055606842 0.27625247836112976 0.12784995138645172
0.1521088033914566 0.27567285299301147 0.12726172804832458
0.17609500885009766 0.27513876557350159 0.1264878511428833
0.20305463671684265 0.27466294169425964 0.12496818602085114
0.23120361566543579 0.27432775497436523 0.12383171916007996
0.26005485653877258 0.27398034930229187 0.12272893637418747
0.28978809714317322 0.27336287498474121 0.12084253877401352
0.32045957446098328 0.27217155694961548 0.11933158338069916
0.3521900475025177 0.27078452706336975 0.1166757345199585
0.38358074426651001 0.2702191174030304 0.11476247012615204
0.41529148817062378 0.26934206485748291 0.11232089996337891
0.44795423746109009 0.26754879951477051 0.1098683625459671
0.48130205273628235 0.26646295189857483 0.10649643838405609
0.51669114828109741 0.26566204428672791 0.10309111326932907
0.55354958772659302 0.2631363570690155 0.099244192242622375
0.59160608053207397 0.26144534349441528 0.094701595604419708
0.63139814138412476 0.25872477889060974 0.08996891975402832
0.6715959906578064 0.25652134418487549 0.085079662501811981
0.71193069219589233 0.25448277592658997 0.079785898327827454
0.7533576488494873 0.25130578875541687 0.074111931025981903
0.79395467042922974 0.24902881681919098 0.068117454648017883
0.83423358201980591 0.24592573940753937 0.061817560344934464
0.87489789724349976 0.24185624718666077 0.054673213511705399
0.91429561376571655 0.23837098479270935 0.047661993652582169
0.95469671487808228 0.23415128886699677 0.039698172360658646
0.99087423086166382 0.22891685366630554 0.031771920621395111
1 0.22383904457092285 0.02406892366707325
1 0.21774950623512268 0.016630571335554123
1 0.21069441735744476 0.0098828189074993134
1 0.20298635959625244 0.0044316602870821953
0.099211849272251129 0.3082384467124939 0.1454245001077652
0.10622365027666092 0.3081572949886322 0.14483745396137238
0.11582322418689728 0.30809059739112854 0.14442926645278931
0.13149066269397736 0.30782535672187805 0.14408469200134277
0.15343968570232391 0.30752226710319519 0.14353002607822418
0.178911954164505 0.30706009268760681 0.14289654791355133
0.20652437210083008 0.30636969208717346 0.14168503880500793
0.23388795554637909 0.30584612488746643 0.1402447372674942
0.26325336098670959 0.30508783459663391 0.13892851769924164
0.29285714030265808 0.30449897050857544 0.13714709877967834
0.32308238744735718 0.30427193641662598 0.13582101464271545
0.35438418388366699 0.30396381020545959 0.13350573182106018
0.38524538278579712 0.30274173617362976 0.131617471575737
0.41697761416435242 0.30098152160644531 0.12897080183029175
0.44960537552833557 0.30033436417579651 0.12627099454402924
0.48316070437431335 0.29958665370941162 0.12329424172639847
0.51827389001846313 0.29749792814254761 0.11986175179481506
0.55558878183364868 0.29634854197502136 0.11602717638015747
0.59381204843521118 0.2940514087677002 0.11164592951536179
0.63358920812606812 0.29242604970932007 0.10706436634063721
0.67374914884567261 0.28977486491203308 0.10232187807559967
0.71390116214752197 0.28847017884254456 0.097258366644382477
0.75506329536437988 0.28525841236114502 0.091632448136806488
0.7953147292137146 0.28348764777183533 0.085749112069606781
0.83563375473022461 0.28037169575691223 0.079497456550598145
0.87565845251083374 0.27669954299926758 0.072579354047775269
0.91521883010864258 0.27330988645553589 0.06530500203371048
0.95520138740539551 0.26956412196159363 0.057309903204441071
0.99208205938339233 0.26481738686561584 0.048719886690378189
1 0.26008868217468262 0.039816394448280334
1 0.25435978174209595 0.02991061843931675
1 0.24799361824989319 0.020689336583018303
1 0.24067993462085724 0.012422301806509495
0.082821257412433624 0.33971267938613892 0.16210666298866272
0.096608616411685944 0.33967837691307068 0.16139867901802063
0.11253361403942108 0.33936083316802979 0.16120561957359314
0.1330854594707489 0.33918488025665283 0.16102193295955658
0.15652379393577576 0.33905616402626038 0.1602819561958313
0.18294273316860199 0.33888143301010132 0.15987485647201538
0.2098662406206131 0.33880847692489624 0.15902921557426453
0.23733581602573395 0.33855614066123962 0.15750645101070404
0.26670709252357483 0.33813250064849854 0.1561005562543869
0.29616695642471313 0.33763712644577026 0.15421992540359497
0.32614970207214355 0.33678415417671204 0.1526913046836853
0.35688936710357666 0.33569249510765076 0.15082259476184845
0.38739708065986633 0.3350447416305542 0.14881859719753265
0.41878733038902283 0.33490961790084839 0.14639000594615936
0.45198816061019897 0.33347663283348083 0.14323157072067261
0.48548313975334167 0.33161625266075134 0.14047242701053619
0.52094018459320068 0.33104985952377319 0.13705991208553314
0.55794912576675415 0.33006277680397034 0.13316537439823151
0.59623932838439941 0.32746317982673645 0.12883554399013519
0.63592910766601562 0.32669535279273987 0.12449668347835541
0.67591720819473267 0.32363113760948181 0.11970608681440353
0.71591091156005859 0.32292824983596802 0.1146385669708252
0.75680375099182129 0.31989884376525879 0.10893963277339935
0.79694092273712158 0.31856036186218262 0.10296624153852463
0.83665871620178223 0.31534489989280701 0.096604987978935242
0.87663501501083374 0.31200724840164185 0.089796215295791626
0.91600078344345093 0.30923059582710266 0.082515627145767212
0.9557722806930542 0.30568423867225647 0.074458464980125427
0.99268651008605957 0.30152374505996704 0.065835073590278625
1 0.29737555980682373 0.056346002966165543
1 0.29172644019126892 0.046068072319030762
1 0.28610324859619141 0.035013198852539062
1 0.27920839190483093 0.024263111874461174
0.10070031136274338 0.37134316563606262 0.17751246690750122
0.11213046312332153 0.37124878168106079 0.1773669570684433
0.12563309073448181 0.37124878168106079 0.17717543244361877
0.14296840131282806 0.3708806037902832 0.17677018046379089
0.16413331031799316 0.37063756585121155 0.17612816393375397
0.18775415420532227 0.37017834186553955 0.17540527880191803
0.21366572380065918 0.36974102258682251 0.17453214526176453
0.24166223406791687 0.36932870745658875 0.17346251010894775
0.2703513503074646 0.3691180944442749 0.17222030460834503
0.29973423480987549 0.36897608637809753 0.17052666842937469
0.32934945821762085 0.3688824474811554 0.16898034512996674
0.35986459255218506 0.36837783455848694 0.16709330677986145
0.39002096652984619 0.36748641729354858 0.16491116583347321
0.4211144745349884 0.36630135774612427 0.16267158091068268
0.45383760333061218 0.36522039771080017 0.15998981893062592
0.48762387037277222 0.36496797204017639 0.15714104473590851
0.52355748414993286 0.36370551586151123 0.15368804335594177
0.56091338396072388 0.36164698004722595 0.14989213645458221
0.59899848699569702 0.36109963059425354 0.14591167867183685
0.63875198364257812 0.35926523804664612 0.14149905741214752
0.67860269546508789 0.35721150040626526 0.13708357512950897
0.71829032897949219 0.35622534155845642 0.13216932117938995
0.75872081518173218 0.35345229506492615 0.12667198479175568
0.79837214946746826 0.35256940126419067 0.12062555551528931
0.83785140514373779 0.34941953420639038 0.11443614959716797
0.8775743842124939 0.34703308343887329 0.10782188177108765
0.91667461395263672 0.34463366866111755 0.10056021809577942
0.95668661594390869 0.3411346971988678 0.092444725334644318
0.992728590965271 0.33750402927398682 0.083411268889904022
