Textures/47.cube
# Created by: G'MIC (https://gmic.eu)
TITLE "Fuji_Provia_400F.cube"
# LUT size
LUT_3D_SIZE 5
# Data domain
DOMAIN_MIN 0.0 0.0 0.0
DOMAIN_MAX 1.0 1.0 1.0
# LUT data points
0.002187059260904789 0.002468327060341835 0.0019428381929174066
0.14695072174072266 0.0016394003760069609 0
0.43227127194404602 0.022596286609768867 0
0.68844616413116455 0.061256371438503265 0
0.89235585927963257 0.090634435415267944 0
0.10326333343982697 0.21393607556819916 0.11725635081529617
0.23492906987667084 0.20272524654865265 0.076476268470287323
0.48045024275779724 0.16210278868675232 0.005224679596722126
0.69218307733535767 0.094816803932189941 0
0.86932516098022461 0.068543151021003723 0
0.2107388824224472 0.52156543731689453 0.30129024386405945
0.35426473617553711 0.5235295295715332 0.27857315540313721
0.5691191554069519 0.51399588584899902 0.23038722574710846
0.77028638124465942 0.46040117740631104 0.16668495535850525
0.90011221170425415 0.21931520104408264 0.052749335765838623
0.41360932588577271 0.76405233144760132 0.48529860377311707
0.48882418870925903 0.76708728075027466 0.475258469581604
0.65204006433486938 0.77091312408447266 0.44890180230140686
0.82397431135177612 0.76159220933914185 0.41662481427192688
0.99272638559341431 0.70275914669036865 0.36992186307907104
0.6046910285949707 0.98267960548400879 0.66120308637619019
0.64560443162918091 0.98491394519805908 0.65606266260147095
0.74495232105255127 0.98978114128112793 0.64371949434280396
0.88218694925308228 0.99297374486923218 0.62680047750473022
1 0.98733186721801758 0.60511189699172974
6.8090284912614152e-06 0.0029016181360930204 0.088005222380161285
0.13539682328701019 0.0014937522355467081 0.048542596399784088
0.40714707970619202 0.0050329007208347321 0.004360648337751627
0.65194636583328247 0.027245806530117989 0
0.84742891788482666 0.050461944192647934 0
0.0768161341547966 0.22329773008823395 0.25035983324050903
0.21296995878219604 0.2125781923532486 0.21273112297058105
0.45623913407325745 0.16980206966400146 0.13653251528739929
0.65833050012588501 0.079878866672515869 0.046322152018547058
0.83074402809143066 0.034268192946910858 0.011787262745201588
0.17226146161556244 0.51390141248703003 0.42040777206420898
0.32668784260749817 0.51759940385818481 0.39978498220443726
0.54232567548751831 0.50861185789108276 0.35575646162033081
0.74342221021652222 0.45908790826797485 0.29263404011726379
0.88044607639312744 0.23075902462005615 0.1648726761341095
0.39202979207038879 0.75473427772521973 0.56866341829299927
0.46826434135437012 0.75812959671020508 0.55796891450881958
0.6323699951171875 0.76242518424987793 0.53102153539657593
0.80423712730407715 0.75468957424163818 0.49717652797698975
0.9768604040145874 0.69867444038391113 0.44760081171989441
0.58964377641677856 0.97483658790588379 0.72209537029266357
0.62997561693191528 0.97776913642883301 0.71716654300689697
0.72892296314239502 0.98300540447235107 0.7043803334236145
0.86611169576644897 0.9896240234375 0.6855805516242981
1 0.98403060436248779 0.65881037712097168
0 0.00032683333847671747 0.27230936288833618
0.10105888545513153 0.0003268334548920393 0.23051577806472778
0.36478462815284729 0 0.16558228433132172
0.60349345207214355 0.0030041297432035208 0.11908793449401855
0.80254745483398438 0.015849929302930832 0.096106827259063721
0.052466355264186859 0.23952724039554596 0.43357118964195251
0.18165667355060577 0.23213700950145721 0.39631596207618713
0.42860221862792969 0.19302305579185486 0.32253992557525635
0.62333589792251587 0.077473163604736328 0.21980099380016327
0.78890013694763184 0.008131994865834713 0.14919193089008331
0.12774156033992767 0.51372551918029785 0.5740199089050293
0.29374536871910095 0.51764702796936035 0.55478090047836304
0.51175457239151001 0.51137310266494751 0.51171237230300903
0.71187621355056763 0.46878716349601746 0.44965440034866333
0.85869550704956055 0.2687990665435791 0.32709810137748718
0.3614448606967926 0.74321466684341431 0.69883471727371216
0.44012606143951416 0.74660903215408325 0.68866324424743652
0.60189110040664673 0.75219452381134033 0.66174095869064331
0.77283096313476562 0.74622613191604614 0.62621515989303589
0.94918322563171387 0.69618868827819824 0.57076090574264526
0.56871533393859863 0.9630855917930603 0.82067680358886719
0.60818284749984741 0.96699351072311401 0.81555575132369995
0.70578569173812866 0.97483348846435547 0.80181127786636353
0.8424830436706543 0.98251068592071533 0.78073859214782715
0.99989789724349976 0.978546142578125 0.74826741218566895
0 0.0082922931760549545 0.46134921908378601
0.088911630213260651 0.0035275982227176428 0.40831661224365234
0.33865976333618164 0.00040056233410723507 0.33963584899902344
0.55891388654708862 0 0.27335292100906372
0.75854164361953735 0 0.24320507049560547
0.047524005174636841 0.28302276134490967 0.608742356300354
0.1616416871547699 0.2814619243144989 0.5745241641998291
0.41400045156478882 0.25204554200172424 0.50737607479095459
0.60668236017227173 0.13388420641422272 0.4026227593421936
0.74832391738891602 0 0.28515315055847168
0.11417750269174576 0.52903079986572266 0.71871531009674072
0.27137181162834167 0.53229552507400513 0.70147806406021118
0.49038860201835632 0.53018981218338013 0.66019660234451294
0.68757271766662598 0.49676316976547241 0.6006959080696106
0.84650808572769165 0.34035292267799377 0.49056032299995422
0.34801971912384033 0.7415921688079834 0.81888675689697266
0.42582684755325317 0.74480587244033813 0.80833220481872559
0.58048200607299805 0.75042718648910522 0.78284358978271484
0.74771642684936523 0.74742990732192993 0.74741464853286743
0.92592942714691162 0.70439964532852173 0.69055545330047607
0.55455619096755981 0.95549559593200684 0.92333590984344482
0.59259903430938721 0.95915049314498901 0.91839665174484253
0.68645155429840088 0.96699351072311401 0.90512233972549438
0.82014620304107666 0.97594171762466431 0.8841625452041626
0.99562835693359375 0.97568941116333008 0.84878981113433838
0 0.091780178248882294 0.65050607919692993
0.11839935183525085 0.074833489954471588 0.58549362421035767
0.34743499755859375 0.03802916407585144 0.50824427604675293
0.53959512710571289 0.00011742026981664822 0.41904696822166443
0.72354793548583984 0 0.36519926786422729
0.026347892358899117 0.34900182485580444 0.7584463357925415
0.16782303154468536 0.35368284583091736 0.72831588983535767
0.41678819060325623 0.34150689840316772 0.67403316497802734
0.6142846941947937 0.26378965377807617 0.5894584059715271
0.73526966571807861 0.0096910903230309486 0.43145895004272461
0.14499539136886597 0.56351470947265625 0.84928196668624878
0.2728639543056488 0.56721866130828857 0.83561259508132935
0.48338314890861511 0.56985950469970703 0.79884117841720581
0.67302703857421875 0.54978924989700317 0.74869418144226074
0.84095048904418945 0.43885400891304016 0.657431960105896
0.36132541298866272 0.75362002849578857 0.93863993883132935
0.43012857437133789 0.75722479820251465 0.92983287572860718
0.56959772109985352 0.76341360807418823 0.90789246559143066
0.72823357582092285 0.76316708326339722 0.87628066539764404
0.90474909543991089 0.73111563920974731 0.82374340295791626
0.55741691589355469 0.95052707195281982 1
0.59107506275177002 0.9533538818359375 1
0.67622441053390503 0.96077316999435425 1
0.80004644393920898 0.97111201286315918 0.99925774335861206
0.9786115288734436 0.97786974906921387 0.97782295942306519
