Textures/47.cube
# Created by: G'MIC (https://gmic.eu)
TITLE "Fuji_Provia_400F.cube"
# LUT size
LUT_3D_SIZE 33
# Data domain
DOMAIN_MIN 0.0 0.0 0.0
DOMAIN_MAX 1.0 1.0 1.0
# LUT data points
0.002187059260904789 0.002468327060341835 0.0019428381929174066
0.010090036317706108 0.0024511667434126139 0.0010047447867691517
0.019839467480778694 0.0023009784054011106 0.00053567858412861824
0.033484447747468948 0.0017404098762199283 0.00014426630514208227
0.050228971987962723 0.0014119748957455158 1.5887731933617033e-05
0.068686336278915405 0.0013308544876053929 0
0.08916085958480835 0.0013277346733957529 0
0.1160518005490303 0.0013433345593512058 0
0.14695072174072266 0.0016394003760069609 0
0.18114723265171051 0.0036491691134870052 0
0.21485549211502075 0.0042487503960728645 0
0.25012850761413574 0.0060454853810369968 0
0.28620743751525879 0.0090065281838178635 0
0.32338792085647583 0.012427213601768017 0
0.3610994815826416 0.015341886319220066 0
0.39745035767555237 0.018395207822322845 0
0.43227127194404602 0.022596286609768867 0
0.4664684534072876 0.027286732569336891 0
0.50020080804824829 0.031488135457038879 0
0.53406602144241333 0.036601893603801727 0
0.56699562072753906 0.041721973568201065 0
0.59931862354278564 0.046868152916431427 0
0.6304207444190979 0.052143026143312454 0
0.66000092029571533 0.056760296225547791 0
0.68844616413116455 0.061256371438503265 0
0.71586513519287109 0.065105192363262177 0
0.74245750904083252 0.069513067603111267 0
0.7680085301399231 0.074004366993904114 0
0.79338985681533813 0.077323161065578461 0
0.81856030225753784 0.080438412725925446 0
0.84357941150665283 0.084020674228668213 0
0.86807864904403687 0.087148278951644897 0
0.89235585927963257 0.090634435415267944 0
0.0073996102437376976 0.013510306365787983 0.00718302046880126
0.015392269939184189 0.012829615734517574 0.005215067882090807
0.026569830253720284 0.011705067008733749 0.0038550233002752066
0.041719518601894379 0.010962571017444134 0.0026484550908207893
0.058846049010753632 0.010702049359679222 0.0016545358812436461
0.077099606394767761 0.010560089722275734 0.00088811723981052637
0.098211795091629028 0.01038727629929781 0.00015845178859308362
0.12561221420764923 0.01056047435849905 0
0.15583278238773346 0.010758601129055023 0
0.1888713538646698 0.011566461995244026 0
0.22211642563343048 0.012414955534040928 0
0.255759596824646 0.013314885087311268 0
0.29075515270233154 0.014210177585482597 0
0.32648921012878418 0.01541693601757288 0
0.36307376623153687 0.01620263047516346 0
0.3981969952583313 0.017857551574707031 0
0.43232041597366333 0.021676512435078621 0
0.46622389554977417 0.026061248034238815 0
0.49961483478546143 0.029985368251800537 0
0.53313726186752319 0.035013642162084579 0
0.56603026390075684 0.039954680949449539 0
0.5980105996131897 0.045054774731397629 0
0.62908428907394409 0.050296884030103683 0
0.65843743085861206 0.054884377866983414 0
0.68654012680053711 0.059375952929258347 0
0.71391117572784424 0.063059777021408081 0
0.74002158641815186 0.067361533641815186 0
0.76558858156204224 0.07195696234703064 0
0.79100477695465088 0.075440399348735809 0
0.81585478782653809 0.078269258141517639 0
0.84062999486923218 0.081402845680713654 0
0.86491280794143677 0.084649905562400818 0
0.88889110088348389 0.087843231856822968 0
0.01432910468429327 0.028906140476465225 0.013357212767004967
0.021864974871277809 0.027205102145671844 0.011336090974509716
0.032261747866868973 0.025309024378657341 0.0093187354505062103
0.04788435623049736 0.025088613852858543 0.0075119389221072197
0.065436914563179016 0.024995911866426468 0.0056553864851593971
0.083753742277622223 0.024725569412112236 0.0039907367900013924
0.10578488558530807 0.024669786915183067 0.0023869415745139122
0.13369894027709961 0.024807102978229523 0.00079318019561469555
0.16414123773574829 0.025077441707253456 5.5926237109815702e-05
0.19732436537742615 0.025134468451142311 0
0.22965012490749359 0.026291204616427422 0
0.26421573758125305 0.028720084577798843 0
0.29820263385772705 0.029003273695707321 0
0.33351573348045349 0.029012635350227356 0
0.36883142590522766 0.029003273695707321 0
0.40270370244979858 0.028055818751454353 0
0.43485280871391296 0.026244545355439186 0
0.46724751591682434 0.027737459167838097 0
0.4997994601726532 0.029385095462203026 0
0.53294646739959717 0.033989321440458298 0
0.56583946943283081 0.038905065506696701 0
0.59766113758087158 0.043784752488136292 0
0.6284676194190979 0.049036845564842224 0
0.65754354000091553 0.053611308336257935 0
0.68551850318908691 0.058090552687644958 0
0.71261692047119141 0.061756860464811325 0
0.73885905742645264 0.065870568156242371 0
0.76411592960357666 0.070385292172431946 0
0.78930312395095825 0.073769614100456238 0
0.81408929824829102 0.076589606702327728 0
0.83863633871078491 0.079750649631023407 0
0.86273866891860962 0.082659147679805756 0
0.88650763034820557 0.085678562521934509 0
0.023959498852491379 0.048994287848472595 0.02282683365046978
0.031719394028186798 0.047777131199836731 0.020161328837275505
0.040912583470344543 0.046490810811519623 0.01782832108438015
0.054843954741954803 0.045124698430299759 0.015171846374869347
0.072268776595592499 0.044076334685087204 0.012546230107545853
0.091018743813037872 0.043590743094682693 0.010049000382423401
0.1142907440662384 0.043256089091300964 0.0072093410417437553
0.14271046221256256 0.043470617383718491 0.004246104508638382
0.17385336756706238 0.044217567890882492 0.0017553177895024419
0.2061898410320282 0.045038409531116486 0.00032623048173263669
0.23810595273971558 0.046011652797460556 2.8370952804834815e-06
0.27158018946647644 0.046967484056949615 0
0.30617973208427429 0.048155598342418671 0
0.34086140990257263 0.048861198127269745 0
0.37602150440216064 0.047608736902475357 0
0.40911558270454407 0.046234350651502609 0
0.44106021523475647 0.045153010636568069 0
0.47216352820396423 0.042407847940921783 0
0.50303572416305542 0.038729976862668991 0
0.53451228141784668 0.036849655210971832 0
0.56606519222259521 0.038399215787649155 0
0.59711939096450806 0.042575996369123459 0
0.62792021036148071 0.047597050666809082 0
0.65686500072479248 0.052085574716329575 0
0.68455350399017334 0.056535977870225906 0
0.71139389276504517 0.060308881103992462 0
0.73754280805587769 0.064087092876434326 0
0.76268470287322998 0.068590521812438965 0
0.78762459754943848 0.072036847472190857 0
0.81215476989746094 0.074713192880153656 0
0.83643752336502075 0.077795989811420441 0
0.86029922962188721 0.080576010048389435 0
0.88379108905792236 0.08340628445148468 0
0.037346411496400833 0.072922691702842712 0.035838842391967773
0.044690225273370743 0.071302235126495361 0.033036805689334869
0.053234551101922989 0.069838635623455048 0.030054936185479164
0.064284957945346832 0.068167842924594879 0.026466872543096542
0.079722926020622253 0.066795498132705688 0.022778518497943878
0.099087297916412354 0.06586679071187973 0.019115783274173737
0.1239851787686348 0.065381735563278198 0.01479779276996851
0.15239308774471283 0.065324611961841583 0.010419456288218498
0.18348313868045807 0.065692804753780365 0.0064327791333198547
0.21541741490364075 0.066091828048229218 0.0032428069971501827
0.24727460741996765 0.066558323800563812 0.00089875498088076711
0.28047165274620056 0.06705397367477417 2.8087242753827013e-05
0.31412768363952637 0.06728651374578476 0
0.34934172034263611 0.067160792648792267 0
0.38366204500198364 0.067107804119586945 0
0.41585460305213928 0.065292865037918091 0
0.44730982184410095 0.063235417008399963 0
0.47835102677345276 0.06103365495800972 0
0.5088810920715332 0.057438608258962631 0
0.53929263353347778 0.053237348794937134 0
0.569061279296875 0.047885868698358536 0
0.5981285572052002 0.044502954930067062 0
0.62756234407424927 0.04643784835934639 0
0.65593338012695312 0.050483211874961853 0
0.6835479736328125 0.054750502109527588 0
0.71029895544052124 0.058505725115537643 0
0.73599398136138916 0.062095332890748978 0
0.76099693775177002 0.06658780574798584 0
0.78560107946395874 0.069858558475971222 0
0.809894859790802 0.072531700134277344 0
0.83417493104934692 0.075470700860023499 0
0.85766398906707764 0.078095600008964539 0
0.88082307577133179 0.080533653497695923 0
0.053849209100008011 0.10105925798416138 0.052887223660945892
0.06031380221247673 0.099237151443958282 0.050333257764577866
0.068384140729904175 0.09757174551486969 0.046806111931800842
0.077872462570667267 0.095344379544258118 0.04259520024061203
0.090148679912090302 0.093551747500896454 0.03810502216219902
0.10898174345493317 0.09190012514591217 0.032974019646644592
0.13543540239334106 0.090768292546272278 0.026464303955435753
0.16366149485111237 0.090097509324550629 0.020440312102437019
0.19466570019721985 0.089470930397510529 0.014585189521312714
0.22559079527854919 0.088917486369609833 0.0095705008134245872
0.25705191493034363 0.088651448488235474 0.0053683370351791382
0.28995758295059204 0.088611297309398651 0.0020225949119776487
0.32382801175117493 0.088525548577308655 0.00028356764232739806
0.35798192024230957 0.087247438728809357 8.511285614076769e-07
0.3913729190826416 0.085934147238731384 0
0.42292779684066772 0.084459587931632996 0
0.45382940769195557 0.081780776381492615 0
0.484516441822052 0.078982986509799957 0
0.51469653844833374 0.075255297124385834 0
0.5449756383895874 0.071061119437217712 0
0.57430332899093628 0.065667673945426941 0
0.60232973098754883 0.059621203690767288 0
0.62972915172576904 0.053956124931573868 0
0.65606993436813354 0.05061827227473259 0
0.68262362480163574 0.052934706211090088 0
0.70900982618331909 0.056634962558746338 0
0.73449850082397461 0.060062862932682037 0
0.75922566652297974 0.06422840803861618 0
0.78357720375061035 0.067640542984008789 0
0.80758064985275269 0.069931529462337494 0
0.83148866891860962 0.072808220982551575 0
0.85475635528564453 0.075350791215896606 0
0.87776869535446167 0.077491328120231628 0
0.073766745626926422 0.13773687183856964 0.074830770492553711
0.079632572829723358 0.13602524995803833 0.07197745144367218
0.086692005395889282 0.13406872749328613 0.068895086646080017
0.095934659242630005 0.13190211355686188 0.064827710390090942
0.10694469511508942 0.12981194257736206 0.06010868027806282
0.12331844121217728 0.12741060554981232 0.053679075092077255
0.14885376393795013 0.12540480494499207 0.045699954032897949
0.17713598906993866 0.12393658608198166 0.037830457091331482
0.20769123733043671 0.1215430274605751 0.029626436531543732
0.23773485422134399 0.12032195925712585 0.021903038024902344
0.26856160163879395 0.11814360320568085 0.015224006958305836
0.30127608776092529 0.11651457846164703 0.0093404101207852364
0.33478459715843201 0.11482040584087372 0.0046255397610366344
0.36804243922233582 0.11279019713401794 0.0013517129700630903
0.40048062801361084 0.11011369526386261 0.00011539885599631816
0.43111950159072876 0.10714006423950195 0
0.46147462725639343 0.10376375913619995 0
0.4917619526386261 0.099978595972061157 0
0.52136820554733276 0.095801442861557007 0
0.55119097232818604 0.091369852423667908 0
0.58032423257827759 0.085690505802631378 0
0.60789686441421509 0.079634398221969604 0
0.63473254442214966 0.072832681238651276 0
0.65951287746429443 0.064763180911540985 0
0.68327689170837402 0.056969430297613144 0
0.70801866054534912 0.055146630853414536 0
0.73288637399673462 0.057860244065523148 0
0.7575075626373291 0.061925437301397324 0
0.78137779235839844 0.064837090671062469 0
0.80521953105926514 0.067331962287425995 0
0.82886648178100586 0.069782286882400513 0
0.8518519401550293 0.072348363697528839 0
0.8746759295463562 0.074490778148174286 0
0.094834297895431519 0.17532697319984436 0.096531346440315247
0.10056272894144058 0.17393779754638672 0.094155922532081604
0.10693276673555374 0.1724712997674942 0.09140700101852417
0.11554808914661407 0.17098546028137207 0.087799124419689178
0.12758000195026398 0.16894324123859406 0.082951843738555908
0.14391544461250305 0.16678863763809204 0.076184548437595367
0.16456514596939087 0.16471141576766968 0.068696491420269012
0.19128459692001343 0.16264577209949493 0.060721680521965027
0.22117824852466583 0.16005437076091766 0.051522299647331238
0.2510533332824707 0.15699735283851624 0.042043216526508331
0.28162586688995361 0.1536993682384491 0.032481245696544647
0.31410935521125793 0.15066762268543243 0.023274116218090057
0.34681195020675659 0.14702032506465912 0.015255996957421303
0.37938478589057922 0.14295133948326111 0.0089861499145627022
0.41089347004890442 0.13855719566345215 0.0041780835017561913
0.44049569964408875 0.13375306129455566 0.0012734117917716503
0.46990892291069031 0.12855051457881927 0.0001128454678109847
0.49946838617324829 0.12246925383806229 0
0.52858692407608032 0.117386594414711 0
0.55779856443405151 0.11178194731473923 0
0.58633214235305786 0.10552913695573807 0
0.61344176530838013 0.098948113620281219 0
0.63992130756378174 0.091730572283267975 0
0.66434580087661743 0.083610601723194122 0
0.68721300363540649 0.07426173985004425 0
0.70972871780395508 0.063754193484783173 0
0.73210358619689941 0.057573955506086349 0
0.75562536716461182 0.059554807841777802 0
0.77944850921630859 0.062341481447219849 0
0.80277270078659058 0.064475022256374359 0
0.82635664939880371 0.066896416246891022 0
0.84928035736083984 0.069327890872955322 0
0.87196135520935059 0.07161732017993927 0
0.10326333343982697 0.21393607556819916 0.11725635081529617
0.109225794672966 0.21318787336349487 0.11552529782056808
0.11678913980722427 0.21208576858043671 0.11304743587970734
0.12766757607460022 0.21080130338668823 0.10960960388183594
0.14191198348999023 0.20962357521057129 0.10478679835796356
0.16046294569969177 0.20794284343719482 0.098699674010276794
0.18019621074199677 0.20649772882461548 0.091905675828456879
0.20576587319374084 0.20478498935699463 0.08447534590959549
0.23492906987667084 0.20272524654865265 0.076476268470287323
0.26487275958061218 0.20000250637531281 0.067388094961643219
0.29540702700614929 0.196522057056427 0.057206269353628159
0.3286994993686676 0.19264209270477295 0.046573888510465622
0.36095812916755676 0.18811491131782532 0.035842999815940857
0.39267978072166443 0.18297590315341949 0.025835253298282623
0.42315614223480225 0.17705677449703217 0.017423812299966812
0.45194876194000244 0.17006635665893555 0.010635426267981529
0.48045024275779724 0.16210278868675232 0.005224679596722126
0.50900709629058838 0.15358616411685944 0.0016178922960534692
0.53730839490890503 0.1451709121465683 0.00022306607570499182
0.56588476896286011 0.1373382955789566 4.2556428070383845e-07
0.59323996305465698 0.12888520956039429 0
0.6198199987411499 0.12112254649400711 0
0.64570885896682739 0.11275356262922287 0
0.66959559917449951 0.10431350767612457 0
0.69218307733535767 0.094816803932189941 0
0.71407312154769897 0.08338811993598938 0
0.73464500904083252 0.071294881403446198 0
0.75515341758728027 0.061741013079881668 0
0.77738744020462036 0.060018949210643768 0
0.80055820941925049 0.061753187328577042 0
0.82382744550704956 0.063742101192474365 0
0.84665316343307495 0.066310614347457886 0
0.86932516098022461 0.068543151021003723 0
0.10404038429260254 0.25374647974967957 0.13825500011444092
0.10903133451938629 0.2530083954334259 0.13643613457679749
0.11615755409002304 0.25235015153884888 0.13386160135269165
0.12872463464736938 0.25159862637519836 0.13046905398368835
0.14533177018165588 0.2504691481590271 0.12568388879299164
0.16499345004558563 0.24936953186988831 0.12038058042526245
0.19058655202388763 0.24813927710056305 0.11430805921554565
0.21930994093418121 0.24662379920482635 0.10752013325691223
0.24854613840579987 0.24478870630264282 0.1001308411359787
0.27870127558708191 0.24256724119186401 0.092028535902500153
0.30989816784858704 0.23973283171653748 0.082756355404853821
0.34253934025764465 0.23622006177902222 0.072593361139297485
0.37489581108093262 0.23230238258838654 0.062429800629615784
0.40611183643341064 0.22756226360797882 0.051925890147686005
0.43606624007225037 0.22162477672100067 0.04144764319062233
0.46461319923400879 0.21431146562099457 0.030776839703321457
0.4927559494972229 0.20538535714149475 0.021159591153264046
0.52065902948379517 0.19496774673461914 0.013280836865305901
0.54812365770339966 0.18356989324092865 0.0067771561443805695
0.57561743259429932 0.17171959578990936 0.0023488011211156845
0.60192233324050903 0.15973736345767975 0.0004340026353020221
0.62738096714019775 0.14878460764884949 3.9719329834042583e-06
0.6524549126625061 0.1375376284122467 0
0.67540955543518066 0.12765590846538544 0
0.69730943441390991 0.11710328608751297 0
0.71889835596084595 0.10505440831184387 0
0.73916471004486084 0.092754937708377838 0
0.75858187675476074 0.079309262335300446 0
0.77758270502090454 0.065279468894004822 0
0.79853951930999756 0.059657551348209381 0
0.82171624898910522 0.060817759484052658 0
0.84458667039871216 0.063318356871604919 0
0.86708468198776245 0.06545499712228775 0
0.10584313422441483 0.29509207606315613 0.16053555905818939
0.11173583567142487 0.29440638422966003 0.15863677859306335
0.11965314298868179 0.29398643970489502 0.1560169905424118
0.13202933967113495 0.29333639144897461 0.15261936187744141
0.15098820626735687 0.29249727725982666 0.14858394861221313
0.17643055319786072 0.29187279939651489 0.14388857781887054
0.20505782961845398 0.29038408398628235 0.13816423714160919
0.23278583586215973 0.28908610343933105 0.13209880888462067
0.26267048716545105 0.28737092018127441 0.12497857213020325
0.29255759716033936 0.28529521822929382 0.11759234964847565
0.32416093349456787 0.2829710841178894 0.10952387750148773
0.35650372505187988 0.27977335453033447 0.10030564665794373
0.38814562559127808 0.27628439664840698 0.091010160744190216
0.41874107718467712 0.27189087867736816 0.081101231276988983
0.44833940267562866 0.26617500185966492 0.070930525660514832
0.47662270069122314 0.25943702459335327 0.060543723404407501
0.50493544340133667 0.25125584006309509 0.049528107047080994
0.53291451930999756 0.24167604744434357 0.038186319172382355
0.56033140420913696 0.23006288707256317 0.02711050771176815
0.5873115062713623 0.21674036979675293 0.017297325655817986
0.6130250096321106 0.2023751437664032 0.009707227349281311
0.63730567693710327 0.1876208484172821 0.0041814842261373997
0.66088688373565674 0.17170308530330658 0.0012677776394411922
0.68257653713226318 0.15762557089328766 0.00012249157589394599
0.70364141464233398 0.14329250156879425 0
0.72444647550582886 0.12943337857723236 0
0.74416273832321167 0.11614102870225906 0
0.76333838701248169 0.1022968515753746 0
0.78198540210723877 0.086016543209552765 0
0.80005055665969849 0.069163143634796143 0
0.82033622264862061 0.059713825583457947 0
0.84261018037796021 0.060527205467224121 0
0.86525821685791016 0.062728710472583771 0
0.091472096741199493 0.33709162473678589 0.18160851299762726
0.10521908849477768 0.3369157612323761 0.1797572523355484
0.12040203809738159 0.33668413758277893 0.1775384247303009
0.14103145897388458 0.33605849742889404 0.17482426762580872
0.16486604511737823 0.33550107479095459 0.17126920819282532
0.19208930432796478 0.33490929007530212 0.1669822484254837
0.21921566128730774 0.33365237712860107 0.16207669675350189
0.24701294302940369 0.33284071087837219 0.15650567412376404
0.27651292085647583 0.33129391074180603 0.14995035529136658
0.30712971091270447 0.32974579930305481 0.14277362823486328
0.33831799030303955 0.32770916819572449 0.13528698682785034
0.37038224935531616 0.32493749260902405 0.12700241804122925
0.40095949172973633 0.32183608412742615 0.11884621530771255
0.43085214495658875 0.31782680749893188 0.11011099815368652
0.46023786067962646 0.31174927949905396 0.10050796717405319
0.48836258053779602 0.30518010258674622 0.091256909072399139
0.51653724908828735 0.29761597514152527 0.081270597875118256
0.54471290111541748 0.28833681344985962 0.070494763553142548
0.57243496179580688 0.27780857682228088 0.059641864150762558
0.59945410490036011 0.26559260487556458 0.047428455203771591
0.62500864267349243 0.25170868635177612 0.03570174053311348
0.64927214384078979 0.23775245249271393 0.024867543950676918
0.67210495471954346 0.21859142184257507 0.015421565622091293
0.69274336099624634 0.20016855001449585 0.0079770432785153389
0.71244215965270996 0.18054856359958649 0.0033076955005526543
0.73191046714782715 0.16098096966743469 0.00072921894025057554
0.75073921680450439 0.14437180757522583 5.1776987675111741e-05
0.76926243305206299 0.12782317399978638 0
0.78767281770706177 0.11127125471830368 0
0.80554056167602539 0.092967115342617035 0
0.82289701700210571 0.072680763900279999 0
0.84150630235671997 0.060071814805269241 0
0.86364841461181641 0.059999912977218628 0
0.12057963758707047 0.37617841362953186 0.20336504280567169
0.13177144527435303 0.37614411115646362 0.20184099674224854
0.14458349347114563 0.37601542472839355 0.19986498355865479
0.16215945780277252 0.37560436129570007 0.19725306332111359
0.1831078976392746 0.37532711029052734 0.19376663863658905
0.20704862475395203 0.375151127576828 0.19000464677810669
0.23317314684391022 0.37444233894348145 0.18532995879650116
0.26090481877326965 0.37392020225524902 0.17979830503463745
0.29016909003257751 0.37293180823326111 0.17390917241573334
0.32074305415153503 0.3715951144695282 0.16749720275402069
0.35181114077568054 0.37027621269226074 0.16051797568798065
0.38315591216087341 0.36835315823554993 0.15338082611560822
0.4132443368434906 0.3657393753528595 0.14587639272212982
0.44241070747375488 0.3621896505355835 0.1384555846452713
0.47125107049942017 0.35735726356506348 0.13024689257144928
0.49929803609848022 0.35083317756652832 0.12207191437482834
0.52759271860122681 0.343809574842453 0.11273231357336044
0.55592089891433716 0.33525758981704712 0.10311152040958405
0.5835646390914917 0.3255031406879425 0.092653796076774597
0.61069953441619873 0.31392788887023926 0.081347860395908356
0.63643044233322144 0.30139914155006409 0.070203997194766998
0.66072440147399902 0.28713321685791016 0.058716431260108948
0.68381911516189575 0.27220043540000916 0.047118861228227615
0.7047046422958374 0.25295931100845337 0.034755591303110123
0.72419470548629761 0.23142082989215851 0.023115566000342369
0.74241632223129272 0.20776019990444183 0.013205348514020443
0.76002651453018188 0.18402294814586639 0.0060895262286067009
0.77716594934463501 0.16110429167747498 0.0018015092937275767
0.79459238052368164 0.14013385772705078 0.00020214304095134139
0.81178182363510132 0.11998917907476425 0
0.82870250940322876 0.099159285426139832 0
0.84492003917694092 0.075869083404541016 0
0.86288726329803467 0.060154475271701813 0
0.14615644514560699 0.41197100281715393 0.22647958993911743
0.15584640204906464 0.4121340811252594 0.22498546540737152
0.16785389184951782 0.41246876120567322 0.22325153648853302
0.18313279747962952 0.41231429576873779 0.22085294127464294
0.20103743672370911 0.41254597902297974 0.21801008284091949
0.22281473875045776 0.41254597902297974 0.2143489271402359
0.24858614802360535 0.41227993369102478 0.20983584225177765
0.27557575702667236 0.41192811727523804 0.20481710135936737
0.30499356985092163 0.41169595718383789 0.19887851178646088
0.33509129285812378 0.41082397103309631 0.19249366223812103
0.3653302788734436 0.41015082597732544 0.18571631610393524
0.39574918150901794 0.40908434987068176 0.17869959771633148
0.4247724711894989 0.40721741318702698 0.17199511826038361
0.45321157574653625 0.4043518602848053 0.16503696143627167
0.48161280155181885 0.40051713585853577 0.1580396443605423
0.50973200798034668 0.39576467871665955 0.15075793862342834
0.53822559118270874 0.39001399278640747 0.14258487522602081
0.56672704219818115 0.38295036554336548 0.1339503675699234
0.59454262256622314 0.37430396676063538 0.12501052021980286
0.62191969156265259 0.364423006772995 0.11524166166782379
0.64780068397521973 0.35269388556480408 0.10516402125358582
0.67207229137420654 0.33970412611961365 0.095172710716724396
0.69534009695053101 0.32432708144187927 0.084100417792797089
0.71664571762084961 0.30746468901634216 0.071888528764247894
0.7366827130317688 0.28817343711853027 0.059160158038139343
0.75554394721984863 0.26581293344497681 0.045694973319768906
