Textures/48.cube
# Created by: G'MIC (https://gmic.eu)
TITLE "Fuji_Provia_400X.cube"
# LUT size
LUT_3D_SIZE 33
# Data domain
DOMAIN_MIN 0.0 0.0 0.0
DOMAIN_MAX 1.0 1.0 1.0
# LUT data points
0.011255492456257343 0.01109557319432497 0.0071283490397036076
0.044981904327869415 0.010100523941218853 0.0071283490397036076
0.0788535475730896 0.0094345686957240105 0.0071267890743911266
0.11150068789720535 0.0089359758421778679 0.0070534497499465942
0.14382047951221466 0.0083360457792878151 0.0070534497499465942
0.17550532519817352 0.0079655535519123077 0.0070534497499465942
0.20530775189399719 0.0071659497916698456 0.0070534497499465942
0.23869906365871429 0.0064174216240644455 0.0070534497499465942
0.27123746275901794 0.0060831522569060326 0.0067549510858952999
0.30374345183372498 0.0061116302385926247 0.0066705201752483845
0.33736181259155273 0.0060991793870925903 0.0066705201752483845
0.37383708357810974 0.0047597736120223999 0.0066471202298998833
0.41189643740653992 0.0034138145856559277 0.0065956404432654381
0.45078393816947937 0.0027927684132009745 0.0065870583057403564
0.49153900146484375 0.0022864688653498888 0.0059742573648691177
0.53280562162399292 0.0015527253272011876 0.0056002084165811539
0.5751110315322876 0.0010118066566064954 0.0050448114052414894
0.61742961406707764 0.0008791800937615335 0.0044632763601839542
0.65818065404891968 0.00060067325830459595 0.0034079491160809994
0.69759362936019897 0.00022214457567315549 0.0027782956603914499
0.73485934734344482 0.00014979862316977233 0.0020983484573662281
0.76938152313232422 0.00018412747886031866 0.0014537161914631724
0.80290496349334717 3.432884841458872e-05 0.00080235523637384176
0.83433252573013306 0 0.00028509259573183954
0.86429649591445923 0 6.5678759710863233e-05
0.89314764738082886 0 0
0.92089629173278809 0 0
0.94868767261505127 0 0
0.97649586200714111 0 0
0.99789971113204956 0 0
1 0 0
1 0 0
1 0 0
0.019014997407793999 0.045213192701339722 0.013221065513789654
0.046244807541370392 0.04300655797123909 0.012985065579414368
0.077946260571479797 0.041638642549514771 0.012832572683691978
0.11000124365091324 0.040758762508630753 0.012593547813594341
0.14273299276828766 0.038428053259849548 0.012593547813594341
0.17328204214572906 0.03771214559674263 0.01275348849594593
0.20443637669086456 0.036067459732294083 0.012758949771523476
0.23832498490810394 0.034145958721637726 0.012638809159398079
0.26979237794876099 0.033234052360057831 0.012181437574326992
0.30310454964637756 0.031585313379764557 0.011815757490694523
0.33709150552749634 0.030649986118078232 0.011628517881035805
0.37384334206581116 0.028063634410500526 0.011313723400235176
0.41160663962364197 0.025067659094929695 0.010956833139061928
0.4505818784236908 0.023464510217308998 0.01124117523431778
0.49190130829811096 0.020889511331915855 0.010483517311513424
0.5338476300239563 0.018410995602607727 0.0098676048219203949
0.57649016380310059 0.01636221818625927 0.0090824104845523834
0.61915230751037598 0.014615616761147976 0.0080657275393605232
0.66029268503189087 0.012507353909313679 0.0072319549508392811
0.70015496015548706 0.010170092806220055 0.0063174967654049397
0.73742514848709106 0.0088100126013159752 0.0054173585958778858
0.77201974391937256 0.008008372038602829 0.004378889687359333
0.80569100379943848 0.0053284442983567715 0.0031375635880976915
0.83732014894485474 0.0032574930228292942 0.0020118558313697577
0.86771243810653687 0.0023056226782500744 0.00087420700583606958
0.89712095260620117 0.0019771978259086609 0.00031193860922940075
0.92481595277786255 0.00075228657806292176 2.8654661946347915e-05
0.95242816209793091 0.000190369100891985 0
0.97951602935791016 6.2416096625383943e-05 0
0.99869400262832642 0 0
1 0 0
1 0 0
1 0 0
0.031075699254870415 0.078457623720169067 0.019441111013293266
0.053931120783090591 0.076262868940830231 0.019329937174916267
0.077865190804004669 0.075523890554904938 0.018843522295355797
0.10923057049512863 0.07392708957195282 0.018490027636289597
0.14079904556274414 0.072119787335395813 0.018447116017341614
0.17151157557964325 0.071023836731910706 0.018550075590610504
0.20279771089553833 0.068793937563896179 0.018653037026524544
0.23693543672561646 0.06737179309129715 0.018554743379354477
0.26908266544342041 0.065122216939926147 0.018212668597698212
0.30285608768463135 0.063875794410705566 0.01810150220990181
0.33690664172172546 0.062077194452285767 0.017902588471770287
0.37332645058631897 0.059566862881183624 0.017526794224977493
0.41131293773651123 0.056219954043626785 0.017075473442673683
0.45049384236335754 0.05368669331073761 0.017081327736377716
0.49197450280189514 0.050750583410263062 0.016109926626086235
0.53427398204803467 0.047659248113632202 0.015146791934967041
0.57766377925872803 0.044359199702739716 0.014025253243744373
0.62104648351669312 0.041134882718324661 0.012656219303607941
0.66286331415176392 0.037940431386232376 0.011227793991565704
0.70299810171127319 0.034404724836349487 0.010081322863698006
0.74045681953430176 0.030990047380328178 0.0086240889504551888
0.77535492181777954 0.028487861156463623 0.0075515089556574821
0.809326171875 0.024020478129386902 0.0059229796752333641
0.84078329801559448 0.02014615572988987 0.0046693976037204266
0.87153333425521851 0.017121398821473122 0.0032995503861457109
0.90136533975601196 0.01515011303126812 0.0019025893416255713
0.92985635995864868 0.011309011839330196 0.00068586721317842603
0.95757418870925903 0.0082703502848744392 0.0002100514539051801
0.98480504751205444 0.0062920250929892063 1.2766929557983531e-06
0.99955326318740845 0.0032905535772442818 0
1 0.0014058221131563187 0
1 0.000376622483599931 0
1 6.6884516854770482e-05 0
0.046217426657676697 0.11105915158987045 0.028000315651297569
0.065771274268627167 0.11022484302520752 0.027770360931754112
0.085218824446201324 0.10889428108930588 0.027613287791609764
0.10903122276067734 0.10730233788490295 0.027277814224362373
0.13912221789360046 0.10619553923606873 0.027245054021477699
0.16906660795211792 0.10440918058156967 0.027245050296187401
0.20139804482460022 0.10287484526634216 0.027245054021477699
0.2353634387254715 0.10081245750188828 0.027182664722204208
0.26780557632446289 0.098904132843017578 0.026807438582181931
0.30078530311584473 0.097231082618236542 0.02613070048391819
0.33553662896156311 0.095006249845027924 0.026177888736128807
0.37281665205955505 0.09252534806728363 0.025435786694288254
0.41110694408416748 0.089933820068836212 0.024781050160527229
0.45022746920585632 0.087248355150222778 0.024616152048110962
0.49186646938323975 0.084433801472187042 0.023828610777854919
0.53434765338897705 0.080976776778697968 0.022891385480761528
0.57838249206542969 0.077762655913829803 0.0210154689848423
0.62177485227584839 0.074417926371097565 0.019427768886089325
0.66401159763336182 0.070847809314727783 0.017897153273224831
0.70520246028900146 0.067216143012046814 0.015737678855657578
0.74291825294494629 0.063041456043720245 0.014147158712148666
0.77855163812637329 0.059392228722572327 0.012293359264731407
0.81263440847396851 0.054419804364442825 0.010553032159805298
0.84440767765045166 0.049561820924282074 0.0089508742094039917
0.87499529123306274 0.045027885586023331 0.0071092098951339722
0.9049685001373291 0.041029196232557297 0.0052648861892521381
0.9342275857925415 0.035452492535114288 0.0039312541484832764
0.96261072158813477 0.030138114467263222 0.0033448874019086361
0.98953890800476074 0.025494284927845001 0.0025196599308401346
0.99987924098968506 0.019390247762203217 0.0016978242201730609
1 0.01458236388862133 0.0013241079868748784
1 0.010085125453770161 0.00079474132508039474
1 0.0067956028506159782 0.00027785802376456559
0.062432173639535904 0.14235188066959381 0.039103239774703979
0.078723400831222534 0.14129801094532013 0.038617078214883804
0.095780394971370697 0.14025500416755676 0.0384722501039505
0.11588174849748611 0.13898913562297821 0.038227654993534088
0.13852517306804657 0.13775083422660828 0.037559069693088531
0.1669362485408783 0.13622842729091644 0.037318777292966843
0.200619176030159 0.13469406962394714 0.037486132234334946
0.23380248248577118 0.13261738419532776 0.037667244672775269
0.26631638407707214 0.13069574534893036 0.037508726119995117
0.30007365345954895 0.12879167497158051 0.036839358508586884
0.33479228615760803 0.12664450705051422 0.036963414400815964
0.37227761745452881 0.12439633160829544 0.036112681031227112
0.41078874468803406 0.12191316485404968 0.035020764917135239
0.45053842663764954 0.11923611164093018 0.034891176968812943
0.49214780330657959 0.11631476879119873 0.034037180244922638
0.53468132019042969 0.1131429448723793 0.03297555074095726
0.57916903495788574 0.10987875610589981 0.030397698283195496
0.62295478582382202 0.10650862753391266 0.028784457594156265
0.66496801376342773 0.10290302336215973 0.026878098025918007
0.70630484819412231 0.099541336297988892 0.023895800113677979
0.74430876970291138 0.094858460128307343 0.021964754909276962
0.78026825189590454 0.091019704937934875 0.019245801493525505
0.814930260181427 0.086563535034656525 0.016031768172979355
0.84745526313781738 0.08177611231803894 0.013764511793851852
0.8782954216003418 0.076730385422706604 0.011314375326037407
0.90839970111846924 0.072043240070343018 0.0089079020544886589
0.93775391578674316 0.066345542669296265 0.0067378249950706959
0.96710330247879028 0.060418892651796341 0.0047729965299367905
0.99329209327697754 0.054080504924058914 0.0040068086236715317
1 0.046512827277183533 0.0039220014587044716
1 0.03917568176984787 0.0039220014587044716
1 0.032029416412115097 0.0039220014587044716
1 0.024564562365412712 0.0037651804741472006
0.079095594584941864 0.17124705016613007 0.051984958350658417
0.092430129647254944 0.1705910712480545 0.051506772637367249
0.1072419285774231 0.16961781680583954 0.051348026841878891
0.12523755431175232 0.16851489245891571 0.051103051751852036
0.14428102970123291 0.16724278032779694 0.050035495311021805
0.16733698546886444 0.16611418128013611 0.049634922295808792
0.20011498034000397 0.1642732173204422 0.049363024532794952
0.2324904203414917 0.16266822814941406 0.049307022243738174
0.2653672993183136 0.16069144010543823 0.049451224505901337
0.29948017001152039 0.15883517265319824 0.049154412001371384
0.33428192138671875 0.15663455426692963 0.049230065196752548
0.37247699499130249 0.15440079569816589 0.048483897000551224
0.41128137707710266 0.15214475989341736 0.047418650239706039
0.45104476809501648 0.14976204931735992 0.047038760036230087
0.49292439222335815 0.1467929482460022 0.045823182910680771
0.53560334444046021 0.14358228445053101 0.044595062732696533
0.58008098602294922 0.14046873152256012 0.042023047804832458
0.62408614158630371 0.13711458444595337 0.04021749272942543
0.66625082492828369 0.13361862301826477 0.038132853806018829
0.70742660760879517 0.13035394251346588 0.034957151859998703
0.74562752246856689 0.12574401497840881 0.032162528485059738
0.78150337934494019 0.12182480841875076 0.029157252982258797
0.81628990173339844 0.11763227730989456 0.025029031559824944
0.84891104698181152 0.1131272166967392 0.022001901641488075
0.88027423620223999 0.10787083953619003 0.018299590796232224
0.91142922639846802 0.10332388430833817 0.014438575133681297
0.94133597612380981 0.09785393625497818 0.011280257254838943
0.97107338905334473 0.091626085340976715 0.0083135282620787621
0.99548405408859253 0.085404925048351288 0.0058696717023849487
1 0.077628374099731445 0.0043547251261770725
1 0.069914676249027252 0.0040252450853586197
1 0.061858389526605606 0.0039368201978504658
1 0.052309278398752213 0.003922000527381897
0.088357932865619659 0.20306065678596497 0.063203491270542145
0.10086996853351593 0.20207293331623077 0.062952719628810883
0.11480306833982468 0.20141135156154633 0.06278073787689209
0.13119873404502869 0.20044691860675812 0.062672294676303864
0.14937597513198853 0.19952096045017242 0.062618069350719452
0.17148196697235107 0.1982264369726181 0.062263470143079758
0.1992093026638031 0.19657768309116364 0.061701774597167969
0.23076145350933075 0.19523206353187561 0.061539247632026672
0.26482883095741272 0.19328410923480988 0.061905369162559509
0.29858669638633728 0.1915472149848938 0.061600718647241592
0.3339729905128479 0.18929457664489746 0.061386588960886002
0.37257951498031616 0.18693117797374725 0.061028636991977692
0.41139689087867737 0.18489377200603485 0.059753905981779099
0.45177027583122253 0.18255041539669037 0.058571614325046539
0.49392715096473694 0.17998509109020233 0.057901021093130112
0.53679341077804565 0.17708317935466766 0.056817270815372467
0.58167237043380737 0.17388853430747986 0.05447746068239212
0.62607741355895996 0.170599564909935 0.05222383514046669
0.66849601268768311 0.16729892790317535 0.050175469368696213
0.70925271511077881 0.16438496112823486 0.047204513102769852
0.74764508008956909 0.15983970463275909 0.043817386031150818
0.78332924842834473 0.1558273583650589 0.040576569736003876
0.8184734582901001 0.15206024050712585 0.036126535385847092
0.85097110271453857 0.14809121191501617 0.032267842441797256
0.88246458768844604 0.14271850883960724 0.02829165942966938
0.91383999586105347 0.13834287226200104 0.02304057776927948
0.94431954622268677 0.13316299021244049 0.018635360524058342
0.97487282752990723 0.12728890776634216 0.013937006704509258
0.99731683731079102 0.12082282453775406 0.010483922436833382
1 0.11389974504709244 0.0083290599286556244
1 0.10618845373392105 0.0075841839425265789
1 0.097972899675369263 0.0071635828353464603
1 0.088240116834640503 0.006513841450214386
0.083726875483989716 0.232613205909729 0.07306380569934845
0.094988115131855011 0.2318880558013916 0.072969406843185425
0.1072075366973877 0.23131391406059265 0.072969406843185425
0.12351837009191513 0.23054562509059906 0.072969406843185425
0.14385904371738434 0.22962456941604614 0.072869561612606049
0.16830529272556305 0.22827672958374023 0.072190895676612854
0.19712230563163757 0.22703611850738525 0.072037622332572937
0.22959460318088531 0.22583070397377014 0.071977175772190094
0.26367059350013733 0.22393903136253357 0.072025924921035767
0.29822498559951782 0.22235535085201263 0.071821130812168121
0.33412906527519226 0.22019167244434357 0.071578137576580048
0.37302848696708679 0.21791332960128784 0.071131214499473572
0.41243675351142883 0.21565704047679901 0.069911085069179535
0.45304843783378601 0.21363537013530731 0.068983964622020721
0.49546235799789429 0.21122923493385315 0.068167157471179962
0.53871911764144897 0.20861579477787018 0.067112043499946594
0.58351516723632812 0.20573821663856506 0.06539279967546463
0.62814730405807495 0.20228627324104309 0.063186340034008026
0.67081695795059204 0.1990022212266922 0.061099085956811905
0.71140211820602417 0.19599896669387817 0.058579977601766586
0.74983119964599609 0.19182509183883667 0.055239226669073105
0.78567725419998169 0.18792273104190826 0.052060764282941818
0.82079017162322998 0.18448157608509064 0.047730874270200729
0.85319817066192627 0.1808333694934845 0.043525807559490204
0.88487386703491211 0.17582786083221436 0.038976814597845078
0.91617047786712646 0.17144940793514252 0.033340383321046829
0.9466586709022522 0.1666748970746994 0.027958188205957413
0.9776720404624939 0.1611693948507309 0.021709078922867775
0.99827384948730469 0.1548415869474411 0.016579611226916313
1 0.14861588180065155 0.012398646213114262
1 0.14110991358757019 0.010348211973905563
1 0.13315652310848236 0.0095479534938931465
1 0.12373565882444382 0.0088703492656350136
0.092863917350769043 0.26460364460945129 0.084725715219974518
0.099122881889343262 0.26400896906852722 0.084725715219974518
0.1070258766412735 0.26355192065238953 0.084725715219974518
0.11879582703113556 0.26274451613426208 0.084562703967094421
0.13706357777118683 0.26175776124000549 0.084433980286121368
0.16261258721351624 0.26050722599029541 0.084313824772834778
0.19392299652099609 0.25951191782951355 0.084184318780899048
0.22804786264896393 0.25816497206687927 0.084032982587814331
0.26220718026161194 0.25667542219161987 0.084015429019927979
0.29786255955696106 0.25508078932762146 0.0832715705037117
0.33460637927055359 0.25325939059257507 0.082456327974796295
0.37359794974327087 0.25107711553573608 0.08173089474439621
0.41329166293144226 0.24895119667053223 0.08132249116897583
0.45448428392410278 0.24680067598819733 0.080354735255241394
0.4973602294921875 0.24446482956409454 0.079111240804195404
0.54097670316696167 0.24215471744537354 0.077601656317710876
0.58596032857894897 0.23932197690010071 0.075806722044944763
0.63066965341567993 0.23589833080768585 0.073858872056007385
0.67356634140014648 0.23270691931247711 0.071195550262928009
0.71424847841262817 0.2297353595495224 0.068722091615200043
0.7524188756942749 0.22582250833511353 0.065720759332180023
0.78834909200668335 0.22216343879699707 0.062201801687479019
0.82320183515548706 0.21876683831214905 0.058112189173698425
0.85591763257980347 0.21531498432159424 0.053855173289775848
0.88762384653091431 0.21064901351928711 0.049246732145547867
0.91893887519836426 0.20607379078865051 0.043927233666181564
0.94957274198532104 0.2017684280872345 0.038241717964410782
0.98026669025421143 0.19658206403255463 0.031380303204059601
0.99859809875488281 0.19039247930049896 0.024816373363137245
1 0.18475084006786346 0.018298303708434105
1 0.17782922089099884 0.014132005162537098
1 0.16989649832248688 0.012536955997347832
1 0.16112048923969269 0.011974964290857315
0.081021323800086975 0.29872530698776245 0.094053082168102264
0.088947758078575134 0.29813656210899353 0.094053074717521667
0.098553568124771118 0.29763707518577576 0.094053082168102264
0.11177343130111694 0.29720500111579895 0.094053082168102264
0.12840172648429871 0.29631635546684265 0.094053082168102264
0.15532489120960236 0.29506641626358032 0.094053082168102264
0.19017170369625092 0.29396837949752808 0.094053082168102264
0.22558072209358215 0.29299411177635193 0.093950122594833374
0.26071962714195251 0.29158484935760498 0.093838959932327271
0.29695850610733032 0.29000836610794067 0.093653663992881775
0.33445149660110474 0.28841641545295715 0.093310803174972534
0.37389364838600159 0.2863231897354126 0.092141099274158478
0.41401901841163635 0.28453469276428223 0.091729596257209778
0.45601871609687805 0.28226694464683533 0.090951412916183472
0.49932250380516052 0.28002825379371643 0.090278610587120056
0.54356956481933594 0.27757439017295837 0.088558405637741089
0.58904415369033813 0.27487331628799438 0.086805976927280426
0.63367640972137451 0.27203640341758728 0.08494432270526886
0.67656159400939941 0.2685888409614563 0.082596473395824432
0.7174038290977478 0.26539871096611023 0.079943127930164337
0.75532752275466919 0.26187366247177124 0.077168300747871399
0.7914888858795166 0.25846484303474426 0.073502019047737122
0.82636302709579468 0.25500720739364624 0.069562949240207672
0.85897988080978394 0.25154232978820801 0.065139129757881165
0.89084118604660034 0.24732479453086853 0.06037825345993042
0.92211174964904785 0.24269630014896393 0.055053785443305969
0.95276284217834473 0.23855207860469818 0.048846505582332611
0.98335814476013184 0.23350779712200165 0.041767146438360214
0.9994702935218811 0.22768959403038025 0.034164726734161377
1 0.2220626026391983 0.026445752009749413
1 0.21549186110496521 0.019673643633723259
1 0.20782361924648285 0.016609963029623032
1 0.1995757520198822 0.015951365232467651
0.054269522428512573 0.33476004004478455 0.10429087281227112
0.059880457818508148 0.33434471487998962 0.10429087281227112
0.067296028137207031 0.33373349905014038 0.10429086536169052
0.08278028666973114 0.33281651139259338 0.10433806478977203
0.10963869094848633 0.33209040760993958 0.10432948172092438
0.14684031903743744 0.33138319849967957 0.1044967845082283
0.18532915413379669 0.33039546012878418 0.10439811646938324
0.22120876610279083 0.32937678694725037 0.10397648066282272
0.25837802886962891 0.3281092643737793 0.10341557860374451
0.29541349411010742 0.32688590884208679 0.10319717228412628
0.33355346322059631 0.32524856925010681 0.10260114073753357
0.37384602427482605 0.32336491346359253 0.10182307660579681
0.41449400782585144 0.32172408699989319 0.10115648061037064
0.45734831690788269 0.3194887638092041 0.10014662146568298
0.50169968605041504 0.31708621978759766 0.099034197628498077
0.54640316963195801 0.31478062272071838 0.0976705402135849
0.59217637777328491 0.31208968162536621 0.095956787467002869
0.63708662986755371 0.30959358811378479 0.094006627798080444
0.67990297079086304 0.3062402606010437 0.091938920319080353
0.72069764137268066 0.30307155847549438 0.089381560683250427
0.75872814655303955 0.29991474747657776 0.086376376450061798
0.79463070631027222 0.29686486721038818 0.082921579480171204
0.82958012819290161 0.29329192638397217 0.079215779900550842
0.86241143941879272 0.28973865509033203 0.075199075043201447
0.89416927099227905 0.28582063317298889 0.070981957018375397
0.92570894956588745 0.28151869773864746 0.066008947789669037
0.95649445056915283 0.27731117606163025 0.060050938278436661
0.98639011383056641 0.27248081564903259 0.053135816007852554
0.99996685981750488 0.26689186692237854 0.045222155749797821
1 0.26132375001907349 0.036879215389490128
1 0.25464072823524475 0.027725400403141975
1 0.24775183200836182 0.021871902048587799
1 0.23942553997039795 0.020408254116773605
0.023560762405395508 0.37142124772071838 0.1128334254026413
0.028698615729808807 0.37114465236663818 0.1128334254026413
0.039440754801034927 0.37078538537025452 0.1128334254026413
0.066941961646080017 0.37041282653808594 0.1128334254026413
0.10379509627819061 0.36979025602340698 0.11287205666303635
0.14186418056488037 0.36889225244522095 0.11303940415382385
0.17864491045475006 0.36784213781356812 0.11303940415382385
0.21588446199893951 0.36695572733879089 0.11279070377349854
0.25464862585067749 0.36610424518585205 0.11214347183704376
0.29333570599555969 0.36492878198623657 0.1115700975060463
0.3323662281036377 0.36333781480789185 0.11111216992139816
0.37333983182907104 0.36183762550354004 0.11076072603464127
0.41499754786491394 0.36014279723167419 0.11005318909883499
0.45861634612083435 0.35805583000183105 0.10927522927522659
0.50416839122772217 0.35568743944168091 0.10793257504701614
0.54945296049118042 0.35349565744400024 0.106839619576931
0.59560030698776245 0.35097253322601318 0.10528530180454254
0.64064639806747437 0.34841689467430115 0.10340411961078644
0.683430016040802 0.3456762433052063 0.10133585333824158
0.72425419092178345 0.34253481030464172 0.099069409072399139
0.76227295398712158 0.3397490382194519 0.09610603004693985
0.79806852340698242 0.33682718873023987 0.092801876366138458
0.83316761255264282 0.33346444368362427 0.089130096137523651
0.86604434251785278 0.33030065894126892 0.08482939749956131
0.89776408672332764 0.32644572854042053 0.080764658749103546
0.92947131395339966 0.32226532697677612 0.075689703226089478
0.96051734685897827 0.31827890872955322 0.069883465766906738
0.9902305006980896 0.31370976567268372 0.063190057873725891
1 0.30848380923271179 0.055461682379245758
1 0.30331519246101379 0.047124776989221573
1 0.29671892523765564 0.03715907409787178
1 0.29002630710601807 0.028007462620735168
1 0.28204590082168579 0.024822430685162544
0.0054420684464275837 0.40828290581703186 0.12082655727863312
0.017135953530669212 0.40824705362319946 0.12082655727863312
0.04015277698636055 0.40798059105873108 0.12082657217979431
0.071380816400051117 0.40773600339889526 0.12082655727863312
0.10346513986587524 0.4071933925151825 0.12082655727863312
0.13755272328853607 0.40635514259338379 0.12082655727863312
0.17204385995864868 0.40531516075134277 0.12082655727863312
0.20913942158222198 0.40428102016448975 0.12065200507640839
0.24943673610687256 0.40347376465797424 0.1199086531996727
0.29000064730644226 0.40204957127571106 0.11950106173753738
0.33090904355049133 0.40061238408088684 0.11919600516557693
0.37311717867851257 0.3994143009185791 0.11857517063617706
0.41560611128807068 0.39776793122291565 0.11773965507745743
0.45982539653778076 0.3959898054599762 0.1168169230222702
0.50592464208602905 0.39393660426139832 0.11582119017839432
