Textures/48.cube
# Created by: G'MIC (https://gmic.eu)
TITLE "Fuji_Provia_400X.cube"
# LUT size
LUT_3D_SIZE 5
# Data domain
DOMAIN_MIN 0.0 0.0 0.0
DOMAIN_MAX 1.0 1.0 1.0
# LUT data points
0.011255492456257343 0.01109557319432497 0.0071283490397036076
0.27123746275901794 0.0060831522569060326 0.0067549510858952999
0.5751110315322876 0.0010118066566064954 0.0050448114052414894
0.86429649591445923 0 6.5678759710863233e-05
1 0 0
0.092863917350769043 0.26460364460945129 0.084725715219974518
0.26220718026161194 0.25667542219161987 0.084015429019927979
0.58596032857894897 0.23932197690010071 0.075806722044944763
0.88762384653091431 0.21064901351928711 0.049246732145547867
1 0.16112048923969269 0.011974964290857315
0 0.54901951551437378 0.13688881695270538
0.21961222589015961 0.54517257213592529 0.13559064269065857
0.61177170276641846 0.53707540035247803 0.12945966422557831
0.91589188575744629 0.52167153358459473 0.10852067172527313
1 0.49803775548934937 0.052627287805080414
0 0.76045912504196167 0.10319178551435471
0.19885601103305817 0.75826025009155273 0.10150384902954102
0.64885097742080688 0.75227105617523193 0.097643479704856873
0.95078057050704956 0.74443435668945312 0.083246134221553802
1 0.73206031322479248 0.051204703748226166
0 0.99477106332778931 0
0 0.99444431066513062 0
0.57790917158126831 0.99013704061508179 0
0.96371239423751831 0.98627477884292603 0
1 0.98049259185791016 0
0.0002814398321788758 0.00038261775625869632 0.16647045314311981
0.22268727421760559 0 0.16430114209651947
0.52296024560928345 0 0.15761254727840424
0.80136394500732422 0 0.13293763995170593
1 0 0.069915555417537689
0.065804377198219299 0.23298227787017822 0.22530169785022736
0.22501648962497711 0.22474052011966705 0.224957674741745
0.5426667332649231 0.20700769126415253 0.21918049454689026
0.82514387369155884 0.17713338136672974 0.1951105147600174
1 0.12457986176013947 0.12995126843452454
0 0.53724932670593262 0.27928575873374939
0.15911084413528442 0.53334492444992065 0.27905955910682678
0.56552493572235107 0.52377647161483765 0.27360385656356812
0.8554990291595459 0.50905519723892212 0.25129503011703491
1 0.48290163278579712 0.18515187501907349
0 0.75522041320800781 0.29154261946678162
0.096758268773555756 0.75244766473770142 0.29101717472076416
0.58757567405700684 0.74633872509002686 0.28372630476951599
0.88226503133773804 0.73852545022964478 0.26017364859580994
1 0.72628921270370483 0.17601184546947479
0 0.99444431066513062 0.091183148324489594
0 0.99386370182037354 0.087001189589500427
0.5557790994644165 0.99023211002349854 0.069506444036960602
0.95198464393615723 0.98725795745849609 0.023395631462335587
1 0.98292481899261475 0
0 0 0.33715376257896423
0.1790216863155365 0 0.33993604779243469
0.46651202440261841 0 0.34001836180686951
0.72084283828735352 0 0.32689327001571655
0.96941238641738892 0 0.28341057896614075
0.04865230992436409 0.1764751672744751 0.40791779756546021
0.18493640422821045 0.16744899749755859 0.41011932492256165
0.47830918431282043 0.14626473188400269 0.41045838594436646
0.72801929712295532 0.11234312504529953 0.39857983589172363
0.96450883150100708 0.050589222460985184 0.3577612042427063
0 0.50675386190414429 0.48868477344512939
0.069987647235393524 0.50271439552307129 0.49058473110198975
0.49206727743148804 0.49154797196388245 0.49175691604614258
0.75248903036117554 0.47469663619995117 0.48471072316169739
0.99667620658874512 0.44257211685180664 0.45380204916000366
0 0.73984402418136597 0.53954058885574341
0.0012067646021023393 0.73740178346633911 0.54056042432785034
0.4794328510761261 0.73121237754821777 0.54108929634094238
0.75689184665679932 0.7231331467628479 0.5348166823387146
1 0.70959377288818359 0.50455248355865479
0 0.99116462469100952 0.50646787881851196
0 0.99019354581832886 0.50644642114639282
0.30471622943878174 0.98804289102554321 0.50436335802078247
0.75645226240158081 0.98504418134689331 0.48904719948768616
1 0.97988182306289673 0.41012844443321228
0 0 0.49601438641548157
0.18039439618587494 0 0.50178289413452148
0.43180137872695923 0 0.50596398115158081
0.65219122171401978 0 0.50505208969116211
0.87771344184875488 0 0.49346455931663513
0.050680056214332581 0.063415341079235077 0.54832148551940918
0.20631800591945648 0.051422134041786194 0.55098068714141846
0.44075730443000793 0.02903742715716362 0.55317181348800659
0.65001034736633301 0.0061981780454516411 0.54952836036682129
0.86213386058807373 0 0.53296810388565063
0.034407228231430054 0.44384706020355225 0.63158440589904785
0.20662598311901093 0.43870419263839722 0.63334441184997559
0.47896844148635864 0.42549553513526917 0.63605248928070068
0.69656509160995483 0.40300387144088745 0.63488763570785522
0.92539191246032715 0.35799771547317505 0.6232801079750061
0 0.71495401859283447 0.69340252876281738
0.083221942186355591 0.7125733494758606 0.69460803270339966
0.45760971307754517 0.70676231384277344 0.69755589962005615
0.69860309362411499 0.69842737913131714 0.69842541217803955
0.96246296167373657 0.68244808912277222 0.69051754474639893
0 0.98531126976013184 0.72532510757446289
0 0.98504918813705444 0.72678762674331665
0.15988962352275848 0.98292481899261475 0.72941881418228149
0.63619452714920044 0.9803466796875 0.73005574941635132
0.99672186374664307 0.97559952735900879 0.71629613637924194
0.02231532521545887 0 0.61823880672454834
0.24156755208969116 0 0.62472152709960938
0.43449109792709351 0 0.63002431392669678
0.62050729990005493 0 0.63352745771408081
0.82927250862121582 0 0.63111406564712524
0.14392262697219849 0 0.65421158075332642
0.25788998603820801 0 0.65822601318359375
0.43129891157150269 0 0.6639665961265564
0.60866183042526245 0 0.66801780462265015
0.81392592191696167 0 0.66800832748413086
0.26290923357009888 0.28015199303627014 0.7411048412322998
0.34271422028541565 0.27222323417663574 0.74271875619888306
0.49558869004249573 0.24977251887321472 0.74517381191253662
0.65957057476043701 0.21175095438957214 0.74547070264816284
0.85516786575317383 0.14009623229503632 0.73797649145126343
0.20789344608783722 0.65879803895950317 0.8326151967048645
0.31542253494262695 0.65598952770233154 0.83460384607315063
0.49034896492958069 0.64919966459274292 0.83877706527709961
0.67872577905654907 0.6373671293258667 0.84327113628387451
0.91255676746368408 0.61423039436340332 0.84400486946105957
0 0.96869057416915894 0.91951429843902588
4.6812069740553852e-06 0.96807265281677246 0.92257887125015259
0.25439822673797607 0.96632480621337891 0.9292757511138916
0.59096407890319824 0.96316665410995483 0.93994748592376709
0.95108234882354736 0.95420205593109131 0.95138871669769287
