Textures/49.cube
# Created by: G'MIC (https://gmic.eu)
TITLE "Fuji_Sensia_100.cube"
# LUT size
LUT_3D_SIZE 33
# Data domain
DOMAIN_MIN 0.0 0.0 0.0
DOMAIN_MAX 1.0 1.0 1.0
# LUT data points
0.013290231116116047 0.015408948063850403 0.011217549443244934
0.040592610836029053 0.015081422403454781 0.0086022242903709412
0.066561020910739899 0.014603911899030209 0.0071272309869527817
0.092797666788101196 0.014201771467924118 0.0057532088831067085
0.11845742911100388 0.013688880018889904 0.0049794968217611313
0.14343509078025818 0.013659239746630192 0.003803586820140481
0.1670459508895874 0.013051179237663746 0.0030812898185104132
0.19263660907745361 0.012474863789975643 0.0022377537097781897
0.21632286906242371 0.012158830650150776 0.0017122073331847787
0.2409176379442215 0.011863953433930874 0.0011684125056490302
0.26534652709960938 0.012099931947886944 0.00076988909859210253
0.29198336601257324 0.012099931947886944 0.00051946518942713737
0.31869122385978699 0.011607433669269085 0.00022196624195203185
0.3467450737953186 0.01068489346653223 0.00012242066441103816
0.37717354297637939 0.0093938093632459641 1.8157410522690043e-05
0.40835332870483398 0.0088098179548978806 0
0.44204038381576538 0.0088637666776776314 0
0.47846662998199463 0.0082244593650102615 0
0.51640802621841431 0.0071184565313160419 0
0.55585527420043945 0.006616352591663599 0
0.59474140405654907 0.0061689745634794235 0
0.63208043575286865 0.0057360166683793068 0
0.66891336441040039 0.0051251938566565514 0
0.70303446054458618 0.0044844578951597214 0
0.73488503694534302 0.004899980966001749 0
0.76434135437011719 0.0057364297099411488 0
0.79064774513244629 0.0050612259656190872 0
0.81530404090881348 0.0041188839823007584 0
0.83757597208023071 0.0041118646040558815 0
0.85656404495239258 0.0040806648321449757 0
0.87489879131317139 0.0047316784039139748 0
0.89096474647521973 0.004874842707067728 7.2629642090760171e-05
0.90576738119125366 0.0050885956734418869 0.00092052615946158767
0.032347459346055984 0.057125892490148544 0.025101453065872192
0.056310806423425674 0.056313168257474899 0.022264612838625908
0.080692149698734283 0.055552899837493896 0.019691983237862587
0.10671647638082504 0.054592244327068329 0.017514031380414963
0.13273443281650543 0.05385773628950119 0.015326716937124729
0.15745076537132263 0.053206421434879303 0.013212396763265133
0.18149343132972717 0.05249752476811409 0.011333273723721504
0.20692375302314758 0.051352016627788544 0.0095336930826306343
0.23123639822006226 0.05016675591468811 0.007908637635409832
0.25597673654556274 0.049541480839252472 0.0063776103779673576
0.28047192096710205 0.049285180866718292 0.0054736151359975338
0.30729424953460693 0.049339011311531067 0.0042271292768418789
0.33430841565132141 0.047608435153961182 0.0032400493510067463
0.36263144016265869 0.045597657561302185 0.0022235210053622723
0.39300531148910522 0.043686933815479279 0.0014131744392216206
0.42444267868995667 0.042199678719043732 0.00089342065621167421
0.45808422565460205 0.041709322482347488 0.00047961031668819487
0.494596928358078 0.03956323117017746 0.00019646885630208999
0.53252905607223511 0.038016054779291153 3.064062912017107e-05
0.57210713624954224 0.036902714520692825 0
0.61101394891738892 0.035086639225482941 0
0.6486961841583252 0.033775635063648224 0
0.68553036451339722 0.032671090215444565 0
0.71999853849411011 0.031219162046909332 0
0.75208777189254761 0.031260393559932709 0
0.78187572956085205 0.031640168279409409 0
0.80874884128570557 0.029709013178944588 0
0.83333998918533325 0.029117822647094727 0
0.85554748773574829 0.029305437579751015 0
0.8750491738319397 0.029025772586464882 1.1348381121933926e-05
0.89337664842605591 0.030592052266001701 0.00028803522582165897
0.90977007150650024 0.030941855162382126 0.0017719304887577891
0.92458134889602661 0.031135726720094681 0.0053275660611689091
0.054089099168777466 0.093976333737373352 0.039041705429553986
0.072414234280586243 0.09305591881275177 0.036038655787706375
0.090758994221687317 0.092479564249515533 0.033582493662834167
0.11467884480953217 0.091937422752380371 0.03084629587829113
0.14032040536403656 0.091195538640022278 0.028013316914439201
0.16451555490493774 0.090289078652858734 0.025272905826568604
0.18897134065628052 0.089357137680053711 0.022599661722779274
0.21498815715312958 0.088396117091178894 0.020092101767659187
0.23906949162483215 0.087465353310108185 0.017392732203006744
0.26382088661193848 0.08652108907699585 0.015108331106603146
0.28870496153831482 0.085812002420425415 0.012890251353383064
0.31561237573623657 0.085536837577819824 0.011150260455906391
0.34295490384101868 0.084204502403736115 0.0091856997460126877
0.37165841460227966 0.082155510783195496 0.007539825513958931
0.401926189661026 0.08056824654340744 0.0058851572684943676
0.43344065546989441 0.079225964844226837 0.0046229744330048561
0.46742653846740723 0.077887743711471558 0.0035144053399562836
0.50393563508987427 0.076320916414260864 0.0022818488068878651
0.5417976975440979 0.074837997555732727 0.0013501725625246763
0.58154702186584473 0.073352508246898651 0.00051290931878611445
0.62051296234130859 0.07155570387840271 0.00016167896683327854
0.65837883949279785 0.06985192745923996 3.0215063816285692e-05
0.69537216424942017 0.068792141973972321 1.5604023246851284e-06
0.72958719730377197 0.067231148481369019 0
0.7619781494140625 0.06688438355922699 0
0.79175591468811035 0.066363729536533356 0
0.81892633438110352 0.064970284700393677 0
0.84338498115539551 0.064695507287979126 2.7590755053097382e-05
0.8655286431312561 0.064704462885856628 0.00021707327687181532
0.88521385192871094 0.064698979258537292 0.00086679158266633749
0.90363603830337524 0.065407402813434601 0.0027787876315414906
0.92005759477615356 0.065817385911941528 0.0062493165023624897
0.93506652116775513 0.066368542611598969 0.01268231775611639
0.076484076678752899 0.13032038509845734 0.05657399445772171
0.091565273702144623 0.12941460311412811 0.05370568111538887
0.1067512035369873 0.12881903350353241 0.051044441759586334
0.12486469000577927 0.12787178158760071 0.047903943806886673
0.14755532145500183 0.12724418938159943 0.044802960008382797
0.17119386792182922 0.12675297260284424 0.041531674563884735
0.19633302092552185 0.125828817486763 0.038612965494394302
0.22234189510345459 0.12458329647779465 0.035374864935874939
0.24633225798606873 0.12353245168924332 0.032166808843612671
0.27129474282264709 0.12297505885362625 0.029052987694740295
0.2968069314956665 0.12175887078046799 0.026413032785058022
0.32346317172050476 0.12155932933092117 0.023310519754886627
0.35121011734008789 0.12023840844631195 0.020295143127441406
0.3800690770149231 0.11866204440593719 0.017797322943806648
0.41031581163406372 0.11713262647390366 0.014900520443916321
0.44180202484130859 0.11556409299373627 0.012416779063642025
0.47622755169868469 0.11437705159187317 0.0099878069013357162
0.51296526193618774 0.11281953006982803 0.0078868111595511436
0.55090957880020142 0.1114480048418045 0.0057243788614869118
0.59080064296722412 0.11022283881902695 0.0039244238287210464
0.62967443466186523 0.10807148367166519 0.0025812783278524876
0.66768664121627808 0.10619313269853592 0.0016166565474122763
0.70480942726135254 0.10553441196680069 0.0010363024193793535
0.73923778533935547 0.10398203879594803 0.00081044307444244623
0.77135229110717773 0.10356082022190094 0.00068600103259086609
0.80143952369689941 0.10241826623678207 0.00068600091617554426
0.82868361473083496 0.10180258005857468 0.00091888749739155173
0.85299760103225708 0.10151471942663193 0.00159719109069556
0.8751559853553772 0.10144961625337601 0.0027919183485209942
0.89491945505142212 0.10133837908506393 0.0048926360905170441
0.91337496042251587 0.1019500270485878 0.0086793163791298866
0.92974871397018433 0.10205613821744919 0.015061010606586933
0.94469666481018066 0.10308828204870224 0.025018315762281418
0.09836316853761673 0.1625954806804657 0.075259916484355927
0.1105312705039978 0.16208918392658234 0.072677932679653168
0.12371975928544998 0.16160741448402405 0.070244863629341125
0.13912253081798553 0.16096383333206177 0.066917747259140015
0.15685568749904633 0.16024039685726166 0.063452742993831635
0.17771908640861511 0.1596350222826004 0.060296382755041122
0.20323905348777771 0.15864619612693787 0.05705009400844574
0.22863571345806122 0.15774092078208923 0.053701989352703094
0.2527911365032196 0.15664145350456238 0.050458405166864395
0.27786841988563538 0.15588618814945221 0.047074519097805023
0.3034137487411499 0.15481200814247131 0.043796759098768234
0.33055531978607178 0.15405724942684174 0.040057405829429626
0.35869267582893372 0.15303623676300049 0.035911697894334793
0.38748294115066528 0.15150010585784912 0.032783824950456619
0.41799357533454895 0.15020047128200531 0.029114782810211182
0.44967943429946899 0.14848800003528595 0.025736620649695396
0.48442220687866211 0.14710618555545807 0.021427655592560768
0.52121740579605103 0.14599017798900604 0.017956148833036423
0.55911731719970703 0.14462095499038696 0.014686140231788158
0.5990719199180603 0.14311748743057251 0.011262267827987671
0.63818413019180298 0.14096158742904663 0.008710792288184166
0.67600321769714355 0.13925524055957794 0.0068248114548623562
0.71338796615600586 0.13862308859825134 0.0052908002398908138
0.74754196405410767 0.13726133108139038 0.0048343809321522713
0.7797359824180603 0.13593629002571106 0.0044221379794180393
0.80992299318313599 0.13525211811065674 0.0044386563822627068
0.83662641048431396 0.13451021909713745 0.0051293070428073406
0.86139190196990967 0.13440215587615967 0.0066430927254259586
0.88356298208236694 0.13431048393249512 0.0090070310980081558
0.90315157175064087 0.13398954272270203 0.013213539496064186
0.92139506340026855 0.13440683484077454 0.019095618277788162
0.93805450201034546 0.13487492501735687 0.028343817219138145
0.95303094387054443 0.13546080887317657 0.041230898350477219
0.1170755922794342 0.19232068955898285 0.092512056231498718
0.12758257985115051 0.19164508581161499 0.090713582932949066
0.13936351239681244 0.19130341708660126 0.088411919772624969
0.15382190048694611 0.19075441360473633 0.085428617894649506
0.16872911155223846 0.19006896018981934 0.082248002290725708
0.18620920181274414 0.18940456211566925 0.079020954668521881
0.21034534275531769 0.18870618939399719 0.075619533658027649
0.23464356362819672 0.18771076202392578 0.072578988969326019
0.25901326537132263 0.18666605651378632 0.069450467824935913
0.28386867046356201 0.18575449287891388 0.066025920212268829
0.30980107188224792 0.18475796282291412 0.06281626969575882
0.33736547827720642 0.18351137638092041 0.059266116470098495
0.36541000008583069 0.18261398375034332 0.054622560739517212
0.39442744851112366 0.18130896985530853 0.050709009170532227
0.42506089806556702 0.18003572523593903 0.046991795301437378
0.45691940188407898 0.17827428877353668 0.042822632938623428
0.49185642600059509 0.17694930732250214 0.037378720939159393
0.52873045206069946 0.17588667571544647 0.032534968107938766
0.56686049699783325 0.17464038729667664 0.028378739953041077
0.60681396722793579 0.17323899269104004 0.023526979610323906
0.64598065614700317 0.17083191871643066 0.0195443294942379
0.68386250734329224 0.16954991221427917 0.016700970008969307
0.72121685743331909 0.16856509447097778 0.014026091434061527
0.75555306673049927 0.16708335280418396 0.013166891410946846
0.78743571043014526 0.16561910510063171 0.012446449138224125
0.81752109527587891 0.16514430940151215 0.012478675693273544
0.84442728757858276 0.1645791083574295 0.013780169188976288
0.86904066801071167 0.1638781875371933 0.015824556350708008
0.89080315828323364 0.16366326808929443 0.019908834248781204
0.91063195466995239 0.163678839802742 0.025760777294635773
0.92868345975875854 0.16413520276546478 0.033853191882371902
0.94563722610473633 0.16475851833820343 0.045074347406625748
0.96029502153396606 0.16537132859230042 0.058778233826160431
0.12238649278879166 0.2240084707736969 0.10775565356016159
0.13260135054588318 0.22346155345439911 0.10615967959165573
0.14417360723018646 0.22324776649475098 0.1041664183139801
0.15768657624721527 0.22257952392101288 0.10184083878993988
0.17303919792175293 0.22216172516345978 0.098975531756877899
0.19229839742183685 0.22135369479656219 0.095692984759807587
0.21739767491817474 0.22063462436199188 0.092317864298820496
0.24064868688583374 0.21987184882164001 0.089496895670890808
0.26557427644729614 0.21880866587162018 0.086507081985473633
0.29041764140129089 0.21780823171138763 0.083354435861110687
0.31653860211372375 0.21674011647701263 0.080346047878265381
0.34426915645599365 0.2154962420463562 0.076932802796363831
0.37256810069084167 0.21454015374183655 0.072665691375732422
0.40177878737449646 0.2135157585144043 0.068466842174530029
0.43254324793815613 0.21223814785480499 0.064703352749347687
0.46483004093170166 0.21056023240089417 0.060497898608446121
0.50007796287536621 0.20906755328178406 0.055127963423728943
0.53704506158828735 0.20814517140388489 0.049584977328777313
0.57558965682983398 0.20683392882347107 0.044956512749195099
0.6154024600982666 0.20542775094509125 0.039358004927635193
0.65493607521057129 0.20332047343254089 0.034404262900352478
0.69264513254165649 0.20197740197181702 0.030831867828965187
0.72975373268127441 0.20083265006542206 0.027441594749689102
0.76405245065689087 0.19953811168670654 0.02537761814892292
0.79616683721542358 0.19795875251293182 0.024788901209831238
0.82600945234298706 0.19772636890411377 0.024660918861627579
0.8529202938079834 0.19703206419944763 0.026591038331389427
0.87746173143386841 0.19620572030544281 0.029427140951156616
0.89938372373580933 0.19599103927612305 0.034715432673692703
0.91913962364196777 0.19605500996112823 0.041975412517786026
0.93714660406112671 0.19659823179244995 0.05138774961233139
0.95401430130004883 0.1970648318529129 0.063026294112205505
0.9685932993888855 0.19780243933200836 0.076869390904903412
0.12506267428398132 0.25367194414138794 0.12214607745409012
0.13420291244983673 0.25343167781829834 0.12121323496103287
0.14475560188293457 0.25313651561737061 0.11994615942239761
0.1578289121389389 0.25286811590194702 0.11738776415586472
0.17568512260913849 0.25227367877960205 0.11509658396244049
0.19974078238010406 0.25162732601165771 0.11223247647285461
0.22403274476528168 0.25080475211143494 0.10889755934476852
0.2472996860742569 0.24995969235897064 0.10636847466230392
0.27206286787986755 0.24915632605552673 0.10381161421537399
0.29711282253265381 0.24844270944595337 0.10053734481334686
0.32325959205627441 0.24716171622276306 0.097433097660541534
0.35140770673751831 0.24583379924297333 0.09427420049905777
0.37973466515541077 0.2450278252363205 0.090280942618846893
0.40901637077331543 0.24441291391849518 0.086254134774208069
0.4402015209197998 0.24314954876899719 0.082400470972061157
0.47286424040794373 0.24146223068237305 0.078046403825283051
0.50812572240829468 0.24054743349552155 0.072878710925579071
0.54552227258682251 0.23887772858142853 0.067359574139118195
0.58440721035003662 0.23744869232177734 0.062175069004297256
0.62416589260101318 0.23631316423416138 0.056456819176673889
0.6635822057723999 0.23408983647823334 0.05130917951464653
0.70131039619445801 0.23294110596179962 0.047113839536905289
0.73850059509277344 0.23160944879055023 0.043199378997087479
0.77279263734817505 0.23041230440139771 0.04092513769865036
0.80474519729614258 0.22920718789100647 0.039294548332691193
0.83444422483444214 0.22895099222660065 0.039172623306512833
0.86118942499160767 0.22824226319789886 0.042188730090856552
0.88574254512786865 0.22744941711425781 0.045208867639303207
0.90755075216293335 0.22725062072277069 0.05126943439245224
0.9272148609161377 0.2273540198802948 0.058729380369186401
0.94565558433532715 0.22803054749965668 0.067906498908996582
0.96203744411468506 0.22850674390792847 0.079206027090549469
0.97686415910720825 0.22916041314601898 0.093102224171161652
0.13053549826145172 0.28564628958702087 0.1378428041934967
0.1371535062789917 0.28531593084335327 0.1367061585187912
0.14632265269756317 0.28485554456710815 0.13517855107784271
0.16295933723449707 0.28427043557167053 0.13385261595249176
0.18463690578937531 0.28367477655410767 0.13132378458976746
0.20845603942871094 0.28336268663406372 0.12905830144882202
0.23087963461875916 0.28306174278259277 0.12654107809066772
0.25462266802787781 0.28250440955162048 0.12360730767250061
0.27903297543525696 0.28163257241249084 0.12161716818809509
0.30448973178863525 0.28031247854232788 0.11856957525014877
0.33083140850067139 0.27941188216209412 0.11527717113494873
0.35889425873756409 0.27891132235527039 0.11178955435752869
0.38735654950141907 0.27756369113922119 0.10836420208215714
0.41693148016929626 0.27636557817459106 0.10445170104503632
0.44839438796043396 0.27549532055854797 0.1007596030831337
0.48151296377182007 0.27498319745063782 0.096058450639247894
0.51716083288192749 0.27342498302459717 0.091168515384197235
0.55483990907669067 0.27158451080322266 0.085844799876213074
0.59397530555725098 0.27054771780967712 0.080456681549549103
0.63390928506851196 0.26869139075279236 0.074549548327922821
0.67312169075012207 0.26732727885246277 0.069780714809894562
0.710845947265625 0.26593577861785889 0.065290540456771851
0.74806582927703857 0.26410439610481262 0.061428330838680267
0.78227710723876953 0.26360785961151123 0.059765249490737915
0.8140486478805542 0.26304012537002563 0.058428533375263214
0.84371435642242432 0.26168134808540344 0.058168388903141022
0.87043160200119019 0.26099869608879089 0.060115016996860504
0.89482969045639038 0.26039916276931763 0.063607901334762573
0.91645771265029907 0.25992715358734131 0.069757744669914246
0.93611085414886475 0.26002585887908936 0.077037051320075989
0.95452225208282471 0.26091876626014709 0.086380809545516968
0.97072422504425049 0.2614804208278656 0.097199760377407074
0.98511886596679688 0.26264479756355286 0.11158960312604904
0.12854480743408203 0.31884774565696716 0.15159103274345398
0.14002639055252075 0.31837540864944458 0.15128368139266968
0.15467354655265808 0.31802433729171753 0.14943832159042358
0.17363014817237854 0.31732025742530823 0.14779210090637207
0.1951727420091629 0.31732025742530823 0.14612750709056854
0.21631215512752533 0.31732025742530823 0.14387845993041992
0.23848897218704224 0.3172057569026947 0.14193308353424072
0.26200076937675476 0.31650882959365845 0.13980545103549957
0.28620937466621399 0.31561645865440369 0.13657246530056
0.31181663274765015 0.31447979807853699 0.13448913395404816
0.33853086829185486 0.3135448694229126 0.13098074495792389
0.36669903993606567 0.31322869658470154 0.12748506665229797
0.39542809128761292 0.31227689981460571 0.12400824576616287
0.4253765344619751 0.31081783771514893 0.12039800733327866
0.4571494460105896 0.30957749485969543 0.11648816615343094
0.49082976579666138 0.30936869978904724 0.11173113435506821
0.52685719728469849 0.30816078186035156 0.10704560577869415
0.56505471467971802 0.30597156286239624 0.10217978805303574
0.60416561365127563 0.30514425039291382 0.0963548943400383
0.6444171667098999 0.30342388153076172 0.091036044061183929
0.68345737457275391 0.301637202501297 0.086471416056156158
0.72124820947647095 0.30090019106864929 0.081864029169082642
0.75827085971832275 0.29885405302047729 0.078023210167884827
0.7923358678817749 0.29799500107765198 0.076010026037693024
0.82411700487136841 0.2976209819316864 0.074089616537094116
0.85361939668655396 0.29688739776611328 0.074907027184963226
0.88018399477005005 0.29641896486282349 0.07709522545337677
0.90439647436141968 0.296185702085495 0.08089793473482132
0.9260830283164978 0.29566621780395508 0.086600542068481445
0.9456210732460022 0.29592341184616089 0.093902423977851868
0.96389895677566528 0.29661598801612854 0.10317785292863846
0.98017776012420654 0.29706528782844543 0.11399776488542557
0.99349963665008545 0.29762184619903564 0.12780740857124329
0.13962677121162415 0.35469576716423035 0.16640178859233856
0.15191328525543213 0.35445588827133179 0.16526828706264496
0.16628788411617279 0.35402995347976685 0.16435396671295166
0.18447019159793854 0.35328769683837891 0.16315872967243195
0.20319186151027679 0.3524441123008728 0.16121020913124084
0.22371786832809448 0.35192501544952393 0.16007675230503082
0.24616578221321106 0.35155174136161804 0.15753170847892761
0.26907533407211304 0.35132300853729248 0.15546928346157074
0.29400360584259033 0.35121920704841614 0.15257532894611359
0.3195890486240387 0.35099688172340393 0.14972822368144989
0.34627750515937805 0.35011813044548035 0.14714109897613525
0.37459775805473328 0.34885743260383606 0.14379759132862091
0.40348523855209351 0.34785965085029602 0.14052592217922211
0.43414047360420227 0.34710162878036499 0.13671481609344482
0.46679511666297913 0.34589195251464844 0.13278669118881226
0.50070631504058838 0.3445151150226593 0.12838861346244812
0.53717505931854248 0.34353777766227722 0.12374863028526306
0.57574057579040527 0.34260410070419312 0.11868160218000412
0.61501395702362061 0.34060600399971008 0.11326727271080017
0.65525847673416138 0.33944961428642273 0.10820210725069046
0.6944841742515564 0.33800950646400452 0.10328398644924164
0.73206067085266113 0.33673202991485596 0.098958976566791534
0.76898151636123657 0.33567780256271362 0.095557898283004761
0.80299961566925049 0.33502256870269775 0.093152433633804321
0.83462280035018921 0.33388835191726685 0.092015035450458527
0.86391955614089966 0.33293518424034119 0.092614948749542236
0.89036065340042114 0.3326219916343689 0.09466860443353653
0.9144551157951355 0.33226278424263 0.098277993500232697
0.93612980842590332 0.33198976516723633 0.10375718027353287
0.95555287599563599 0.33238318562507629 0.11088398098945618
0.97374874353408813 0.3325018584728241 0.11976850777864456
0.98985326290130615 0.33330649137496948 0.13040047883987427
0.99929744005203247 0.33421555161476135 0.14323566854000092
0.160103440284729 0.39138913154602051 0.18030571937561035
0.1697540283203125 0.39114460349082947 0.17943049967288971
0.18064440786838531 0.39092150330543518 0.17857211828231812
0.19426436722278595 0.39074558019638062 0.17736318707466125
0.2107677161693573 0.39056962728500366 0.17597147822380066
0.23146498203277588 0.39019599556922913 0.17416280508041382
0.25340688228607178 0.38970443606376648 0.17237564921379089
0.27667218446731567 0.38932177424430847 0.16999895870685577
0.30170026421546936 0.38877254724502563 0.16728164255619049
0.32783076167106628 0.3880055844783783 0.16452601552009583
0.35470321774482727 0.38737905025482178 0.16172634065151215
0.38326528668403625 0.38681071996688843 0.1586274653673172
0.41242894530296326 0.38619372248649597 0.15546582639217377
0.44332399964332581 0.38514557480812073 0.1519434005022049
0.47686690092086792 0.38360422849655151 0.1475100964307785
0.51137405633926392 0.38281095027923584 0.1433088481426239
0.54839932918548584 0.38180744647979736 0.13868524134159088
0.58703285455703735 0.38038259744644165 0.13333660364151001
0.62696963548660278 0.37908434867858887 0.12824343144893646
0.66718560457229614 0.37749490141868591 0.12348281592130661
0.7062830924987793 0.37598752975463867 0.11874352395534515
0.74375462532043457 0.37530967593193054 0.11451927572488785
0.78040969371795654 0.37434998154640198 0.11123580485582352
0.81446611881256104 0.37308591604232788 0.10893069952726364
0.84584981203079224 0.37198054790496826 0.10823790729045868
0.87496328353881836 0.37153506278991699 0.10905438661575317
0.90115547180175781 0.37132635712623596 0.11105483025312424
0.92514252662658691 0.37114730477333069 0.11470845341682434
0.94668209552764893 0.37096047401428223 0.11986605823040009
0.96627217531204224 0.37134355306625366 0.12678971886634827
0.98407751321792603 0.37144690752029419 0.13562777638435364
0.99739879369735718 0.37189477682113647 0.14641754329204559
1 0.37248685956001282 0.15922906994819641
0.16626925766468048 0.43004259467124939 0.19489845633506775
0.17474830150604248 0.42994821071624756 0.19442762434482574
0.18535840511322021 0.42984947562217712 0.19342298805713654
0.19980023801326752 0.42967358231544495 0.19170361757278442
