Textures/49.cube
# Created by: G'MIC (https://gmic.eu)
TITLE "Fuji_Sensia_100.cube"
# LUT size
LUT_3D_SIZE 5
# Data domain
DOMAIN_MIN 0.0 0.0 0.0
DOMAIN_MAX 1.0 1.0 1.0
# LUT data points
0.013290231116116047 0.015408948063850403 0.011217549443244934
0.21632286906242371 0.012158830650150776 0.0017122073331847787
0.44204038381576538 0.0088637666776776314 0
0.73488503694534302 0.004899980966001749 0
0.90576738119125366 0.0050885956734418869 0.00092052615946158767
0.13053549826145172 0.28564628958702087 0.1378428041934967
0.27903297543525696 0.28163257241249084 0.12161716818809509
0.51716083288192749 0.27342498302459717 0.091168515384197235
0.8140486478805542 0.26304012537002563 0.058428533375263214
0.98511886596679688 0.26264479756355286 0.11158960312604904
0.18817204236984253 0.60588252544403076 0.25497293472290039
0.33823806047439575 0.60378623008728027 0.24264706671237946
0.61073124408721924 0.59760630130767822 0.20813216269016266
0.90839040279388428 0.58974838256835938 0.17501409351825714
1 0.59077966213226318 0.2451445460319519
0.29837432503700256 0.8482545018196106 0.28572189807891846
0.43873810768127441 0.84477627277374268 0.27413457632064819
0.72070389986038208 0.83742135763168335 0.24027383327484131
0.99401950836181641 0.82926946878433228 0.22415696084499359
1 0.82951408624649048 0.32111197710037231
0.35187220573425293 0.97369289398193359 0.14562377333641052
0.50794059038162231 0.96977132558822632 0.10190654546022415
0.82272219657897949 0.95878517627716064 0
1 0.94836181402206421 0
1 0.95045602321624756 0.13376405835151672
0.0054168752394616604 0.0036161001771688461 0.17688989639282227
0.19067482650279999 0.0015523751499131322 0.14334055781364441
0.41648444533348083 0.00032761352485977113 0.10536156594753265
0.6922614574432373 3.5463685890135821e-06 0.069417253136634827
0.84920138120651245 5.8302306570112705e-05 0.12125829607248306
0.12694638967514038 0.26341181993484497 0.27664300799369812
0.25993800163269043 0.25946304202079773 0.25957006216049194
0.49796819686889648 0.25107544660568237 0.22447589039802551
0.77738642692565918 0.24072971940040588 0.19172798097133636
0.9358142614364624 0.24033659696578979 0.24222102761268616
0.15554250776767731 0.5993962287902832 0.39124849438667297
0.31789728999137878 0.59687966108322144 0.37924155592918396
0.59444564580917358 0.59035724401473999 0.34627559781074524
0.87373733520507812 0.58314967155456543 0.32133463025093079
1 0.58455067873001099 0.37983736395835876
0.25381186604499817 0.85229980945587158 0.44171950221061707
0.40918704867362976 0.84947538375854492 0.43014645576477051
0.69606250524520874 0.84208756685256958 0.39917007088661194
0.95566248893737793 0.83484143018722534 0.38840535283088684
1 0.83497840166091919 0.46779122948646545
0.39122316241264343 0.97632277011871338 0.23466473817825317
0.52399361133575439 0.97368371486663818 0.22017517685890198
0.80462610721588135 0.96583282947540283 0.18195749819278717
1 0.95820236206054688 0.18677659332752228
1 0.96021515130996704 0.35842034220695496
0.0047709778882563114 0 0.34511867165565491
0.17573526501655579 0 0.31632217764854431
0.39808201789855957 0 0.28059124946594238
0.64641404151916504 0 0.2522503137588501
0.79072320461273193 0 0.28659522533416748
0.12904296815395355 0.21966631710529327 0.45376074314117432
0.23974214494228363 0.21496386826038361 0.43964433670043945
0.46902284026145935 0.20472012460231781 0.40690812468528748
0.71539187431335449 0.19411443173885345 0.37976431846618652
0.86144119501113892 0.19130414724349976 0.40849950909614563
0.13354772329330444 0.57360422611236572 0.60662233829498291
0.29561242461204529 0.57160007953643799 0.59557223320007324
0.56475162506103516 0.56433045864105225 0.56442999839782715
0.80723023414611816 0.55690139532089233 0.54260873794555664
0.95389801263809204 0.55678677558898926 0.56751704216003418
0.18802416324615479 0.85660111904144287 0.70908045768737793
0.36746150255203247 0.85386061668395996 0.6980443000793457
0.64731770753860474 0.84660261869430542 0.66923338174819946
0.87328124046325684 0.83996158838272095 0.65530133247375488
1 0.83871543407440186 0.68354779481887817
0.25423958897590637 0.99370741844177246 0.62926656007766724
0.42587581276893616 0.99124056100845337 0.61818009614944458
0.7155303955078125 0.98399698734283447 0.59129756689071655
0.95492798089981079 0.97761881351470947 0.58983564376831055
1 0.97730511426925659 0.66992157697677612
0.012282461859285831 0.0039220009930431843 0.56368458271026611
0.18499653041362762 0 0.53231412172317505
0.3982844352722168 0 0.49000313878059387
0.60812753438949585 0 0.45298594236373901
0.74573767185211182 0 0.44909787178039551
0.12954869866371155 0.11359935998916626 0.63372957706451416
0.24189196527004242 0.10603750497102737 0.61313742399215698
0.44466421008110046 0.091626189649105072 0.56919682025909424
0.64320796728134155 0.078461401164531708 0.52977055311203003
0.77854984998703003 0.070322751998901367 0.51832419633865356
0.24362283945083618 0.50313973426818848 0.78282135725021362
0.35549488663673401 0.49971169233322144 0.76689243316650391
0.56994056701660156 0.4912240207195282 0.7272040843963623
0.75749087333679199 0.48335841298103333 0.69340121746063232
0.89323717355728149 0.47926968336105347 0.68170845508575439
0.3322206437587738 0.84520018100738525 0.90463805198669434
0.44889432191848755 0.84238260984420776 0.89013874530792236
0.6550402045249939 0.83623319864273071 0.85777765512466431
0.83090949058532715 0.83060026168823242 0.83069097995758057
0.96889322996139526 0.82703006267547607 0.82009577751159668
0.31775301694869995 0.99967330694198608 0.94455796480178833
0.44862934947013855 0.99965798854827881 0.93022763729095459
0.67332875728607178 0.99632346630096436 0.89876443147659302
0.86673712730407715 0.99328649044036865 0.8721662163734436
1 0.98932760953903198 0.86860138177871704
0.11353603005409241 0.003922000527381897 0.69252151250839233
0.27780422568321228 0 0.65385538339614868
0.44970312714576721 0 0.61181390285491943
0.60475003719329834 0 0.57662689685821533
0.72272258996963501 0 0.55754578113555908
0.23373603820800781 0 0.69191992282867432
0.31980940699577332 0 0.67102015018463135
0.46766090393066406 0 0.63404005765914917
0.60558581352233887 0 0.6019059419631958
0.71820032596588135 0 0.58124232292175293
0.43178001046180725 0.32238081097602844 0.80463689565658569
0.48783096671104431 0.31648239493370056 0.79042953252792358
0.60536527633666992 0.30439242720603943 0.76041924953460693
0.72044163942337036 0.29092863202095032 0.73137187957763672
0.82285189628601074 0.27829918265342712 0.70910054445266724
0.58443695306777954 0.78798264265060425 0.96451008319854736
0.63096237182617188 0.78598189353942871 0.95538198947906494
0.72877907752990723 0.78076577186584473 0.93567311763763428
0.83635765314102173 0.7743915319442749 0.91386693716049194
0.93955355882644653 0.76808708906173706 0.89501810073852539
0.65009993314743042 0.9961736798286438 1
0.68781077861785889 0.99588000774383545 1
0.7733270525932312 0.99341946840286255 1
0.87911385297775269 0.99162733554840088 0.99961614608764648
0.98934608697891235 0.98941457271575928 0.98920643329620361
