Textures/5.cube
# Created by: G'MIC (https://gmic.eu)
TITLE "BleachBypass4.cube"
# LUT size
LUT_3D_SIZE 5
# Data domain
DOMAIN_MIN 0.0 0.0 0.0
DOMAIN_MAX 1.0 1.0 1.0
# LUT data points
0.093227922916412354 0.089559562504291534 0.091943129897117615
0.16884133219718933 0.11938151717185974 0.12214884161949158
0.25825873017311096 0.14991164207458496 0.15362060070037842
0.36722111701965332 0.18469366431236267 0.1895817369222641
0.50811886787414551 0.22856412827968597 0.23406395316123962
0.12477964162826538 0.15758304297924042 0.12277659773826599
0.21580491960048676 0.20190565288066864 0.1582615077495575
0.32175540924072266 0.24745592474937439 0.19538198411464691
0.44070476293563843 0.2928026020526886 0.234869584441185
0.59301877021789551 0.34824079275131226 0.28343534469604492
0.16423910856246948 0.25453212857246399 0.16144996881484985
0.26956787705421448 0.31178838014602661 0.20189012587070465
0.39117813110351562 0.37192368507385254 0.2443353682756424
0.52706140279769897 0.43320953845977783 0.28972730040550232
0.68857640027999878 0.49948596954345703 0.34145715832710266
0.21376147866249084 0.38711458444595337 0.21003967523574829
0.332855224609375 0.45579153299331665 0.25451275706291199
0.46823650598526001 0.52753782272338867 0.301717609167099
0.62093597650527954 0.60349476337432861 0.35232561826705933
0.7940254807472229 0.68343561887741089 0.40780943632125854
0.26978704333305359 0.55321234464645386 0.26569622755050659
0.40784570574760437 0.63962852954864502 0.31646156311035156
0.55793654918670654 0.72474455833435059 0.36863356828689575
0.72562551498413086 0.81347519159317017 0.42516991496086121
0.91202539205551147 0.9069061279296875 0.48592662811279297
0.11817876994609833 0.1136508584022522 0.15744279325008392
0.20735538005828857 0.14799438416957855 0.20225751399993896
0.30825254321098328 0.18219250440597534 0.24600042402744293
0.42598706483840942 0.21965201199054718 0.29234427213668823
0.5781714916229248 0.26742488145828247 0.34888887405395508
0.15468211472034454 0.19537551701068878 0.20399780571460724
0.25938019156455994 0.24393418431282043 0.2541387677192688
0.37662374973297119 0.2931915819644928 0.30355954170227051
0.50527924299240112 0.34180191159248352 0.35386979579925537
0.66834872961044312 0.40073913335800171 0.41439270973205566
0.19851726293563843 0.30329844355583191 0.25608924031257629
0.31759640574455261 0.36503922939300537 0.31133675575256348
0.45058277249336243 0.42908331751823425 0.36633405089378357
0.59660619497299194 0.49382340908050537 0.4226231575012207
0.7685236930847168 0.56339609622955322 0.48625725507736206
0.25229582190513611 0.44678103923797607 0.31843283772468567
0.3852962851524353 0.52054411172866821 0.37798947095870972
0.53223991394042969 0.59610515832901001 0.43742406368255615
0.69511419534683228 0.67620742321014404 0.49949780106544495
0.87884527444839478 0.75953686237335205 0.56693053245544434
0.31372836232185364 0.62820291519165039 0.3914368748664856
0.46575072407722473 0.71917182207107544 0.4571605920791626
0.62725883722305298 0.80799418687820435 0.52154505252838135
0.80417197942733765 0.89945900440216064 0.58787202835083008
0.99677360057830811 0.99356740713119507 0.65858751535415649
0.14527224004268646 0.13951727747917175 0.23758254945278168
0.24519228935241699 0.17713391780853271 0.29394575953483582
0.36014807224273682 0.21555918455123901 0.35236093401908875
0.48769930005073547 0.25648564100265503 0.41071423888206482
0.64944052696228027 0.30738151073455811 0.47779759764671326
0.18639490008354187 0.23347687721252441 0.29888537526130676
0.30197432637214661 0.28542983531951904 0.3604811429977417
0.43286338448524475 0.33893606066703796 0.42500743269920349
0.57272821664810181 0.39141827821731567 0.48734945058822632
0.74457383155822754 0.453370600938797 0.55825614929199219
0.23572300374507904 0.35544010996818542 0.36747142672538757
0.36542752385139465 0.42079249024391174 0.43435826897621155
0.51214849948883057 0.48919832706451416 0.50433385372161865
0.6693236231803894 0.55766350030899048 0.57266837358474731
0.85015666484832764 0.63065129518508911 0.64714092016220093
0.29365229606628418 0.50997209548950195 0.4440302848815918
0.43734738230705261 0.58699560165405273 0.5150483250617981
0.59849578142166138 0.66794425249099731 0.58971250057220459
0.7725217342376709 0.75205415487289429 0.66397464275360107
0.96516633033752441 0.83859002590179443 0.74206507205963135
0.36019483208656311 0.70368373394012451 0.53187763690948486
0.52229207754135132 0.79826599359512329 0.60898697376251221
0.69817435741424561 0.89159888029098511 0.68880432844161987
0.88622027635574341 0.9867820143699646 0.76726609468460083
1 1 0.84852296113967896
0.1798005998134613 0.17262275516986847 0.34579476714134216
0.28948685526847839 0.21277235448360443 0.41107004880905151
0.41307607293128967 0.25348967313766479 0.47827062010765076
0.55370533466339111 0.29763561487197876 0.54830479621887207
0.72458255290985107 0.35078728199005127 0.62488293647766113
0.22350676357746124 0.27486526966094971 0.41485023498535156
0.34850332140922546 0.32930800318717957 0.48572078347206116
0.48861077427864075 0.38570898771286011 0.55863445997238159
0.64212715625762939 0.44182002544403076 0.63478416204452515
0.8236275315284729 0.50684463977813721 0.71700727939605713
0.2758430540561676 0.40818294882774353 0.49445506930351257
0.41538608074188232 0.47676849365234375 0.57157450914382935
0.57228833436965942 0.54853993654251099 0.65219700336456299
0.7437397837638855 0.62142753601074219 0.7360379695892334
0.93424838781356812 0.6974065899848938 0.82152992486953735
0.33820587396621704 0.57611197233200073 0.58609902858734131
0.49269440770149231 0.65739959478378296 0.66935265064239502
0.66410213708877563 0.74237680435180664 0.75557363033294678
0.85276514291763306 0.83127468824386597 0.84538966417312622
1 0.92115426063537598 0.93475812673568726
0.40994435548782349 0.78261584043502808 0.68935638666152954
0.58217519521713257 0.88058531284332275 0.7782665491104126
0.76820856332778931 0.977649986743927 0.86918997764587402
0.97087645530700684 1 0.96342653036117554
1 1 1
0.21763089299201965 0.21033281087875366 0.47558212280273438
0.34088051319122314 0.25480592250823975 0.55572366714477539
0.47463271021842957 0.2988821268081665 0.63388848304748535
0.62488418817520142 0.3462669849395752 0.71511280536651611
0.81023991107940674 0.40363103151321411 0.80715698003768921
0.26608550548553467 0.32392936944961548 0.55870729684829712
0.40442082285881042 0.38272109627723694 0.6440967321395874
0.55480313301086426 0.44234585762023926 0.72817003726959229
0.71787422895431519 0.50160509347915649 0.81409013271331787
0.91219562292098999 0.56976854801177979 0.90934169292449951
0.32285887002944946 0.46858659386634827 0.6519775390625
0.47557893395423889 0.54097926616668701 0.7427448034286499
0.64174181222915649 0.61529570817947388 0.83237993717193604
0.82214176654815674 0.6907191276550293 0.92436760663986206
1 0.77003103494644165 0.99999582767486572
0.38844448328018188 0.64797455072402954 0.75606578588485718
0.55577713251113892 0.73297852277755737 0.85145366191864014
0.7364838719367981 0.82073915004730225 0.94635611772537231
0.93416744470596313 0.91215759515762329 1
1 0.99756014347076416 1
0.46452146768569946 0.86892229318618774 0.87313133478164673
0.64872485399246216 0.96992319822311401 0.97389167547225952
0.84411770105361938 1 1
1 1 1
1 1 1
