Textures/5.cube
# Created by: G'MIC (https://gmic.eu)
TITLE "BleachBypass4.cube"
# LUT size
LUT_3D_SIZE 33
# Data domain
DOMAIN_MIN 0.0 0.0 0.0
DOMAIN_MAX 1.0 1.0 1.0
# LUT data points
0.093227922916412354 0.089559562504291534 0.091943129897117615
0.099231012165546417 0.091899462044239044 0.09437849372625351
0.10509505867958069 0.094236038625240326 0.096767783164978027
0.11106406152248383 0.096501611173152924 0.099149189889431
0.12000154703855515 0.10007999837398529 0.10272367298603058
0.13234753906726837 0.10503769665956497 0.10759013146162033
0.14460241794586182 0.10975168645381927 0.11245313286781311
0.15669067203998566 0.11454767733812332 0.11726018786430359
0.16884133219718933 0.11938151717185974 0.12214884161949158
0.18092139065265656 0.1241118311882019 0.12698881328105927
0.1912522166967392 0.12760065495967865 0.13100974261760712
0.20024088025093079 0.13048069179058075 0.13408941030502319
0.20897328853607178 0.13328239321708679 0.13687735795974731
0.21766722202301025 0.13603711128234863 0.1396770179271698
0.22835482656955719 0.1395275741815567 0.14323228597640991
0.24325476586818695 0.1446310430765152 0.14844201505184174
0.25825873017311096 0.14991164207458496 0.15362060070037842
0.27334555983543396 0.15516585111618042 0.15900661051273346
0.28826674818992615 0.16027776896953583 0.16422846913337708
0.30327817797660828 0.16555702686309814 0.16942088305950165
0.31795850396156311 0.17057016491889954 0.17450007796287537
0.33160072565078735 0.17467629909515381 0.17933788895606995
0.34384492039680481 0.17813800275325775 0.18308807909488678
0.35558301210403442 0.18140225112438202 0.18633981049060822
0.36722111701965332 0.18469366431236267 0.1895817369222641
0.38209009170532227 0.18912182748317719 0.19415809214115143
0.40022096037864685 0.19478365778923035 0.1999216228723526
0.41858145594596863 0.20049446821212769 0.20563739538192749
0.43667104840278625 0.20623333752155304 0.21135298907756805
0.45446443557739258 0.21186962723731995 0.21702614426612854
0.47260013222694397 0.21764746308326721 0.22275799512863159
0.49046334624290466 0.22319866716861725 0.22846744954586029
0.50811886787414551 0.22856412827968597 0.23406395316123962
0.09723161906003952 0.097090490162372589 0.095651634037494659
0.10340210795402527 0.099603727459907532 0.098198495805263519
0.10922756791114807 0.10188935697078705 0.10052933543920517
0.11528662592172623 0.10435811430215836 0.10293993353843689
0.12487407028675079 0.10804992169141769 0.10676053911447525
0.13715630769729614 0.11298748850822449 0.11164654046297073
0.14930275082588196 0.11776603758335114 0.1165541410446167
0.16146655380725861 0.12255909293889999 0.12139327079057693
0.17359377443790436 0.12748582661151886 0.12619039416313171
0.18573600053787231 0.13212122023105621 0.13104131817817688
0.19697502255439758 0.13665306568145752 0.13543781638145447
0.20653170347213745 0.13985054194927216 0.13853274285793304
0.21508444845676422 0.14275389909744263 0.1412871927022934
0.2237866222858429 0.14540691673755646 0.144100621342659
0.23508565127849579 0.1491432785987854 0.14794465899467468
0.25002178549766541 0.15435861051082611 0.1531069278717041
0.2650400698184967 0.15959860384464264 0.1583295464515686
0.28012952208518982 0.16484975814819336 0.1637311577796936
0.29509976506233215 0.17011189460754395 0.16893944144248962
0.31010380387306213 0.17531350255012512 0.174142986536026
0.32489120960235596 0.18043462932109833 0.17933826148509979
0.33923187851905823 0.18552269041538239 0.18423987925052643
0.3521881103515625 0.1894163191318512 0.18814456462860107
0.36394184827804565 0.19267567992210388 0.19149845838546753
0.37542504072189331 0.19590510427951813 0.19477087259292603
0.3912007212638855 0.20063161849975586 0.19942755997180939
0.40908747911453247 0.20638734102249146 0.2052265852689743
0.4275517463684082 0.21210530400276184 0.21094384789466858
0.44544035196304321 0.21782484650611877 0.21666929125785828
0.46355175971984863 0.22348889708518982 0.22232332825660706
0.48139020800590515 0.22914102673530579 0.22808384895324707
0.4995177686214447 0.23476861417293549 0.23376011848449707
0.51722806692123413 0.24036385118961334 0.23944146931171417
0.10031094402074814 0.10315234959125519 0.098445802927017212
0.1073082908987999 0.10655105859041214 0.10129497200250626
0.11331665515899658 0.10898875445127487 0.10362990200519562
0.11932850629091263 0.11133076995611191 0.10601554065942764
0.1293909102678299 0.11532431095838547 0.1100684329867363
0.14190271496772766 0.12026822566986084 0.11496500670909882
0.15405713021755219 0.12507243454456329 0.11987318843603134
0.16602505743503571 0.12990465760231018 0.12468791753053665
0.17828434705734253 0.13467651605606079 0.12955325841903687
0.19043990969657898 0.13950774073600769 0.13432657718658447
0.20179575681686401 0.14408266544342041 0.13875000178813934
0.21212740242481232 0.14828488230705261 0.14212895929813385
0.22117631137371063 0.15138378739356995 0.14502899348735809
0.22991332411766052 0.1541067361831665 0.14784130454063416
0.24168045818805695 0.15812762081623077 0.15181471407413483
0.25658848881721497 0.16337049007415771 0.15705224871635437
0.27174398303031921 0.16861902177333832 0.16237449645996094
0.28678491711616516 0.17386288940906525 0.16762451827526093
0.30180740356445312 0.17905369400978088 0.17287027835845947
0.31674647331237793 0.18425194919109344 0.17808929085731506
0.33147227764129639 0.18943066895008087 0.18328896164894104
0.34599369764328003 0.19447271525859833 0.18821479380130768
0.35987550020217896 0.19949133694171906 0.1923673003911972
0.3719814121723175 0.20319929718971252 0.19576185941696167
0.3837185800075531 0.20646701753139496 0.19913925230503082
0.39995214343070984 0.21138167381286621 0.20407834649085999
0.41777932643890381 0.21711525321006775 0.20975698530673981
0.43625634908676147 0.22287501394748688 0.21567584574222565
0.45423001050949097 0.22862954437732697 0.22148120403289795
0.47230380773544312 0.23425474762916565 0.22715480625629425
0.49008730053901672 0.23994976282119751 0.23289963603019714
0.50830131769180298 0.24559703469276428 0.23858396708965302
0.52590483427047729 0.25122109055519104 0.24426448345184326
0.1030707061290741 0.10887839645147324 0.10131486505270004
0.11056366562843323 0.11281555891036987 0.10423951596021652
0.11734404414892197 0.11598441004753113 0.10665129125118256
0.12344367802143097 0.11835633963346481 0.10912174731492996
0.13401925563812256 0.1226334273815155 0.11333537846803665
0.14656355977058411 0.12752352654933929 0.11827950179576874
0.15861901640892029 0.13240237534046173 0.12315642088651657
0.17069044709205627 0.13709884881973267 0.128006711602211
0.18299917876720428 0.14197239279747009 0.13277536630630493
0.19494059681892395 0.14677631855010986 0.13763056695461273
0.2063402533531189 0.15138630568981171 0.14190740883350372
0.2169971764087677 0.1558215320110321 0.14551310241222382
0.22689466178417206 0.15988612174987793 0.14856137335300446
0.2358672022819519 0.16281838715076447 0.15153932571411133
0.24839839339256287 0.16714197397232056 0.15569008886814117
0.26335915923118591 0.17233362793922424 0.16091616451740265
0.2783927321434021 0.17758925259113312 0.16621033847332001
0.2934916615486145 0.18284852802753448 0.17147785425186157
0.30838921666145325 0.18803879618644714 0.17674344778060913
0.32343867421150208 0.19324828684329987 0.18199795484542847
0.33816665410995483 0.19846735894680023 0.18719519674777985
0.35273095965385437 0.20354287326335907 0.19217598438262939
0.36659550666809082 0.20835572481155396 0.19617158174514771
0.37964540719985962 0.21315513551235199 0.19993139803409576
0.39201274514198303 0.21702338755130768 0.20346693694591522
0.40881499648094177 0.22217345237731934 0.20872572064399719
0.42660191655158997 0.22783023118972778 0.21436920762062073
0.4449828565120697 0.23361602425575256 0.22010783851146698
0.46311688423156738 0.23935166001319885 0.22581036388874054
0.48108136653900146 0.24499151110649109 0.23148714005947113
0.49887114763259888 0.2506754994392395 0.23722557723522186
0.51710045337677002 0.25640168786048889 0.24291832745075226
0.53462475538253784 0.26206335425376892 0.24858817458152771
0.10581472516059875 0.1143699437379837 0.10404583066701889
0.11329016834497452 0.11847451329231262 0.10675907880067825
0.12066469341516495 0.12223024666309357 0.10955239832401276
0.12772469222545624 0.12537696957588196 0.11220811307430267
0.13886824250221252 0.1297743022441864 0.11661413311958313
0.15106439590454102 0.13471625745296478 0.12150593847036362
0.16334940493106842 0.13948890566825867 0.12639980018138885
0.17541050910949707 0.14429621398448944 0.13123615086078644
0.18749821186065674 0.14923925697803497 0.13605619966983795
0.19960181415081024 0.15396691858768463 0.14084874093532562
0.21101798117160797 0.15850931406021118 0.14525367319583893
0.22156611084938049 0.16294281184673309 0.14869944751262665
0.23169948160648346 0.16728237271308899 0.15179677307605743
0.24184459447860718 0.17140753567218781 0.15502035617828369
0.25501537322998047 0.17611014842987061 0.15960371494293213
0.27003899216651917 0.18134705722332001 0.16488721966743469
0.28512212634086609 0.18667426705360413 0.17017388343811035
0.30025264620780945 0.19212308526039124 0.17551614344120026
0.3152925968170166 0.19737842679023743 0.18083469569683075
0.33028197288513184 0.20278641581535339 0.18605500459671021
0.34510517120361328 0.20811258256435394 0.19128860533237457
0.35970830917358398 0.21328888833522797 0.19635376334190369
0.37350305914878845 0.21839751303195953 0.20060256123542786
0.38696074485778809 0.22345413267612457 0.20428255200386047
0.40043053030967712 0.22840942442417145 0.20816072821617126
0.41814315319061279 0.23446770012378693 0.21369104087352753
0.43631279468536377 0.2404816746711731 0.21942296624183655
0.45459944009780884 0.24663640558719635 0.22541883587837219
0.47291865944862366 0.25234800577163696 0.23123496770858765
0.49088072776794434 0.25834548473358154 0.23711208999156952
0.5090562105178833 0.26447531580924988 0.24288071691989899
0.52715438604354858 0.27052855491638184 0.24881076812744141
0.54510855674743652 0.27628371119499207 0.2545209527015686
0.10907267779111862 0.12132363766431808 0.10709476470947266
0.11652993410825729 0.12532785534858704 0.10984142124652863
0.12399791926145554 0.12934985756874084 0.1127440556883812
0.13208131492137909 0.13365630805492401 0.11583280563354492
0.14425954222679138 0.13911710679531097 0.12059200555086136
0.15674726665019989 0.14421954751014709 0.12570257484912872
0.16902147233486176 0.14928166568279266 0.13056962192058563
0.18111066520214081 0.15434695780277252 0.13550910353660583
0.19347460567951202 0.15942440927028656 0.1404736191034317
0.20558346807956696 0.16452716290950775 0.14535824954509735
0.21710886061191559 0.16935445368289948 0.1499323695898056
0.22774498164653778 0.17419958114624023 0.15344509482383728
0.23807722330093384 0.17870862782001495 0.15676738321781158
0.24868856370449066 0.18334349989891052 0.16005146503448486
0.26354497671127319 0.18969088792800903 0.16521130502223969
0.27876996994018555 0.19538006186485291 0.17064705491065979
0.29400399327278137 0.20094801485538483 0.17606572806835175
0.30922642350196838 0.20654678344726562 0.18145576119422913
0.32434040307998657 0.21204552054405212 0.18679279088973999
0.33948007225990295 0.21759916841983795 0.19215187430381775
0.3543858528137207 0.2230914831161499 0.19750948250293732
0.36900743842124939 0.22851978242397308 0.20262551307678223
0.38299673795700073 0.23374681174755096 0.20679309964179993
0.39626485109329224 0.23881074786186218 0.21065917611122131
0.41034677624702454 0.2441377192735672 0.21475689113140106
0.42930102348327637 0.25146639347076416 0.2206493467092514
0.44808200001716614 0.25805860757827759 0.22670048475265503
0.46649429202079773 0.26414665579795837 0.23255755007266998
0.48471421003341675 0.27026066184043884 0.23843355476856232
0.50278007984161377 0.27623015642166138 0.24426424503326416
0.52095723152160645 0.28221836686134338 0.25002184510231018
0.53906035423278809 0.28817582130432129 0.25594702363014221
0.55695569515228271 0.29426717758178711 0.26173105835914612
0.11408396065235138 0.13287542760372162 0.11221012473106384
0.12162693589925766 0.13713304698467255 0.11514298617839813
0.12917648255825043 0.14139239490032196 0.11794158816337585
0.13761897385120392 0.14602740108966827 0.12123484164476395
0.15126374363899231 0.15249493718147278 0.12642849981784821
0.16414454579353333 0.15820074081420898 0.13154412806034088
0.17639109492301941 0.16336490213871002 0.13646271824836731
0.18851004540920258 0.16841119527816772 0.14143110811710358
0.20089626312255859 0.17359299957752228 0.14638163149356842
0.21304355561733246 0.17870630323886871 0.15136533975601196
0.2244950532913208 0.18363450467586517 0.15573930740356445
0.2352803498506546 0.18826031684875488 0.15936781466007233
0.24551817774772644 0.19279801845550537 0.16270922124385834
0.256296306848526 0.19765621423721313 0.16614815592765808
0.2720470130443573 0.20434989035129547 0.17152617871761322
0.28832995891571045 0.21118679642677307 0.17716756463050842
0.30386218428611755 0.21704952418804169 0.18261004984378815
0.3191055953502655 0.22260923683643341 0.18804942071437836
0.33407792448997498 0.22813305258750916 0.19340923428535461
0.34917530417442322 0.23370613157749176 0.19876402616500854
0.36403900384902954 0.23915432393550873 0.20405378937721252
0.37874022126197815 0.2445540577173233 0.20923516154289246
0.39280903339385986 0.24988867342472076 0.21351544559001923
0.40595370531082153 0.25487667322158813 0.21728242933750153
0.42033454775810242 0.26037377119064331 0.22148594260215759
0.43980827927589417 0.2678661048412323 0.22754740715026855
0.45948508381843567 0.27543208003044128 0.2337716668844223
0.47855833172798157 0.28216230869293213 0.23978757858276367
0.49683493375778198 0.28825992345809937 0.24572734534740448
0.51470136642456055 0.29419291019439697 0.25146597623825073
0.53297078609466553 0.30036172270774841 0.25745272636413574
0.55109834671020508 0.30627530813217163 0.26324164867401123
0.56908059120178223 0.31222102046012878 0.26905250549316406
0.11932783573865891 0.14526188373565674 0.1174224466085434
0.12690593302249908 0.14940541982650757 0.12033286690711975
0.13447439670562744 0.15351438522338867 0.12314674258232117
0.14328561723232269 0.15835706889629364 0.12662702798843384
0.15729257464408875 0.16518872976303101 0.13196249306201935
0.17118310928344727 0.17190858721733093 0.1373087614774704
0.18382760882377625 0.17743419110774994 0.14240659773349762
0.1959633082151413 0.18246786296367645 0.14728891849517822
0.20831272006034851 0.18765343725681305 0.15223100781440735
0.22044949233531952 0.19273316860198975 0.15722851455211639
0.2319517582654953 0.19768257439136505 0.16166013479232788
0.24267970025539398 0.20231141149997711 0.16528145968914032
0.25294804573059082 0.20693312585353851 0.16853824257850647
0.26388627290725708 0.211760014295578 0.17213928699493408
0.27985295653343201 0.21865543723106384 0.17763949930667877
0.29660114645957947 0.22587874531745911 0.18338178098201752
0.31319305300712585 0.23271714150905609 0.18909835815429688
0.32862064242362976 0.238552525639534 0.19459529221057892
0.34370851516723633 0.24405625462532043 0.1999143660068512
0.35877785086631775 0.24962624907493591 0.20524983108043671
0.37367174029350281 0.25506299734115601 0.21056760847568512
0.38830021023750305 0.26048862934112549 0.2157449871301651
0.40230637788772583 0.26575461030006409 0.22002078592777252
0.41567203402519226 0.27089256048202515 0.22378861904144287
0.43044605851173401 0.27647820115089417 0.22808966040611267
0.4500277042388916 0.28404790163040161 0.23436048626899719
0.46977117657661438 0.29166272282600403 0.24050937592983246
0.48976576328277588 0.2992684543132782 0.24694398045539856
0.50867193937301636 0.30613744258880615 0.25287821888923645
0.52671480178833008 0.3120180070400238 0.25879424810409546
0.54490745067596436 0.31817081570625305 0.26463460922241211
0.56290614604949951 0.3241843581199646 0.27044364809989929
0.58098989725112915 0.33011877536773682 0.27626508474349976
0.12477964162826538 0.15758304297924042 0.12277659773826599
0.13221807777881622 0.16182355582714081 0.12566953897476196
0.13978144526481628 0.16607508063316345 0.12849545478820801
0.14908204972743988 0.17096386849880219 0.13191840052604675
0.16330143809318542 0.17789137363433838 0.13735158741474152
0.17748157680034637 0.18480336666107178 0.14305785298347473
0.19105303287506104 0.19128565490245819 0.14823172986507416
0.20353111624717712 0.19668388366699219 0.15325011312961578
0.21580491960048676 0.20190565288066864 0.1582615077495575
0.22796496748924255 0.20694184303283691 0.16314442455768585
0.23952941596508026 0.21179588139057159 0.16769969463348389
0.25018325448036194 0.21660779416561127 0.17127117514610291
0.26047137379646301 0.22113226354122162 0.17451298236846924
0.27175098657608032 0.2261575311422348 0.17817352712154388
0.28806167840957642 0.23319128155708313 0.18378375470638275
0.30489787459373474 0.24030271172523499 0.18957267701625824
0.32175540924072266 0.24745592474937439 0.19538198411464691
0.33819755911827087 0.25440165400505066 0.20113766193389893
0.3534170389175415 0.26021626591682434 0.2065565288066864
0.36860248446464539 0.26577779650688171 0.21191766858100891
0.38343200087547302 0.27122274041175842 0.21722613275051117
0.39810493588447571 0.27667662501335144 0.22237043082714081
0.41212591528892517 0.28188085556030273 0.22655679285526276
0.42543339729309082 0.28696200251579285 0.23042342066764832
0.44070476293563843 0.2928026020526886 0.234869584441185
0.46045511960983276 0.30050310492515564 0.24121762812137604
0.48019921779632568 0.3080998957157135 0.24741752445697784
0.50019240379333496 0.31579113006591797 0.25380894541740417
0.52000981569290161 0.3234042227268219 0.26004227995872498
0.53875839710235596 0.33028882741928101 0.26602444052696228
0.55699074268341064 0.3362102210521698 0.27190211415290833
0.57506030797958374 0.34221729636192322 0.27778732776641846
0.59301877021789551 0.34824079275131226 0.28343534469604492
0.13014115393161774 0.17005521059036255 0.12820726633071899
0.13763491809368134 0.17419250309467316 0.13106906414031982
0.14512427151203156 0.17823813855648041 0.13388347625732422
0.1548914909362793 0.18345622718334198 0.13749665021896362
0.16925543546676636 0.19047172367572784 0.14304459095001221
0.18340501189231873 0.19743646681308746 0.14865581691265106
0.19727803766727448 0.20414963364601135 0.1538177877664566
0.21077138185501099 0.21060001850128174 0.15911765396595001
0.22330319881439209 0.21602997183799744 0.16416847705841064
0.23551085591316223 0.22105950117111206 0.16910715401172638
0.24689403176307678 0.22608186304569244 0.17361249029636383
0.2576984167098999 0.23068493604660034 0.17714597284793854
0.26790586113929749 0.23527932167053223 0.18047015368938446
0.27966943383216858 0.2404276579618454 0.18425731360912323
0.29633596539497375 0.24757087230682373 0.19003424048423767
0.31292995810508728 0.25470465421676636 0.19583967328071594
0.32982149720191956 0.26192525029182434 0.20158413052558899
0.34639051556587219 0.26918327808380127 0.20740140974521637
0.36290964484214783 0.27596789598464966 0.21309284865856171
0.37827399373054504 0.28179931640625 0.21849896013736725
0.39311611652374268 0.28725939989089966 0.223711296916008
0.40785872936248779 0.29269987344741821 0.22889168560504913
0.42192867398262024 0.29798305034637451 0.23324725031852722
0.43505048751831055 0.30297961831092834 0.2370201051235199
0.45077615976333618 0.30914202332496643 0.24165084958076477
0.47078081965446472 0.31679347157478333 0.24796923995018005
0.49054279923439026 0.32438477873802185 0.25423699617385864
0.51058173179626465 0.33214008808135986 0.26061609387397766
0.530373215675354 0.33972024917602539 0.26691266894340515
0.54990613460540771 0.34728047251701355 0.27298280596733093
0.56896239519119263 0.35419633984565735 0.27920383214950562
0.58709079027175903 0.36026096343994141 0.28487244248390198
0.60504543781280518 0.3661467432975769 0.29063209891319275
0.13553853332996368 0.18227775394916534 0.13340106606483459
0.14301952719688416 0.18641451001167297 0.13623593747615814
0.15047819912433624 0.19066590070724487 0.13909755647182465
0.16078637540340424 0.19614970684051514 0.14305196702480316
0.17520241439342499 0.20317953824996948 0.14866907894611359
0.18934847414493561 0.21009394526481628 0.15417924523353577
0.2032310962677002 0.21684151887893677 0.15943452715873718
0.21701669692993164 0.22361651062965393 0.1647258996963501
0.23054921627044678 0.23008531332015991 0.17013545334339142
0.24297615885734558 0.23539082705974579 0.17503625154495239
0.25450155138969421 0.24027098715305328 0.17954976856708527
0.26517319679260254 0.24503603577613831 0.18316769599914551
0.27540552616119385 0.24961201846599579 0.18640828132629395
0.28751838207244873 0.25491693615913391 0.19044211506843567
0.30436503887176514 0.26211637258529663 0.19620288908481598
0.32119566202163696 0.26924598217010498 0.2018778920173645
0.33771750330924988 0.27643600106239319 0.20773753523826599
0.35456982254981995 0.28370881080627441 0.21352913975715637
0.37132450938224792 0.29078462719917297 0.21924677491188049
0.38787367939949036 0.29767915606498718 0.22497949004173279
0.40279754996299744 0.30345997214317322 0.23039525747299194
0.41751185059547424 0.30887874960899353 0.2355240136384964
0.43155708909034729 0.31413623690605164 0.23988305032253265
0.44491589069366455 0.31924855709075928 0.24359077215194702
0.4610963761806488 0.32552802562713623 0.24855107069015503
0.48120585083961487 0.33321726322174072 0.25486782193183899
0.50100362300872803 0.3408564031124115 0.2611091136932373
0.52094185352325439 0.34847602248191833 0.26739609241485596
0.54079234600067139 0.35624182224273682 0.27373385429382324
0.5602753758430481 0.36369621753692627 0.27985396981239319
0.5801122784614563 0.37143471837043762 0.28613284230232239
0.59903627634048462 0.37830334901809692 0.29218336939811707
0.6170649528503418 0.38437718152999878 0.29799908399581909
0.14096084237098694 0.19513964653015137 0.13894151151180267
0.14842501282691956 0.19938808679580688 0.1418306827545166
0.15591998398303986 0.20365062355995178 0.14470607042312622
0.16685153543949127 0.20914407074451447 0.14877490699291229
0.1814139187335968 0.21616679430007935 0.1544916182756424
0.19547291100025177 0.22306738793849945 0.15978482365608215
0.20931501686573029 0.22983239591121674 0.1651657372713089
0.22301889955997467 0.23660179972648621 0.17042125761508942
0.23705823719501495 0.24338321387767792 0.17593330144882202
0.250470370054245 0.24977238476276398 0.18108038604259491
0.26211690902709961 0.25486326217651367 0.18567334115505219
0.27278205752372742 0.25959107279777527 0.18921604752540588
0.28308096528053284 0.2641737163066864 0.19253207743167877
0.29587623476982117 0.26969847083091736 0.19667400419712067
0.31286224722862244 0.27695786952972412 0.20260107517242432
0.32916814088821411 0.28409376740455627 0.20830889046192169
0.34604606032371521 0.29128861427307129 0.21410757303237915
0.36298727989196777 0.29849958419799805 0.21995972096920013
0.37965905666351318 0.30562761425971985 0.2256845235824585
0.39623481035232544 0.31276646256446838 0.23146030306816101
0.41249874234199524 0.31962928175926208 0.23706544935703278
0.42745065689086914 0.32533332705497742 0.24221275746822357
0.44154325127601624 0.3306846022605896 0.24655967950820923
0.45478764176368713 0.3357691764831543 0.25033411383628845
0.47174274921417236 0.34219270944595337 0.25555285811424255
0.49180552363395691 0.34998393058776855 0.26181298494338989
0.51152575016021729 0.35763657093048096 0.26810753345489502
0.53147333860397339 0.36542567610740662 0.27445265650749207
0.55138951539993286 0.3730003833770752 0.28072068095207214
0.57088816165924072 0.38059455156326294 0.28688207268714905
0.59065490961074829 0.38812929391860962 0.29318499565124512
0.61027264595031738 0.3957136869430542 0.29940289258956909
0.62921762466430664 0.40275010466575623 0.30543392896652222
0.1462579071521759 0.20747789740562439 0.14404261112213135
0.15374715626239777 0.21170902252197266 0.14685638248920441
0.16122448444366455 0.21584649384021759 0.14978025853633881
