Textures/50.cube
# Created by: G'MIC (https://gmic.eu)
TITLE "Fuji_Superia_100_2.cube"
# LUT size
LUT_3D_SIZE 33
# Data domain
DOMAIN_MIN 0.0 0.0 0.0
DOMAIN_MAX 1.0 1.0 1.0
# LUT data points
0.01152424793690443 0.021051784977316856 0.020381374284625053
0.014216671697795391 0.021488446742296219 0.020090268924832344
0.019244186580181122 0.022211033850908279 0.020160142332315445
0.030418161302804947 0.022840240970253944 0.020040266215801239
0.049788434058427811 0.024848103523254395 0.019608307629823685
0.075797803699970245 0.028100814670324326 0.01855776458978653
0.10590202361345291 0.033582638949155807 0.017771143466234207
0.13872353732585907 0.038479026407003403 0.01562846451997757
0.17460143566131592 0.044483859091997147 0.012930426746606827
0.21310208737850189 0.050553169101476669 0.010053187608718872
0.25395685434341431 0.056688796728849411 0.0062681110575795174
0.29735970497131348 0.062807828187942505 0.001666004303842783
0.34080138802528381 0.068506404757499695 9.0184163127560169e-05
0.38502207398414612 0.075127221643924713 0
0.42842251062393188 0.08132181316614151 0
0.4710395336151123 0.087910972535610199 0
0.51190084218978882 0.094214402139186859 0
0.5513654351234436 0.10081073641777039 0
0.59027892351150513 0.10771556198596954 0
0.63133245706558228 0.11543649435043335 0
0.66738265752792358 0.12215659022331238 0
0.69955688714981079 0.12909074127674103 0
0.72880935668945312 0.13546669483184814 0
0.75609880685806274 0.14178469777107239 0
0.7836347222328186 0.14806167781352997 0
0.81133145093917847 0.15459959208965302 0
0.83949548006057739 0.16178244352340698 0
0.86755228042602539 0.1690145879983902 0
0.8960457444190979 0.17643499374389648 0
0.92371928691864014 0.18378742039203644 0
0.95228582620620728 0.19180330634117126 0
0.9803309440612793 0.19978764653205872 0
0.99922209978103638 0.20926818251609802 0
0.011114679276943207 0.024545321241021156 0.020795807242393494
0.013475937768816948 0.025231484323740005 0.020633598789572716
0.019636336714029312 0.027146829292178154 0.020387237891554832
0.032034728676080704 0.029589233919978142 0.019796404987573624
0.052013196051120758 0.033889509737491608 0.019328944385051727
0.078056059777736664 0.039905454963445663 0.01775779202580452
0.10778205841779709 0.046360597014427185 0.016128538176417351
0.14070527255535126 0.053400054574012756 0.013962253928184509
0.17747093737125397 0.060238923877477646 0.011531319469213486
0.21662992238998413 0.066519469022750854 0.0076565914787352085
0.25742077827453613 0.072973869740962982 0.0034833215177059174
0.30100932717323303 0.079084686934947968 0.00046506366925314069
0.34420788288116455 0.085063345730304718 1.7873697288450785e-05
0.38798022270202637 0.091131344437599182 0
0.43112829327583313 0.09714856743812561 0
0.47273585200309753 0.10350751131772995 0
0.51314705610275269 0.10941965132951736 0
0.55250495672225952 0.11558159440755844 0
0.59239518642425537 0.12211210280656815 0
0.63266712427139282 0.12918840348720551 0
0.66858434677124023 0.13543637096881866 0
0.70029056072235107 0.14168752729892731 0
0.72938722372055054 0.14699572324752808 0
0.75661534070968628 0.15270178020000458 0
0.78451895713806152 0.15899454057216644 0
0.81204265356063843 0.16508311033248901 0
0.83956551551818848 0.17136594653129578 0
0.86774957180023193 0.17819292843341827 0
0.89621526002883911 0.18512548506259918 0
0.92372024059295654 0.19207064807415009 0
0.95255964994430542 0.19953994452953339 0
0.98043268918991089 0.20717319846153259 0
0.99910199642181396 0.21614918112754822 0
0.0077848285436630249 0.033302266150712967 0.021370740607380867
0.010703222826123238 0.034369606524705887 0.021130602806806564
0.017661742866039276 0.035944066941738129 0.020817955955862999
0.031372103840112686 0.040144871920347214 0.019731758162379265
0.053184740245342255 0.047212477773427963 0.018051477149128914
0.081678196787834167 0.056024301797151566 0.016075102612376213
0.11278066039085388 0.063933052122592926 0.014049073681235313
0.14584888517856598 0.070906393229961395 0.011323446407914162
0.18277621269226074 0.078261494636535645 0.0082596000283956528
0.22182387113571167 0.084767982363700867 0.0046293227933347225
0.26275435090065002 0.091303184628486633 0.001426236005499959
0.30583301186561584 0.097087651491165161 6.0855691117467359e-05
0.34897458553314209 0.1032274067401886 0
0.39210820198059082 0.10954533517360687 0
0.43489477038383484 0.11547977477312088 0
0.47596701979637146 0.12152601033449173 0
0.51616162061691284 0.12697526812553406 0
0.55564785003662109 0.13266901671886444 0
0.59642666578292847 0.13913489878177643 0
0.63567548990249634 0.14565950632095337 0
0.67038518190383911 0.15101134777069092 0
0.70209753513336182 0.15624026954174042 0
0.73122274875640869 0.16150924563407898 0
0.75844913721084595 0.16644755005836487 0
0.78596234321594238 0.17193134129047394 0
0.81328111886978149 0.17727157473564148 0
0.84106385707855225 0.18323171138763428 0
0.86891633272171021 0.18914571404457092 0
0.89686453342437744 0.19569958746433258 0
0.92462408542633057 0.20234651863574982 0
0.95266479253768921 0.20897956192493439 0
0.98047530651092529 0.2164873331785202 0
0.99918586015701294 0.22517476975917816 0
0.001224930863827467 0.053294926881790161 0.021999970078468323
0.003558282507583499 0.055293451994657516 0.021396977826952934
0.012335175648331642 0.056541584432125092 0.020876351743936539
0.028228765353560448 0.059085376560688019 0.019767984747886658
0.052625499665737152 0.066756926476955414 0.01759742759168148
0.083155713975429535 0.077615223824977875 0.014573359861969948
0.11775468289852142 0.086670808494091034 0.010925760492682457
0.15386964380741119 0.094614200294017792 0.0075059891678392887
0.19078122079372406 0.10159848630428314 0.0038054699543863535
0.2301408052444458 0.10819698870182037 0.0011693502310663462
0.27088674902915955 0.11443448066711426 4.4684249587589875e-05
0.31413495540618896 0.12082990258932114 0
0.35700154304504395 0.12674500048160553 0
0.39993250370025635 0.13284941017627716 0
0.44291952252388 0.1385665088891983 0
0.48391801118850708 0.14409294724464417 0
0.52399611473083496 0.14964434504508972 0
0.56467503309249878 0.15573428571224213 0
0.60589760541915894 0.16145630180835724 0
0.64354687929153442 0.16688375174999237 0
0.67769932746887207 0.17223164439201355 0
0.70822417736053467 0.17652599513530731 0
0.73614895343780518 0.18061196804046631 0
0.76278191804885864 0.18451471626758575 0
0.78989756107330322 0.18938520550727844 0
0.8178594708442688 0.19424641132354736 0
0.84503006935119629 0.19947412610054016 0
0.8730432391166687 0.20539043843746185 0
0.90139448642730713 0.21126125752925873 0
0.92897796630859375 0.21727530658245087 0
0.95663845539093018 0.22337295114994049 0
0.98437380790710449 0.22995397448539734 0
0.99972474575042725 0.23868648707866669 0
0 0.0835556760430336 0.020743444561958313
0 0.085369735956192017 0.02005300484597683
0.0017552055651322007 0.086815953254699707 0.019776405766606331
0.015403906814754009 0.088400132954120636 0.018393341451883316
0.042531352490186691 0.090488672256469727 0.016793502494692802
0.077104590833187103 0.09791187196969986 0.013667316175997257
0.1145961806178093 0.10924731194972992 0.0090305395424365997
0.15331977605819702 0.11860805004835129 0.0040314933285117149
0.19569478929042816 0.12715178728103638 0.00072581908898428082
0.23786696791648865 0.13468834757804871 9.3624139481107704e-06
0.27955484390258789 0.14101123809814453 0
0.3223215639591217 0.14711824059486389 0
0.36442902684211731 0.15316551923751831 0
0.40698310732841492 0.15893600881099701 0
0.44937995076179504 0.16476039588451385 0
0.48924067616462708 0.16963952779769897 0
0.52974885702133179 0.17468824982643127 0
0.57194948196411133 0.18091575801372528 0
0.61135053634643555 0.18598152697086334 0
0.64774495363235474 0.19068892300128937 0
0.6805495023727417 0.19494836032390594 0
0.71045178174972534 0.19845949113368988 0
0.73776727914810181 0.2016671895980835 0
0.76448309421539307 0.20516151189804077 0
0.79178273677825928 0.20887359976768494 0
0.81929957866668701 0.21329562366008759 0
0.84622871875762939 0.21775615215301514 0
0.87451505661010742 0.22286234796047211 0
0.90210235118865967 0.22792114317417145 0
0.92950260639190674 0.23318344354629517 0
0.95686280727386475 0.23876616358757019 0
0.98473161458969116 0.245223268866539 0
0.99976533651351929 0.25284692645072937 0
0 0.1226663738489151 0.018710128962993622
0 0.12452705949544907 0.018355607986450195
0 0.12513774633407593 0.018014715984463692
0.0011320222401991487 0.12589223682880402 0.016730817034840584
0.022678231820464134 0.12691672146320343 0.01438433863222599
0.066249139606952667 0.12822443246841431 0.012314993888139725
0.1098465695977211 0.13483284413814545 0.0078268451616168022
0.15318278968334198 0.14586561918258667 0.0019890740513801575
0.19677361845970154 0.15529844164848328 9.9369266536086798e-05
0.24224594235420227 0.16361822187900543 0
0.28769987821578979 0.17067062854766846 0
0.33178594708442688 0.17703530192375183 0
0.37388831377029419 0.1829555332660675 0
0.41585254669189453 0.18841756880283356 0
0.45712018013000488 0.19366690516471863 0
0.49798732995986938 0.19854974746704102 0
0.54095101356506348 0.20484113693237305 0
0.58207565546035767 0.21009291708469391 0
0.61923843622207642 0.21433819830417633 0
0.65412795543670654 0.21812325716018677 0
0.68610298633575439 0.2214672863483429 0
0.7151569128036499 0.2240569144487381 0
0.74193876981735229 0.22634284198284149 0
0.76834052801132202 0.22894223034381866 0
0.79532045125961304 0.23208943009376526 0
0.82254725694656372 0.23566077649593353 0
0.84982842206954956 0.23936399817466736 0
0.87702596187591553 0.24340415000915527 0
0.90478086471557617 0.24806667864322662 0
0.93172448873519897 0.2526194155216217 0
0.95910149812698364 0.25773781538009644 0
0.9863731861114502 0.26357701420783997 0
0.99982500076293945 0.27076977491378784 0
0 0.16380892693996429 0.017192324623465538
0 0.16620177030563354 0.017395149916410446
0 0.16659456491470337 0.017423518002033234
0 0.16679130494594574 0.01626325398683548
0.0024693526793271303 0.167164146900177 0.01335538737475872
0.042776245623826981 0.16727913916110992 0.010493751615285873
0.097754128277301788 0.16759838163852692 0.0069572716020047665
0.14623728394508362 0.17242644727230072 0.0025250359904021025
0.19593967497348785 0.18341504037380219 7.433108112309128e-05
0.24203687906265259 0.19293704628944397 0
0.28946799039840698 0.2017466127872467 0
0.33805355429649353 0.20959275960922241 0
0.38402661681175232 0.21591944992542267 0
0.42668187618255615 0.22143784165382385 0
0.46982225775718689 0.22715330123901367 0
0.51367223262786865 0.23360559344291687 0
0.55483722686767578 0.23865003883838654 0
0.59305983781814575 0.24246303737163544 0
0.62861299514770508 0.24590842425823212 0
0.66224128007888794 0.24864761531352997 0
0.69261753559112549 0.25093090534210205 0
0.72028601169586182 0.2519855797290802 0
0.74719822406768799 0.25369396805763245 0
0.77292370796203613 0.25536224246025085 0
0.79939121007919312 0.25732699036598206 0
0.82656103372573853 0.26026123762130737 0
0.85344749689102173 0.26334622502326965 0
0.88058316707611084 0.26679641008377075 0
0.90807574987411499 0.27088522911071777 0
0.93501472473144531 0.27489885687828064 0
0.96236521005630493 0.27936309576034546 0
0.98915916681289673 0.2844490110874176 0
0.99996143579483032 0.29139107465744019 0
0 0.20456300675868988 0.020924538373947144
0 0.20731924474239349 0.021818477660417557
0 0.20766320824623108 0.021900534629821777
0 0.20795917510986328 0.021708779036998749
0 0.20791293680667877 0.018330169841647148
0.011689385399222374 0.20771482586860657 0.014179443940520287
0.078424789011478424 0.20777270197868347 0.0092681087553501129
0.13540464639663696 0.20769944787025452 0.0048410003073513508
0.18808035552501678 0.21156631410121918 0.0014293352141976357
0.24195648729801178 0.2231442779302597 1.1348381121933926e-05
0.28988689184188843 0.2330460250377655 0
0.33844190835952759 0.24155822396278381 0
0.38759610056877136 0.24990746378898621 0
0.43780517578125 0.25814017653465271 0
0.48561015725135803 0.26515218615531921 0
0.52668946981430054 0.26961284875869751 0
0.56582736968994141 0.2733595073223114 0
0.60213035345077515 0.27633181214332581 0
0.63576126098632812 0.27799662947654724 0
0.66773021221160889 0.27956604957580566 0
0.69706767797470093 0.28054305911064148 0
0.72409820556640625 0.28121593594551086 0
0.75025498867034912 0.28153380751609802 0
0.77624094486236572 0.28254398703575134 0
0.80274266004562378 0.28423091769218445 0
0.82949155569076538 0.28597027063369751 0
0.85581022500991821 0.28836914896965027 0
0.88309401273727417 0.29147279262542725 0
0.90996718406677246 0.29455921053886414 0
0.93678605556488037 0.2980881929397583 0
0.96349793672561646 0.30207955837249756 0
0.99024671316146851 0.30655965209007263 0
0.99995720386505127 0.31274816393852234 0
0 0.25239920616149902 0.030146103352308273
0 0.25512668490409851 0.030956592410802841
0 0.25510314106941223 0.031312450766563416
0 0.25547417998313904 0.032090514898300171
0 0.25511512160301208 0.029483184218406677
0.00027052624500356615 0.25454139709472656 0.02392587810754776
0.044021777808666229 0.25385972857475281 0.018114978447556496
0.12291549146175385 0.25285604596138 0.011373503133654594
0.18001033365726471 0.25155866146087646 0.005393338855355978
0.23331484198570251 0.25399565696716309 0.0012310973834246397
0.29087263345718384 0.26627287268638611 1.9008104573003948e-05
0.34307417273521423 0.27746745944023132 0
0.39355379343032837 0.28771382570266724 0
0.44342780113220215 0.296406090259552 0
0.49210989475250244 0.30328086018562317 0
0.53742420673370361 0.30811011791229248 0
0.57733625173568726 0.31124895811080933 0
0.6127287745475769 0.31281504034996033 0
0.64512938261032104 0.31339660286903381 0
0.67566341161727905 0.31379449367523193 0
0.7038719654083252 0.31345570087432861 0
0.73021441698074341 0.31309971213340759 0
0.75589674711227417 0.31248629093170166 0
0.78159701824188232 0.31272831559181213 0
0.80760747194290161 0.3135378360748291 0
0.83430284261703491 0.31494224071502686 0
0.86054062843322754 0.31659972667694092 0
0.88736355304718018 0.31904926896095276 0
0.91358506679534912 0.32136556506156921 0
0.94047623872756958 0.32402878999710083 0
0.9671599268913269 0.32751360535621643 0
0.99268478155136108 0.33134707808494568 0
0.99999582767486572 0.33757796883583069 0
0 0.2978304922580719 0.04280080646276474
0 0.3018811047077179 0.044763684272766113
0 0.30186262726783752 0.045049358159303665
0 0.30164176225662231 0.045843310654163361
0 0.30182081460952759 0.044969543814659119
0 0.3009052574634552 0.039448361843824387
0.010684682987630367 0.30038702487945557 0.032926168292760849
0.099632322788238525 0.30036041140556335 0.02477380633354187
0.17386274039745331 0.30065694451332092 0.015609581954777241
0.23256215453147888 0.30100977420806885 0.0072738598100841045
0.28719440102577209 0.30348196625709534 0.0017511489568278193
0.34734860062599182 0.31481108069419861 7.3726223490666598e-05
0.39849698543548584 0.32559478282928467 0
0.44706210494041443 0.3339264988899231 0
0.49459490180015564 0.34070411324501038 0
0.53911548852920532 0.34568643569946289 0
0.5815081000328064 0.34810039401054382 0
0.62005925178527832 0.34961912035942078 0
0.65279883146286011 0.34952601790428162 0
0.68244194984436035 0.34850341081619263 0
0.70959174633026123 0.34718656539916992 0
0.73511779308319092 0.34553220868110657 0
0.76085942983627319 0.34441658854484558 0
0.78634518384933472 0.34382167458534241 0
0.81207859516143799 0.34383240342140198 0
0.83855307102203369 0.34454244375228882 0
0.86452347040176392 0.34543368220329285 0
0.89091920852661133 0.34717410802841187 0
0.91741609573364258 0.34905567765235901 0
0.94354325532913208 0.35129842162132263 0
0.97023797035217285 0.3543694019317627 0
0.99453502893447876 0.35769489407539368 0
1 0.36363309621810913 0
0 0.34552589058876038 0.060026783496141434
0 0.35047444701194763 0.062492299824953079
0 0.35099393129348755 0.062859736382961273
0 0.35174545645713806 0.063899248838424683
0 0.35342675447463989 0.065196596086025238
0 0.35399776697158813 0.062416717410087585
0.00027190489345230162 0.35434401035308838 0.055819094181060791
0.062824241816997528 0.35455778241157532 0.047579418867826462
0.16291505098342896 0.35446339845657349 0.037532810121774673
0.2295742928981781 0.35342922806739807 0.025451229885220528
0.28577578067779541 0.35190185904502869 0.012971751391887665
0.33968809247016907 0.35155674815177917 0.0034801347646862268
0.39892813563346863 0.36167338490486145 0.00011897074000444263
0.44901192188262939 0.37060832977294922 0
0.49509721994400024 0.37734740972518921 0
0.53779935836791992 0.38153302669525146 0
0.57921236753463745 0.38410425186157227 0
0.61877137422561646 0.38537198305130005 0
0.6548343300819397 0.38519015908241272 0
0.68685454130172729 0.38352668285369873 0
0.71404135227203369 0.3811374306678772 0
0.73938137292861938 0.37887561321258545 0
0.76451337337493896 0.37653723359107971 0
0.79007244110107422 0.37548056244850159 0
0.81558984518051147 0.37500396370887756 0
0.84156674146652222 0.37493523955345154 0
0.8671950101852417 0.37509295344352722 0
0.89338839054107666 0.37602695822715759 0
0.91954267024993896 0.37730282545089722 0
0.94513952732086182 0.37881886959075928 0
0.97128987312316895 0.38118937611579895 0
0.99532419443130493 0.38394361734390259 0
1 0.38869160413742065 0
0 0.40302971005439758 0.083615511655807495
0 0.40870526432991028 0.086930856108665466
0 0.40931928157806396 0.087297208607196808
0 0.40993824601173401 0.088600434362888336
0 0.41054579615592957 0.089628212153911591
0 0.4104505181312561 0.089323975145816803
0 0.40961238741874695 0.083423376083374023
0.020689193159341812 0.40789172053337097 0.075853779911994934
0.13626813888549805 0.40584149956703186 0.065868623554706573
0.21598650515079498 0.40354889631271362 0.054235707968473434
0.27758032083511353 0.40096381306648254 0.040243610739707947
0.3326810896396637 0.39770340919494629 0.023129902780056
0.38407108187675476 0.39578217267990112 0.0084287272766232491
0.44208139181137085 0.40348038077354431 0.00085406325524672866
0.49229657649993896 0.4120045006275177 0
0.53539437055587769 0.41728413105010986 0
0.57714974880218506 0.42079409956932068 0
0.61569654941558838 0.42185965180397034 0
0.65173059701919556 0.4215799868106842 0
0.68614482879638672 0.42038831114768982 0
0.71754217147827148 0.41805410385131836 0
0.74537581205368042 0.41514578461647034 0
0.77097225189208984 0.41232484579086304 0
0.79637163877487183 0.41029396653175354 0
0.82160055637359619 0.40892785787582397 0
0.84765279293060303 0.40842524170875549 0
0.87319666147232056 0.4082571268081665 0
0.89915639162063599 0.40837487578392029 0
0.92477709054946899 0.4090532660484314 0
0.95057600736618042 0.41033262014389038 0
0.97654354572296143 0.41205373406410217 0
0.99776721000671387 0.41381263732910156 0
0.99998295307159424 0.41913187503814697 0
0 0.45241379737854004 0.1069222092628479
0 0.46034899353981018 0.11173491179943085
0 0.4605574905872345 0.11213997006416321
0 0.46061599254608154 0.11275754868984222
0 0.46057337522506714 0.11343321204185486
0 0.46087905764579773 0.11451173573732376
0 0.45954975485801697 0.11098173260688782
0.00071133137680590153 0.45783901214599609 0.10401920229196548
0.089637160301208496 0.45614725351333618 0.096052266657352448
0.1955534815788269 0.45362779498100281 0.08601311594247818
0.26576364040374756 0.45106026530265808 0.074217326939105988
0.32556986808776855 0.44748601317405701 0.059169713407754898
0.37827214598655701 0.44371509552001953 0.040983691811561584
0.42814570665359497 0.4398539662361145 0.020039888098835945
0.48460918664932251 0.44520735740661621 0.0035967747680842876
0.53313285112380981 0.45235362648963928 1.3616320757137146e-05
0.57358729839324951 0.45552840828895569 0
0.61152166128158569 0.4566195011138916 0
0.64687496423721313 0.4563538134098053 0
0.68079769611358643 0.45453476905822754 0
0.71251022815704346 0.45222422480583191 0
0.7431190013885498 0.44970577955245972 0
0.77310329675674438 0.44698840379714966 0
0.80034303665161133 0.44474819302558899 0
0.82593280076980591 0.44288468360900879 0
0.85120254755020142 0.44141709804534912 0
0.87623262405395508 0.44003015756607056 0
0.90186452865600586 0.43997150659561157 0
0.92745745182037354 0.44001483917236328 0
0.95259356498718262 0.44058328866958618 0
0.9787561297416687 0.44186431169509888 0
0.99840003252029419 0.44359472393989563 0
0.99998760223388672 0.44752347469329834 0
0 0.50125300884246826 0.1332419365644455
0 0.50773066282272339 0.13728362321853638
0 0.50772231817245483 0.13775584101676941
0 0.50795859098434448 0.13851697742938995
0 0.50806528329849243 0.13944351673126221
0 0.50833839178085327 0.14022789895534515
0 0.50847774744033813 0.1406017392873764
0 0.50689923763275146 0.13483475148677826
0.03526628389954567 0.50441163778305054 0.12720209360122681
0.16466531157493591 0.50187814235687256 0.11862005293369293
0.2466207891702652 0.49882087111473083 0.10829465836286545
0.31179377436637878 0.49473127722740173 0.095652595162391663
0.36810138821601868 0.49063843488693237 0.081350840628147125
0.41914120316505432 0.48565185070037842 0.063216418027877808
0.46746933460235596 0.48015016317367554 0.040254678577184677
0.51992547512054443 0.48274385929107666 0.012375154532492161
0.56865042448043823 0.48892506957054138 0.00048835459165275097
0.60648870468139648 0.49037459492683411 0
0.64148122072219849 0.49028882384300232 0
0.67485243082046509 0.4885689914226532 0
0.70672768354415894 0.4863431453704834 0
0.73779374361038208 0.48400211334228516 0
0.7689896821975708 0.48166999220848083 0
0.79952651262283325 0.47941452264785767 0
0.82825756072998047 0.47720605134963989 0
0.85471159219741821 0.4752158522605896 0
0.87975955009460449 0.47357273101806641 0
0.90506720542907715 0.47266700863838196 0
0.9300239086151123 0.47212284803390503 0
0.95515179634094238 0.47209331393241882 0
0.98096615076065063 0.47279202938079834 0
0.99894809722900391 0.47371873259544373 0
0.99999541044235229 0.47692385315895081 0
0 0.54356437921524048 0.15873710811138153
0 0.55083274841308594 0.16438263654708862
0 0.55187976360321045 0.16528792679309845
0 0.55218744277954102 0.16665816307067871
0 0.55158919095993042 0.16668139398097992
0 0.55180847644805908 0.16771535575389862
0 0.55191230773925781 0.16892923414707184
0 0.55061882734298706 0.16581299901008606
0.003700086148455739 0.54740673303604126 0.1580672562122345
0.11508126556873322 0.54487001895904541 0.15044984221458435
0.21941030025482178 0.54156076908111572 0.14153498411178589
0.29151946306228638 0.53809225559234619 0.13077670335769653
0.35129997134208679 0.53382551670074463 0.11864671111106873
0.40493732690811157 0.52882653474807739 0.10446252673864365
0.45517930388450623 0.52361762523651123 0.087865114212036133
0.50164550542831421 0.51800686120986938 0.066885881125926971
0.55264586210250854 0.51864010095596313 0.034244954586029053
0.60035336017608643 0.52393037080764771 0.0073982784524559975
0.63631719350814819 0.52450472116470337 0.00086558773182332516
0.66948902606964111 0.52312380075454712 1.1170880497957114e-05
0.70174950361251831 0.52114236354827881 0
0.73307335376739502 0.51924151182174683 0
0.76461374759674072 0.51709514856338501 0
0.79525238275527954 0.51488131284713745 0
0.82584869861602783 0.5133013129234314 0
0.85618793964385986 0.51136821508407593 0
0.88390856981277466 0.50940263271331787 0
0.90959513187408447 0.50796282291412354 0
0.93463027477264404 0.50690871477127075 0
0.9594651460647583 0.50644963979721069 0
0.98458898067474365 0.50626164674758911 0
0.99964123964309692 0.50677430629730225 0
1 0.50974136590957642 0
0 0.58361774682998657 0.18725194036960602
0 0.59063732624053955 0.1937909871339798
0 0.59075701236724854 0.19401919841766357
0 0.5908578634262085 0.19489794969558716
0 0.59086251258850098 0.19555814564228058
0 0.59044301509857178 0.19617559015750885
0 0.59053146839141846 0.19737023115158081
0 0.59043532609939575 0.19772762060165405
0 0.58827394247055054 0.19203720986843109
0.061000879853963852 0.58594214916229248 0.18518960475921631
0.18972118198871613 0.58253657817840576 0.17680288851261139
