Textures/50.cube
# Created by: G'MIC (https://gmic.eu)
TITLE "Fuji_Superia_100_2.cube"
# LUT size
LUT_3D_SIZE 5
# Data domain
DOMAIN_MIN 0.0 0.0 0.0
DOMAIN_MAX 1.0 1.0 1.0
# LUT data points
0.01152424793690443 0.021051784977316856 0.020381374284625053
0.17460143566131592 0.044483859091997147 0.012930426746606827
0.51190084218978882 0.094214402139186859 0
0.7836347222328186 0.14806167781352997 0
0.99922209978103638 0.20926818251609802 0
0 0.25239920616149902 0.030146103352308273
0.18001033365726471 0.25155866146087646 0.005393338855355978
0.57733625173568726 0.31124895811080933 0
0.80760747194290161 0.3135378360748291 0
0.99999582767486572 0.33757796883583069 0
0 0.62122547626495361 0.2182081937789917
0 0.62551373243331909 0.22617566585540771
0.51722800731658936 0.59150004386901855 0.14091499149799347
0.81465810537338257 0.58147579431533813 0.00050002353964373469
1 0.57284122705459595 0
0.017236292362213135 0.86063307523727417 0.47268903255462646
0.20457150042057037 0.86146396398544312 0.47853714227676392
0.46333864331245422 0.85439348220825195 0.45904093980789185
0.73636162281036377 0.82870393991470337 0.38060581684112549
0.99774086475372314 0.82934278249740601 0.33273538947105408
0.61427968740463257 0.99865901470184326 0.74869459867477417
0.63475781679153442 0.99844056367874146 0.75233787298202515
0.68933260440826416 0.99838626384735107 0.76188302040100098
0.78365969657897949 0.99660450220108032 0.74093341827392578
0.92925947904586792 0.99308288097381592 0.71581107378005981
0 0.0098071210086345673 0.24745965003967285
0.22227852046489716 0 0.24347758293151855
0.53855007886886597 0 0.22520151734352112
0.77799922227859497 0.00022489648836199194 0.18851284682750702
0.99711048603057861 0.13595220446586609 0.17348651587963104
0 0.2592337429523468 0.25633877515792847
0.24183768033981323 0.26671591401100159 0.26413145661354065
0.57201212644577026 0.27066874504089355 0.24141120910644531
0.79783147573471069 0.27779486775398254 0.21087601780891418
0.99991559982299805 0.3080829381942749 0.19035875797271729
0.19749301671981812 0.60786426067352295 0.41976270079612732
0.24937379360198975 0.61745595932006836 0.39707338809967041
0.53898566961288452 0.59046566486358643 0.34388107061386108
0.81699740886688232 0.57688558101654053 0.27599167823791504
0.99995285272598267 0.56741040945053101 0.25038173794746399
0.32761546969413757 0.85465705394744873 0.56447404623031616
0.3673645555973053 0.85774379968643188 0.56007212400436401
0.51955646276473999 0.8540726900100708 0.55205720663070679
0.74928432703018188 0.82865089178085327 0.48208332061767578
0.9971279501914978 0.82933789491653442 0.43494272232055664
0.65622115135192871 0.99714010953903198 0.77942973375320435
0.67296344041824341 0.99702388048171997 0.78187543153762817
0.719887375831604 0.99663692712783813 0.79006946086883545
0.80071163177490234 0.99547034502029419 0.77307182550430298
0.93452602624893188 0.9925684928894043 0.74651885032653809
0 0 0.60673618316650391
0.28747272491455078 0 0.60471844673156738
0.59899663925170898 0 0.59342849254608154
0.81045687198638916 0.099401548504829407 0.51435333490371704
1 0.036232732236385345 0.46296048164367676
0 0.26306053996086121 0.61259084939956665
0.26772534847259521 0.2753455638885498 0.61360651254653931
0.60137897729873657 0.28934448957443237 0.59622037410736084
0.80771631002426147 0.32055246829986572 0.52590113878250122
1 0.24789194762706757 0.46095284819602966
0.194276362657547 0.59832078218460083 0.59910142421722412
0.37289965152740479 0.59842491149902344 0.59896963834762573
0.58617949485778809 0.58597898483276367 0.58608394861221313
0.79399222135543823 0.55712610483169556 0.54018735885620117
0.99931752681732178 0.54241335391998291 0.49872112274169922
0.53460818529129028 0.84310793876647949 0.71002161502838135
0.58334118127822876 0.84372609853744507 0.71670562028884888
0.6288149356842041 0.84926891326904297 0.69971346855163574
0.77771890163421631 0.82822328805923462 0.64781492948532104
0.99808406829833984 0.82381284236907959 0.60031586885452271
0.76021116971969604 0.99071258306503296 0.85652559995651245
0.76468342542648315 0.99165934324264526 0.85383319854736328
0.78135454654693604 0.99349099397659302 0.84824222326278687
0.83930402994155884 0.99330955743789673 0.84432506561279297
0.9477272629737854 0.99176478385925293 0.81441348791122437
0 0 0.85731732845306396
0.28547993302345276 0 0.85569649934768677
0.5721244215965271 2.127749212377239e-06 0.84773772954940796
0.83834052085876465 0.14332212507724762 0.83054310083389282
1 0.30982652306556702 0.77189195156097412
0 0.27335616946220398 0.85500001907348633
0.29440730810165405 0.28274014592170715 0.85375684499740601
0.58158010244369507 0.31256821751594543 0.84641408920288086
0.83724683523178101 0.36177250742912292 0.83027791976928711
1 0.43233966827392578 0.7759125828742981
0.10393259674310684 0.56106412410736084 0.83715176582336426
0.33413589000701904 0.56940680742263794 0.83653920888900757
0.59309691190719604 0.5884556770324707 0.83234822750091553
0.82569032907485962 0.60650014877319336 0.82338792085647583
0.99848818778991699 0.61982256174087524 0.77761107683181763
0.46208751201629639 0.83823961019515991 0.83377856016159058
0.52289462089538574 0.83833181858062744 0.83367478847503662
0.65570604801177979 0.83498209714889526 0.83049249649047852
0.81310224533081055 0.82357215881347656 0.81866574287414551
0.99414217472076416 0.78776830434799194 0.76840120553970337
0.80217462778091431 0.98792529106140137 0.91645210981369019
0.81882232427597046 0.98800623416900635 0.91921097040176392
0.8633798360824585 0.98844486474990845 0.92742574214935303
0.89857703447341919 0.99117845296859741 0.92625832557678223
0.96821445226669312 0.99113422632217407 0.90396332740783691
0.1390613317489624 0.0581040158867836 0.99995285272598267
0.31039902567863464 0.092489279806613922 1
0.55124515295028687 0.17820806801319122 0.99999380111694336
0.79268956184387207 0.30914682149887085 0.99993139505386353
0.99974536895751953 0.42957401275634766 0.99880063533782959
0.21402716636657715 0.30683997273445129 0.99994665384292603
0.35195663571357727 0.32162323594093323 1
0.57387644052505493 0.36372017860412598 1
0.80058938264846802 0.44058901071548462 1
0.999350905418396 0.51677995920181274 0.99828898906707764
0.33342313766479492 0.5677490234375 0.99995285272598267
0.43522658944129944 0.58113729953765869 1
0.60981255769729614 0.60027509927749634 0.99989688396453857
0.80919504165649414 0.63816380500793457 0.9988139271736145
0.99657857418060303 0.68327528238296509 0.99493217468261719
0.44042232632637024 0.80249530076980591 0.9971429705619812
0.49237796664237976 0.80183011293411255 0.99722433090209961
0.62039566040039062 0.80136477947235107 0.99683058261871338
0.82814043760299683 0.83477282524108887 0.99402934312820435
0.99097281694412231 0.86228138208389282 0.99055963754653931
0.76366680860519409 0.99006432294845581 0.98962944746017456
0.78309863805770874 0.99030530452728271 0.98999547958374023
0.83696705102920532 0.99054676294326782 0.99021762609481812
0.91403180360794067 0.99154269695281982 0.99115163087844849
0.99272137880325317 0.99289244413375854 0.99328732490539551
