Textures/51.cube
# Created by: G'MIC (https://gmic.eu)
TITLE "Fuji_Superia_200.cube"
# LUT size
LUT_3D_SIZE 33
# Data domain
DOMAIN_MIN 0.0 0.0 0.0
DOMAIN_MAX 1.0 1.0 1.0
# LUT data points
0.0065207374282181263 0.008486633189022541 0.0064696688205003738
0.021424535661935806 0.0048561100848019123 0.0027514190878719091
0.038688331842422485 0.0035915011540055275 0.0013801105087623
0.058306369930505753 0.0015835831873118877 0.00049087981460615993
0.078609153628349304 0.00098401249852031469 7.5183030276093632e-05
0.099507249891757965 0.00032683333847671747 0
0.1211736649274826 6.1281272792257369e-05 0
0.14799419045448303 0 0
0.1773601770401001 0 0
0.21118927001953125 0 0
0.24784545600414276 0 0
0.28484222292900085 0 0
0.32027459144592285 0 0
0.354551762342453 0 0
0.38915243744850159 0 0
0.42282915115356445 0 0
0.45701330900192261 0 0
0.49288538098335266 0 0
0.52790838479995728 0 0
0.56137692928314209 0 0
0.5920824408531189 0 0
0.6197197437286377 0 0
0.64473718404769897 0 0
0.66733872890472412 0 0
0.68852120637893677 0 0
0.70839142799377441 0 0
0.72727042436599731 0 0
0.74469172954559326 0 0
0.76124757528305054 0 0
0.77687335014343262 0 0
0.79152476787567139 0 0
0.80527842044830322 0 0
0.81809210777282715 0 0
0.018624434247612953 0.035842817276716232 0.012454979121685028
0.034075617790222168 0.02927311509847641 0.0082686319947242737
0.053234077990055084 0.023907508701086044 0.0056135286577045918
0.073687046766281128 0.019100693985819817 0.0031953321304172277
0.094130724668502808 0.014798687770962715 0.0014561935095116496
0.11459534615278244 0.010850485414266586 0.00031693841447122395
0.13639058172702789 0.0073651946149766445 1.0213543646386825e-05
0.16312140226364136 0.0037352652288973331 0
0.19223810732364655 0.0014193396782502532 0
0.22570100426673889 0.00017760216724127531 0
0.26109325885772705 0 0
0.29780808091163635 0 0
0.33216002583503723 0 0
0.36610138416290283 0 0
0.39961409568786621 0 0
0.43246540427207947 0 0
0.46598002314567566 0 0
0.49995207786560059 0 0
0.53290396928787231 0 0
0.56453341245651245 0 0
0.59331345558166504 0 0
0.61916345357894897 0 0
0.6432604193687439 0 0
0.6656915545463562 0 0
0.68645310401916504 0 0
0.70652955770492554 0 0
0.7251056432723999 0 0
0.74280387163162231 0 0
0.759022057056427 0 0
0.77476722002029419 0 0
0.78925150632858276 0 0
0.80293065309524536 0 0
0.81562429666519165 0 0
0.033868521451950073 0.066463321447372437 0.01926075667142868
0.047161553055047989 0.060281068086624146 0.014547567814588547
0.06228208914399147 0.054601408541202545 0.01064806804060936
0.082423999905586243 0.048293471336364746 0.007450934499502182
0.10337981581687927 0.041677594184875488 0.0045436103828251362
0.12382268160581589 0.03534168004989624 0.0023010489530861378
0.14659328758716583 0.028717776760458946 0.00058652489678934216
0.17392827570438385 0.021067909896373749 1.0071687938761897e-05
0.20371007919311523 0.014506970532238483 0
0.23742297291755676 0.0084145870059728622 0
0.27267372608184814 0.0043425792828202248 0
0.3086894154548645 0.0018047421472147107 0
0.34332850575447083 0.00034077055170200765 0
0.37698152661323547 0 0
0.41037502884864807 0 0
0.4429205060005188 0 0
0.47620069980621338 0 0
0.51019728183746338 0 0
0.54310441017150879 0 0
0.5743863582611084 0 0
0.60225701332092285 0 0
0.62710285186767578 0 0
0.64917916059494019 0 0
0.6685912013053894 0 0
0.68705922365188599 0 0
0.7059863805770874 0 0
0.72355282306671143 0 0
0.74086421728134155 0 0
0.75760012865066528 0 0
0.77278822660446167 0 0
0.78750348091125488 0 0
0.80111700296401978 0 0
0.81364303827285767 0 0
0.05295080691576004 0.098917670547962189 0.029149802401661873
0.064160890877246857 0.093814276158809662 0.024045804515480995
0.075533948838710785 0.088563993573188782 0.019502338021993637
0.091321505606174469 0.082606300711631775 0.014527508988976479
0.11195099353790283 0.075855433940887451 0.010140166617929935
0.13256986439228058 0.069551035761833191 0.0065659419633448124
0.15679040551185608 0.061610564589500427 0.0032467786222696304
0.18462629616260529 0.052019961178302765 0.00076284370152279735
0.21463805437088013 0.041934136301279068 1.2022191185678821e-05
0.24852317571640015 0.031635388731956482 0
0.28467220067977905 0.022160027176141739 0
0.32046714425086975 0.014593189582228661 0
0.35475018620491028 0.008121836930513382 0
0.38842669129371643 0.0026599983684718609 0
0.42131173610687256 0.0005532335489988327 0
0.45353657007217407 0 0
0.48688948154449463 0 0
0.52049773931503296 0 0
0.55305659770965576 0 0
0.5842100977897644 0 0
0.61189091205596924 0 0
0.63636237382888794 0 0
0.65849697589874268 0 0
0.67757236957550049 0 0
0.69493228197097778 0 0
0.71115601062774658 0 0
0.72590386867523193 0 0
0.74083608388900757 0 0
0.75579440593719482 0 0
0.77075845003128052 0 0
0.78522616624832153 0 0
0.798747718334198 0 0
0.8114168643951416 0 0
0.073602467775344849 0.13287168741226196 0.042554106563329697
0.082638338208198547 0.12841309607028961 0.037565603852272034
0.092541508376598358 0.12385677546262741 0.032257590442895889
0.10479670017957687 0.11794897168874741 0.026241177693009377
0.12071704119443893 0.11177372932434082 0.020061315968632698
0.1413763165473938 0.10507907718420029 0.014584602788090706
0.16722643375396729 0.097048074007034302 0.0085883839055895805
0.19535963237285614 0.08749081939458847 0.0037332072388380766
0.22654496133327484 0.076897963881492615 0.00074341177241876721
0.26088643074035645 0.065594539046287537 0
0.29693397879600525 0.053167924284934998 0
0.3329719603061676 0.041312485933303833 0
0.36704358458518982 0.029217375442385674 0
0.40010520815849304 0.018165281042456627 0
0.43249672651290894 0.010446712374687195 0
0.46448799967765808 0.004782586358487606 0
0.49779549241065979 0.00083601329242810607 0
0.53103828430175781 0 0
0.56299120187759399 0 0
0.59380215406417847 0 0
0.6212010383605957 0 0
0.6451718807220459 0 0
0.6669878363609314 0 0
0.68607568740844727 0 0
0.703277587890625 0 0
0.71934306621551514 0 0
0.73365789651870728 0 0
0.74641770124435425 0 0
0.75797903537750244 0 0
0.76932346820831299 0 0
0.78288000822067261 0 0
0.79592829942703247 0 0
0.8086208701133728 0 0
0.095311664044857025 0.17027789354324341 0.059477884322404861
0.10297854244709015 0.16625078022480011 0.054851926863193512
0.11162833124399185 0.16187025606632233 0.049509961158037186
0.12267675995826721 0.15646424889564514 0.042762693017721176
0.13487043976783752 0.15055155754089355 0.035754796117544174
0.15205247700214386 0.14370441436767578 0.02752138115465641
0.1787339448928833 0.13519515097141266 0.018767852336168289
0.2073885053396225 0.12571817636489868 0.011014451272785664
0.23924759030342102 0.11500801891088486 0.0043563945218920708
0.27446478605270386 0.10313998907804489 0.00061273551546037197
0.31024307012557983 0.090617984533309937 1.1348381576681277e-06
0.34596866369247437 0.07735857367515564 0
0.37970447540283203 0.063905820250511169 0
0.41272884607315063 0.049933761358261108 0
0.44468986988067627 0.036921322345733643 0
0.47653332352638245 0.024317251518368721 0
0.50958126783370972 0.013067048974335194 0
0.54231917858123779 0.0053334841504693031 0
0.57385247945785522 0.0013673165813088417 0
0.60421764850616455 7.8303834015969187e-05 0
0.63048195838928223 0 0
0.65415024757385254 0 0
0.67549270391464233 0 0
0.69427263736724854 0 0
0.71101075410842896 0 0
0.72685885429382324 0 0
0.74088340997695923 0 0
0.75356322526931763 0 0
0.76486855745315552 0 0
0.77437126636505127 0 0
0.7836688756942749 0 0
0.79370647668838501 0 0
0.80576205253601074 0 0
0.1037619337439537 0.21782846748828888 0.077390328049659729
0.11351656913757324 0.21432824432849884 0.073440365493297577
0.12454993277788162 0.21021896600723267 0.068928301334381104
0.13750055432319641 0.2051546722650528 0.062916390597820282
0.15138672292232513 0.19970029592514038 0.056073375046253204
0.16804525256156921 0.19235453009605408 0.04662945494055748
0.19115060567855835 0.18356914818286896 0.035362601280212402
0.22053109109401703 0.17462785542011261 0.024484481662511826
0.25506335496902466 0.16305704414844513 0.013577777892351151
0.2897484302520752 0.1510634571313858 0.0049480670131742954
0.3271203339099884 0.13821886479854584 0.00067975843558087945
0.36192810535430908 0.12449713796377182 0
0.39587706327438354 0.11078549176454544 0
0.42792052030563354 0.096948757767677307 0
0.46014150977134705 0.082338146865367889 0
0.49132654070854187 0.066240467131137848 0
0.52430284023284912 0.049235120415687561 0
0.55660247802734375 0.033402152359485626 0
0.58767718076705933 0.019326807931065559 0
0.61691033840179443 0.0096247000619769096 0
0.64274424314498901 0.0031381761655211449 0
0.66557306051254272 0.00034045139909721911 0
0.68636840581893921 0 0
0.70431846380233765 0 0
0.72078233957290649 0 0
0.73619729280471802 0 0
0.74962782859802246 0 0
0.76201343536376953 0 0
0.7732313871383667 0 0
0.78277873992919922 0 0
0.79145878553390503 0 0
0.79844796657562256 0 0
0.80552887916564941 0 0
0.10634484887123108 0.26551714539527893 0.095285624265670776
0.11330318450927734 0.26261806488037109 0.091936357319355011
0.1215483546257019 0.25946414470672607 0.088002957403659821
0.13362027704715729 0.25533151626586914 0.082894414663314819
0.14926154911518097 0.24957369267940521 0.075633883476257324
0.17352505028247833 0.24228841066360474 0.065898105502128601
0.20188978314399719 0.23407845199108124 0.054567422717809677
0.23355087637901306 0.22542555630207062 0.04208919033408165
0.26867657899856567 0.214525505900383 0.027871867641806602
0.30598363280296326 0.20251569151878357 0.01544618234038353
0.34300914406776428 0.18950103223323822 0.0061142356134951115
0.37892153859138489 0.17573913931846619 0.0010776473209261894
0.41263407468795776 0.16204382479190826 9.9298322311369702e-06
0.44372937083244324 0.14824621379375458 0
0.47661662101745605 0.13391360640525818 0
0.50798273086547852 0.11740192770957947 0
0.54043537378311157 0.10009610652923584 0
0.57240837812423706 0.081848032772541046 0
0.60302734375 0.062115103006362915 0
0.63160443305969238 0.044285625219345093 0
0.6567261815071106 0.027966083958745003 0
0.67874252796173096 0.013958713039755821 0
0.69880050420761108 0.0054910201579332352 0
0.71629512310028076 0.0013242780696600676 0
0.73182910680770874 0 0
0.74637562036514282 0 0
0.75929278135299683 0 0
0.77124834060668945 0 0
0.7817765474319458 0 0
0.79122823476791382 0 0
0.79979431629180908 0 0
0.80710172653198242 0 0
0.81270819902420044 0 0
0.089783936738967896 0.31432470679283142 0.11124111711978912
0.098324991762638092 0.31233444809913635 0.10824131220579147
0.10922672599554062 0.30940321087837219 0.10511614382266998
0.12500107288360596 0.30543938279151917 0.10035677254199982
0.14911334216594696 0.29999405145645142 0.093476124107837677
0.18105848133563995 0.29342532157897949 0.084750920534133911
0.21246702969074249 0.28650864958763123 0.074510805308818817
0.24758768081665039 0.27793440222740173 0.062084406614303589
0.28486520051956177 0.26787298917770386 0.046511959284543991
0.32271254062652588 0.25649619102478027 0.032050415873527527
0.35885396599769592 0.24457570910453796 0.017658941447734833
0.39601102471351624 0.23185454308986664 0.0078098294325172901
0.42944958806037903 0.21894954144954681 0.00199158675968647
0.46096760034561157 0.20559534430503845 0.00011880303645739332
0.49450966715812683 0.1912727952003479 0
0.52591800689697266 0.17647717893123627 0
0.55879837274551392 0.15988573431968689 0
0.59062737226486206 0.14090265333652496 0
0.62120145559310913 0.12167101353406906 0
0.649422287940979 0.10214082896709442 0
0.67364704608917236 0.081804864108562469 0
0.69525396823883057 0.061475910246372223 0
0.71461331844329834 0.041586730629205704 0
0.73134887218475342 0.025238290429115295 0
0.74615728855133057 0.012452606111764908 0
0.75951755046844482 0.0049147256650030613 0
0.77166050672531128 0.0010725273750722408 0
0.78276735544204712 5.351471554604359e-05 0
0.79277688264846802 0 0
0.80174762010574341 0 0
0.81001526117324829 0 0
0.81674277782440186 0 0
0.82257074117660522 0 0
0.068562090396881104 0.36168122291564941 0.12583275139331818
0.084358364343643188 0.35938882827758789 0.12336277961730957
0.10235794633626938 0.35671237111091614 0.12008457630872726
0.12805911898612976 0.35300961136817932 0.11509265005588531
0.15911047160625458 0.34789535403251648 0.10866139829158783
0.19051074981689453 0.34231069684028625 0.10121793299913406
0.22467407584190369 0.33573892712593079 0.091009058058261871
0.26169607043266296 0.32772266864776611 0.078723184764385223
0.29996860027313232 0.31859225034713745 0.064606800675392151
0.33817058801651001 0.30836871266365051 0.049811668694019318
0.37462559342384338 0.29780325293540955 0.032993365079164505
0.40993005037307739 0.28591829538345337 0.019998537376523018
0.44390216469764709 0.2743149995803833 0.010339408181607723
0.47749373316764832 0.26168283820152283 0.0034986198879778385
0.51145702600479126 0.24855022132396698 0.00048329666606150568
0.54350137710571289 0.23464548587799072 0
0.57644498348236084 0.21949963271617889 0
0.60930103063583374 0.20263911783695221 0
0.63989549875259399 0.18412221968173981 0
0.66825467348098755 0.16530333459377289 0
0.69247978925704956 0.14685112237930298 0
0.71397668123245239 0.1276143491268158 0
0.73325073719024658 0.10622599720954895 0
0.74950170516967773 0.085904039442539215 0
0.76372814178466797 0.064084336161613464 0
0.7764894962310791 0.04194081574678421 0
0.78793835639953613 0.022961083799600601 0
0.79824221134185791 0.0090081049129366875 0
0.80700349807739258 0.0016058312030509114 0
0.81474316120147705 0 0
0.82203513383865356 0 0
0.82829570770263672 0 0
0.8336147665977478 0 0
0.089747235178947449 0.40724489092826843 0.13847216963768005
0.10538945347070694 0.40517491102218628 0.13572967052459717
0.12404298037290573 0.40234830975532532 0.13224264979362488
0.14755496382713318 0.39868810772895813 0.12738651037216187
0.1732313334941864 0.39456745982170105 0.12165781110525131
0.20283891260623932 0.38922181725502014 0.11415287852287292
0.23895582556724548 0.38264727592468262 0.10425795614719391
0.27592983841896057 0.37529531121253967 0.092850729823112488
0.31546035408973694 0.3665657639503479 0.079392939805984497
0.35349288582801819 0.3573836088180542 0.065078794956207275
0.38968801498413086 0.34776830673217773 0.050302326679229736
0.4260735809803009 0.33701905608177185 0.036461349576711655
0.4599965512752533 0.3263888955116272 0.022996529936790466
0.49362167716026306 0.31446310877799988 0.012644678354263306
0.52670836448669434 0.30200099945068359 0.0051407753489911556
0.55955171585083008 0.2889954149723053 0.00097133481176570058
0.59333497285842896 0.27489227056503296 3.1208046493702568e-06
0.62679266929626465 0.25958573818206787 0
0.65746116638183594 0.24339252710342407 0
0.68568563461303711 0.22622981667518616 0
0.71041852235794067 0.20962388813495636 0
0.7321363091468811 0.19258753955364227 0
0.75140488147735596 0.17408272624015808 0
0.76816093921661377 0.15453489124774933 0
0.78293871879577637 0.13404431939125061 0
0.79597347974777222 0.1105530858039856 0
0.807564377784729 0.085967883467674255 0
0.81701934337615967 0.059686258435249329 0
0.82523876428604126 0.033516660332679749 0
0.83212172985076904 0.013469992205500603 0
0.83787590265274048 0.0028458966407924891 0
0.84293133020401001 0 0
0.84709376096725464 0 0
0.11060526221990585 0.45155566930770874 0.14781574904918671
0.12167391180992126 0.44946858286857605 0.14517635107040405
0.13525599241256714 0.44729724526405334 0.14201889932155609
0.15392598509788513 0.4442676305770874 0.13779312372207642
0.18137244880199432 0.44010645151138306 0.13220809400081635
0.21672405302524567 0.43487876653671265 0.12462137639522552
0.25462576746940613 0.42859905958175659 0.11543340235948563
0.29240825772285461 0.42165461182594299 0.10480073094367981
0.33183971047401428 0.4135509729385376 0.092206329107284546
0.36945784091949463 0.405080646276474 0.078786179423332214
0.40504434704780579 0.39602097868919373 0.066054381430149078
0.4399762749671936 0.38653665781021118 0.052898600697517395
0.47407048940658569 0.37650942802429199 0.038517214357852936
0.50798517465591431 0.36570414900779724 0.02587462030351162
0.54229879379272461 0.3537980318069458 0.014810722321271896
0.57618319988250732 0.34170588850975037 0.0070206322707235813
0.61028134822845459 0.32802966237068176 0.0018063577590510249
0.64295482635498047 0.31442490220069885 0.0001326696656178683
0.67392838001251221 0.29923906922340393 0
0.70207709074020386 0.28417402505874634 0
0.72693395614624023 0.26909273862838745 0
0.74877715110778809 0.25354665517807007 0
0.76840758323669434 0.23727592825889587 0
0.78577011823654175 0.22049151360988617 0
0.8011932373046875 0.20169565081596375 0
0.81500285863876343 0.18134462833404541 0
0.82717609405517578 0.16028055548667908 0
0.83774250745773315 0.13585428893566132 0
0.84638571739196777 0.10756856948137283 0
0.85366326570510864 0.077206671237945557 0
0.85853999853134155 0.044258382171392441 0
0.8624042272567749 0.017040630802512169 0
0.86489737033843994 0.0030076096300035715 0
0.098080731928348541 0.49403950572013855 0.15411864221096039
0.1145867183804512 0.4923299252986908 0.15194316208362579
0.13576894998550415 0.49062475562095642 0.1489824652671814
0.16475172340869904 0.48747232556343079 0.14477083086967468
0.19879205524921417 0.48342576622962952 0.13891452550888062
0.23500345647335052 0.47876033186912537 0.13208134472370148
0.27127999067306519 0.47290882468223572 0.12372821569442749
0.31012678146362305 0.46601161360740662 0.11365661770105362
0.34752956032752991 0.45850878953933716 0.10267507284879684
0.38424861431121826 0.45052510499954224 0.090863078832626343
0.41982239484786987 0.44201195240020752 0.078918762505054474
0.45507225394248962 0.4333435595035553 0.066768117249011993
0.48897799849510193 0.42402482032775879 0.053432442247867584
0.52265781164169312 0.41428503394126892 0.040656551718711853
0.55705481767654419 0.40325728058815002 0.027895141392946243
0.59074550867080688 0.39118772745132446 0.017015278339385986
0.62519609928131104 0.37853986024856567 0.0088461022824048996
0.65832436084747314 0.36542457342147827 0.0031118132174015045
0.68906652927398682 0.35226115584373474 0.00054191600065678358
0.71709638833999634 0.33858519792556763 1.361805698252283e-05
0.7419363260269165 0.32441446185112 0
0.76375752687454224 0.31038793921470642 0
0.78365689516067505 0.29574805498123169 0
0.80150383710861206 0.28063324093818665 0
0.817252516746521 0.26428031921386719 0
0.83188408613204956 0.24611121416091919 0
0.84478908777236938 0.22742100059986115 0
0.85648220777511597 0.20592561364173889 0
0.86630678176879883 0.18186295032501221 0
0.87462890148162842 0.15500245988368988 0
0.88111007213592529 0.12364355474710464 0
0.88541734218597412 0.087098680436611176 0
0.88771545886993408 0.048491775989532471 0
0.12690593302249908 0.53663909435272217 0.15820775926113129
0.14277759194374084 0.53479206562042236 0.15582260489463806
0.16111023724079132 0.53299522399902344 0.15283256769180298
0.18818587064743042 0.52982091903686523 0.14882968366146088
0.21931171417236328 0.52671647071838379 0.14354170858860016
0.2538033127784729 0.52215421199798584 0.13695064187049866
0.2905641496181488 0.51640802621841431 0.12900556623935699
0.32782980799674988 0.5103834867477417 0.12042153626680374
0.36389368772506714 0.50340765714645386 0.11073306947946548
0.40108081698417664 0.49614259600639343 0.10045608133077621
0.43520626425743103 0.48827081918716431 0.089404985308647156
0.46980845928192139 0.47986459732055664 0.077950648963451385
0.50377380847930908 0.47132706642150879 0.066790416836738586
0.53788977861404419 0.46153774857521057 0.054405245929956436
0.57236886024475098 0.4515528678894043 0.041614044457674026
0.60643810033798218 0.44057205319404602 0.029349919408559799
0.64070278406143188 0.42867156863212585 0.018913038074970245
0.67393976449966431 0.41631585359573364 0.010690130293369293
0.70394551753997803 0.40429005026817322 0.0053158057853579521
0.73170560598373413 0.39164876937866211 0.0018659338820725679
0.75640583038330078 0.37882673740386963 0.00049478875007480383
0.77836853265762329 0.36594954133033752 5.7522109273122624e-05
0.79833197593688965 0.35287308692932129 4.6812069740553852e-06
0.81625920534133911 0.33885213732719421 0
0.83268558979034424 0.32403677701950073 0
0.8476826548576355 0.30802074074745178 0
0.86112940311431885 0.29105308651924133 0
0.87383151054382324 0.27211150527000427 0
0.88459646701812744 0.25139707326889038 0
0.89399188756942749 0.22792258858680725 0
0.90211963653564453 0.20159615576267242 1.9859664917021291e-06
0.90825742483139038 0.1706213504076004 6.8090284912614152e-06
0.91248816251754761 0.13440719246864319 6.8090284912614152e-06
0.15138891339302063 0.57859212160110474 0.16113106906414032
0.16814471781253815 0.57705819606781006 0.15817654132843018
0.18706242740154266 0.57513910531997681 0.15470606088638306
0.21278947591781616 0.57267725467681885 0.15043510496616364
0.24295134842395782 0.56934052705764771 0.14544185996055603
0.27712646126747131 0.56483018398284912 0.13935814797878265
0.31169304251670837 0.55995333194732666 0.13227550685405731
0.34597942233085632 0.55425655841827393 0.12428060919046402
0.38150030374526978 0.54803967475891113 0.11568295955657959
0.41762498021125793 0.54125010967254639 0.10696408152580261
0.4504726231098175 0.53440392017364502 0.097782187163829803
0.48434525728225708 0.52664202451705933 0.087273716926574707
0.51833641529083252 0.51861226558685303 0.076563961803913116
0.55229789018630981 0.50986236333847046 0.065719649195671082
0.58709502220153809 0.50003618001937866 0.054323650896549225
0.62236166000366211 0.48960155248641968 0.042086586356163025
0.65674322843551636 0.47882607579231262 0.03026629239320755
0.68909353017807007 0.46732577681541443 0.020794760435819626
0.71920150518417358 0.45613428950309753 0.013820354826748371
0.74653923511505127 0.44464990496635437 0.0087938159704208374
0.77084314823150635 0.4333442747592926 0.0054235495626926422
0.79271072149276733 0.42157813906669617 0.0033384335692971945
0.81280189752578735 0.40967908501625061 0.0020626061595976353
0.83078873157501221 0.39700183272361755 0.0013475718442350626
0.84746807813644409 0.38351389765739441 0.0012188715627416968
0.86293596029281616 0.36958912014961243 0.001191571238450706
0.87700957059860229 0.35458552837371826 0.0012091213138774037
0.88994497060775757 0.3375990092754364 0.0013569318689405918
0.9018285870552063 0.31912502646446228 0.0015800303081050515
0.91226112842559814 0.298683762550354 0.0021992058027535677
0.92161542177200317 0.27537092566490173 0.0029824350494891405
0.92931610345840454 0.24874231219291687 0.0037498075980693102
0.93536937236785889 0.21792647242546082 0.0046877139247953892
0.18114618957042694 0.61871254444122314 0.16297157108783722
0.19722223281860352 0.61676698923110962 0.15941554307937622
0.21632795035839081 0.61531513929367065 0.15509161353111267
0.24159277975559235 0.61282408237457275 0.14978846907615662
0.26958489418029785 0.60932737588882446 0.14416183531284332
0.30042639374732971 0.60584819316864014 0.13884618878364563
0.33293822407722473 0.60128170251846313 0.13271783292293549
0.36612418293952942 0.59582120180130005 0.12614871561527252
0.39974051713943481 0.59014719724655151 0.11872219294309616
0.43201500177383423 0.58394694328308105 0.11041465401649475
0.46557444334030151 0.5777856707572937 0.10199302434921265
0.50016343593597412 0.57065844535827637 0.093014433979988098
0.53414016962051392 0.56290167570114136 0.084187231957912445
0.5682828426361084 0.55452466011047363 0.073890484869480133
0.60277777910232544 0.54580557346343994 0.062656790018081665
0.63699573278427124 0.53657448291778564 0.052041981369256973
0.67136573791503906 0.52654212713241577 0.041361398994922638
0.70398056507110596 0.51636862754821777 0.031139886006712914
0.73353362083435059 0.50609850883483887 0.023240715265274048
0.76040643453598022 0.49590006470680237 0.017859196290373802
0.78459662199020386 0.48550009727478027 0.013661103323101997
0.80641376972198486 0.4750387966632843 0.010858339257538319
0.82645642757415771 0.46401458978652954 0.0089331017807126045
0.84485065937042236 0.45310124754905701 0.0083074662834405899
