Textures/51.cube
# Created by: G'MIC (https://gmic.eu)
TITLE "Fuji_Superia_200.cube"
# LUT size
LUT_3D_SIZE 5
# Data domain
DOMAIN_MIN 0.0 0.0 0.0
DOMAIN_MAX 1.0 1.0 1.0
# LUT data points
0.0065207374282181263 0.008486633189022541 0.0064696688205003738
0.1773601770401001 0 0
0.45701330900192261 0 0
0.68852120637893677 0 0
0.81809210777282715 0 0
0.089783936738967896 0.31432470679283142 0.11124111711978912
0.28486520051956177 0.26787298917770386 0.046511959284543991
0.55879837274551392 0.15988573431968689 0
0.74615728855133057 0.012452606111764908 0
0.82257074117660522 0 0
0.2200130969285965 0.65490198135375977 0.1614566296339035
0.41831490397453308 0.62917464971542358 0.11796398460865021
0.6871945858001709 0.57032030820846558 0.048483692109584808
0.87516236305236816 0.49490770697593689 0.016544638201594353
0.97471839189529419 0.36732172966003418 0.042645741254091263
0.50342750549316406 0.8483472466468811 0.043754316866397858
0.6109815239906311 0.8321300745010376 0.039316479116678238
0.81165748834609985 0.79596614837646484 0.024847399443387985
0.96359819173812866 0.75737786293029785 0.027298355475068092
1 0.70792388916015625 0.093902468681335449
0.75861716270446777 0.99844765663146973 0
0.8261420726776123 0.99425363540649414 0
0.96318703889846802 0.97561568021774292 0
1 0.94750440120697021 0
1 0.91288560628890991 0
9.9014621810056269e-05 0.0087093180045485497 0.21522402763366699
0.16215601563453674 0 0.13953913748264313
0.41859295964241028 0 0.027549996972084045
0.62508600950241089 0 0.00017841783119365573
0.7556908130645752 0 0.0030304139945656061
0.066007189452648163 0.31317499279975891 0.32373270392417908
0.26329830288887024 0.26269957423210144 0.26277405023574829
0.51747214794158936 0.15760108828544617 0.15576927363872528
0.68767863512039185 0.012520913034677505 0.06764134019613266
0.77051359415054321 0 0.033703729510307312
0.15889403223991394 0.65707147121429443 0.39887711405754089
0.37051624059677124 0.63345402479171753 0.36096075177192688
0.63653254508972168 0.57716232538223267 0.28479209542274475
0.81863111257553101 0.50371533632278442 0.2388785183429718
0.92856901884078979 0.37285074591636658 0.23253284394741058
0.44649314880371094 0.85251128673553467 0.35602620244026184
0.5548785924911499 0.83776098489761353 0.33286458253860474
0.74638968706130981 0.80442482233047485 0.29066863656044006
0.89626389741897583 0.76758795976638794 0.28386691212654114
0.99999880790710449 0.71626013517379761 0.32569193840026855
0.76369094848632812 0.9994012713432312 0
0.82121825218200684 0.9962114691734314 0
0.93790984153747559 0.98207831382751465 0
1 0.9571956992149353 1.957584754563868e-05
1 0.92666864395141602 0.068124361336231232
0 0.0073543530888855457 0.49433842301368713
0.14051949977874756 0 0.39707252383232117
0.38121643662452698 0 0.29017221927642822
0.57338428497314453 0 0.2217002809047699
0.70961517095565796 0 0.1989511251449585
0.058221146464347839 0.29975536465644836 0.59413492679595947
0.23719631135463715 0.24847239255905151 0.52901220321655273
0.47431144118309021 0.14416797459125519 0.42258349061012268
0.62843537330627441 0.0088367750868201256 0.32657119631767273
0.71679234504699707 0 0.25021868944168091
0.10735441744327545 0.65487885475158691 0.6919093132019043
0.32105347514152527 0.6327788233757019 0.65621858835220337
0.58035469055175781 0.57939302921295166 0.57998085021972656
0.75448054075241089 0.50808244943618774 0.51613849401473999
0.87468737363815308 0.37029990553855896 0.45340549945831299
0.36061415076255798 0.8564562201499939 0.71721327304840088
0.47636264562606812 0.84319698810577393 0.69219624996185303
0.65939211845397949 0.81397217512130737 0.64495086669921875
0.81541776657104492 0.77805936336517334 0.60386145114898682
0.95617687702178955 0.72438997030258179 0.57153165340423584
0.62274283170700073 1 0.58376514911651611
0.67326945066452026 1 0.57268095016479492
0.78069555759429932 0.99774777889251709 0.55367237329483032
0.90861755609512329 0.98259013891220093 0.54339116811752319
1 0.94736731052398682 0.55486690998077393
0 0.0010245140874758363 0.69584590196609497
0.1563580334186554 0 0.58401459455490112
0.37117701768875122 0 0.48519271612167358
0.540519118309021 0 0.41187512874603271
0.67642927169799805 0 0.36318907141685486
0.12452841550111771 0.25041189789772034 0.75290596485137939
0.27077701687812805 0.20152033865451813 0.69353139400482178
0.46053776144981384 0.099916182458400726 0.59144264459609985
0.58928585052490234 0.00084603007417172194 0.49445033073425293
0.67543220520019531 0 0.39940378069877625
0.23139594495296478 0.63478004932403564 0.85002714395523071
0.37186732888221741 0.61527442932128906 0.81713145971298218
0.5718502402305603 0.56776070594787598 0.74867767095565796
0.72369921207427979 0.49695608019828796 0.68021088838577271
0.83809429407119751 0.34888502955436707 0.59712642431259155
0.41170501708984375 0.84767287969589233 0.88895982503890991
0.49330094456672668 0.83722507953643799 0.86859124898910522
0.63710254430770874 0.81326264142990112 0.82716119289398193
0.78001946210861206 0.77987116575241089 0.7799103856086731
0.92063838243484497 0.72523844242095947 0.72818517684936523
0.57104569673538208 1 0.89714324474334717
0.61377084255218506 1 0.8851131796836853
0.71218276023864746 0.9996381402015686 0.85645127296447754
0.83777850866317749 0.99175608158111572 0.81951099634170532
0.99394696950912476 0.96153604984283447 0.77524429559707642
0.034700803458690643 0 0.76852357387542725
0.22493474185466766 0 0.68181657791137695
0.39011415839195251 0 0.60575187206268311
0.53003209829330444 0 0.54256314039230347
0.6558074951171875 0 0.48945042490959167
0.24805407226085663 0.15272152423858643 0.81109976768493652
0.34112310409545898 0.10876127332448959 0.76314055919647217
0.46342366933822632 0.023807201534509659 0.68555593490600586
0.56394028663635254 0 0.60329580307006836
0.65212422609329224 0 0.51992249488830566
0.40295562148094177 0.58995348215103149 0.92839819192886353
0.47128540277481079 0.57399696111679077 0.90548670291900635
0.59453493356704712 0.53126716613769531 0.85576730966567993
0.71200811862945557 0.45682555437088013 0.79331517219543457
0.80517733097076416 0.28651353716850281 0.70186251401901245
0.51535296440124512 0.82673007249832153 0.99411028623580933
0.55999195575714111 0.8193020224571228 0.98282468318939209
0.65731656551361084 0.8001289963722229 0.95252394676208496
0.77134543657302856 0.7697136402130127 0.91275185346603394
0.89758312702178955 0.71351569890975952 0.85936790704727173
0.62195998430252075 1 1
0.64944833517074585 1 1
0.71815478801727295 0.99931913614273071 1
0.81525188684463501 0.99467110633850098 0.99913924932479858
0.97028106451034546 0.97061532735824585 0.96881598234176636
