Textures/52.cube
# Created by: G'MIC (https://gmic.eu)
TITLE "Fuji_Superia_200_XPRO.cube"
# LUT size
LUT_3D_SIZE 33
# Data domain
DOMAIN_MIN 0.0 0.0 0.0
DOMAIN_MAX 1.0 1.0 1.0
# LUT data points
0.00043301164987497032 0.0084336763247847557 0.074971139430999756
0.0007072360604070127 0.009286683052778244 0.086684800684452057
0.00094126845942810178 0.0099035333842039108 0.094836317002773285
0.0013274407247081399 0.010905366390943527 0.10320001840591431
0.0015934554394334555 0.011564005166292191 0.11122357100248337
0.0016749677015468478 0.012745950371026993 0.11980268359184265
0.0013817010913044214 0.013812587596476078 0.12798075377941132
0.00089879176812246442 0.015205984003841877 0.13676394522190094
0.00089879200095310807 0.016425648704171181 0.14453978836536407
0.00089879176812246442 0.018458185717463493 0.15327516198158264
0.00096744508482515812 0.021024437621235847 0.16339075565338135
0.0011129213962703943 0.024420425295829773 0.17358942329883575
0.0014643572503700852 0.026858579367399216 0.18240231275558472
0.002263965317979455 0.030286820605397224 0.18894763290882111
0.0045307101681828499 0.034378156065940857 0.19454449415206909
0.0080024758353829384 0.037469636648893356 0.20006868243217468
0.013246219605207443 0.039584081619977951 0.20627020299434662
0.020871104672551155 0.040579125285148621 0.2101215124130249
0.031151203438639641 0.039223473519086838 0.21261483430862427
0.044721323996782303 0.036911584436893463 0.21599917113780975
0.06079459935426712 0.033041410148143768 0.21729983389377594
0.077831089496612549 0.028699176385998726 0.21812315285205841
0.094120331108570099 0.024415435269474983 0.22036164999008179
0.11060693114995956 0.0203362125903368 0.22208122909069061
0.12997214496135712 0.017842594534158707 0.22336874902248383
0.15126466751098633 0.018670789897441864 0.22647562623023987
0.17464901506900787 0.021119043231010437 0.22928944230079651
0.20161543786525726 0.026876375079154968 0.23443971574306488
0.23227529227733612 0.03484296053647995 0.23918311297893524
0.26304167509078979 0.042883757501840591 0.24287329614162445
0.29552963376045227 0.052826572209596634 0.24850337207317352
0.32696044445037842 0.062950409948825836 0.25446036458015442
0.35872480273246765 0.073926784098148346 0.26192864775657654
0.0023634477984160185 0.036749228835105896 0.12705457210540771
0.0026770359836518764 0.038985088467597961 0.13477012515068054
0.0026961464900523424 0.040304951369762421 0.14211884140968323
0.0026961464900523424 0.042376067489385605 0.15033489465713501
0.0026337460149079561 0.044898606836795807 0.15968431532382965
0.0019823790062218904 0.047510825097560883 0.16961205005645752
0.0010165959829464555 0.050344947725534439 0.17989158630371094
0.00089879176812246442 0.053740523755550385 0.18918919563293457
0.00098968541715294123 0.05766591802239418 0.19668193161487579
0.0016882839845493436 0.062210164964199066 0.20391370356082916
0.0026056845672428608 0.06787882000207901 0.21173886954784393
0.0037929886020720005 0.074108541011810303 0.21854878962039948
0.005605695303529501 0.079159624874591827 0.22479540109634399
0.0091163283213973045 0.084125615656375885 0.23043234646320343
0.014798679389059544 0.088813371956348419 0.2351016104221344
0.021564912050962448 0.091340050101280212 0.2397841215133667
0.03016212023794651 0.093454405665397644 0.24434497952461243
0.040688369423151016 0.091611340641975403 0.2473413497209549
0.052359435707330704 0.087816528975963593 0.2479623556137085
0.064384050667285919 0.08248814195394516 0.24876108765602112
0.07788405567407608 0.075825773179531097 0.24900119006633759
0.093393288552761078 0.068947136402130127 0.2493404895067215
0.11026553064584732 0.061887584626674652 0.25086843967437744
0.12881165742874146 0.055616594851016998 0.25116005539894104
0.14993640780448914 0.05202590674161911 0.25017467141151428
0.1724076122045517 0.052785031497478485 0.25179651379585266
0.19691988825798035 0.056517641991376877 0.25478130578994751
0.2249634712934494 0.064269103109836578 0.25804543495178223
0.25455453991889954 0.072973482310771942 0.26117029786109924
0.28388047218322754 0.081042662262916565 0.26461657881736755
0.31373438239097595 0.089634843170642853 0.26929497718811035
0.34343639016151428 0.097576148808002472 0.27480188012123108
0.37325713038444519 0.10588463395833969 0.28134924173355103
0.0023412120062857866 0.068608835339546204 0.16721227765083313
0.0021181069314479828 0.07069811224937439 0.17394691705703735
0.0019893939606845379 0.07296048104763031 0.18079501390457153
0.0016289756167680025 0.07539542019367218 0.18908917903900146
0.0010606753639876842 0.078164294362068176 0.198543980717659
0.00090113241458311677 0.081849753856658936 0.20697510242462158
0.00090542365796864033 0.086037531495094299 0.21523870527744293
0.0013376289280131459 0.090517893433570862 0.22279748320579529
0.0023794500157237053 0.095161214470863342 0.22849607467651367
0.003253167262300849 0.10049544274806976 0.23434995114803314
0.0050010024569928646 0.10628919303417206 0.24042223393917084
0.0085009904578328133 0.11217193305492401 0.24570207297801971
0.012838210910558701 0.11665477603673935 0.25121545791625977
0.018036883324384689 0.12068460881710052 0.25680288672447205
0.025409635156393051 0.12398591637611389 0.26107698678970337
0.033826977014541626 0.12473476678133011 0.26479130983352661
0.044092953205108643 0.12491224706172943 0.26735526323318481
0.054950196295976639 0.12254006415605545 0.26879352331161499
0.065687373280525208 0.1171681210398674 0.268877774477005
0.076651595532894135 0.11058731377124786 0.26900371909141541
0.087018989026546478 0.10296826809644699 0.2694842517375946
0.10046668350696564 0.095444820821285248 0.26969683170318604
0.11797691136598587 0.088650234043598175 0.27009192109107971
0.13818235695362091 0.082556106150150299 0.26905557513237
0.16018125414848328 0.078718274831771851 0.26851147413253784
0.18387548625469208 0.079478688538074493 0.2698695957660675
0.21016807854175568 0.083608634769916534 0.27054601907730103
0.23797164857387543 0.090224891901016235 0.27257412672042847
0.26650992035865784 0.097740143537521362 0.27556392550468445
0.29479345679283142 0.10439864546060562 0.27890974283218384
0.32334783673286438 0.11105118691921234 0.28307929635047913
0.35194703936576843 0.11732892692089081 0.28816822171211243
0.38127025961875916 0.12439590692520142 0.293832927942276
0.00018724829715210944 0.10212240368127823 0.21422404050827026
0.00018724829715210944 0.10434386134147644 0.21945616602897644
0.00038658970152027905 0.10729110985994339 0.22429867088794708
0.00089879176812246442 0.11043017357587814 0.22955398261547089
0.00093780196039006114 0.11446461826562881 0.23600035905838013
0.0012537572765722871 0.11873611062765121 0.24195533990859985
0.002083413302898407 0.12339695543050766 0.24836505949497223
0.0029067893046885729 0.12823250889778137 0.25465932488441467
0.0046716416254639626 0.13308106362819672 0.25918856263160706
0.0074611511081457138 0.13808844983577728 0.26402434706687927
0.011189095675945282 0.14294016361236572 0.26953649520874023
0.016218278557062149 0.14775802195072174 0.27419137954711914
0.022471766918897629 0.15126034617424011 0.27841436862945557
0.029547736048698425 0.15442651510238647 0.2832564115524292
0.038399722427129745 0.15607938170433044 0.28600454330444336
0.047557778656482697 0.15638941526412964 0.28858312964439392
0.057695426046848297 0.15458481013774872 0.28977978229522705
0.067263670265674591 0.15065841376781464 0.29141718149185181
0.0768599733710289 0.14405269920825958 0.2915993332862854
0.087034426629543304 0.13685598969459534 0.29126253724098206
0.097050599753856659 0.12836432456970215 0.29099658131599426
0.10872593522071838 0.12086380273103714 0.29002770781517029
0.1257970929145813 0.1143629252910614 0.28892362117767334
0.14655555784702301 0.10843208432197571 0.28800329566001892
0.17019885778427124 0.10533792525529861 0.28650107979774475
0.19606563448905945 0.10617703944444656 0.28577250242233276
0.22257046401500702 0.10981165617704391 0.2861596941947937
0.24967131018638611 0.1153169721364975 0.28830370306968689
0.27718207240104675 0.1213512122631073 0.29078361392021179
0.30438363552093506 0.12631486356258392 0.29374361038208008
0.33195298910140991 0.13144358992576599 0.29742482304573059
0.35971552133560181 0.13643510639667511 0.3021579384803772
0.38877362012863159 0.14222079515457153 0.30654048919677734
0 0.13812695443630219 0.25649327039718628
6.6707201767712831e-05 0.140233114361763 0.25975045561790466
0.00075445458060130477 0.14320114254951477 0.26295375823974609
0.0011223194887861609 0.14696009457111359 0.2663344144821167
0.0020253090187907219 0.15110039710998535 0.26996129751205444
0.0030825510621070862 0.15498962998390198 0.27415233850479126
0.0048692724667489529 0.15971796214580536 0.27937164902687073
0.0070866667665541172 0.16411727666854858 0.28463572263717651
0.010096619836986065 0.1683683842420578 0.2891535758972168
0.01454566977918148 0.17248180508613586 0.29307588934898376
0.019382202997803688 0.17644110321998596 0.29783594608306885
0.026244809851050377 0.17990776896476746 0.30110105872154236
0.034227427095174789 0.18261668086051941 0.30331137776374817
0.042100992053747177 0.18404597043991089 0.30686807632446289
0.050720550119876862 0.18473881483078003 0.30954846739768982
0.058903735131025314 0.18320824205875397 0.31213703751564026
0.068066082894802094 0.18037764728069305 0.31224903464317322
0.076944842934608459 0.17543457448482513 0.31355619430541992
0.085537388920783997 0.16829377412796021 0.31425085663795471
0.095793478190898895 0.16034406423568726 0.3125663697719574
0.10610980540513992 0.15198193490505219 0.31214776635169983
0.11867449432611465 0.14501926302909851 0.31000897288322449
0.13409048318862915 0.13891580700874329 0.30751192569732666
0.15520733594894409 0.13396356999874115 0.30582857131958008
0.18098726868629456 0.13092111051082611 0.30303061008453369
0.20714651048183441 0.13141392171382904 0.3023180365562439
0.23332935571670532 0.13424357771873474 0.30275526642799377
0.25960880517959595 0.13834944367408752 0.30366912484169006
0.28642740845680237 0.14305903017520905 0.30657500028610229
0.3124065101146698 0.14682649075984955 0.30908721685409546
0.33920234441757202 0.1500677764415741 0.31226375699043274
0.36617353558540344 0.15399786829948425 0.31588372588157654
0.39593696594238281 0.15889561176300049 0.31919354200363159
0.0006744839483872056 0.17517732083797455 0.29305163025856018
0.0013992908643558621 0.1775614470243454 0.29489848017692566
0.0020997875835746527 0.18014971911907196 0.29727622866630554
0.0030652354471385479 0.18358896672725677 0.29986572265625
0.0047401045449078083 0.18672636151313782 0.30198201537132263
0.0060647008940577507 0.19023822247982025 0.30486243963241577
0.0086612077429890633 0.1941295713186264 0.30886560678482056
0.011728777550160885 0.1977713406085968 0.31247061491012573
0.015343617647886276 0.20127524435520172 0.31594389677047729
0.018620699644088745 0.20433218777179718 0.31903806328773499
0.021687669679522514 0.20717543363571167 0.32276687026023865
0.026345245540142059 0.20904465019702911 0.32569152116775513
0.032217077910900116 0.21023100614547729 0.32749494910240173
0.038497764617204666 0.21051469445228577 0.33034554123878479
0.046151701360940933 0.20989853143692017 0.33307647705078125
0.054638609290122986 0.2074967622756958 0.33534333109855652
0.067631334066390991 0.20374865829944611 0.33562025427818298
0.080459065735340118 0.19810901582241058 0.33642792701721191
0.092055447399616241 0.19091692566871643 0.33673998713493347
0.10422473400831223 0.18305276334285736 0.33414065837860107
0.11611294746398926 0.17510601878166199 0.3317435085773468
0.12980552017688751 0.1685415655374527 0.32897579669952393
0.14615301787853241 0.16324436664581299 0.3251323401927948
0.16577720642089844 0.15864302217960358 0.32205918431282043
0.19111025333404541 0.15558777749538422 0.31964555382728577
0.21757116913795471 0.15537369251251221 0.31790119409561157
0.24308827519416809 0.15720328688621521 0.31816166639328003
0.26890939474105835 0.16027988493442535 0.31961306929588318
0.29446882009506226 0.16337281465530396 0.32169163227081299
0.31950679421424866 0.16587682068347931 0.32431307435035706
0.34563848376274109 0.16793246567249298 0.32697343826293945
0.37275934219360352 0.17099668085575104 0.32983556389808655
0.40325257182121277 0.17517678439617157 0.33072802424430847
0.0042294105514883995 0.21629594266414642 0.32398304343223572
0.0052700787782669067 0.21806652843952179 0.32518327236175537
0.0064785294234752655 0.2201511412858963 0.32678693532943726
0.0079961000010371208 0.22244347631931305 0.32848662137985229
0.0097952811047434807 0.22486546635627747 0.33028867840766907
0.012060694396495819 0.22741259634494781 0.3324492871761322
0.014894373714923859 0.23034413158893585 0.33513122797012329
0.017882769927382469 0.23284250497817993 0.3379237949848175
0.021222250536084175 0.23488268256187439 0.34097278118133545
0.024764306843280792 0.23680546879768372 0.34384581446647644
0.028770478442311287 0.23772723972797394 0.34699806571006775
0.033177264034748077 0.23889903724193573 0.34989073872566223
0.03864649310708046 0.23901911079883575 0.35171741247177124
0.04357045516371727 0.23848104476928711 0.3538268506526947
0.04866321012377739 0.23678804934024811 0.35637778043746948
0.054054919630289078 0.23375491797924042 0.35849213600158691
0.06122850626707077 0.22918787598609924 0.35878843069076538
0.071908101439476013 0.22365939617156982 0.35847592353820801
0.088501796126365662 0.21668197214603424 0.3571619987487793
0.10760946571826935 0.20931173861026764 0.35369297862052917
0.12603653967380524 0.20203204452991486 0.34975004196166992
0.14327342808246613 0.19596797227859497 0.34613862633705139
0.16102734208106995 0.19111353158950806 0.34218743443489075
0.17960555851459503 0.18675278127193451 0.33926650881767273
0.20287759602069855 0.18301968276500702 0.3360627293586731
0.22898657619953156 0.18116028606891632 0.33474478125572205
0.2538706362247467 0.18209157884120941 0.33509156107902527
0.27880948781967163 0.18359069526195526 0.33546972274780273
0.30328339338302612 0.18565084040164948 0.33712068200111389
0.32770594954490662 0.18671026825904846 0.33955639600753784
0.35342049598693848 0.18774400651454926 0.34147930145263672
0.38181838393211365 0.19005867838859558 0.342132568359375
0.41261398792266846 0.19319447875022888 0.34203070402145386
0.013072691857814789 0.25350862741470337 0.35025852918624878
0.014363769441843033 0.25496548414230347 0.35122659802436829
0.015557333827018738 0.25618958473205566 0.35259005427360535
0.017229152843356133 0.25667494535446167 0.35406121611595154
0.019469507038593292 0.25914660096168518 0.35574626922607422
0.022158477455377579 0.26050704717636108 0.3576170802116394
0.025254692882299423 0.26187211275100708 0.35965472459793091
0.028299134224653244 0.26388704776763916 0.36220371723175049
0.031568050384521484 0.26479730010032654 0.3649456799030304
0.035293366760015488 0.26554068922996521 0.36758866906166077
0.039415702223777771 0.26584377884864807 0.36991804838180542
0.043444402515888214 0.26555925607681274 0.37273642420768738
0.048062901943922043 0.26495784521102905 0.37464737892150879
0.052962962538003922 0.26381325721740723 0.37657088041305542
0.057978246361017227 0.2618710994720459 0.37885332107543945
0.063186191022396088 0.2587960958480835 0.38013166189193726
0.069810278713703156 0.25462520122528076 0.37953010201454163
0.077746130526065826 0.24894668161869049 0.37779226899147034
0.088199853897094727 0.24249336123466492 0.37496522068977356
0.10512731969356537 0.23579017817974091 0.37061852216720581
0.12634187936782837 0.22902539372444153 0.36636197566986084
0.14715620875358582 0.22342421114444733 0.36265343427658081
0.16773001849651337 0.21842357516288757 0.35865238308906555
0.18922041356563568 0.213349848985672 0.35547277331352234
0.2137453705072403 0.20913688838481903 0.35258102416992188
0.23954808712005615 0.2063448578119278 0.35016933083534241
0.26389604806900024 0.20606982707977295 0.34965679049491882
0.28813660144805908 0.20639969408512115 0.35093149542808533
0.31180018186569214 0.20645435154438019 0.35260164737701416
0.33579522371292114 0.20645435154438019 0.35401478409767151
0.36216673254966736 0.20691785216331482 0.35480031371116638
0.3914158046245575 0.20856054127216339 0.35354644060134888
0.42177152633666992 0.21091261506080627 0.35280504822731018
0.011920403689146042 0.28809288144111633 0.37574216723442078
0.011860324069857597 0.29062223434448242 0.37690138816833496
0.012265610508620739 0.29099902510643005 0.3777412474155426
0.012565883807837963 0.29101592302322388 0.37923142313957214
0.013768982142210007 0.29124355316162109 0.38104686141014099
0.01488194428384304 0.29212555289268494 0.38289526104927063
0.016244754195213318 0.29303818941116333 0.38475173711776733
0.01745244488120079 0.29370158910751343 0.38695722818374634
0.019512442871928215 0.29420512914657593 0.38963544368743896
0.022278344258666039 0.29421386122703552 0.39191338419914246
0.02626473642885685 0.29385894536972046 0.39364555478096008
0.030684608966112137 0.29309341311454773 0.39605513215065002
0.035947609692811966 0.29226306080818176 0.39805102348327637
0.041983921080827713 0.29081261157989502 0.39960837364196777
0.050666511058807373 0.28888490796089172 0.4005405604839325
0.062260642647743225 0.28629696369171143 0.40056824684143066
0.075326159596443176 0.28266856074333191 0.39863044023513794
0.087596483528614044 0.27757197618484497 0.3960438072681427
0.099960535764694214 0.27137604355812073 0.39193034172058105
0.11255475133657455 0.26495373249053955 0.38771241903305054
0.12789888679981232 0.2585599422454834 0.38394147157669067
0.14903758466243744 0.25311306118965149 0.37984645366668701
0.17290079593658447 0.24755881726741791 0.37605446577072144
0.1992572546005249 0.24189145863056183 0.37239226698875427
0.22526757419109344 0.23646081984043121 0.36946699023246765
0.25046759843826294 0.23263637721538544 0.36656668782234192
0.274200439453125 0.23083704710006714 0.36593133211135864
0.297780841588974 0.22980791330337524 0.3661532998085022
0.32092466950416565 0.22885023057460785 0.3684464693069458
0.3455502986907959 0.22794334590435028 0.36862137913703918
0.37327572703361511 0.22798024117946625 0.36705726385116577
0.40221101045608521 0.22833971679210663 0.36514383554458618
0.43176043033599854 0.2297598272562027 0.3642304539680481
0.012462384067475796 0.3212418258190155 0.40129417181015015
0.012578612193465233 0.32148838043212891 0.40227493643760681
0.013297409750521183 0.32255715131759644 0.40300074219703674
0.013624565675854683 0.32340502738952637 0.40449830889701843
0.014530060812830925 0.32383677363395691 0.4060402512550354
0.015250645577907562 0.32417136430740356 0.40782567858695984
0.016042456030845642 0.32444164156913757 0.40963774919509888
0.017098741605877876 0.32444164156913757 0.41170191764831543
0.018328370526432991 0.32442876696586609 0.41411599516868591
0.019488969817757607 0.32406410574913025 0.41623952984809875
0.021244151517748833 0.32351070642471313 0.41768518090248108
0.023284094408154488 0.3225688636302948 0.4190012514591217
0.025489294901490211 0.32167172431945801 0.42002162337303162
0.028361601755023003 0.3209221363067627 0.42037111520767212
0.033237669616937637 0.31877028942108154 0.42025056481361389
0.040350418537855148 0.3170819878578186 0.41854089498519897
0.051267832517623901 0.31359785795211792 0.41669574379920959
0.06943967193365097 0.30869993567466736 0.41383111476898193
0.091203980147838593 0.30313178896903992 0.41002556681632996
0.11188763380050659 0.29638642072677612 0.40569528937339783
0.13038945198059082 0.2902025580406189 0.40180107951164246
0.15394937992095947 0.2842966616153717 0.39766854047775269
0.18326655030250549 0.27796512842178345 0.39378291368484497
0.2110246866941452 0.27143162488937378 0.38976073265075684
0.23695465922355652 0.26501673460006714 0.38629645109176636
0.26153126358985901 0.25950440764427185 0.38366273045539856
0.28484320640563965 0.2564646303653717 0.3828091025352478
0.30780357122421265 0.25442293286323547 0.38286060094833374
0.33123165369033813 0.25246939063072205 0.38305163383483887
0.357176274061203 0.25096765160560608 0.38181912899017334
0.38515567779541016 0.24974390864372253 0.37917926907539368
0.41353631019592285 0.24906307458877563 0.37695074081420898
0.44240659475326538 0.24921756982803345 0.37601524591445923
0.0032727513462305069 0.35522857308387756 0.42759814858436584
0.0034611576702445745 0.35522857308387756 0.42821037769317627
0.00363942701369524 0.35522857308387756 0.42912748456001282
0.0040335296653211117 0.35522854328155518 0.43028444051742554
0.0044893776066601276 0.35522857308387756 0.4316781759262085
0.0048837698996067047 0.35526597499847412 0.43310171365737915
0.0052445754408836365 0.35530343651771545 0.43474024534225464
0.0061362003907561302 0.35530343651771545 0.4361320436000824
0.0076641286723315716 0.35530343651771545 0.43746834993362427
0.0086289290338754654 0.35524106025695801 0.43885380029678345
0.010566356591880322 0.35522857308387756 0.43963325023651123
0.013295408338308334 0.35522857308387756 0.43978103995323181
0.016053851693868637 0.35522857308387756 0.43979859352111816
0.020231524482369423 0.35251927375793457 0.43902510404586792
0.026260156184434891 0.35130724310874939 0.43807688355445862
0.033620789647102356 0.35000127553939819 0.43706700205802917
0.042735431343317032 0.34700563549995422 0.43510472774505615
0.053588412702083588 0.34231117367744446 0.43225425481796265
0.068376526236534119 0.33703276515007019 0.42857968807220459
0.096039049327373505 0.32983231544494629 0.42438232898712158
0.1307140439748764 0.32324197888374329 0.42008951306343079
0.16442786157131195 0.31676220893859863 0.41604709625244141
0.19536499679088593 0.30938452482223511 0.4119294285774231
0.2229798287153244 0.30167654156684875 0.40768533945083618
0.24855852127075195 0.29396507143974304 0.4038703441619873
0.27268096804618835 0.28727433085441589 0.40122663974761963
0.29545381665229797 0.28298085927963257 0.39969897270202637
0.3183574378490448 0.27971598505973816 0.39907914400100708
0.34351560473442078 0.27688014507293701 0.39738366007804871
0.3702009916305542 0.27475002408027649 0.39442688226699829
0.39762076735496521 0.27251556515693665 0.39144089818000793
0.42535495758056641 0.27023348212242126 0.38907578587532043
0.45359963178634644 0.26960790157318115 0.38763779401779175
0 0.38986948132514954 0.45424285531044006
0 0.38986954092979431 0.45464184880256653
0 0.38986948132514954 0.45507404208183289
0 0.38986948132514954 0.45592442154884338
0 0.38986948132514954 0.45647048950195312
0 0.38986948132514954 0.45760715007781982
0 0.38986948132514954 0.45814740657806396
0 0.38986948132514954 0.4585261344909668
0 0.38986948132514954 0.45879641175270081
0 0.38986954092979431 0.45894041657447815
0 0.38986954092979431 0.45906445384025574
0 0.38986948132514954 0.45912882685661316
0 0.38986954092979431 0.45898330211639404
0.00011312917195027694 0.38915404677391052 0.45856866240501404
0.0017553401412442327 0.38690200448036194 0.45753145217895508
0.0042614373378455639 0.38589480519294739 0.45627114176750183
0.011202779598534107 0.38295722007751465 0.45461466908454895
0.031781703233718872 0.37874159216880798 0.45169556140899658
0.069952383637428284 0.37290588021278381 0.44802910089492798
0.10873676091432571 0.36563587188720703 0.44377952814102173
0.14377129077911377 0.35793712735176086 0.43937143683433533
0.17667907476425171 0.35061174631118774 0.43513596057891846
0.20740364491939545 0.34224224090576172 0.43087273836135864
0.2351759672164917 0.33319553732872009 0.42619526386260986
0.2604234516620636 0.32402774691581726 0.42233580350875854
0.28422042727470398 0.31610867381095886 0.41918149590492249
0.30718269944190979 0.31065142154693604 0.41744899749755859
0.33149999380111694 0.30662432312965393 0.41473361849784851
0.35761421918869019 0.30331796407699585 0.4112669825553894
0.38378235697746277 0.29985171556472778 0.40760651230812073
0.4108072817325592 0.29616788029670715 0.40437573194503784
0.43782496452331543 0.29313069581985474 0.40159446001052856
0.46564504504203796 0.29093119502067566 0.39968737959861755
