Textures/52.cube
# Created by: G'MIC (https://gmic.eu)
TITLE "Fuji_Superia_200_XPRO.cube"
# LUT size
LUT_3D_SIZE 5
# Data domain
DOMAIN_MIN 0.0 0.0 0.0
DOMAIN_MAX 1.0 1.0 1.0
# LUT data points
0.00043301164987497032 0.0084336763247847557 0.074971139430999756
0.00089879200095310807 0.016425648704171181 0.14453978836536407
0.013246219605207443 0.039584081619977951 0.20627020299434662
0.12997214496135712 0.017842594534158707 0.22336874902248383
0.35872480273246765 0.073926784098148346 0.26192864775657654
0.011920403689146042 0.28809288144111633 0.37574216723442078
0.019512442871928215 0.29420512914657593 0.38963544368743896
0.075326159596443176 0.28266856074333191 0.39863044023513794
0.22526757419109344 0.23646081984043121 0.36946699023246765
0.43176043033599854 0.2297598272562027 0.3642304539680481
0 0.61798828840255737 0.57001632452011108
0 0.61764699220657349 0.57001632452011108
0.057496130466461182 0.59923809766769409 0.56401616334915161
0.33901879191398621 0.50284004211425781 0.51335608959197998
0.54217010736465454 0.42470037937164307 0.46924373507499695
0.074174873530864716 1 0.76874220371246338
0.12672002613544464 1 0.78105169534683228
0.24759534001350403 0.99939095973968506 0.76341646909713745
0.48935028910636902 0.89661252498626709 0.69494187831878662
0.71069568395614624 0.7208138108253479 0.61151617765426636
0.98108506202697754 1 0.99042719602584839
0.98490983247756958 1 0.99614548683166504
0.99389207363128662 1 1
0.99812090396881104 1 1
1 1 0.84165418148040771
0 0.01826232485473156 0.39133915305137634
0 0.046841047704219818 0.40257769823074341
0 0.040085513144731522 0.39345249533653259
0.07553398609161377 0.032586656510829926 0.37301063537597656
0.32693684101104736 0.096820168197154999 0.37577962875366211
0 0.29965803027153015 0.52239078283309937
0.0021142743062227964 0.29703864455223083 0.52279925346374512
0.048011679202318192 0.27659118175506592 0.50505948066711426
0.18788741528987885 0.24075518548488617 0.46577143669128418
0.40067401528358459 0.23641355335712433 0.44843539595603943
0 0.62549960613250732 0.66460651159286499
0 0.62146514654159546 0.66048067808151245
0.03368048369884491 0.58236682415008545 0.63587838411331177
0.3064534068107605 0.48612684011459351 0.57954269647598267
0.50981056690216064 0.42353141307830811 0.54108452796936035
0.010169890709221363 1 0.85779666900634766
0.020293524488806725 1 0.85077440738677979
0.099634625017642975 0.99197375774383545 0.82479500770568848
0.45499765872955322 0.85827350616455078 0.74835455417633057
0.69163614511489868 0.71124136447906494 0.65874886512756348
0.94239330291748047 1 1
0.95014369487762451 1 1
0.96827888488769531 1 1
0.99072355031967163 1 1
0.99621564149856567 1 0.87130606174468994
0 0.078843005001544952 0.54024207592010498
0 0.068544641137123108 0.52737843990325928
0 0.05220445990562439 0.50654947757720947
0.073570817708969116 0.075317822396755219 0.49274125695228577
0.30768463015556335 0.12745340168476105 0.4834606945514679
0 0.32069778442382812 0.64754009246826172
0.0017903136322274804 0.30957350134849548 0.63814568519592285
0.048166703432798386 0.27943047881126404 0.61315172910690308
0.16004730761051178 0.25506293773651123 0.58118206262588501
0.38314440846443176 0.25932550430297852 0.54996216297149658
0 0.61352735757827759 0.77819877862930298
0 0.59379804134368896 0.76462411880493164
0.0074897757731378078 0.53682988882064819 0.72607332468032837
0.28040227293968201 0.47559067606925964 0.67831683158874512
0.49854660034179688 0.43955972790718079 0.63292741775512695
0 0.99791854619979858 0.94652599096298218
0 0.99105644226074219 0.93326234817504883
0.16364514827728271 0.92131096124649048 0.88590413331985474
0.45499595999717712 0.8089674711227417 0.8163611888885498
0.66703051328659058 0.69883519411087036 0.74181056022644043
0.89191848039627075 1 1
0.90012675523757935 1 1
0.9235643744468689 1 1
0.9411323070526123 1 1
0.96503531932830811 1 0.9244532585144043
0 0.11559280008077621 0.66020429134368896
0 0.11408492177724838 0.64553642272949219
0.007269619032740593 0.12407051026821136 0.63281011581420898
0.11580681055784225 0.13745401799678802 0.61237287521362305
0.32622909545898438 0.19012807309627533 0.59916913509368896
0.0079102097079157829 0.3267441987991333 0.74257630109786987
0.015660418197512627 0.31525561213493347 0.7320932149887085
0.06348758190870285 0.30117160081863403 0.71385860443115234
0.19016252458095551 0.28671914339065552 0.68646538257598877
0.39667940139770508 0.31196406483650208 0.66505277156829834
0 0.55288147926330566 0.83807837963104248
4.6740100515307859e-05 0.54077047109603882 0.82929444313049316
0.1105530709028244 0.51478320360183716 0.80759942531585693
0.31458780169487 0.48206055164337158 0.77385032176971436
0.50686442852020264 0.47481968998908997 0.73944962024688721
0.063715241849422455 0.89678025245666504 0.97728496789932251
0.16160708665847778 0.87625026702880859 0.96494615077972412
0.33017095923423767 0.83126682043075562 0.93519884347915649
0.48739403486251831 0.76393610239028931 0.88843667507171631
0.66138994693756104 0.6962469220161438 0.83188265562057495
0.84834063053131104 1 1
0.85156619548797607 1 1
0.85719859600067139 1 1
0.86689186096191406 1 1
0.91484284400939941 0.99996274709701538 0.97866833209991455
0.0034941404592245817 0.20186607539653778 0.76559752225875854
0.02549346536397934 0.20220932364463806 0.75684940814971924
0.089111104607582092 0.20600064098834991 0.74571359157562256
0.19252397119998932 0.2258896678686142 0.73204690217971802
0.38473638892173767 0.28798955678939819 0.72338086366653442
0.032500013709068298 0.35573437809944153 0.8299526572227478
0.049919839948415756 0.35360077023506165 0.82482081651687622
0.14584818482398987 0.35164213180541992 0.81283080577850342
0.28689455986022949 0.36122748255729675 0.79753237962722778
0.45852771401405334 0.39886084198951721 0.78251463174819946
0.18333078920841217 0.54729181528091431 0.90706628561019897
0.22218504548072815 0.54317581653594971 0.90220701694488525
0.30837753415107727 0.53431278467178345 0.88917583227157593
0.41674929857254028 0.52983629703521729 0.87063032388687134
0.56458133459091187 0.53815442323684692 0.84660917520523071
0.42231044173240662 0.79813605546951294 0.99855488538742065
0.44462400674819946 0.79010486602783203 0.99560964107513428
0.50035905838012695 0.7697945237159729 0.98183953762054443
0.58335006237030029 0.74315524101257324 0.95763599872589111
0.70978480577468872 0.71618509292602539 0.92099064588546753
0.81504476070404053 1 1
0.82004958391189575 1 1
0.8358457088470459 1 1
0.8660011887550354 1 1
0.94209450483322144 0.98002934455871582 0.99945825338363647
