Textures/53.cube
# Created by: G'MIC (https://gmic.eu)
TITLE "Fuji_Superia_400_2.cube"
# LUT size
LUT_3D_SIZE 5
# Data domain
DOMAIN_MIN 0.0 0.0 0.0
DOMAIN_MAX 1.0 1.0 1.0
# LUT data points
0.0031315479427576065 0.042607836425304413 0.038688845932483673
0.16659237444400787 0.058503396809101105 0.036554448306560516
0.53123372793197632 0 0.014940802007913589
0.87302350997924805 0 0
0.99999380111694336 0.21221627295017242 0
0 0.18324202299118042 0.076895877718925476
0.16180242598056793 0.23408502340316772 0.035082317888736725
0.57667112350463867 0.23506574332714081 0
0.87300258874893188 0.2585068941116333 0
0.99999582767486572 0.35093295574188232 0
0 0.4955841600894928 0.17411264777183533
0.11806923151016235 0.5024680495262146 0.18059773743152618
0.55450499057769775 0.61991900205612183 0.0022608391009271145
0.88204777240753174 0.60703611373901367 0
1 0.56159454584121704 0
0.28646540641784668 0.74393397569656372 0.40410727262496948
0.35939481854438782 0.74152427911758423 0.40966585278511047
0.53250932693481445 0.77294701337814331 0.40414616465568542
0.81545013189315796 0.83677637577056885 0.35577842593193054
1 0.84824812412261963 0.22771316766738892
0.72187089920043945 0.93453520536422729 0.74098455905914307
0.73846542835235596 0.93485194444656372 0.74555408954620361
0.78164172172546387 0.93563199043273926 0.7574576735496521
0.85073375701904297 0.95467031002044678 0.75189745426177979
0.95183050632476807 0.96998882293701172 0.73454743623733521
0.001138990861363709 0.051527418196201324 0.18126121163368225
0.17129871249198914 0.073188945651054382 0.18045639991760254
0.54110658168792725 0 0.19846327602863312
0.87486964464187622 0.027015935629606247 0.20797117054462433
0.99998295307159424 0.25791746377944946 0.20508235692977905
4.2556428070383845e-07 0.21950794756412506 0.20609085261821747
0.2159806489944458 0.24805366992950439 0.23044605553150177
0.60002094507217407 0.26065069437026978 0.22166183590888977
0.8765144944190979 0.28527092933654785 0.1956196129322052
0.99999582767486572 0.37443074584007263 0.18626098334789276
0.14166878163814545 0.54079258441925049 0.3403887152671814
0.2666471004486084 0.53957176208496094 0.34002327919006348
0.5731731653213501 0.61789023876190186 0.30543899536132812
0.86982381343841553 0.58032900094985962 0.14755794405937195
0.99995285272598267 0.56805741786956787 0.074290983378887177
0.37715405225753784 0.75663995742797852 0.49393713474273682
0.43181362748146057 0.75439649820327759 0.49761044979095459
0.56264716386795044 0.76952630281448364 0.49979057908058167
0.81867599487304688 0.83630216121673584 0.48464876413345337
1 0.84385496377944946 0.39678668975830078
0.73413121700286865 0.93618279695510864 0.76082020998001099
0.74969965219497681 0.93596011400222778 0.76461786031723022
0.78965824842453003 0.93582522869110107 0.77449196577072144
0.85554754734039307 0.95363122224807739 0.77448272705078125
0.95237523317337036 0.96965193748474121 0.76228874921798706
0 0.065497636795043945 0.53530794382095337
0.22691906988620758 0.071196332573890686 0.53722983598709106
0.56461077928543091 0.1025952622294426 0.54604077339172363
0.841286301612854 0.16453401744365692 0.54184222221374512
1 0.28667378425598145 0.53968852758407593
0 0.22774343192577362 0.57123851776123047
0.26623037457466125 0.26709488034248352 0.57939153909683228
0.59189504384994507 0.3290073573589325 0.57252383232116699
0.84904533624649048 0.36918634176254272 0.56601399183273315
1 0.41375741362571716 0.54807889461517334
0.026728428900241852 0.57576417922973633 0.57058233022689819
0.32126253843307495 0.58897107839584351 0.58343559503555298
0.60391038656234741 0.60840582847595215 0.60287642478942871
0.84740501642227173 0.60126471519470215 0.57545673847198486
0.99995285272598267 0.6209409236907959 0.56057274341583252
0.52718502283096313 0.78344237804412842 0.65912109613418579
0.578724205493927 0.78539711236953735 0.66765040159225464
0.64423131942749023 0.77854114770889282 0.65814286470413208
0.82862269878387451 0.83595842123031616 0.67276358604431152
0.99998718500137329 0.82292979955673218 0.59219342470169067
0.76249617338180542 0.94059622287750244 0.80887854099273682
0.7735094428062439 0.94049346446990967 0.80992698669433594
0.80849063396453857 0.94011157751083374 0.8158000111579895
0.86633384227752686 0.95057100057601929 0.82416194677352905
0.956276535987854 0.96949928998947144 0.82251322269439697
0.19535645842552185 0.089943550527095795 0.80685997009277344
0.3799954354763031 0.10260232537984848 0.80610162019729614
0.64261627197265625 0.19739158451557159 0.79998898506164551
0.85431867837905884 0.34343892335891724 0.79488307237625122
0.9999813437461853 0.46734386682510376 0.79092401266098022
0.22594168782234192 0.27808234095573425 0.81094157695770264
0.40002340078353882 0.29906216263771057 0.8106200098991394
0.65138953924179077 0.37289318442344666 0.8048701286315918
0.85084307193756104 0.47470349073410034 0.79937499761581421
0.99896156787872314 0.55725133419036865 0.79812008142471313
0 0.52040863037109375 0.79769104719161987
0.25764590501785278 0.53319960832595825 0.80131447315216064
0.63041436672210693 0.59522444009780884 0.80296128988265991
0.83967530727386475 0.6639401912689209 0.80613547563552856
0.98740911483764648 0.70482981204986572 0.81233686208724976
0.4591657817363739 0.80132943391799927 0.79607683420181274
0.52787256240844727 0.80376875400543213 0.79939007759094238
0.67539054155349731 0.81022459268569946 0.80730754137039185
0.84263598918914795 0.82935613393783569 0.82654410600662231
0.98828279972076416 0.82739335298538208 0.81227463483810425
0.7950366735458374 0.94706046581268311 0.87802398204803467
0.80875289440155029 0.94743567705154419 0.88008749485015869
0.84634310007095337 0.94860744476318359 0.88603067398071289
0.88737738132476807 0.95031845569610596 0.88769805431365967
0.96364045143127441 0.96992641687393188 0.89832055568695068
0.55704140663146973 0.34516283869743347 0.97715121507644653
0.6228564977645874 0.37570938467979431 0.97519546747207642
0.76193094253540039 0.46210834383964539 0.96909260749816895
0.90019410848617554 0.59332501888275146 0.95869594812393188
0.99827522039413452 0.6796535849571228 0.95330655574798584
0.56183212995529175 0.45655989646911621 0.97500699758529663
0.62654095888137817 0.48003491759300232 0.97354179620742798
0.76187604665756226 0.54329729080200195 0.96739774942398071
0.89653271436691284 0.64536285400390625 0.95787668228149414
0.99397695064544678 0.7170487642288208 0.95256668329238892
0.50101310014724731 0.60517269372940063 0.97149372100830078
0.58946758508682251 0.62655073404312134 0.96971511840820312
0.74222415685653687 0.66736763715744019 0.96453016996383667
0.88596653938293457 0.73627156019210815 0.95726323127746582
0.98340904712677002 0.79298985004425049 0.95331829786300659
0.46040377020835876 0.79103851318359375 0.96484172344207764
0.50804299116134644 0.78786617517471313 0.96542292833328247
0.63317316770553589 0.77960097789764404 0.96651887893676758
0.86435765027999878 0.83521324396133423 0.96085339784622192
0.9745100736618042 0.88552999496459961 0.95864027738571167
0.77130472660064697 0.96085202693939209 0.96145880222320557
0.78658223152160645 0.96128946542739868 0.96170717477798462
0.82970660924911499 0.96202355623245239 0.96296602487564087
0.89596199989318848 0.96446424722671509 0.96489453315734863
0.97427254915237427 0.9716942310333252 0.97175425291061401
