Textures/53.cube
# Created by: G'MIC (https://gmic.eu)
TITLE "Fuji_Superia_400_2.cube"
# LUT size
LUT_3D_SIZE 33
# Data domain
DOMAIN_MIN 0.0 0.0 0.0
DOMAIN_MAX 1.0 1.0 1.0
# LUT data points
0.0031315479427576065 0.042607836425304413 0.038688845932483673
0.0093847587704658508 0.043741147965192795 0.038799472153186798
0.018511116504669189 0.044820558279752731 0.038890417665243149
0.035015866160392761 0.046822693198919296 0.039057355374097824
0.056722838431596756 0.049472756683826447 0.039044082164764404
0.080518580973148346 0.052136760205030441 0.038700047880411148
0.10673217475414276 0.055303316563367844 0.038448557257652283
0.13515195250511169 0.057098273187875748 0.037582237273454666
0.16659237444400787 0.058503396809101105 0.036554448306560516
0.20087228715419769 0.058837283402681351 0.035414364188909531
0.23896792531013489 0.057587139308452606 0.034128293395042419
0.28135403990745544 0.053543787449598312 0.03217766061425209
0.32681253552436829 0.045440573245286942 0.029593704268336296
0.37627968192100525 0.032340146601200104 0.027037831023335457
0.42812633514404297 0.013973458670079708 0.023659771308302879
0.47976043820381165 0.00077006459468975663 0.019317412748932838
0.53123372793197632 0 0.014940802007913589
0.5811469554901123 0 0.0092942165210843086
0.63164436817169189 0 0.0037978643085807562
0.68497127294540405 0 0.00034150975989177823
0.73082661628723145 0 0
0.77110171318054199 0 0
0.80758082866668701 0 0
0.84075921773910522 0 0
0.87302350997924805 0 0
0.90407067537307739 0 0
0.9336860179901123 0.0010918880579993129 0
0.96161645650863647 0.029845751821994781 0
0.98802357912063599 0.07895950973033905 0
0.99985820055007935 0.11617700755596161 0
0.99995285272598267 0.14954109489917755 0
0.99997198581695557 0.17990139126777649 0
0.99999380111694336 0.21221627295017242 0
0.0035383098293095827 0.04912925511598587 0.040721133351325989
0.0081918584182858467 0.051005944609642029 0.039946507662534714
0.018939994275569916 0.053732436150312424 0.039176736027002335
0.036285381764173508 0.055977053940296173 0.038558784872293472
0.058330483734607697 0.058624818921089172 0.038343530148267746
0.081491611897945404 0.061095509678125381 0.037594988942146301
0.10773606598377228 0.063681192696094513 0.037379860877990723
0.13597522675991058 0.0655321404337883 0.036544732749462128
0.16838355362415314 0.067459866404533386 0.036034479737281799
0.20279787480831146 0.067603044211864471 0.034744996577501297
0.24099108576774597 0.066715672612190247 0.032839979976415634
0.28362223505973816 0.063729837536811829 0.030978348106145859
0.32919865846633911 0.057223156094551086 0.028492024168372154
0.37834030389785767 0.046493612229824066 0.025898093357682228
0.42916542291641235 0.029546057805418968 0.022035500034689903
0.48017314076423645 0.0097154378890991211 0.018292311578989029
0.53057920932769775 0.00021589382959064096 0.013232756406068802
0.58051884174346924 0 0.0081248180940747261
0.63235980272293091 0 0.0022040524054318666
0.68446695804595947 0 0.00011174569226568565
0.72995233535766602 0 0
0.77047890424728394 0 0
0.80652201175689697 0 0
0.83943706750869751 0 0
0.87241625785827637 0 0
0.90321230888366699 0.00024222630599979311 0
0.93220293521881104 0.014697294682264328 0
0.96031904220581055 0.058407135307788849 0
0.98699361085891724 0.097754150629043579 0
0.99972528219223022 0.12991717457771301 0
1 0.16062390804290771 0
0.99996209144592285 0.18885992467403412 0
0.99999552965164185 0.21934942901134491 0
0.0027611525729298592 0.058545976877212524 0.042963936924934387
0.0064988750964403152 0.060695253312587738 0.042648144066333771
0.015144992619752884 0.064973980188369751 0.040893480181694031
0.034393567591905594 0.070201747119426727 0.038379766047000885
0.059081897139549255 0.071597576141357422 0.037087496370077133
0.084445714950561523 0.072577081620693207 0.036156225949525833
0.11159268766641617 0.074764646589756012 0.035907652229070663
0.14016799628734589 0.076386690139770508 0.035042695701122284
0.17234236001968384 0.077668726444244385 0.03431503102183342
0.20698437094688416 0.078196361660957336 0.032965417951345444
0.2449033260345459 0.077898867428302765 0.031687900424003601
0.28697296977043152 0.075676076114177704 0.029426969587802887
0.33244389295578003 0.070572152733802795 0.026756675913929939
0.38114461302757263 0.062663249671459198 0.024474211037158966
0.43149125576019287 0.04998214915394783 0.020715000107884407
0.48148837685585022 0.032444160431623459 0.016783019527792931
0.53206145763397217 0.011817661114037037 0.011411421932280064
0.582131028175354 0.00085245131049305201 0.0055435667745769024
0.63545507192611694 0 0.0012841606512665749
0.68614596128463745 0 2.2271196939982474e-05
0.73070895671844482 0 0
0.77009135484695435 0 0
0.80640256404876709 0 0
0.84041738510131836 2.7269987185718492e-05 0
0.87251275777816772 0.0024395852815359831 0
0.90302807092666626 0.017764648422598839 0
0.93266022205352783 0.052965022623538971 0
0.96012455224990845 0.088072620332241058 0
0.98666256666183472 0.11889766901731491 0
0.99970024824142456 0.14651393890380859 0
0.99995285272598267 0.17423807084560394 0
0.99999707937240601 0.2002069503068924 0
0.99999839067459106 0.22931207716464996 0
0.00062291976064443588 0.074229814112186432 0.046375252306461334
0.0036759772337973118 0.075741328299045563 0.046339318156242371
0.010509663261473179 0.079515188932418823 0.044311121106147766
0.026534011587500572 0.085280932486057281 0.04082760214805603
0.057777915149927139 0.092049784958362579 0.036496978253126144
0.088418729603290558 0.093489691615104675 0.035003688186407089
0.11720101535320282 0.092157259583473206 0.034121334552764893
0.14619207382202148 0.091684207320213318 0.03300708532333374
0.178289994597435 0.092319846153259277 0.03197060152888298
0.2131723165512085 0.093087062239646912 0.030792217701673508
0.25141528248786926 0.092799738049507141 0.029036080464720726
0.2938789427280426 0.091193020343780518 0.026874521747231483
0.33921486139297485 0.08777734637260437 0.024518454447388649
0.38772493600845337 0.082136377692222595 0.021574685350060463
0.43863901495933533 0.073084309697151184 0.01731196790933609
0.48894259333610535 0.060986358672380447 0.012659552507102489
0.53935295343399048 0.04530668631196022 0.0074260598048567772
0.59188574552536011 0.026842843741178513 0.0020778379403054714
0.64565747976303101 0.012904594652354717 8.2772254245355725e-05
0.69427585601806641 0.0070817507803440094 0
0.73768699169158936 0.0057494817301630974 0
0.77607071399688721 0.0072371433489024639 0
0.81124460697174072 0.012824821285903454 0
0.84376901388168335 0.024303954094648361 0
0.87572145462036133 0.046272225677967072 0
0.90669131278991699 0.073082692921161652 0
0.93525832891464233 0.098313853144645691 0
0.96318173408508301 0.12344805151224136 0
0.98964643478393555 0.14837880432605743 0
0.99997115135192871 0.17225559055805206 0
0.99999845027923584 0.1956823319196701 0
0.99997860193252563 0.21947692334651947 0
1 0.24660246074199677 0
3.4045142456307076e-06 0.089858986437320709 0.050517655909061432
0.00098740903194993734 0.090557627379894257 0.050728555768728256
0.0056874542497098446 0.093548819422721863 0.049598194658756256
0.017125459387898445 0.098954185843467712 0.045851390808820724
0.042909249663352966 0.10574902594089508 0.040868371725082397
0.082807190716266632 0.11459390819072723 0.034846007823944092
0.11861556023359299 0.11699075996875763 0.031830839812755585
0.15007147192955017 0.11455855518579483 0.030264664441347122
0.18244776129722595 0.11153387278318405 0.029475271701812744
0.21770872175693512 0.11066204309463501 0.028067544102668762
0.25684875249862671 0.11071684956550598 0.026137834414839745
0.29930859804153442 0.10981829464435577 0.023696595802903175
0.34436947107315063 0.10775691270828247 0.020922413095831871
0.39267194271087646 0.10428327322006226 0.017691101878881454
0.44270205497741699 0.098775148391723633 0.013607798144221306
0.49145728349685669 0.090834528207778931 0.0087381806224584579
0.54265046119689941 0.082276441156864166 0.003420085646212101
0.59778702259063721 0.073060937225818634 0.00032426847610622644
0.64884316921234131 0.065289311110973358 0
0.69585889577865601 0.060831271111965179 0
0.73781722784042358 0.060161467641592026 0
0.77510380744934082 0.063981227576732635 0
0.81002146005630493 0.072038672864437103 0
0.84262984991073608 0.083215072751045227 0
0.8742821216583252 0.098108023405075073 0
0.90502482652664185 0.11506303399801254 0
0.93356305360794067 0.13348817825317383 0
0.96193093061447144 0.15333995223045349 0
0.98772972822189331 0.17390827834606171 0
0.99986910820007324 0.19432094693183899 0
1 0.21487991511821747 0
0.99997431039810181 0.23681709170341492 0
1 0.26188072562217712 0
0 0.10996140539646149 0.056176982820034027
2.1065430701128207e-05 0.11058859527111053 0.05696665495634079
0.0022026533260941505 0.11128576844930649 0.056617394089698792
0.011165579780936241 0.11622776836156845 0.053153499960899353
0.031460531055927277 0.12295651435852051 0.048470355570316315
0.067155912518501282 0.13151836395263672 0.041812002658843994
0.11422194540500641 0.14308503270149231 0.032581564038991928
0.1562218964099884 0.14708241820335388 0.027166800573468208
0.19150267541408539 0.14352135360240936 0.025145193561911583
0.22620657086372375 0.13907013833522797 0.023414148017764091
0.26222869753837585 0.13425105810165405 0.02206806093454361
0.30434980988502502 0.13219895958900452 0.019652482122182846
0.35038217902183533 0.13124549388885498 0.015711640939116478
0.39820703864097595 0.12900190055370331 0.012326465919613838
0.44706884026527405 0.12574394047260284 0.0077684842981398106
0.4976826012134552 0.1218295693397522 0.0030534039251506329
0.55299657583236694 0.11846800893545151 0.00048072380013763905
0.60611891746520996 0.11521357297897339 0
0.65434592962265015 0.11284585297107697 0
0.69933849573135376 0.11220453679561615 0
0.73990267515182495 0.11422477662563324 0
0.77683097124099731 0.11790134012699127 0
0.81099176406860352 0.12346221506595612 0
0.84328705072402954 0.13138438761234283 0
0.87474280595779419 0.14223542809486389 0
0.90536373853683472 0.15497507154941559 0
0.93400955200195312 0.16991119086742401 0
0.96162712574005127 0.18583200871944427 0
0.98758471012115479 0.20317493379116058 0
0.99981093406677246 0.22032594680786133 0
0.99999845027923584 0.23889411985874176 0
1 0.25822260975837708 0
0.99999141693115234 0.28115817904472351 0
0 0.13171263039112091 0.062520444393157959
0 0.13278250396251678 0.06290648877620697
0.00044460076605901122 0.13221807777881622 0.063677370548248291
0.0068276030942797661 0.13592664897441864 0.061621207743883133
0.023022782057523727 0.14215171337127686 0.056676365435123444
0.054065905511379242 0.15054987370967865 0.05047992616891861
0.095285229384899139 0.16051848232746124 0.041806500405073166
0.14754283428192139 0.1744968444108963 0.029026361182332039
0.19721150398254395 0.18157829344272614 0.019693557173013687
0.2365848571062088 0.1779971569776535 0.016536369919776917
0.27580979466438293 0.17275457084178925 0.014132315292954445
0.31562840938568115 0.16549365222454071 0.012127186171710491
0.35631662607192993 0.15976047515869141 0.0097336918115615845
0.40388599038124084 0.15763150155544281 0.005570520181208849
0.45695123076438904 0.15705709159374237 0.0013343518367037177
0.51256823539733887 0.15747636556625366 0.00010036029561888427
0.56571483612060547 0.15704074501991272 0
0.61517876386642456 0.15610243380069733 0
0.66117799282073975 0.15628138184547424 0
0.7041204571723938 0.15745601058006287 0
0.7434578537940979 0.15993721783161163 0
0.77866613864898682 0.16324257850646973 0
0.81241989135742188 0.16806860268115997 0
0.84424442052841187 0.17430846393108368 0
0.87515580654144287 0.1829615980386734 0
0.90556752681732178 0.19368042051792145 0
0.93391960859298706 0.20564289391040802 0
0.96156775951385498 0.21932926774024963 0
0.98762190341949463 0.23440386354923248 0
0.99989241361618042 0.24945668876171112 0
1 0.2657342255115509 0
1 0.28272557258605957 0
0.99996143579483032 0.30440583825111389 0
0 0.15410691499710083 0.069108061492443085
0 0.15552042424678802 0.070098347961902618
4.8691650590626523e-05 0.15488027036190033 0.070367909967899323
0.0032536087092012167 0.15589325129985809 0.06972929835319519
0.016838807612657547 0.16218271851539612 0.065672829747200012
0.043282706290483475 0.17086809873580933 0.059936262667179108
0.080586418509483337 0.18081088364124298 0.051662962883710861
0.12564238905906677 0.19308401644229889 0.040398545563220978
0.1847502738237381 0.21087023615837097 0.022294316440820694
0.24455700814723969 0.22380563616752625 0.0071140718646347523
0.28830087184906006 0.21989013254642487 0.0035891856532543898
0.33187291026115417 0.21325471997261047 0.0019003507914021611
0.375425785779953 0.20589621365070343 0.00096770806703716516
0.41984468698501587 0.19813701510429382 0.00050212314818054438
0.46886715292930603 0.19365853071212769 7.0927371780271642e-06
0.52091562747955322 0.19387799501419067 0
0.57219201326370239 0.1947842538356781 0
0.61957424879074097 0.19532345235347748 0
0.66308265924453735 0.19644317030906677 0
0.70437759160995483 0.19777080416679382 0
0.74208581447601318 0.20013885200023651 0
0.77705669403076172 0.20343253016471863 0
0.81035792827606201 0.20717620849609375 0
0.84236276149749756 0.21285137534141541 0
0.87327712774276733 0.22038485109806061 0
0.90329408645629883 0.22911599278450012 0
0.93177264928817749 0.23927460610866547 0
0.95923846960067749 0.25132879614830017 0
0.98530536890029907 0.26341161131858826 0
0.99970930814743042 0.27677449584007263 0
1 0.29137697815895081 0
1 0.30656427145004272 0
0.99995720386505127 0.3257136344909668 0
0 0.18324202299118042 0.076895877718925476
0 0.18450453877449036 0.077821560204029083
0 0.18366050720214844 0.07809845358133316
0.00089988060062751174 0.18336696922779083 0.078506089746952057
0.011201713234186172 0.18737664818763733 0.076005682349205017
0.034426216036081314 0.1960330456495285 0.070206522941589355
0.069680571556091309 0.20666225254535675 0.062441550195217133
0.11116541177034378 0.21895633637905121 0.051353469491004944
0.16180242598056793 0.23408502340316772 0.035082317888736725
0.22669219970703125 0.25478050112724304 0.011630384251475334
0.29939475655555725 0.27555787563323975 0.00010141682287212461
0.35230380296707153 0.27431383728981018 0
0.40111172199249268 0.26918652653694153 0
0.44818004965782166 0.26125639677047729 0
0.4915720522403717 0.25098177790641785 0
0.53228050470352173 0.23981937766075134 0
0.57667112350463867 0.23506574332714081 0
0.62329667806625366 0.23576879501342773 0
0.66646730899810791 0.23775123059749603 0
0.70691335201263428 0.23947960138320923 0
0.74392539262771606 0.24188151955604553 0
0.77826195955276489 0.24453791975975037 0
0.81097149848937988 0.24773123860359192 0
0.84228402376174927 0.25241073966026306 0
0.87300258874893188 0.2585068941116333 0
0.90287190675735474 0.26615485548973083 0
0.93118304014205933 0.27486696839332581 0
0.95838403701782227 0.28498184680938721 0
0.98411589860916138 0.29600727558135986 0
0.99960994720458984 0.30776101350784302 0
0.99990558624267578 0.32026982307434082 0
1 0.33349564671516418 0
0.99999582767486572 0.35093295574188232 0
0 0.21225343644618988 0.084569856524467468
0 0.21498551964759827 0.085812993347644806
0 0.21431416273117065 0.08629511296749115
6.6139778937213123e-05 0.21360769867897034 0.086968354880809784
0.0054410854354500771 0.21447336673736572 0.086016945540904999
0.025027183815836906 0.22261659801006317 0.080925144255161285
0.057948533445596695 0.23411251604557037 0.073427371680736542
0.098318755626678467 0.24806387722492218 0.062866352498531342
0.14755493402481079 0.26617753505706787 0.04663153737783432
0.20720583200454712 0.28704407811164856 0.021881921216845512
0.28241610527038574 0.31265911459922791 0.0013898027827963233
0.36895498633384705 0.34027329087257385 0
0.42503172159194946 0.33997595310211182 0
0.47223275899887085 0.33124920725822449 0
0.51670336723327637 0.32064956426620483 0
0.55666077136993408 0.30787250399589539 0
0.59196937084197998 0.29277515411376953 0
0.62653940916061401 0.28031367063522339 0
0.66555321216583252 0.27713117003440857 0
0.70622628927230835 0.27913123369216919 0
0.7430691123008728 0.28101235628128052 0
0.77707862854003906 0.28313687443733215 0
0.80963742733001709 0.28579646348953247 0
0.84105050563812256 0.2900693416595459 0
0.87153369188308716 0.2952883243560791 0
0.90131276845932007 0.3020646870136261 0
0.92929661273956299 0.30912530422210693 0
0.95659333467483521 0.31790411472320557 0
0.98263001441955566 0.32765200734138489 0
0.99933189153671265 0.33756634593009949 0
0.99999582767486572 0.34861433506011963 0
1 0.36062747240066528 0
1 0.37694761157035828 0
0 0.24594433605670929 0.092597290873527527
0 0.25011661648750305 0.094368569552898407
0 0.24986515939235687 0.094654500484466553
0 0.24989312887191772 0.095453701913356781
0.00091797823552042246 0.25034484267234802 0.096524782478809357
0.014317760244011879 0.25732848048210144 0.093285396695137024
0.046181898564100266 0.27018779516220093 0.085976362228393555
0.088041819632053375 0.28569275140762329 0.075503312051296234
0.1368396133184433 0.3041631281375885 0.059917189180850983
0.19374330341815948 0.32429635524749756 0.035334311425685883
0.26046854257583618 0.34589353203773499 0.0059288735501468182
0.34212064743041992 0.37227872014045715 0
0.43462797999382019 0.40361154079437256 0
0.49284186959266663 0.40396112203598022 0
0.53629052639007568 0.39186501502990723 0
0.57478952407836914 0.37784016132354736 0
0.61078673601150513 0.3627321720123291 0
0.64333003759384155 0.34667134284973145 0
0.6717301607131958 0.33000418543815613 0
0.70269370079040527 0.31896534562110901 0
0.73786509037017822 0.31765249371528625 0
0.77289140224456787 0.31992954015731812 0
0.80593705177307129 0.32188102602958679 0
0.83759045600891113 0.32555478811264038 0
0.86812514066696167 0.33004361391067505 0
0.89764660596847534 0.33543106913566589 0
0.92549037933349609 0.34161192178726196 0
0.95283049345016479 0.34897813200950623 0
0.97877144813537598 0.35739022493362427 0
0.99805623292922974 0.36600401997566223 0
0.99990558624267578 0.37580248713493347 0
1 0.38675019145011902 0
1 0.40054970979690552 0
0 0.29195308685302734 0.10371928662061691
0 0.29731583595275879 0.10553407669067383
0 0.29728689789772034 0.10575138777494431
0 0.2969563901424408 0.10679201781749725
0 0.29616916179656982 0.10783544927835464
0.0038517068605870008 0.29820770025253296 0.10712316632270813
0.031518600881099701 0.30938136577606201 0.10026431828737259
0.075792416930198669 0.32312557101249695 0.089948281645774841
0.12396564334630966 0.33923259377479553 0.075627289712429047
0.17796783149242401 0.35759067535400391 0.05413338914513588
0.23967552185058594 0.37805289030075073 0.021132595837116241
0.31144005060195923 0.40006467700004578 0.00043180704233236611
0.3927781879901886 0.42487439513206482 0
0.48847004771232605 0.45756959915161133 0
0.55038213729858398 0.46161735057830811 0
0.59032297134399414 0.44889891147613525 0
0.62693220376968384 0.43462899327278137 0
0.65976643562316895 0.41841241717338562 0
0.68983155488967896 0.40208941698074341 0
0.71728628873825073 0.38503170013427734 0
0.74236112833023071 0.36801794171333313 0
0.77096998691558838 0.35975196957588196 0
0.80369168519973755 0.36026248335838318 0
0.83624160289764404 0.36355063319206238 0
0.86700570583343506 0.36720955371856689 0
0.89703863859176636 0.37208449840545654 0
0.92537879943847656 0.37767249345779419 0
0.95218968391418457 0.38369756937026978 0
0.97792220115661621 0.39081475138664246 0
0.9978480339050293 0.39844861626625061 0
1 0.40707463026046753 0
0.99995285272598267 0.41608449816703796 0
0.99998295307159424 0.42978191375732422 0
0 0.33370190858840942 0.11342301964759827
0 0.34169501066207886 0.11667010933160782
0 0.34146854281425476 0.11702030152082443
0 0.34051346778869629 0.11774328351020813
0 0.33920302987098694 0.11830383539199829
0.00024942759773693979 0.33828365802764893 0.11951234936714172
0.016946928575634956 0.34487137198448181 0.11513929069042206
0.062821708619594574 0.35845217108726501 0.10558344423770905
0.11354242265224457 0.37479963898658752 0.092859208583831787
0.16690106689929962 0.39269959926605225 0.074468538165092468
0.22629450261592865 0.41222423315048218 0.046215362846851349
0.29325830936431885 0.43317165970802307 0.0091006699949502945
0.36663332581520081 0.45472636818885803 7.9438659668085165e-06
0.4472929835319519 0.47713825106620789 0
0.54233700037002563 0.50886517763137817 0
0.60447829961776733 0.51564925909042358 0
0.64031028747558594 0.50135260820388794 0
0.67242801189422607 0.48501229286193848 0
0.70212280750274658 0.46889173984527588 0
0.72996717691421509 0.45192250609397888 0
0.75501018762588501 0.43417993187904358 0
0.77791684865951538 0.41669639945030212 0
0.80169457197189331 0.40191096067428589 0
0.83062142133712769 0.3978331983089447 0
0.86179637908935547 0.40082010626792908 0
0.89242649078369141 0.4047585129737854 0
0.9207274317741394 0.40903469920158386 0
0.94825387001037598 0.4146277904510498 0
0.97413074970245361 0.4206145703792572 0
0.99620950222015381 0.42715206742286682 0
1 0.43495112657546997 0
0.99991852045059204 0.44362571835517883 0
0.99998760223388672 0.45525684952735901 0
0 0.37788867950439453 0.12584316730499268
0 0.38446113467216492 0.12849710881710052
0 0.38400864601135254 0.12929044663906097
0 0.38329595327377319 0.12989670038223267
0 0.38244596123695374 0.13059122860431671
0 0.38120231032371521 0.13178086280822754
0.0085121085867285728 0.38301360607147217 0.13128992915153503
0.053922809660434723 0.3947797417640686 0.12342531234025955
0.10632047057151794 0.40981081128120422 0.11202534288167953
0.15910427272319794 0.42639797925949097 0.096892267465591431
0.214861199259758 0.44418743252754211 0.075078919529914856
0.27749592065811157 0.46342051029205322 0.039769597351551056
0.3455202579498291 0.48337480425834656 0.0049489224329590797
0.41896772384643555 0.50345420837402344 2.0213219613651745e-06
0.49759063124656677 0.52351629734039307 0
0.58520299196243286 0.55114781856536865 0
0.650951087474823 0.5622372031211853 0
0.68377888202667236 0.54788196086883545 0
0.71268558502197266 0.53139233589172363 0
0.74003559350967407 0.51466631889343262 0
0.76556622982025146 0.49766367673873901 0
0.78945648670196533 0.48098748922348022 0
0.81265980005264282 0.4644472599029541 0
0.83475375175476074 0.44864001870155334 0
0.85792052745819092 0.43739831447601318 0
0.88653272390365601 0.43638730049133301 0
0.91574102640151978 0.44069135189056396 0
0.9436877965927124 0.44508746266365051 0
0.97017383575439453 0.45023959875106812 0
0.99395221471786499 0.45630788803100586 0
1 0.46341606974601746 0
0.99998718500137329 0.47080543637275696 0
0.99999541044235229 0.48093810677528381 0
0 0.4163278341293335 0.13836944103240967
0 0.42517510056495667 0.14259013533592224
0 0.42563667893409729 0.14356748759746552
0 0.42524838447570801 0.14463011920452118
0 0.42355787754058838 0.14466728270053864
0 0.42233589291572571 0.14586323499679565
0.0044941348023712635 0.42122727632522583 0.14693783223628998
0.050274740904569626 0.427716463804245 0.14298471808433533
0.10187380760908127 0.44042724370956421 0.13260972499847412
0.15251760184764862 0.45575854182243347 0.12001349031925201
0.20555560290813446 0.47245603799819946 0.10320787131786346
0.2642880380153656 0.49050909280776978 0.078896813094615936
0.32700416445732117 0.50845497846603394 0.04118993878364563
0.39504715800285339 0.52711087465286255 0.0054542510770261288
0.46738803386688232 0.5457642674446106 0
0.54114305973052979 0.56405335664749146 0
0.62425404787063599 0.58965647220611572 0
0.69174301624298096 0.60430431365966797 0
0.72381049394607544 0.59161502122879028 0
0.75081479549407959 0.5752335786819458 0
0.77622306346893311 0.55905765295028687 0
0.800037682056427 0.54259449243545532 0
0.82365244626998901 0.52673852443695068 0
0.84625548124313354 0.51118165254592896 0
0.86822050809860229 0.49619925022125244 0
0.88956367969512939 0.48242372274398804 0
0.91282749176025391 0.47512248158454895 0
0.93996059894561768 0.47688353061676025 0
0.96733129024505615 0.48149663209915161 0
0.99241757392883301 0.48711547255516052 0
