Textures/54.cube
# Created by: G'MIC (https://gmic.eu)
TITLE "Fuji_Superia_800_2.cube"
# LUT size
LUT_3D_SIZE 5
# Data domain
DOMAIN_MIN 0.0 0.0 0.0
DOMAIN_MAX 1.0 1.0 1.0
# LUT data points
0.0048736026510596275 0.066160649061203003 0.070495225489139557
0.12872451543807983 0.080845922231674194 0.067469403147697449
0.4502105712890625 0.077700279653072357 0.047833282500505447
0.78703153133392334 0.057159505784511566 0.0072208731435239315
0.99999380111694336 0.22343337535858154 0
0 0.22944870591163635 0.076331146061420441
0.1570180356502533 0.24839402735233307 0.041115891188383102
0.52801084518432617 0.23305942118167877 0.031461033970117569
0.81512963771820068 0.25435322523117065 7.6919437560718507e-05
0.99999582767486572 0.34657326340675354 0
0 0.6334003210067749 0.15771129727363586
0.0098232133314013481 0.64010739326477051 0.15392181277275085
0.58355122804641724 0.64317166805267334 0
0.86504256725311279 0.58709388971328735 0
1 0.57054394483566284 0.0020508780144155025
0.32911863923072815 0.87161850929260254 0.42783224582672119
0.42018499970436096 0.87064701318740845 0.4307841956615448
0.60283493995666504 0.8691030740737915 0.39506494998931885
0.83885741233825684 0.86419689655303955 0.26542243361473083
1 0.84786450862884521 0.1914394348859787
0.72659307718276978 0.97552263736724854 0.73931384086608887
0.7428288459777832 0.97511887550354004 0.74140661954879761
0.78681808710098267 0.97440671920776367 0.7457205057144165
0.85501265525817871 0.97604185342788696 0.71497231721878052
0.9622759222984314 0.97701692581176758 0.6568148136138916
0 0.0654011070728302 0.18803642690181732
0.14232079684734344 0.06559087336063385 0.19735318422317505
0.47616398334503174 0.0020802509970963001 0.20018398761749268
0.77966946363449097 0.070131391286849976 0.19647201895713806
0.99998295307159424 0.2370101660490036 0.19142632186412811
0 0.22012627124786377 0.22910605370998383
0.17953366041183472 0.23626433312892914 0.23972159624099731
0.52490794658660889 0.24951295554637909 0.23067744076251984
0.80575102567672729 0.27041444182395935 0.21097725629806519
0.99999582767486572 0.35829278826713562 0.20152001082897186
0.011408276855945587 0.61897766590118408 0.352181077003479
0.24506542086601257 0.6262969970703125 0.34519237279891968
0.58971238136291504 0.62621849775314331 0.27483570575714111
0.8496050238609314 0.56782889366149902 0.233070969581604
0.99995285272598267 0.57977300882339478 0.24176871776580811
0.44636988639831543 0.86562544107437134 0.54103708267211914
0.50665301084518433 0.86527097225189209 0.54363304376602173
0.63975870609283447 0.86394804716110229 0.52705049514770508
0.83999532461166382 0.86133086681365967 0.42888042330741882
1 0.84498542547225952 0.37023797631263733
0.74848681688308716 0.97410988807678223 0.76964378356933594
0.76256078481674194 0.97384625673294067 0.77073842287063599
0.80093103647232056 0.97302192449569702 0.7742038369178772
0.86220747232437134 0.97478187084197998 0.75189787149429321
0.96133899688720703 0.97618424892425537 0.70289605855941772
0 0.072538748383522034 0.4457724392414093
0.18071524798870087 0.074019446969032288 0.45302799344062805
0.5010644793510437 0.034779105335474014 0.4765089750289917
0.8109281063079834 0.12168338894844055 0.49197497963905334
1 0.14064614474773407 0.44672143459320068
0 0.2150619775056839 0.48141902685165405
0.2305065393447876 0.23865225911140442 0.49347230792045593
0.54068559408187866 0.25782456994056702 0.50477141141891479
0.82290470600128174 0.31818264722824097 0.51138818264007568
1 0.29157546162605286 0.43845215439796448
0.099210955202579498 0.57110375165939331 0.5571129322052002
0.33224228024482727 0.57618486881256104 0.56127625703811646
0.58270782232284546 0.57260978221893311 0.5543590784072876
0.81334793567657471 0.56341129541397095 0.51586431264877319
0.99879956245422363 0.59225493669509888 0.49328780174255371
0.59448456764221191 0.85370337963104248 0.71166259050369263
0.63576310873031616 0.85231494903564453 0.7144237756729126
0.69991832971572876 0.8525884747505188 0.70129436254501343
0.83908659219741821 0.853066086769104 0.65449303388595581
0.99535876512527466 0.83313775062561035 0.60607248544692993
0.79241132736206055 0.97160124778747559 0.8292083740234375
0.80082517862319946 0.97154146432876587 0.82845664024353027
0.83072203397750854 0.97138988971710205 0.82963180541992188
0.87888860702514648 0.97272741794586182 0.82217437028884888
0.96250057220458984 0.97573131322860718 0.78701502084732056
0.11452390998601913 0.096635341644287109 0.73017561435699463
0.29945078492164612 0.090839274227619171 0.7321169376373291
0.56020700931549072 0.077326640486717224 0.73464882373809814
0.81495094299316406 0.14095838367938995 0.74618709087371826
0.99889296293258667 0.37600642442703247 0.75655269622802734
0.17381037771701813 0.2435823380947113 0.73943066596984863
0.33142814040184021 0.24819156527519226 0.74151402711868286
0.57837313413619995 0.26519632339477539 0.74401968717575073
0.81974822282791138 0.32271009683609009 0.75429248809814453
0.99430972337722778 0.49215847253799438 0.76616525650024414
0 0.46386981010437012 0.73639291524887085
0.25634855031967163 0.47271516919136047 0.74167388677597046
0.58162581920623779 0.52661502361297607 0.75197243690490723
0.8145790696144104 0.5843772292137146 0.76651006937026978
0.97532391548156738 0.68255847692489624 0.78634226322174072
0.52762031555175781 0.82296055555343628 0.80412310361862183
0.57941716909408569 0.82298612594604492 0.80484974384307861
0.69360244274139404 0.82288509607315063 0.80475598573684692
0.82441598176956177 0.82072514295578003 0.80121243000030518
0.96943813562393188 0.81289267539978027 0.77369821071624756
0.83268707990646362 0.96851271390914917 0.89543741941452026
0.8441087007522583 0.96867221593856812 0.89684176445007324
0.87441468238830566 0.96931195259094238 0.90108639001846313
0.90722554922103882 0.97110527753829956 0.89891225099563599
0.96794635057449341 0.97490018606185913 0.87867385149002075
0.5410880446434021 0.29368764162063599 0.94575870037078857
0.6000901460647583 0.30370718240737915 0.94501572847366333
0.73633432388305664 0.3392275869846344 0.94291549921035767
0.89297914505004883 0.42200848460197449 0.93975061178207397
0.99995285272598267 0.53007149696350098 0.9382215142250061
0.5484885573387146 0.39827769994735718 0.94475972652435303
0.60576856136322021 0.40764462947845459 0.94438832998275757
0.73690265417098999 0.43742817640304565 0.94198215007781982
0.88790321350097656 0.50445818901062012 0.93876081705093384
1 0.59089833498001099 0.93763154745101929
0.50851625204086304 0.5720512866973877 0.94191074371337891
0.57996857166290283 0.58561378717422485 0.94156908988952637
0.71783226728439331 0.60625779628753662 0.9397127628326416
0.86996275186538696 0.65065515041351318 0.93739897012710571
0.99115228652954102 0.71146196126937866 0.93771111965179443
0.51444518566131592 0.7926633358001709 0.94183725118637085
0.5459284782409668 0.78722548484802246 0.94168150424957275
0.63142639398574829 0.76811093091964722 0.94108295440673828
0.83744984865188599 0.80445891618728638 0.94106036424636841
0.97381460666656494 0.84619218111038208 0.94453346729278564
0.79456573724746704 0.96532797813415527 0.9585387110710144
0.80775552988052368 0.96588975191116333 0.95925045013427734
0.84516817331314087 0.96663910150527954 0.96049904823303223
0.90339165925979614 0.96858561038970947 0.96313196420669556
0.97401434183120728 0.9727751612663269 0.96812093257904053
