Textures/54.cube
# Created by: G'MIC (https://gmic.eu)
TITLE "Fuji_Superia_800_2.cube"
# LUT size
LUT_3D_SIZE 33
# Data domain
DOMAIN_MIN 0.0 0.0 0.0
DOMAIN_MAX 1.0 1.0 1.0
# LUT data points
0.0048736026510596275 0.066160649061203003 0.070495225489139557
0.0057529141195118427 0.066520951688289642 0.07059883326292038
0.0078655295073986053 0.066870078444480896 0.0706024169921875
0.012529413215816021 0.067301712930202484 0.070561744272708893
0.023136069998145103 0.068848714232444763 0.070474162697792053
0.043427824974060059 0.070995353162288666 0.070038899779319763
0.070673294365406036 0.074443086981773376 0.069808892905712128
0.098441220819950104 0.077466152608394623 0.068691328167915344
0.12872451543807983 0.080845922231674194 0.067469403147697449
0.16068144142627716 0.084069855511188507 0.066200785338878632
0.19528935849666595 0.086735852062702179 0.065098792314529419
0.23339726030826569 0.088956266641616821 0.06284765899181366
0.27287688851356506 0.089708670973777771 0.060251541435718536
0.3155457079410553 0.089382566511631012 0.058155011385679245
0.36001366376876831 0.087258681654930115 0.055240347981452942
0.40512484312057495 0.083239197731018066 0.051632635295391083
0.4502105712890625 0.077700279653072357 0.047833282500505447
0.49503642320632935 0.070704147219657898 0.043316688388586044
0.54122865200042725 0.062103442847728729 0.038484044373035431
0.59102046489715576 0.052584953606128693 0.032990496605634689
0.63567119836807251 0.043880019336938858 0.027638884261250496
0.67699021100997925 0.039771363139152527 0.022444423288106918
0.71552914381027222 0.04062160849571228 0.017417933791875839
0.75186604261398315 0.046966832131147385 0.012369669042527676
0.78703153133392334 0.057159505784511566 0.0072208731435239315
0.82153445482254028 0.071316003799438477 0.0029458811040967703
0.85429072380065918 0.088530853390693665 0.00064928352367132902
0.88594549894332886 0.10766005516052246 1.2483218597481027e-05
0.91653800010681152 0.12796217203140259 0
0.94470870494842529 0.14958882331848145 0
0.97248423099517822 0.17232123017311096 0
0.99586957693099976 0.19620956480503082 0
0.99999380111694336 0.22343337535858154 0
0.0043660611845552921 0.067779138684272766 0.070897608995437622
0.0053929784335196018 0.068200379610061646 0.070864111185073853
0.0080559635534882545 0.069065161049365997 0.070510134100914001
0.013494589366018772 0.069897837936878204 0.070643246173858643
0.024971598759293556 0.072176083922386169 0.070430859923362732
0.045685764402151108 0.075334273278713226 0.069905109703540802
0.072229132056236267 0.078805766999721527 0.069156207144260406
0.10013346374034882 0.0823788121342659 0.068071432411670685
0.13103426992893219 0.086439527571201324 0.067398771643638611
0.16326729953289032 0.089714720845222473 0.065599285066127777
0.19815658032894135 0.092608503997325897 0.064020209014415741
0.23626106977462769 0.094627745449542999 0.061837624758481979
0.27650564908981323 0.095861464738845825 0.059843752533197403
0.31863000988960266 0.09604712575674057 0.0574977807700634
0.36261937022209167 0.093794465065002441 0.053986772894859314
0.40699362754821777 0.090470239520072937 0.050879292190074921
0.4515748918056488 0.085773259401321411 0.046853538602590561
0.49676799774169922 0.080343343317508698 0.042971774935722351
0.54390817880630493 0.072895504534244537 0.037698857486248016
0.59243762493133545 0.065374657511711121 0.032056238502264023
0.63734185695648193 0.059566833078861237 0.026771891862154007
0.67794901132583618 0.057604283094406128 0.022104624658823013
0.71589726209640503 0.058955330401659012 0.017304673790931702
0.75239866971969604 0.064224906265735626 0.011795245110988617
0.78794622421264648 0.073929876089096069 0.0070824185386300087
0.82212954759597778 0.086569197475910187 0.0028879288583993912
0.85433316230773926 0.10163895785808563 0.00042246514931321144
0.88586819171905518 0.11901736259460449 6.2416092987405136e-06
0.91623473167419434 0.13822431862354279 0
0.94459176063537598 0.15827435255050659 0
0.97275644540786743 0.18054729700088501 0
0.99596893787384033 0.20327599346637726 0
0.99999552965164185 0.22948834300041199 0
0.0023315234575420618 0.071490339934825897 0.071233548223972321
0.0035377750173211098 0.07211998850107193 0.070980913937091827
0.0070880562998354435 0.073612689971923828 0.070664890110492706
0.014364697970449924 0.075990661978721619 0.070096693933010101
0.027573172003030777 0.078073218464851379 0.069692499935626984
0.05005408450961113 0.08127700537443161 0.069053739309310913
0.077127858996391296 0.085613727569580078 0.068846262991428375
0.10468503087759018 0.089426569640636444 0.067363977432250977
0.1350582093000412 0.093538232147693634 0.066216014325618744
0.16772650182247162 0.097078099846839905 0.06474592536687851
0.2027389258146286 0.10032807290554047 0.063419759273529053
0.24052123725414276 0.10239899158477783 0.061262648552656174
0.28047123551368713 0.10342526435852051 0.05854889377951622
0.32302939891815186 0.10399114340543747 0.056464657187461853
0.36664161086082458 0.10276158154010773 0.053264275193214417
0.4105985164642334 0.10024559497833252 0.050010047852993011
0.45533773303031921 0.096253097057342529 0.046142127364873886
0.50069916248321533 0.091224908828735352 0.04196503758430481
0.5486106276512146 0.085655480623245239 0.036653425544500351
0.59659343957901001 0.080589435994625092 0.031578447669744492
0.64012175798416138 0.076967634260654449 0.026154322549700737
0.68010634183883667 0.075837969779968262 0.021614991128444672
0.71850764751434326 0.078181587159633636 0.016697658225893974
0.75461453199386597 0.08344963937997818 0.011334388516843319
0.78976309299468994 0.092064537107944489 0.0063220104202628136
0.82349240779876709 0.10335999727249146 0.0022531680297106504
0.85587024688720703 0.11713358759880066 0.0003107910742983222
0.88693022727966309 0.13282601535320282 0
0.91694504022598267 0.15063987672328949 0
0.94496935606002808 0.16949421167373657 0
0.97259503602981567 0.19037382304668427 0
0.9956706166267395 0.21214953064918518 0
0.99999839067459106 0.23751659691333771 0
1.5604024156345986e-05 0.08169151097536087 0.071053341031074524
0.00037800744757987559 0.082725211977958679 0.070787303149700165
0.0032905747648328543 0.084637932479381561 0.070335894823074341
0.012881121598184109 0.087992914021015167 0.069467037916183472
0.033011842519044876 0.092998616397380829 0.068043969571590424
0.058553010225296021 0.09643130749464035 0.067378498613834381
0.084692515432834625 0.098244920372962952 0.06700366735458374
0.11195937544107437 0.10036046057939529 0.066203191876411438
0.14176210761070251 0.10380943119525909 0.065228886902332306
0.1745879054069519 0.10740738362073898 0.063541993498802185
0.20989921689033508 0.11069168150424957 0.061823990195989609
0.24836574494838715 0.11341823637485504 0.059832256287336349
0.28849917650222778 0.11489051580429077 0.057411946356296539
0.33073469996452332 0.11524159461259842 0.054737396538257599
0.37500137090682983 0.11421952396631241 0.051719110459089279
0.41913491487503052 0.11198259145021439 0.048105854541063309
0.46386972069740295 0.10944756120443344 0.04435492679476738
0.51109141111373901 0.10583021491765976 0.040006734430789948
0.55994707345962524 0.10206000506877899 0.034861009567975998
0.60617184638977051 0.098848454654216766 0.029650082811713219
0.6488301157951355 0.098013825714588165 0.025198210030794144
0.68809443712234497 0.098871879279613495 0.020165720954537392
0.72512394189834595 0.10150060802698135 0.015226535499095917
0.76042300462722778 0.10679367184638977 0.0095817903056740761
0.79511743783950806 0.1149555891752243 0.0049613639712333679
0.82886224985122681 0.12542584538459778 0.001560832024551928
0.8604617714881897 0.13786667585372925 0.00012511589739006013
0.89155000448226929 0.15278312563896179 0
0.92117500305175781 0.16966094076633453 0
0.94915038347244263 0.18705341219902039 0
0.97572696208953857 0.20633548498153687 0
0.99733006954193115 0.22689303755760193 0
1 0.25171631574630737 0
0 0.099761560559272766 0.070345439016819
0 0.1013076975941658 0.06971239298582077
6.8337933043949306e-05 0.10332047939300537 0.069590240716934204
0.0055611934512853622 0.10633508861064911 0.068233437836170197
0.026268195360898972 0.10988474637269974 0.066496007144451141
0.0603952556848526 0.11597079038619995 0.064074985682964325
0.091532483696937561 0.11865106970071793 0.063513360917568207
0.1193879023194313 0.11877055466175079 0.06328272819519043
0.14904357492923737 0.11912008374929428 0.06289934366941452
0.18177559971809387 0.12110737711191177 0.062081784009933472
0.2172391265630722 0.1241467297077179 0.060380276292562485
0.25556731224060059 0.12685926258563995 0.058066338300704956
0.29594099521636963 0.12843795120716095 0.055660553276538849
0.33813104033470154 0.12941628694534302 0.053199898451566696
0.38216409087181091 0.12921306490898132 0.050137169659137726
0.42524158954620361 0.12759096920490265 0.046517323702573776
0.47068086266517639 0.12587533891201019 0.042653460055589676
0.51972538232803345 0.12407831102609634 0.038081802427768707
0.56668645143508911 0.12192422896623611 0.033386819064617157
0.61161237955093384 0.12088986486196518 0.028411053121089935
0.65289127826690674 0.12106890231370926 0.023951519280672073
0.69110196828842163 0.1225515753030777 0.019230799749493599
0.72778397798538208 0.12577654421329498 0.013932500034570694
0.76290178298950195 0.13106264173984528 0.0086091505363583565
0.79730421304702759 0.13860534131526947 0.0038680294528603554
0.83026528358459473 0.14814943075180054 0.00090746895875781775
0.86135983467102051 0.15924003720283508 4.8656183935236186e-05
0.89230203628540039 0.17286579310894012 0
0.92167878150939941 0.18785671889781952 0
0.94932574033737183 0.20401695370674133 0
0.97556257247924805 0.22181981801986694 0
0.99729537963867188 0.24148042500019073 0
1 0.26487502455711365 0
0 0.12657324969768524 0.069177024066448212
0 0.12786322832107544 0.069190703332424164
0 0.12877190113067627 0.068676605820655823
0.00024117874272633344 0.13122847676277161 0.066870473325252533
0.013345429673790932 0.13465803861618042 0.064955726265907288
0.050880655646324158 0.13862007856369019 0.062203187495470047
0.094586610794067383 0.14489655196666718 0.058395981788635254
0.13069142401218414 0.14762087166309357 0.056979965418577194
0.16203294694423676 0.14576725661754608 0.057485375553369522
0.19350501894950867 0.14408661425113678 0.057558789849281311
0.22661235928535461 0.14278887212276459 0.057339891791343689
0.26458612084388733 0.14384002983570099 0.055838093161582947
0.30516764521598816 0.14576071500778198 0.05358482152223587
0.34700745344161987 0.14682939648628235 0.050833556801080704
0.39059671759605408 0.14715397357940674 0.047859668731689453
0.43506675958633423 0.14648893475532532 0.044113215059041977
0.48373889923095703 0.14664262533187866 0.040270086377859116
0.53165435791015625 0.14631758630275726 0.035832419991493225
0.57670402526855469 0.14590352773666382 0.031410414725542068
0.61947911977767944 0.14619506895542145 0.026741934940218925
0.6598772406578064 0.14752224087715149 0.022145504131913185
0.69759964942932129 0.1496514230966568 0.017177578061819077
0.73326992988586426 0.15322428941726685 0.011884295381605625
0.76749438047409058 0.15822775661945343 0.0065907859243452549
0.80099934339523315 0.16522428393363953 0.0025956896133720875
0.83388644456863403 0.17389354109764099 0.00041367008816450834
0.86505639553070068 0.18450853228569031 1.1064671525673475e-05
0.89499342441558838 0.19638441503047943 0
0.92387849092483521 0.2102530300617218 0
0.95104771852493286 0.22481085360050201 0
0.97722166776657104 0.24162127077579498 0
0.99787348508834839 0.25972428917884827 0
0.99999141693115234 0.281749427318573 0
0 0.15689770877361298 0.069029197096824646
0 0.1586170494556427 0.068972125649452209
0 0.1589084267616272 0.068460419774055481
0 0.16075743734836578 0.067079640924930573
0.0015480803558602929 0.16321150958538055 0.064144536852836609
0.031487565487623215 0.16684775054454803 0.060858748853206635
0.081342488527297974 0.17066384851932526 0.05660368874669075
0.13104848563671112 0.17697431147098541 0.050593391060829163
0.17443862557411194 0.18040250241756439 0.047113195061683655
0.20847134292125702 0.17743939161300659 0.048410430550575256
0.2433227002620697 0.17449672520160675 0.049316048622131348
0.27941417694091797 0.17061656713485718 0.050315756350755692
0.31722262501716614 0.16804008185863495 0.050588656216859818
0.35861906409263611 0.1682249903678894 0.048782471567392349
0.40460073947906494 0.16975192725658417 0.045362576842308044
0.45285242795944214 0.17113423347473145 0.041837442666292191
0.49994009733200073 0.17204105854034424 0.037874877452850342
0.54515105485916138 0.17247283458709717 0.033549457788467407
0.58824747800827026 0.17338193953037262 0.029366552829742432
0.62993347644805908 0.17446509003639221 0.02460290864109993
0.6686331033706665 0.17656774818897247 0.019635958597064018
0.70453542470932007 0.17879879474639893 0.014350190758705139
0.73988741636276245 0.18240541219711304 0.0089750299230217934
0.77341020107269287 0.18729232251644135 0.0044760182499885559
0.8061830997467041 0.19359259307384491 0.0012232186272740364
0.83833760023117065 0.20180784165859222 7.2062233812175691e-05
0.86825710535049438 0.21137773990631104 0
0.89821857213973999 0.22221918404102325 0
0.92686015367507935 0.23509706556797028 0
0.95363140106201172 0.24885419011116028 0
0.97936147451400757 0.26408907771110535 0
0.99851810932159424 0.28066882491111755 0
0.99996143579483032 0.30258941650390625 0
0 0.18919561803340912 0.071155138313770294
0 0.19133783876895905 0.071249552071094513
0 0.19164402782917023 0.071108326315879822
0 0.19228655099868774 0.070127323269844055
0 0.19477894902229309 0.066839843988418579
0.0078414799645543098 0.19798363745212555 0.062272138893604279
0.060498997569084167 0.20176807045936584 0.05654580146074295
0.11573933064937592 0.20611841976642609 0.04987620934844017
0.17183469235897064 0.21339115500450134 0.039857666939496994
0.22357383370399475 0.21872468292713165 0.032787974923849106
0.26103636622428894 0.2141912430524826 0.034699346870183945
0.29876124858856201 0.2090456485748291 0.037235531955957413
0.33747699856758118 0.20410425961017609 0.039800647646188736
0.37873905897140503 0.19996891915798187 0.04186900332570076
0.42353746294975281 0.19807067513465881 0.04231494665145874
0.46797233819961548 0.1987045556306839 0.03916361927986145
0.51343631744384766 0.20015956461429596 0.035297520458698273
0.55638623237609863 0.20132973790168762 0.030892740935087204
0.59753578901290894 0.20237977802753448 0.026482086628675461
0.63690102100372314 0.20376645028591156 0.021608427166938782
0.67458647489547729 0.20568437874317169 0.016319422051310539
0.70991802215576172 0.20839673280715942 0.011584509164094925
0.74417811632156372 0.21173755824565887 0.0061812321655452251
0.77735847234725952 0.21651721000671387 0.002438131719827652
0.80972933769226074 0.22257733345031738 0.00047540239756926894
0.84097588062286377 0.22995278239250183 0
0.87077194452285767 0.23864293098449707 0
0.90012186765670776 0.24882693588733673 0
0.92812013626098633 0.26042240858078003 0
0.95418500900268555 0.27292674779891968 0
0.97982203960418701 0.28680786490440369 0
0.99872833490371704 0.30299878120422363 0
0.99995720386505127 0.32275071740150452 0
0 0.22944870591163635 0.076331146061420441
0 0.23199371993541718 0.076531156897544861
0 0.23198810219764709 0.076253645122051239
0 0.2325095534324646 0.076229371130466461
0 0.23408249020576477 0.073137693107128143
0.00011521016131155193 0.23725281655788422 0.067553922533988953
0.028304517269134521 0.24064309895038605 0.060557000339031219
0.097956761717796326 0.2443852573633194 0.051971960812807083
0.1570180356502533 0.24839402735233307 0.041115891188383102
0.21768324077129364 0.25582286715507507 0.025635691359639168
0.27939572930335999 0.26421034336090088 0.012645305134356022
0.32424575090408325 0.26001042127609253 0.014896752312779427
0.36609447002410889 0.25456428527832031 0.019135288894176483
0.40710288286209106 0.24847772717475891 0.023828143253922462
0.44760137796401978 0.24177056550979614 0.028121013194322586
0.48702377080917358 0.23542317748069763 0.031765863299369812
0.52801084518432617 0.23305942118167877 0.031461033970117569
0.56934428215026855 0.2338765412569046 0.027237746864557266
0.6088871955871582 0.23544153571128845 0.022578248754143715
0.64760363101959229 0.23676419258117676 0.017500745132565498
0.68388807773590088 0.23901364207267761 0.012253683991730213
0.71866565942764282 0.24152843654155731 0.007284331601113081
0.7519645094871521 0.24434439837932587 0.0032379776239395142
0.78367882966995239 0.24885526299476624 0.00085338071221485734
0.81512963771820068 0.25435322523117065 7.6919437560718507e-05
0.84582221508026123 0.26114404201507568 0
0.87499648332595825 0.26895716786384583 0
0.90367335081100464 0.27858594059944153 0
0.93109959363937378 0.28890195488929749 0
0.95687109231948853 0.30020910501480103 0
0.98180752992630005 0.31349250674247742 0
0.99907916784286499 0.32791313529014587 0
0.99999582767486572 0.34657326340675354 0
0 0.27125915884971619 0.081781648099422455
0 0.27532202005386353 0.082332506775856018
0 0.27530229091644287 0.081917472183704376
0 0.27549129724502563 0.08188416063785553
0 0.27603229880332947 0.08011753112077713
0 0.27868759632110596 0.074655339121818542
0.0036628276575356722 0.28283947706222534 0.067568674683570862
0.067222975194454193 0.28740882873535156 0.057834889739751816
0.14293089509010315 0.29371768236160278 0.0449630506336689
0.20814181864261627 0.29977825284004211 0.028386259451508522
0.27603548765182495 0.30843809247016907 0.0086185391992330551
0.34735354781150818 0.31876310706138611 0.00045713377767242491
0.39425376057624817 0.31381788849830627 0.0012499598087742925
0.4352724552154541 0.30533048510551453 0.0027557946741580963
0.47545540332794189 0.29685616493225098 0.0056006726808845997
0.51243090629577637 0.28792443871498108 0.0094291241839528084
0.54781091213226318 0.27851808071136475 0.014586272649466991
0.58325314521789551 0.27116838097572327 0.018757911399006844
0.61976325511932373 0.26949331164360046 0.016923282295465469
0.65708440542221069 0.27088162302970886 0.012141994200646877
0.69200402498245239 0.27263301610946655 0.0072949230670928955
0.72524738311767578 0.27489519119262695 0.0033725500106811523
0.75803226232528687 0.27796679735183716 0.00091132964007556438
0.78944659233093262 0.28177782893180847 0.00010794944682857022
0.82004523277282715 0.28693732619285583 0
0.85004246234893799 0.29296994209289551 0
0.87849670648574829 0.30007463693618774 0
0.90663748979568481 0.30839887261390686 0
0.93364560604095459 0.31774264574050903 0
0.95871907472610474 0.32863810658454895 0
0.98366737365722656 0.34074875712394714 0
0.99945294857025146 0.35410317778587341 0
1 0.37208876013755798 0
0 0.318004310131073 0.087379172444343567
0 0.32329380512237549 0.088143706321716309
0 0.32380193471908569 0.087946087121963501
0 0.3247758150100708 0.087799727916717529
0 0.32644256949424744 0.087698347866535187
0 0.32983148097991943 0.0834793820977211
0 0.33447688817977905 0.075268477201461792
0.028279265388846397 0.34003710746765137 0.064473390579223633
0.12504395842552185 0.34554353356361389 0.050603549927473068
0.19916330277919769 0.35100430250167847 0.031506039202213287
0.26693728566169739 0.35601812601089478 0.010428854264318943
0.33774310350418091 0.36242750287055969 0.00026134829386137426
0.41324251890182495 0.37431091070175171 0
0.4615856409072876 0.36848002672195435 0
0.50058776140213013 0.35717514157295227 0
0.53589522838592529 0.34569752216339111 6.9504341809079051e-05
0.57012313604354858 0.33476933836936951 0.0004877653846051544
0.60309320688247681 0.32413893938064575 0.0019299281993880868
0.63407266139984131 0.31386688351631165 0.0044427737593650818
0.66572356224060059 0.30750501155853271 0.0053911241702735424
0.69877547025680542 0.30690082907676697 0.0028904394712299109
0.73142600059509277 0.30920898914337158 0.0010112576419487596
0.76305502653121948 0.31114527583122253 9.9864162621088326e-05
0.7937542200088501 0.31485137343406677 0
0.82357364892959595 0.31927734613418579 0
0.85290253162384033 0.32466721534729004 0
0.8807864785194397 0.33087950944900513 0
0.90810096263885498 0.33851310610771179 0
0.93416410684585571 0.34694004058837891 0
0.95926773548126221 0.35636526346206665 0
0.98390942811965942 0.36771136522293091 0
0.99949628114700317 0.38024336099624634 0
1 0.39610779285430908 0
0 0.37812060117721558 0.095106318593025208
0 0.38391020894050598 0.095354221761226654
0 0.38451835513114929 0.095384739339351654
0 0.38540852069854736 0.095578491687774658
0 0.38621318340301514 0.094977974891662598
0 0.38734316825866699 0.093042187392711639
0 0.39040660858154297 0.084804393351078033
0.0032464603427797556 0.39402589201927185 0.073771491646766663
0.093005739152431488 0.39749893546104431 0.059307754039764404
0.18332232534885406 0.40135931968688965 0.039580583572387695
0.25490593910217285 0.40506243705749512 0.015089342370629311
0.3239804208278656 0.4084421694278717 0.00080938613973557949
0.39309781789779663 0.41343182325363159 0
0.4699614942073822 0.42563039064407349 0
0.5214005708694458 0.42156112194061279 0
0.55794399976730347 0.40930026769638062 0
0.59278005361557007 0.39718446135520935 0
0.6242976188659668 0.38476338982582092 0
0.6546856164932251 0.37314915657043457 0
0.68433308601379395 0.36269506812095642 2.1845635274075903e-05
0.71217870712280273 0.35274875164031982 0.00016070828132797033
0.74079054594039917 0.34771597385406494 4.0570463170297444e-05
0.77109938859939575 0.34853827953338623 0
0.80131644010543823 0.35153692960739136 0
0.82981681823730469 0.3551906943321228 0
0.85870212316513062 0.36005660891532898 0
0.88622462749481201 0.3658730685710907 0
0.91266226768493652 0.37251433730125427 0
0.93818598985671997 0.37995147705078125 0
0.96274828910827637 0.38851425051689148 0
0.98646575212478638 0.39875912666320801 0
0.99984675645828247 0.41003262996673584 0
0.99998295307159424 0.42589658498764038 0
0 0.43176975846290588 0.1021624431014061
0 0.44071042537689209 0.1037895530462265
0 0.44085469841957092 0.1036289855837822
0 0.44089469313621521 0.10318401455879211
0 0.44134560227394104 0.10284999012947083
0 0.44149616360664368 0.10243736207485199
0 0.44296202063560486 0.09632912278175354
0 0.44582495093345642 0.085015088319778442
0.05470980703830719 0.44968181848526001 0.070439279079437256
0.1673719733953476 0.45327907800674438 0.050840433686971664
0.24565093219280243 0.45662355422973633 0.024679506197571754
0.3167881965637207 0.45987555384635925 0.0028256119694560766
0.38383468985557556 0.46248236298561096 0
0.45066767930984497 0.46523678302764893 0
0.52684783935546875 0.47733154892921448 0
0.57827556133270264 0.47494798898696899 0
0.61204004287719727 0.46052536368370056 0
0.64341443777084351 0.44670125842094421 0
0.67253082990646362 0.43381720781326294 0
0.70111507177352905 0.42089599370956421 0
0.72697216272354126 0.40899986028671265 0
0.75248050689697266 0.39803105592727661 0
0.77826625108718872 0.38879355788230896 0
0.80587208271026611 0.38698640465736389 0
0.83410501480102539 0.38985547423362732 0
0.8618239164352417 0.39373388886451721 0
0.88846004009246826 0.39805871248245239 0
0.91456300020217896 0.40416941046714783 0
0.93958872556686401 0.41082015633583069 0
0.96348303556442261 0.4186767041683197 0
0.98734647035598755 0.42823246121406555 0
0.99991852045059204 0.43886926770210266 0
0.99998760223388672 0.45312783122062683 0
0 0.48729583621025085 0.11194156110286713
0 0.49479305744171143 0.11340851336717606
0 0.4948820173740387 0.11313136667013168
0 0.49510723352432251 0.11309868097305298
0 0.49512910842895508 0.11282361298799515
0 0.49557912349700928 0.11238240450620651
0 0.4967065155506134 0.10997737199068069
0 0.49919211864471436 0.099912405014038086
0.027689555659890175 0.5017547607421875 0.085695773363113403
0.15111373364925385 0.50452256202697754 0.067761212587356567
0.23602966964244843 0.50714856386184692 0.04240017756819725
0.30879437923431396 0.50909143686294556 0.011614621616899967
0.37571284174919128 0.51156526803970337 0.00023102089471649379
0.44037812948226929 0.51297664642333984 0
