Textures/55.cube
# Created by: G'MIC (https://gmic.eu)
TITLE "Fuji_Superia_1600_2.cube"
# LUT size
LUT_3D_SIZE 33
# Data domain
DOMAIN_MIN 0.0 0.0 0.0
DOMAIN_MAX 1.0 1.0 1.0
# LUT data points
0.062933444976806641 0.097579963505268097 0.10056880861520767
0.064129717648029327 0.097957365214824677 0.1007687970995903
0.066534817218780518 0.098189175128936768 0.10087420046329498
0.071164019405841827 0.098460555076599121 0.1006162241101265
0.079936392605304718 0.099124304950237274 0.10062111169099808
0.093526415526866913 0.10048756748437881 0.10025279968976974
0.11302771419286728 0.10246945172548294 0.10052550584077835
0.134816974401474 0.10410237312316895 0.099694207310676575
0.15936695039272308 0.10617940872907639 0.098759517073631287
0.18684558570384979 0.10856518894433975 0.097969621419906616
0.21770741045475006 0.11113767325878143 0.09669233113527298
0.25273334980010986 0.1130620613694191 0.095245808362960815
0.29203733801841736 0.11419760435819626 0.093176454305648804
0.33539417386054993 0.11460264027118683 0.091148868203163147
0.38295432925224304 0.11351640522480011 0.088152982294559479
0.4308624267578125 0.11107056587934494 0.08482641726732254
0.479575514793396 0.10779378563165665 0.080731004476547241
0.52651017904281616 0.10411257296800613 0.076561450958251953
0.5725368857383728 0.10002930462360382 0.071458570659160614
0.61961489915847778 0.097596511244773865 0.06629364937543869
0.66007131338119507 0.096872255206108093 0.060543607920408249
0.6969490647315979 0.099208511412143707 0.054869122803211212
0.73149549961090088 0.10418077558279037 0.048600956797599792
0.76364350318908691 0.11174524575471878 0.042112335562705994
0.79456186294555664 0.12170632928609848 0.034769237041473389
0.82509428262710571 0.1335882693529129 0.026798408478498459
0.8542792797088623 0.14737923443317413 0.019232241436839104
0.88219982385635376 0.16221408545970917 0.010759876109659672
0.90991967916488647 0.17864638566970825 0.0040035303682088852
0.9357064962387085 0.19526425004005432 0.00037742900894954801
0.96162158250808716 0.21325848996639252 0
0.98609429597854614 0.23216396570205688 0
0.99978256225585938 0.25345432758331299 0
0.062695354223251343 0.099151425063610077 0.10095253586769104
0.063886329531669617 0.099555611610412598 0.10106268525123596
0.066915236413478851 0.10019434243440628 0.10097912698984146
0.072255626320838928 0.10078886151313782 0.10061369836330414
0.081623315811157227 0.10231812298297882 0.10093533247709274
0.095429308712482452 0.10377319902181625 0.1005004346370697
0.11447469145059586 0.10604957491159439 0.099792756140232086
0.13658338785171509 0.10845779627561569 0.099163137376308441
0.16183273494243622 0.11145773530006409 0.098633483052253723
0.18933583796024323 0.11370009928941727 0.097185291349887848
0.22065079212188721 0.11615053564310074 0.096036344766616821
0.25612437725067139 0.11846958845853806 0.0943593829870224
0.29573345184326172 0.12040388584136963 0.092404350638389587
0.33934256434440613 0.12087413668632507 0.090178795158863068
0.38627201318740845 0.12000347673892975 0.086632758378982544
0.43391641974449158 0.11856586486101151 0.083569765090942383
0.481678307056427 0.1158691793680191 0.079565107822418213
0.52868866920471191 0.1130804568529129 0.075499378144741058
0.57568007707595825 0.10978575050830841 0.070142559707164764
0.62120336294174194 0.10783996433019638 0.064705751836299896
0.66150909662246704 0.1079908013343811 0.059192471206188202
0.69824880361557007 0.11075175553560257 0.053380228579044342
0.73213344812393188 0.11557226628065109 0.047319218516349792
0.76413989067077637 0.12262297421693802 0.040567353367805481
0.79572963714599609 0.13234621286392212 0.033408407121896744
0.82583987712860107 0.14367176592350006 0.025540187954902649
0.85428375005722046 0.15659248828887939 0.01769406720995903
0.8824993371963501 0.1709149032831192 0.0094960872083902359
0.91005384922027588 0.18649372458457947 0.0032203076407313347
0.93573963642120361 0.20252789556980133 0.00024558138102293015
0.96155095100402832 0.22019115090370178 0
0.98646974563598633 0.23825855553150177 0
0.99976056814193726 0.25883588194847107 0
0.061421092599630356 0.10179800540208817 0.10130017995834351
0.062810063362121582 0.10242842882871628 0.10120188444852829
0.065952681005001068 0.10350170731544495 0.10111020505428314
0.072508662939071655 0.10524263232946396 0.10055281966924667
0.082829155027866364 0.10685937106609344 0.10015905648469925
0.098463378846645355 0.10885550081729889 0.099690340459346771
0.11850321292877197 0.11177420616149902 0.099600009620189667
0.14061401784420013 0.11466296017169952 0.098444424569606781
0.16589507460594177 0.11780059337615967 0.097650244832038879
0.19354507327079773 0.12072674930095673 0.096506096422672272
0.22522184252738953 0.12347152829170227 0.095680080354213715
0.26084053516387939 0.12598899006843567 0.093304209411144257
0.30060011148452759 0.12769266963005066 0.091067604720592499
0.34444114565849304 0.12926734983921051 0.088981807231903076
0.39142242074012756 0.12886826694011688 0.085875429213047028
0.43882352113723755 0.1280035525560379 0.082353942096233368
0.48617652058601379 0.12594729661941528 0.078201904892921448
0.53291386365890503 0.12359897792339325 0.073642246425151825
0.58078360557556152 0.1216331422328949 0.068602040410041809
0.62524116039276123 0.12081781029701233 0.063093565404415131
0.66439718008041382 0.12152132391929626 0.057697519659996033
0.70013850927352905 0.1242704913020134 0.051536191254854202
0.73442316055297852 0.12909601628780365 0.045355156064033508
0.76660829782485962 0.13658179342746735 0.038850590586662292
0.7977595329284668 0.14519254863262177 0.031624648720026016
0.82729613780975342 0.15593592822551727 0.02344447560608387
0.85627686977386475 0.1683102548122406 0.016009919345378876
0.88391530513763428 0.18159547448158264 0.0077445930801331997
0.91083371639251709 0.19664396345615387 0.0020122528076171875
0.9362112283706665 0.21154770255088806 6.7380467953626066e-05
0.96194976568222046 0.22855734825134277 0
0.98619264364242554 0.24597541987895966 0
0.99980336427688599 0.26608934998512268 0
0.058716796338558197 0.10819865763187408 0.10157295316457748
0.060527145862579346 0.10898187756538391 0.10143876075744629
0.063860766589641571 0.11025604605674744 0.10113338381052017
0.070542722940444946 0.11266811192035675 0.10043326765298843
0.083860732614994049 0.11744736135005951 0.099451072514057159
0.10256504267454147 0.12121786177158356 0.098369598388671875
0.12372627109289169 0.12292619794607162 0.098081544041633606
0.14652667939662933 0.124589703977108 0.097583204507827759
0.1718469113111496 0.12739467620849609 0.096455812454223633
0.20029649138450623 0.13075253367424011 0.095557041466236115
0.2322574257850647 0.13379365205764771 0.094005271792411804
0.26911252737045288 0.1369047611951828 0.091989137232303619
0.30947408080101013 0.13930615782737732 0.089591383934020996
0.35386234521865845 0.14097002148628235 0.087073400616645813
0.40130427479743958 0.14125378429889679 0.083758354187011719
0.44881746172904968 0.14070792496204376 0.079653874039649963
0.49626681208610535 0.13983647525310516 0.075705073773860931
0.54452794790267944 0.13835537433624268 0.070858113467693329
0.59238719940185547 0.13767711818218231 0.065256036818027496
0.63458454608917236 0.13779297471046448 0.059609133750200272
0.67309993505477905 0.13961398601531982 0.054406352341175079
0.70813614130020142 0.14285658299922943 0.0482972152531147
0.74127334356307983 0.14803522825241089 0.042085487395524979
0.77223706245422363 0.15449704229831696 0.035019800066947937
0.80254185199737549 0.1630920022726059 0.027863204479217529
0.83256769180297852 0.17342214286327362 0.020411288365721703
0.8602980375289917 0.18476705253124237 0.012350256554782391
0.88797914981842041 0.19743397831916809 0.0048464769497513771
0.9148867130279541 0.21183858811855316 0.00081984821008518338
0.94031691551208496 0.22642549872398376 1.4894750165694859e-05
0.96483820676803589 0.24220193922519684 0
0.98900139331817627 0.25877434015274048 0
0.99992549419403076 0.27816241979598999 0
0.05132567510008812 0.11928259581327438 0.10139251500368118
0.054057575762271881 0.11956377327442169 0.10106834769248962
0.058368641883134842 0.12136723101139069 0.10118997842073441
0.065733902156352997 0.1246103048324585 0.10026980936527252
0.07806367427110672 0.12883551418781281 0.098872065544128418
0.099419154226779938 0.13632442057132721 0.096981734037399292
0.12430239468812943 0.14122577011585236 0.096003800630569458
0.14865326881408691 0.14187198877334595 0.094997033476829529
0.17672516405582428 0.14228478074073792 0.094408892095088959
0.20694003999233246 0.14449267089366913 0.093658559024333954
0.23985502123832703 0.14790864288806915 0.09207531064748764
0.27750849723815918 0.1510365754365921 0.089814677834510803
0.31838083267211914 0.15373243391513824 0.087422966957092285
0.36321994662284851 0.15578512847423553 0.08450867235660553
0.41045656800270081 0.1570502370595932 0.081030011177062988
0.45678862929344177 0.15706534683704376 0.076968200504779816
0.50466543436050415 0.15701410174369812 0.07236151397228241
0.5546640157699585 0.15693643689155579 0.06721777468919754
0.59983134269714355 0.15709792077541351 0.061516951769590378
0.64021939039230347 0.15797345340251923 0.056176956743001938
0.67710864543914795 0.16025258600711823 0.0508432537317276
0.71151787042617798 0.16367301344871521 0.045019041746854782
0.74405187368392944 0.16835857927799225 0.038678593933582306
0.77483254671096802 0.17468693852424622 0.031477827578783035
0.80497157573699951 0.18262957036495209 0.024199562147259712
0.83429980278015137 0.19182592630386353 0.016691358759999275
0.86169993877410889 0.20216648280620575 0.0088912947103381157
0.88928985595703125 0.21434426307678223 0.0030228099785745144
0.91553610563278198 0.22740200161933899 0.00018206864478997886
0.9406469464302063 0.24100947380065918 0
0.96497678756713867 0.25557821989059448 0
0.98928892612457275 0.27189251780509949 0
0.99998730421066284 0.29020720720291138 0
0.033766645938158035 0.13889850676059723 0.10055156797170639
0.038948848843574524 0.13915255665779114 0.1006748378276825
0.045663163065910339 0.13963563740253448 0.10057146847248077
0.05528588593006134 0.1426287442445755 0.099555805325508118
0.069320932030677795 0.14697420597076416 0.098161950707435608
0.089631944894790649 0.15243545174598694 0.096368633210659027
0.11903510987758636 0.16186794638633728 0.093098968267440796
0.15099936723709106 0.16843380033969879 0.090902701020240784
0.18129180371761322 0.16865135729312897 0.090074107050895691
0.21350516378879547 0.16819688677787781 0.089702337980270386
0.24842831492424011 0.16749319434165955 0.088650830090045929
0.28776296973228455 0.16952218115329742 0.086791187524795532
0.32946914434432983 0.17244870960712433 0.083992183208465576
0.37449568510055542 0.17486198246479034 0.080920778214931488
0.42136815190315247 0.17644707858562469 0.076950855553150177
0.46886259317398071 0.17744980752468109 0.072453968226909637
0.51978087425231934 0.17871272563934326 0.067275337874889374
0.56759351491928101 0.17995573580265045 0.062260039150714874
0.60969960689544678 0.18068087100982666 0.056821141391992569
0.64832359552383423 0.18209220468997955 0.051333043724298477
0.68472027778625488 0.18478292226791382 0.045987021178007126
0.71781003475189209 0.1882767528295517 0.0401325523853302
0.74956148862838745 0.19270050525665283 0.033299371600151062
0.77958285808563232 0.19810350239276886 0.026591697707772255
0.80913442373275757 0.2055933028459549 0.019650615751743317
0.83776259422302246 0.2140623927116394 0.011830140836536884
0.86534416675567627 0.22382354736328125 0.0051537179388105869
0.8919098973274231 0.23485539853572845 0.00097140506841242313
0.91793555021286011 0.24675345420837402 2.5533859115967061e-06
0.94262731075286865 0.25954708456993103 0
0.96688216924667358 0.27311456203460693 0
0.99030464887619019 0.28799945116043091 0
0.99996805191040039 0.30581539869308472 0
0.0092945434153079987 0.16220863163471222 0.099888794124126434
0.015188712626695633 0.1627672016620636 0.10014000535011292
0.024396352469921112 0.16207128763198853 0.10030072927474976
0.036530014127492905 0.16426992416381836 0.09974641352891922
0.053088869899511337 0.16830845177173615 0.097846381366252899
0.075969181954860687 0.17362357676029205 0.09570794552564621
0.10408619046211243 0.18041659891605377 0.092740960419178009
0.14062370359897614 0.19096077978610992 0.088153272867202759
0.18230204284191132 0.20093293488025665 0.083699822425842285
0.21870660781860352 0.20126207172870636 0.082960456609725952
0.25708580017089844 0.20048932731151581 0.082248575985431671
0.29953143000602722 0.19826763868331909 0.081109598278999329
0.34325039386749268 0.19693292677402496 0.07947058230638504
0.38917097449302673 0.19851288199424744 0.076318398118019104
0.43833816051483154 0.20126140117645264 0.071866333484649658
0.48962077498435974 0.20401120185852051 0.066467761993408203
0.53843861818313599 0.20582515001296997 0.061163187026977539
0.58225840330123901 0.20682381093502045 0.055585786700248718
0.62181699275970459 0.20801615715026855 0.050710540264844894
0.65876865386962891 0.20956075191497803 0.045437656342983246
0.69341635704040527 0.21231548488140106 0.039929069578647614
0.72514206171035767 0.21524322032928467 0.03348734974861145
0.75627273321151733 0.21955311298370361 0.026885487139225006
0.78551805019378662 0.22464795410633087 0.019969619810581207
0.81416350603103638 0.23110228776931763 0.013061637990176678
0.84218382835388184 0.23902449011802673 0.0061911563389003277
0.86915105581283569 0.24771694839000702 0.0016007978701964021
0.89550870656967163 0.25780913233757019 0.00010411781840957701
0.92101466655731201 0.26916393637657166 0
0.94520419836044312 0.28083455562591553 0
0.96923726797103882 0.29348424077033997 0
0.99205446243286133 0.30708125233650208 0
0.99996143579483032 0.32450133562088013 0
0 0.18750967085361481 0.10047606378793716
0.00022784480825066566 0.18843415379524231 0.10062661021947861
0.0027663505170494318 0.18765799701213837 0.10065240412950516
0.010922019369900227 0.1877346932888031 0.10049126297235489
0.028683148324489594 0.19173955917358398 0.098632976412773132
0.055323977023363113 0.19731448590755463 0.095973789691925049
0.08661893755197525 0.20393155515193939 0.092571161687374115
0.12174907326698303 0.21196974813938141 0.088370516896247864
0.16754427552223206 0.22459708154201508 0.081600181758403778
0.22150236368179321 0.23926962912082672 0.073830500245094299
0.26508712768554688 0.23993325233459473 0.071549110114574432
0.31010153889656067 0.23815974593162537 0.07012668251991272
0.35803624987602234 0.23592966794967651 0.068735092878341675
0.40872341394424438 0.23293992877006531 0.066733621060848236
0.46051579713821411 0.23237285017967224 0.06390690803527832
0.5079607367515564 0.23355796933174133 0.058756221085786819
0.55300521850585938 0.23499797284603119 0.053577922284603119
0.59416848421096802 0.23620197176933289 0.048430424183607101
0.6309015154838562 0.23704038560390472 0.043243557214736938
0.66649627685546875 0.23842753469944 0.037773888558149338
0.69986587762832642 0.24075049161911011 0.03221476823091507
0.73110830783843994 0.24374097585678101 0.026095593348145485
0.7610238790512085 0.24719128012657166 0.019711548462510109
0.78975075483322144 0.25197795033454895 0.013150807470083237
0.81791073083877563 0.25790846347808838 0.0068602142855525017
0.84543341398239136 0.26465985178947449 0.0021285484544932842
0.87145125865936279 0.27293729782104492 0.00022898559109307826
0.89771395921707153 0.28212612867355347 1.4185476402417407e-06
0.9225761890411377 0.29217958450317383 0
0.94662922620773315 0.30266296863555908 0
0.97008222341537476 0.31451338529586792 0
0.99272191524505615 0.32770371437072754 0
0.99995720386505127 0.343086838722229 0
0 0.2198093980550766 0.10187645256519318
0 0.22074541449546814 0.10212566703557968
0 0.21945841610431671 0.10208640247583389
3.2235420803772286e-05 0.21863353252410889 0.10260700434446335
0.0030039832927286625 0.22120867669582367 0.10095225274562836
0.022604541853070259 0.22670769691467285 0.098062664270401001
0.06174255907535553 0.23367924988269806 0.093967460095882416
0.10293466597795486 0.24145179986953735 0.089107461273670197
0.14765368402004242 0.2504858672618866 0.082953669130802155
0.20205892622470856 0.26440447568893433 0.072946175932884216
0.27044028043746948 0.2840823233127594 0.057894643396139145
0.32659512758255005 0.28780263662338257 0.051924366503953934
0.37795978784561157 0.28676372766494751 0.049965497106313705
0.42929354310035706 0.28344479203224182 0.048152308911085129
0.47941303253173828 0.27828133106231689 0.047376286238431931
0.52657335996627808 0.27212297916412354 0.046434085816144943
0.56902825832366943 0.26919001340866089 0.0438733771443367
0.6074223518371582 0.26935261487960815 0.039122220128774643
0.64274299144744873 0.27009913325309753 0.034126996994018555
0.67728060483932495 0.27130204439163208 0.028303781524300575
0.70950967073440552 0.27300384640693665 0.022264009341597557
0.73989582061767578 0.27571463584899902 0.016669591888785362
0.76852476596832275 0.27846777439117432 0.010455121286213398
0.7962537407875061 0.2823643684387207 0.0055098822340369225
0.82359641790390015 0.28769612312316895 0.0015276789199560881
0.85060930252075195 0.29394757747650146 0.00017479181406088173
0.87621533870697021 0.30097532272338867 8.511285614076769e-07
0.90175729990005493 0.30921217799186707 0
0.92590653896331787 0.31841516494750977 0
0.9495236873626709 0.32808822393417358 0
0.97275137901306152 0.33873599767684937 0
0.99441069364547729 0.3507135808467865 0
0.99999582767486572 0.3654198944568634 0
0 0.25307157635688782 0.10396208614110947
0 0.25525841116905212 0.10445954650640488
0 0.25412017107009888 0.10467538237571716
0 0.25284779071807861 0.10496453940868378
0 0.25280779600143433 0.10433845967054367
0.0010776345152407885 0.25773566961288452 0.10138349980115891
0.02473040297627449 0.2650909423828125 0.097276099026203156
0.077201217412948608 0.27424106001853943 0.091901689767837524
0.13016214966773987 0.28537189960479736 0.084866054356098175
0.18641509115695953 0.29791259765625 0.074935927987098694
0.25225245952606201 0.31429761648178101 0.059484448283910751
0.33588746190071106 0.33727481961250305 0.030151607468724251
0.39780721068382263 0.34201505780220032 0.019827056676149368
0.4485849142074585 0.33812776207923889 0.018513793125748634
0.49739959836006165 0.33242407441139221 0.018757255747914314
0.54164373874664307 0.32439342141151428 0.019907299429178238
0.58222365379333496 0.31523263454437256 0.022740628570318222
0.61928194761276245 0.30672681331634521 0.024569049477577209
0.65423691272735596 0.30418998003005981 0.022000601515173912
0.68724530935287476 0.30509009957313538 0.016843307763338089
0.71802294254302979 0.30647903680801392 0.011661920696496964
0.74717873334884644 0.30783659219741821 0.0068391463719308376
0.77524232864379883 0.31030315160751343 0.0030960396397858858
0.8021923303604126 0.31384652853012085 0.00090231857029721141
0.82875549793243408 0.31842330098152161 6.4260209910571575e-05
0.85508131980895996 0.32388487458229065 0
0.88009625673294067 0.33017739653587341 0
0.90487533807754517 0.33736827969551086 0
0.92896884679794312 0.34533298015594482 0
0.95219296216964722 0.35422050952911377 0
0.97503548860549927 0.36402717232704163 0
0.99555259943008423 0.3748805820941925 0
1 0.38897672295570374 0
0 0.29113015532493591 0.1059090718626976
0 0.29424777626991272 0.10649843513965607
0 0.29347881674766541 0.10634360462427139
0 0.29254609346389771 0.10684598237276077
0 0.29191067814826965 0.10736512392759323
0 0.29647627472877502 0.10490673035383224
0.0011079859687015414 0.30446389317512512 0.10019965469837189
0.037642188370227814 0.31414633989334106 0.094378344714641571
0.10921768099069595 0.32541266083717346 0.086631730198860168
0.17245469987392426 0.33729693293571472 0.076195172965526581
0.23687674105167389 0.34956729412078857 0.061860710382461548
0.31049779057502747 0.36443990468978882 0.03809080645442009
0.399587482213974 0.38908061385154724 0.0047586061991751194
0.46509933471679688 0.39483419060707092 0.00038751959800720215
0.51167380809783936 0.38750457763671875 0.0004714801034424454
0.55305927991867065 0.37819188833236694 0.00095187319675460458
0.59152400493621826 0.36804810166358948 0.001903985976241529
0.62861275672912598 0.35799071192741394 0.0034550144337117672
0.66289669275283813 0.3480609655380249 0.0053187701851129532
0.69554120302200317 0.34119796752929688 0.0053140800446271896
0.72551941871643066 0.34047010540962219 0.0029498233925551176
0.75349509716033936 0.34141671657562256 0.0011480998946353793
0.78065639734268188 0.34275799989700317 0.00025387381901964545
0.80739271640777588 0.34572899341583252 1.0213543646386825e-05
0.83313876390457153 0.34927615523338318 0
0.85841679573059082 0.3540198802947998 0
0.88282489776611328 0.35928231477737427 0
0.90717619657516479 0.36570429801940918 0
0.93063473701477051 0.3728296160697937 0
0.95317524671554565 0.38048464059829712 0
0.97612255811691284 0.38943898677825928 0
0.99633932113647461 0.39968025684356689 0
1 0.41193017363548279 0
0 0.33966368436813354 0.10850208252668381
0 0.34392276406288147 0.10882794857025146
0 0.34308648109436035 0.10900589823722839
0 0.34218961000442505 0.10945750027894974
0 0.34040561318397522 0.10968700796365738
0 0.34044188261032104 0.10913465172052383
0 0.34701231122016907 0.10451240837574005
0.0046104821376502514 0.35510244965553284 0.098173953592777252
0.074794068932533264 0.36429256200790405 0.090154021978378296
0.15205031633377075 0.37478259205818176 0.079852275550365448
0.21997648477554321 0.38541972637176514 0.065616436302661896
0.28970909118652344 0.39713305234909058 0.045200273394584656
0.36319723725318909 0.4101068377494812 0.01634879969060421
0.45207980275154114 0.43349221348762512 0.00028648850275203586
0.52027642726898193 0.44160863757133484 0
0.56251710653305054 0.43333032727241516 0
0.60104304552078247 0.4235692024230957 0
0.63740646839141846 0.41327938437461853 0
0.67124354839324951 0.40343618392944336 0
0.70432782173156738 0.3937324583530426 0
0.73466730117797852 0.38418698310852051 5.1493279897840694e-05
0.76251715421676636 0.37908893823623657 0
0.788887619972229 0.3789428174495697 0
0.8145022988319397 0.38096323609352112 0
0.83948796987533569 0.38380712270736694 0
0.86451524496078491 0.38779178261756897 0
0.88847070932388306 0.39249011874198914 0
0.91208291053771973 0.39763405919075012 0
0.9349481463432312 0.40379491448402405 0
0.95716410875320435 0.41060343384742737 0
0.97931963205337524 0.41875901818275452 0
0.99789512157440186 0.42730703949928284 0
0.99998295307159424 0.43988451361656189 0
0 0.38336354494094849 0.11127832531929016
0 0.3898046612739563 0.11263469606637955
0 0.38882735371589661 0.11242674291133881
0 0.38724318146705627 0.11265484988689423
0 0.38535639643669128 0.11314737051725388
0 0.38333132863044739 0.11345242708921432
0 0.38593447208404541 0.11027466505765915
0 0.39351779222488403 0.10387745499610901
0.03390657901763916 0.40260049700737 0.096146054565906525
0.1301448792219162 0.41206464171409607 0.085714779794216156
0.20498989522457123 0.42265912890434265 0.07238229364156723
0.27574253082275391 0.43299394845962524 0.053068231791257858
0.34522131085395813 0.44379186630249023 0.026724733412265778
0.41720694303512573 0.45447906851768494 0.002953212708234787
0.50189030170440674 0.47509980201721191 0
0.56892144680023193 0.48592206835746765 0
0.60872054100036621 0.47740191221237183 0
0.64419800043106079 0.46731698513031006 0
0.67750781774520874 0.4572853147983551 0
0.70927292108535767 0.44675752520561218 0
0.7386353611946106 0.43638747930526733 0
0.76643377542495728 0.42637860774993896 0
0.79360836744308472 0.41764134168624878 0
0.81944376230239868 0.41519454121589661 0
0.84423089027404785 0.4172242283821106 0
0.86823469400405884 0.42012420296669006 0
0.89149957895278931 0.42364013195037842 0
0.91450995206832886 0.42817619442939758 0
0.93689781427383423 0.43341994285583496 0
0.95873808860778809 0.43923968076705933 0
0.9809601902961731 0.44673141837120056 0
0.99841678142547607 0.45484828948974609 0
