Textures/55.cube
# Created by: G'MIC (https://gmic.eu)
TITLE "Fuji_Superia_1600_2.cube"
# LUT size
LUT_3D_SIZE 5
# Data domain
DOMAIN_MIN 0.0 0.0 0.0
DOMAIN_MAX 1.0 1.0 1.0
# LUT data points
0.062933444976806641 0.097579963505268097 0.10056880861520767
0.15936695039272308 0.10617940872907639 0.098759517073631287
0.479575514793396 0.10779378563165665 0.080731004476547241
0.79456186294555664 0.12170632928609848 0.034769237041473389
0.99978256225585938 0.25345432758331299 0
0 0.2198093980550766 0.10187645256519318
0.14765368402004242 0.2504858672618866 0.082953669130802155
0.56902825832366943 0.26919001340866089 0.0438733771443367
0.82359641790390015 0.28769612312316895 0.0015276789199560881
0.99999582767486572 0.3654198944568634 0
0 0.53922313451766968 0.15666913986206055
0 0.53457087278366089 0.15496329963207245
0.52856671810150146 0.59266144037246704 0.034922953695058823
0.8516114354133606 0.59818553924560547 0
1 0.57746648788452148 0.075816191732883453
0.19926804304122925 0.78169125318527222 0.37881287932395935
0.29913395643234253 0.7758406400680542 0.37536787986755371
0.5033576488494873 0.78651463985443115 0.36242765188217163
0.76820951700210571 0.82336658239364624 0.33154147863388062
0.99918049573898315 0.84619021415710449 0.34082385897636414
0.62594467401504517 0.95294886827468872 0.68998038768768311
0.64362543821334839 0.95191913843154907 0.69082528352737427
0.69292360544204712 0.95074355602264404 0.69319438934326172
0.79187691211700439 0.96133148670196533 0.69105541706085205
0.92124974727630615 0.97087055444717407 0.68537527322769165
0.061075489968061447 0.096816346049308777 0.19217441976070404
0.17924363911151886 0.1008080318570137 0.19767649471759796
0.52158254384994507 0.02678198367357254 0.20481112599372864
0.78094059228897095 0.10650912672281265 0.19013474881649017
0.99731558561325073 0.25264662504196167 0.19133841991424561
0 0.24228253960609436 0.22366556525230408
0.20009031891822815 0.25635969638824463 0.23264025151729584
0.55373138189315796 0.26878756284713745 0.224852055311203
0.80740195512771606 0.29004719853401184 0.20921415090560913
0.99960887432098389 0.37007442116737366 0.21111497282981873
0.13688239455223083 0.56180399656295776 0.35167881846427917
0.24275714159011841 0.55326956510543823 0.32946258783340454
0.55228829383850098 0.58630549907684326 0.29946801066398621
0.84156811237335205 0.58050984144210815 0.27322584390640259
0.99995285272598267 0.5863807201385498 0.29168164730072021
0.3420461118221283 0.78946900367736816 0.48025411367416382
0.39738190174102783 0.78403538465499878 0.47540539503097534
0.53510743379592896 0.78302252292633057 0.46199589967727661
0.77488189935684204 0.82219558954238892 0.45082783699035645
0.99644571542739868 0.84243083000183105 0.45922559499740601
0.65224814414978027 0.95292973518371582 0.72308075428009033
0.667563796043396 0.9522625207901001 0.7230755090713501
0.70970344543457031 0.95057380199432373 0.72297185659408569
0.79968506097793579 0.96007513999938965 0.7227063775062561
0.923778235912323 0.97011339664459229 0.71997833251953125
0 0.094382472336292267 0.48679405450820923
0.22590425610542297 0.1005488857626915 0.4945065975189209
0.55704683065414429 0.12013738602399826 0.51733767986297607
0.83544045686721802 0.23730142414569855 0.53189706802368164
1 0.26636683940887451 0.48857390880584717
0 0.22975873947143555 0.51166838407516479
0.24147942662239075 0.26190206408500671 0.52419376373291016
0.57866626977920532 0.3161948025226593 0.5362323522567749
0.8319670557975769 0.38545969128608704 0.54765284061431885
1 0.34784117341041565 0.47519382834434509
0.17679725587368011 0.57288944721221924 0.56657707691192627
0.36333829164505005 0.57459813356399536 0.56946629285812378
0.58920776844024658 0.56603574752807617 0.56087225675582886
0.8021087646484375 0.5595431923866272 0.53139126300811768
0.9910731315612793 0.58399808406829834 0.51733857393264771
0.55798149108886719 0.81155496835708618 0.68208694458007812
0.59272164106369019 0.80688458681106567 0.68051981925964355
0.62425762414932251 0.7892269492149353 0.6410825252532959
0.7912941575050354 0.81897127628326416 0.63948696851730347
0.98642444610595703 0.82699179649353027 0.6379554271697998
0.72438031435012817 0.95448011159896851 0.80613189935684204
0.72449445724487305 0.95479834079742432 0.79859310388565063
0.75191366672515869 0.95282518863677979 0.79279863834381104
0.81768476963043213 0.95755875110626221 0.79112750291824341
0.93225884437561035 0.96934443712234497 0.79383599758148193
0.14920656383037567 0.11201458424329758 0.75260186195373535
0.33910265564918518 0.11669575423002243 0.75521880388259888
0.60942280292510986 0.17317642271518707 0.75919783115386963
0.8319699764251709 0.31151214241981506 0.76973593235015869
0.99519312381744385 0.47563108801841736 0.7779548168182373
0.15604250133037567 0.26033639907836914 0.75595074892044067
0.3534298837184906 0.27423316240310669 0.75904345512390137
0.61839401721954346 0.33175897598266602 0.76325058937072754
0.82891702651977539 0.43009313941001892 0.77472174167633057
0.98736613988876343 0.56114935874938965 0.78724592924118042
0 0.47332370281219482 0.74122679233551025
0.22867688536643982 0.48122429847717285 0.74664825201034546
0.59404629468917847 0.5371633768081665 0.76188719272613525
0.81511002779006958 0.6227537989616394 0.7822309136390686
0.9721674919128418 0.70940256118774414 0.80820250511169434
0.50390946865081787 0.80844998359680176 0.80785316228866577
0.55564963817596436 0.80900651216506958 0.80841058492660522
0.67086464166641235 0.80809110403060913 0.80792254209518433
0.80801957845687866 0.80331969261169434 0.80198103189468384
0.96566975116729736 0.79654169082641602 0.77835273742675781
0.79789763689041138 0.9605904221534729 0.89773398637771606
0.80884778499603271 0.96042108535766602 0.89869344234466553
0.83782863616943359 0.95917689800262451 0.89918243885040283
0.85769128799438477 0.95726704597473145 0.88140159845352173
0.94742470979690552 0.96907186508178711 0.88507747650146484
0.50640004873275757 0.28867298364639282 0.96487265825271606
0.57590603828430176 0.3122098445892334 0.96370714902877808
0.72033822536468506 0.38388004899024963 0.96056610345840454
0.87139952182769775 0.51012831926345825 0.95508801937103271
0.99323815107345581 0.61893045902252197 0.9526098370552063
0.50717931985855103 0.38998445868492126 0.96384012699127197
0.57535409927368164 0.40831458568572998 0.96318870782852173
0.71696233749389648 0.46353471279144287 0.95986402034759521
0.86708861589431763 0.56994229555130005 0.95441609621047974
0.9872620701789856 0.66288959980010986 0.95170873403549194
0.41154581308364868 0.53347980976104736 0.96202880144119263
0.51532924175262451 0.55457383394241333 0.96135520935058594
0.68680858612060547 0.59827119112014771 0.95831882953643799
0.85271883010864258 0.67764747142791748 0.95386439561843872
0.97623920440673828 0.75293594598770142 0.95247602462768555
0.37014532089233398 0.75915783643722534 0.95978480577468872
0.41725543141365051 0.75273400545120239 0.96005845069885254
0.53948885202407837 0.73119324445724487 0.95976334810256958
0.81817877292633057 0.79482871294021606 0.95693677663803101
0.96736669540405273 0.86263942718505859 0.95718789100646973
0.75840616226196289 0.96328926086425781 0.96540951728820801
0.77467477321624756 0.96365576982498169 0.96573805809020996
0.81984800100326538 0.96418440341949463 0.96635586023330688
0.88951849937438965 0.96589368581771851 0.96795052289962769
0.96902942657470703 0.96949940919876099 0.97109639644622803
