Textures/56.cube
# Created by: G'MIC (https://gmic.eu)
TITLE "Fuji_Superia_HG_1600.cube"
# LUT size
LUT_3D_SIZE 5
# Data domain
DOMAIN_MIN 0.0 0.0 0.0
DOMAIN_MAX 1.0 1.0 1.0
# LUT data points
0.046563953161239624 0.041817329823970795 0.038455914705991745
0.25717902183532715 0.028271479532122612 0.043919753283262253
0.46509981155395508 0.033819582313299179 0.045261412858963013
0.70728331804275513 0.082154706120491028 0.032908238470554352
0.91761296987533569 0.12877392768859863 0.0058393119834363461
0.18030618131160736 0.26225551962852478 0.16153675317764282
0.30007404088973999 0.26325544714927673 0.16397878527641296
0.50739538669586182 0.25763529539108276 0.16548268496990204
0.71309304237365723 0.20879535377025604 0.15796053409576416
0.87136936187744141 0.10105813294649124 0.12357264012098312
0.27959328889846802 0.49035972356796265 0.25599643588066101
0.37853550910949707 0.49479073286056519 0.25698369741439819
0.58064687252044678 0.49803945422172546 0.25691774487495422
0.77833205461502075 0.47541949152946472 0.25002512335777283
0.939250648021698 0.36249053478240967 0.2250547856092453
0.40505662560462952 0.70253258943557739 0.37746977806091309
0.48470252752304077 0.70927852392196655 0.37834975123405457
0.65549492835998535 0.7224578857421875 0.37781456112861633
0.83058589696884155 0.72875821590423584 0.37166622281074524
1 0.70515358448028564 0.34568563103675842
0.53345274925231934 0.90846699476242065 0.54018557071685791
0.58741366863250732 0.91599446535110474 0.54076081514358521
0.70767998695373535 0.92774015665054321 0.54130065441131592
0.86349654197692871 0.94228214025497437 0.5385361909866333
1 0.95310443639755249 0.51851040124893188
0.025269748643040657 0.05997152253985405 0.19695071876049042
0.2128436267375946 0.048119619488716125 0.20046572387218475
0.4142628014087677 0.01511981338262558 0.20112636685371399
0.6489374041557312 0.046156484633684158 0.19692213833332062
0.8560783863067627 0.091279350221157074 0.17362746596336365
0.14346453547477722 0.26740202307701111 0.26537662744522095
0.2685997486114502 0.26766419410705566 0.26807448267936707
0.48152902722358704 0.26281899213790894 0.27049455046653748
0.6870112419128418 0.21612055599689484 0.26425504684448242
0.83437645435333252 0.077658243477344513 0.23630532622337341
0.23695650696754456 0.49125847220420837 0.3501141369342804
0.34507825970649719 0.49611163139343262 0.35168328881263733
0.55334603786468506 0.50180196762084961 0.35424840450286865
0.75087356567382812 0.47819763422012329 0.34946560859680176
0.91343718767166138 0.3660239577293396 0.32625019550323486
0.37247675657272339 0.69721674919128418 0.45756420493125916
0.45564684271812439 0.70357626676559448 0.45874878764152527
0.62846928834915161 0.71675318479537964 0.45967128872871399
0.80314546823501587 0.72263026237487793 0.45781487226486206
0.99076223373413086 0.69923305511474609 0.43970054388046265
0.51179879903793335 0.9068487286567688 0.59461802244186401
0.56624311208724976 0.91209167242050171 0.59539401531219482
0.68712049722671509 0.92389792203903198 0.59703171253204346
0.84422492980957031 0.93865180015563965 0.59658646583557129
1 0.94918322563171387 0.58328455686569214
0.010500188916921616 0.079091615974903107 0.33212000131607056
0.18228819966316223 0.075928919017314911 0.33929547667503357
0.38497871160507202 0.04596501961350441 0.34239950776100159
0.59776854515075684 0.018906716257333755 0.33944371342658997
0.80370205640792847 0.057836994528770447 0.32426601648330688
0.10810347646474838 0.27700510621070862 0.41010218858718872
0.21492458879947662 0.27815690636634827 0.41480574011802673
0.4401201605796814 0.27250650525093079 0.42088422179222107
0.64473211765289307 0.22721342742443085 0.41992354393005371
0.7757079005241394 0.040873143821954727 0.39839231967926025
0.14674630761146545 0.49317839741706848 0.49664238095283508
0.28266081213951111 0.49848169088363647 0.49994587898254395
0.50522142648696899 0.50526118278503418 0.50506788492202759
0.70361912250518799 0.48522624373435974 0.50658959150314331
0.86735790967941284 0.37830552458763123 0.4941631555557251
0.31197667121887207 0.68966805934906006 0.58678644895553589
0.40355336666107178 0.69614779949188232 0.58888411521911621
0.58159321546554565 0.70915049314498901 0.59242969751358032
0.75727587938308716 0.71511417627334595 0.59410971403121948
0.94663941860198975 0.6927526593208313 0.58733105659484863
0.47470450401306152 0.90514743328094482 0.68444657325744629
0.53082990646362305 0.90994852781295776 0.68554383516311646
0.65379083156585693 0.92148870229721069 0.68788027763366699
0.813079833984375 0.93626582622528076 0.69032895565032959
0.99993234872817993 0.94587016105651855 0.68444937467575073
0.0012376193189993501 0.1074509471654892 0.50115150213241577
0.13057391345500946 0.11078579723834991 0.51054191589355469
0.35372522473335266 0.09726686030626297 0.51839160919189453
0.53647017478942871 0.0094582624733448029 0.51706558465957642
0.73200196027755737 0.017599631100893021 0.51350623369216919
0.045272562652826309 0.3030693531036377 0.57074958086013794
0.14072543382644653 0.30598708987236023 0.5762905478477478
0.39557933807373047 0.3035624623298645 0.58397173881530762
0.60226380825042725 0.25848597288131714 0.5868992805480957
0.73238515853881836 0.070753909647464752 0.57547932863235474
0.019129643216729164 0.50543278455734253 0.63684654235839844
0.21072773635387421 0.51234912872314453 0.64042043685913086
0.45954528450965881 0.5222243070602417 0.64662915468215942
0.66179937124252319 0.50910919904708862 0.65065819025039673
0.83157634735107422 0.41590973734855652 0.64761060476303101
0.24958662688732147 0.69000720977783203 0.70509600639343262
0.35397741198539734 0.69694292545318604 0.70744317770004272
0.53906619548797607 0.70989829301834106 0.71227008104324341
0.71697580814361572 0.71701508760452271 0.71693509817123413
0.90893298387527466 0.69768136739730835 0.71688145399093628
0.42842745780944824 0.90653181076049805 0.78747963905334473
0.48697400093078613 0.91089296340942383 0.78886973857879639
0.61360651254653931 0.92262071371078491 0.79254633188247681
0.77651077508926392 0.93757367134094238 0.79689323902130127
0.99188524484634399 0.94764769077301025 0.7971351146697998
0 0.17145609855651855 0.64721763134002686
0.11004272103309631 0.17476950585842133 0.65572661161422729
0.33205816149711609 0.16976992785930634 0.66538357734680176
0.53131747245788574 0.11193402111530304 0.66936123371124268
0.67461735010147095 0.00064990756800398231 0.66544133424758911
0.0070928093045949936 0.35603070259094238 0.70537495613098145
0.053478661924600601 0.36278766393661499 0.71095967292785645
0.36320573091506958 0.36762556433677673 0.720123291015625
0.57895386219024658 0.33415007591247559 0.72629350423812866
0.73014521598815918 0.19451697170734406 0.7236209511756897
0 0.5334123969078064 0.76584964990615845
0.13236835598945618 0.54110324382781982 0.7697712779045105
0.41629785299301147 0.55560082197189331 0.77769917249679565
0.62557512521743774 0.55308455228805542 0.78545713424682617
0.80714875459671021 0.48820841312408447 0.7881699800491333
0.15704461932182312 0.70094001293182373 0.83378827571868896
0.29200273752212524 0.70782458782196045 0.83629846572875977
0.48974698781967163 0.72171115875244141 0.84286320209503174
0.67189908027648926 0.73067337274551392 0.85063725709915161
0.86949056386947632 0.71823441982269287 0.85674589872360229
0.35510435700416565 0.9117475152015686 0.92352944612503052
0.41938731074333191 0.9171757698059082 0.92614471912384033
0.55312132835388184 0.92948442697525024 0.93339616060256958
0.72073549032211304 0.94525974988937378 0.94441574811935425
0.95864975452423096 0.96048247814178467 0.95859980583190918
