Textures/56.cube
# Created by: G'MIC (https://gmic.eu)
TITLE "Fuji_Superia_HG_1600.cube"
# LUT size
LUT_3D_SIZE 33
# Data domain
DOMAIN_MIN 0.0 0.0 0.0
DOMAIN_MAX 1.0 1.0 1.0
# LUT data points
0.046563953161239624 0.041817329823970795 0.038455914705991745
0.098991729319095612 0.04191172868013382 0.039921179413795471
0.12808512151241302 0.041648447513580322 0.040339801460504532
0.1535196453332901 0.039946522563695908 0.04060932993888855
0.17620882391929626 0.038355648517608643 0.042377479374408722
0.19660502672195435 0.036773223429918289 0.042856033891439438
0.21567158401012421 0.035039104521274567 0.043772298842668533
0.23661734163761139 0.031833086162805557 0.044296521693468094
0.25717902183532715 0.028271479532122612 0.043919753283262253
0.27793270349502563 0.024241609498858452 0.0438074991106987
0.29939764738082886 0.022275874391198158 0.044416561722755432
0.32362443208694458 0.020723344758152962 0.044626384973526001
0.34932062029838562 0.020739857107400894 0.044935308396816254
0.376717209815979 0.021662266924977303 0.044920887798070908
0.40517634153366089 0.023897111415863037 0.044759314507246017
0.43463459610939026 0.028318602591753006 0.044789943844079971
0.46509981155395508 0.033819582313299179 0.045261412858963013
0.49732330441474915 0.039509978145360947 0.044754441827535629
0.5299152135848999 0.04559214785695076 0.043730180710554123
0.56205940246582031 0.051929749548435211 0.042704362422227859
0.5938422679901123 0.058294296264648438 0.041343081742525101
0.62385469675064087 0.06480882316827774 0.039191089570522308
0.65270382165908813 0.070488154888153076 0.038278795778751373
0.68013787269592285 0.076453171670436859 0.036070059984922409
0.70728331804275513 0.082154706120491028 0.032908238470554352
0.73315471410751343 0.087658829987049103 0.031007304787635803
0.75887620449066162 0.093473024666309357 0.027798466384410858
0.78422790765762329 0.099268063902854919 0.025174316018819809
0.81015723943710327 0.10481983423233032 0.021704288199543953
0.83667701482772827 0.11058738827705383 0.01692756824195385
0.86326104402542114 0.11623672395944595 0.01332410704344511
0.89028501510620117 0.12242324650287628 0.0088593838736414909
0.91761296987533569 0.12877392768859863 0.0058393119834363461
0.08097819983959198 0.09895758330821991 0.063657306134700775
0.11422264575958252 0.099858708679676056 0.064185202121734619
0.14032407104969025 0.098694257438182831 0.064671948552131653
0.16459918022155762 0.098008565604686737 0.065173961222171783
0.18693536520004272 0.097530581057071686 0.065938472747802734
0.20716448128223419 0.095142252743244171 0.067183174192905426
0.22635374963283539 0.093371957540512085 0.06822621077299118
0.24720045924186707 0.090930581092834473 0.068504348397254944
0.26733705401420593 0.087487943470478058 0.068258479237556458
0.28849366307258606 0.083709202706813812 0.068226814270019531
0.3099101185798645 0.079793833196163177 0.068560048937797546
0.3332594633102417 0.074476160109043121 0.068583451211452484
0.35622444748878479 0.065564773976802826 0.068884193897247314
0.37918025255203247 0.055118869990110397 0.068831540644168854
0.4035150408744812 0.045123498886823654 0.06779913604259491
0.42860457301139832 0.036672003567218781 0.067400671541690826
0.45587867498397827 0.032921906560659409 0.067230395972728729
0.48694610595703125 0.034915480762720108 0.066695950925350189
0.51916509866714478 0.039924617856740952 0.065574154257774353
0.55157631635665894 0.046165071427822113 0.064882181584835052
0.58305650949478149 0.0524623803794384 0.063346154987812042
0.6133391261100769 0.058749016374349594 0.061375569552183151
0.64214617013931274 0.064682014286518097 0.059779543429613113
0.66939705610275269 0.070510126650333405 0.057548921555280685
0.69659000635147095 0.076340086758136749 0.054525885730981827
0.72288697957992554 0.082093015313148499 0.051278572529554367
0.74933552742004395 0.088402546942234039 0.047031410038471222
0.7754673957824707 0.094601958990097046 0.042995240539312363
0.80201876163482666 0.100444495677948 0.03847140446305275
0.82861584424972534 0.10616905987262726 0.033264871686697006
0.85539156198501587 0.11216656863689423 0.028231086209416389
0.88300096988677979 0.11836007982492447 0.021694725379347801
0.91174560785293579 0.12541218101978302 0.0144233088940382
0.1032542958855629 0.12751246988773346 0.080438069999217987
0.12532234191894531 0.12862569093704224 0.08090692013502121
0.14651909470558167 0.12875385582447052 0.081130824983119965
0.16953007876873016 0.12817959487438202 0.081673018634319305
0.19127815961837769 0.12738704681396484 0.083037897944450378
0.21090102195739746 0.12666048109531403 0.083828985691070557
0.23100224137306213 0.12638947367668152 0.08425961434841156
0.25212797522544861 0.12503871321678162 0.084671430289745331
0.27295190095901489 0.12356949597597122 0.084881477057933807
0.29490786790847778 0.12161807715892792 0.084944285452365875
0.31751364469528198 0.12019065767526627 0.085584409534931183
0.34177353978157043 0.11722048372030258 0.086113318800926208
0.36668336391448975 0.11312748491764069 0.086392179131507874
0.3916589617729187 0.10781785845756531 0.086725667119026184
0.41666474938392639 0.10114136338233948 0.085761077702045441
0.44146537780761719 0.091905012726783752 0.085117079317569733
0.46657553315162659 0.079136848449707031 0.08422379195690155
0.49157252907752991 0.062704369425773621 0.08331877738237381
0.51790356636047363 0.049905937165021896 0.081787474453449249
0.54683315753936768 0.04562203586101532 0.080471768975257874
0.57721394300460815 0.049195546656847 0.079313136637210846
0.60727781057357788 0.055377978831529617 0.077263377606868744
0.63587307929992676 0.061488594859838486 0.076237201690673828
0.66304624080657959 0.06681717187166214 0.074240230023860931
0.6893811821937561 0.072462655603885651 0.071007862687110901
0.71569174528121948 0.078130677342414856 0.068012028932571411
0.7419542670249939 0.084089845418930054 0.063682623207569122
0.76762628555297852 0.09035840630531311 0.059718664735555649
0.79410761594772339 0.096287012100219727 0.054081209003925323
0.82162106037139893 0.1023145467042923 0.047600917518138885
0.84974348545074463 0.10894773155450821 0.040315650403499603
0.87812471389770508 0.11577410250902176 0.033330541104078293
0.90636080503463745 0.12247435003519058 0.025791920721530914
0.12241856753826141 0.15268415212631226 0.096819579601287842
0.13845068216323853 0.1531795859336853 0.09733445942401886
0.15458299219608307 0.15343137085437775 0.097310662269592285
0.17461735010147095 0.15343137085437775 0.097610607743263245
0.19542568922042847 0.1531544029712677 0.098848938941955566
0.21467237174510956 0.15266783535480499 0.099292352795600891
0.23458339273929596 0.15261431038379669 0.10006313025951385
0.25593885779380798 0.15220674872398376 0.10055665671825409
0.27669793367385864 0.15091875195503235 0.10077781975269318
0.29877370595932007 0.15046240389347076 0.10111132264137268
0.32202738523483276 0.14887033402919769 0.10238368809223175
0.34690549969673157 0.14792601764202118 0.1026524156332016
0.37244293093681335 0.14559829235076904 0.1027035191655159
0.3980657160282135 0.14284200966358185 0.10304484516382217
0.42431178689002991 0.13939821720123291 0.10285603255033493
0.45067703723907471 0.1346183568239212 0.10271249711513519
0.47811621427536011 0.12794257700443268 0.10109692811965942
0.50531125068664551 0.11868825554847717 0.1003035381436348
0.53131788969039917 0.10560651868581772 0.099250674247741699
0.55602782964706421 0.086343243718147278 0.096731670200824738
0.5784955620765686 0.065546475350856781 0.095181368291378021
0.60304158926010132 0.055665701627731323 0.092989608645439148
0.63062185049057007 0.058401558548212051 0.091822266578674316
0.65738785266876221 0.06351134181022644 0.090365186333656311
0.68373298645019531 0.068870678544044495 0.087902650237083435
0.70984524488449097 0.074639298021793365 0.085114859044551849
0.73534756898880005 0.080314688384532928 0.081525206565856934
0.76094543933868408 0.0862869992852211 0.077552542090415955
0.78692865371704102 0.092159964144229889 0.072583064436912537
0.81368875503540039 0.097756601870059967 0.06658143550157547
0.8415374755859375 0.10416832566261292 0.058815360069274902
0.8700903058052063 0.11108121275901794 0.050022587180137634
0.8997269868850708 0.11876260489225388 0.040061589330434799
0.14033366739749908 0.17467312514781952 0.11217415332794189
0.15280155837535858 0.17511044442653656 0.1127709373831749
0.16528376936912537 0.17557191848754883 0.11314974725246429
0.18077628314495087 0.17557191848754883 0.11328978091478348
0.19956319034099579 0.17557193338871002 0.11330810189247131
0.21787966787815094 0.17557191848754883 0.11385376751422882
0.23841321468353271 0.17557193338871002 0.11494670808315277
0.25891837477684021 0.17495986819267273 0.11547587811946869
0.28004920482635498 0.17449295520782471 0.11591903865337372
0.30234330892562866 0.17375506460666656 0.11604932695627213
0.3256848156452179 0.17292024195194244 0.1171812042593956
0.3509257435798645 0.17235590517520905 0.11773470789194107
0.37669757008552551 0.17127083241939545 0.11711686104536057
0.40271896123886108 0.16949515044689178 0.11757088452577591
0.42948278784751892 0.16718411445617676 0.11771052330732346
0.45629742741584778 0.16413404047489166 0.11804869771003723
0.48449939489364624 0.15986418724060059 0.11631786823272705
0.51304149627685547 0.15456576645374298 0.11593931913375854
0.5409311056137085 0.14722380042076111 0.11533981561660767
0.56813383102416992 0.1363709419965744 0.11314856261014938
0.59228086471557617 0.12003100663423538 0.11163748055696487
0.61303251981735229 0.097651384770870209 0.1094055101275444
0.63181066513061523 0.073002971708774567 0.10661980509757996
0.65339648723602295 0.062894240021705627 0.1050436869263649
0.67872864007949829 0.06584513932466507 0.10311127454042435
0.70456993579864502 0.071431703865528107 0.10026530921459198
0.72997826337814331 0.076967455446720123 0.097482584416866302
0.75531959533691406 0.082814261317253113 0.094034135341644287
0.78092551231384277 0.088713765144348145 0.089790061116218567
0.80727410316467285 0.094163648784160614 0.084566190838813782
0.83464169502258301 0.0999554842710495 0.07783769816160202
0.86231189966201782 0.10678334534168243 0.07004932314157486
0.89119982719421387 0.1139528676867485 0.060568049550056458
0.15581078827381134 0.19517974555492401 0.12707005441188812
0.1656787246465683 0.19520938396453857 0.12739144265651703
0.17611242830753326 0.19535332918167114 0.12762157618999481
0.18873342871665955 0.19566658139228821 0.12778927385807037
0.20426598191261292 0.19607852399349213 0.12765200436115265
0.22234718501567841 0.19607852399349213 0.12776277959346771
0.24291367828845978 0.19607852399349213 0.12840166687965393
0.26280137896537781 0.19603559374809265 0.12915369868278503
0.28365585207939148 0.19538725912570953 0.12963387370109558
0.30592545866966248 0.19517974555492401 0.13003681600093842
0.32956182956695557 0.19509389996528625 0.13097761571407318
0.35498836636543274 0.19395259022712708 0.13151580095291138
0.38090643286705017 0.19302156567573547 0.13083747029304504
0.40712654590606689 0.19218726456165314 0.13143271207809448
0.43388527631759644 0.19079144299030304 0.13180369138717651
0.46099495887756348 0.18827031552791595 0.1319245845079422
0.48975372314453125 0.18516580760478973 0.13069963455200195
0.51901549100875854 0.18140445649623871 0.13023452460765839
0.54738897085189819 0.17643038928508759 0.12996295094490051
0.57560032606124878 0.16922961175441742 0.12820468842983246
0.60150820016860962 0.15887738764286041 0.12667368352413177
0.62486296892166138 0.14537832140922546 0.12497665733098984
0.64560848474502563 0.12631030380725861 0.12203995138406754
0.66198039054870605 0.099035076797008514 0.1196993887424469
0.67811852693557739 0.073775328695774078 0.11708328127861023
0.70045661926269531 0.068975605070590973 0.11437765508890152
0.72542035579681396 0.073973566293716431 0.11189707368612289
0.75071215629577637 0.079633221030235291 0.10864944010972977
0.77613979578018188 0.08553536981344223 0.10507822781801224
0.80198544263839722 0.091118186712265015 0.10052409768104553
0.82889991998672485 0.096619829535484314 0.094518125057220459
0.85636436939239502 0.10300634801387787 0.088059768080711365
0.88462311029434204 0.10983934998512268 0.079961284995079041
0.16370594501495361 0.21755856275558472 0.13924568891525269
0.17199757695198059 0.21810334920883179 0.13957604765892029
0.18173150718212128 0.21838219463825226 0.13992360234260559
0.19436720013618469 0.21838220953941345 0.14005583524703979
0.20953828096389771 0.21838219463825226 0.14020407199859619
0.22801074385643005 0.21838219463825226 0.14022280275821686
0.24810819327831268 0.21838220953941345 0.14060157537460327
0.26739421486854553 0.21838219463825226 0.14101731777191162
0.28837433457374573 0.21836934983730316 0.14166595041751862
0.31063464283943176 0.21799182891845703 0.14202554523944855
0.33437135815620422 0.21750707924365997 0.14283731579780579
0.35988226532936096 0.2174021452665329 0.14350631833076477
0.38577109575271606 0.21673738956451416 0.14326643943786621
0.41199657320976257 0.21574743092060089 0.14339867234230042
0.43903201818466187 0.21456964313983917 0.14390966296195984
0.46643355488777161 0.21275371313095093 0.1440083235502243
0.49526539444923401 0.21020238101482391 0.14341893792152405
0.52481091022491455 0.20727966725826263 0.14288529753684998
0.55336570739746094 0.20366738736629486 0.14273524284362793
0.58213901519775391 0.19813671708106995 0.14171938598155975
0.60882419347763062 0.19049891829490662 0.14057441055774689
0.63347470760345459 0.18156096339225769 0.13917592167854309
0.65668189525604248 0.16963092982769012 0.13669286668300629
0.6764068603515625 0.15338665246963501 0.13448973000049591
0.69272100925445557 0.12861183285713196 0.1316734254360199
0.70630055665969849 0.095932982861995697 0.12808036804199219
0.72307205200195312 0.076318174600601196 0.12483347207307816
0.74679899215698242 0.07710237056016922 0.12161640077829361
0.77193748950958252 0.082756966352462769 0.11861244589090347
0.79775571823120117 0.088320106267929077 0.11438316106796265
0.82444578409194946 0.093757137656211853 0.10925732553005219
0.85144799947738647 0.099819928407669067 0.10344248265028
0.87930333614349365 0.10659778863191605 0.096201606094837189
0.16998124122619629 0.23873132467269897 0.15054978430271149
0.17851412296295166 0.23879374563694 0.15059547126293182
0.18854260444641113 0.23897470533847809 0.15082386136054993
0.20127958059310913 0.23937833309173584 0.15082386136054993
0.21656471490859985 0.2398042231798172 0.1509057879447937
0.23507480323314667 0.2402266263961792 0.15128491818904877
0.25376993417739868 0.24040251970291138 0.15171553194522858
0.27276968955993652 0.24044108390808105 0.1519434005022049
0.29374200105667114 0.24027377367019653 0.15258656442165375
0.31598192453384399 0.23975315690040588 0.15346306562423706
0.33990231156349182 0.23901839554309845 0.15371154248714447
0.36547145247459412 0.23874127864837646 0.15442420542240143
0.39111146330833435 0.2384810745716095 0.15443708002567291
0.41744452714920044 0.23784440755844116 0.15441703796386719
0.44451716542243958 0.23729676008224487 0.15474538505077362
0.47227555513381958 0.23543854057788849 0.15472979843616486
0.50108319520950317 0.23344366252422333 0.15454402565956116
0.53031408786773682 0.23077729344367981 0.1538921594619751
0.55938011407852173 0.22742162644863129 0.15366160869598389
0.58805906772613525 0.2230294793844223 0.15300668776035309
0.61503875255584717 0.2170582115650177 0.15192168951034546
0.64008253812789917 0.20984050631523132 0.1509479284286499
0.66411453485488892 0.20059432089328766 0.1494770348072052
0.68524342775344849 0.18910703063011169 0.14759813249111176
0.70442074537277222 0.17388814687728882 0.14541281759738922
0.72152948379516602 0.15190024673938751 0.14195932447910309
0.73438608646392822 0.11925060302019119 0.13831435143947601
0.7473222017288208 0.086350098252296448 0.13382402062416077
0.76872432231903076 0.08083537220954895 0.1306462436914444
0.79409986734390259 0.085868671536445618 0.12688238918781281
0.82068371772766113 0.091258689761161804 0.12223323434591293
0.84750825166702271 0.097293958067893982 0.11657290160655975
0.87496638298034668 0.10383463650941849 0.11026459187269211
0.18030618131160736 0.26225551962852478 0.16153675317764282
0.18828751146793365 0.26227420568466187 0.16180814802646637
0.19755163788795471 0.26235461235046387 0.16205602884292603
0.21009287238121033 0.26256060600280762 0.16228628158569336
0.22533077001571655 0.26280829310417175 0.16259834170341492
0.24294938147068024 0.26292648911476135 0.16285887360572815
0.26013273000717163 0.26310244202613831 0.16307930648326874
0.27939730882644653 0.2632354199886322 0.16358169913291931
0.30007404088973999 0.26325544714927673 0.16397878527641296
0.32260343432426453 0.26311632990837097 0.16459192335605621
0.34628459811210632 0.26264601945877075 0.16477645933628082
0.37176704406738281 0.26227366924285889 0.16519182920455933
0.39737197756767273 0.26225495338439941 0.16539423167705536
0.42354011535644531 0.26169127225875854 0.16568575799465179
0.45085299015045166 0.26029375195503235 0.16585980355739594
0.47860708832740784 0.2592315673828125 0.16564176976680756
0.50739538669586182 0.25763529539108276 0.16548268496990204
0.53669005632400513 0.25517711043357849 0.16507948935031891
0.565818190574646 0.25204432010650635 0.16435635089874268
0.59459733963012695 0.24796602129936218 0.16389606893062592
0.62134701013565063 0.24282535910606384 0.16319864988327026
0.64664989709854126 0.2366509884595871 0.16206905245780945
0.67080849409103394 0.22873188555240631 0.16065949201583862
0.69266462326049805 0.21997618675231934 0.159383624792099
0.71309304237365723 0.20879535377025604 0.15796053409576416
0.73225277662277222 0.19364935159683228 0.1552952378988266
0.74917173385620117 0.17330428957939148 0.15212962031364441
0.76272100210189819 0.14223374426364899 0.14767023921012878
0.77338516712188721 0.10167813301086426 0.14311522245407104
0.79154294729232788 0.084555722773075104 0.13875916600227356
0.81735050678253174 0.088979065418243408 0.13445334136486053
0.84411883354187012 0.094927117228507996 0.12930592894554138
0.87136936187744141 0.10105813294649124 0.12357264012098312
0.19129347801208496 0.28692835569381714 0.17297281324863434
0.19887466728687286 0.28692835569381714 0.17302003502845764
0.20798397064208984 0.28692835569381714 0.17331568896770477
0.22038356959819794 0.28692835569381714 0.17348995804786682
0.23537991940975189 0.28692835569381714 0.1740676611661911
0.25073724985122681 0.28692835569381714 0.17433792352676392
0.26794096827507019 0.28692835569381714 0.17441676557064056
0.28697705268859863 0.28697645664215088 0.17507822811603546
0.30755102634429932 0.2871650755405426 0.17549405992031097
0.32991036772727966 0.28719452023506165 0.17600305378437042
0.35366043448448181 0.28701692819595337 0.17614401876926422
0.37877100706100464 0.28692835569381714 0.1762189120054245
0.40424731373786926 0.28692835569381714 0.17666050791740417
0.43041515350341797 0.2866150438785553 0.17689454555511475
0.45776697993278503 0.28520488739013672 0.17694172263145447
0.48562595248222351 0.28429904580116272 0.17677325010299683
0.51443201303482056 0.28279000520706177 0.17661368846893311
0.5437353253364563 0.28045699000358582 0.17636403441429138
0.57274448871612549 0.27733984589576721 0.17568428814411163
0.60146600008010864 0.27342936396598816 0.17494171857833862
0.62802058458328247 0.26873922348022461 0.17420883476734161
0.65335172414779663 0.26303082704544067 0.17285488545894623
0.67755681276321411 0.25615802407264709 0.1716582328081131
0.69956862926483154 0.24849168956279755 0.17042328417301178
0.72046655416488647 0.2389138787984848 0.16892236471176147
0.74061030149459839 0.22670926153659821 0.16697342693805695
0.75924891233444214 0.21115754544734955 0.16444095969200134
0.77648580074310303 0.19202221930027008 0.16131569445133209
0.79061979055404663 0.16267094016075134 0.15679904818534851
0.80028951168060303 0.1188075840473175 0.15165100991725922
0.81611692905426025 0.090967237949371338 0.14635324478149414
0.84119880199432373 0.092708520591259003 0.14123153686523438
0.86826825141906738 0.0988025963306427 0.13591033220291138
0.20299923419952393 0.31281062960624695 0.18412297964096069
0.21056739985942841 0.31290501356124878 0.18423882126808167
0.21978272497653961 0.31305086612701416 0.18425755202770233
0.23165832459926605 0.31317958235740662 0.18432149291038513
0.24453242123126984 0.31336519122123718 0.18472447991371155
0.25926220417022705 0.31344753503799438 0.18524017930030823
0.27670562267303467 0.31367060542106628 0.18551988899707794
0.29508250951766968 0.31410568952560425 0.18556825816631317
0.31612971425056458 0.31431758403778076 0.18568447232246399
0.33828645944595337 0.31432849168777466 0.18627500534057617
0.36172115802764893 0.31426608562469482 0.18669995665550232
0.38681542873382568 0.31413394212722778 0.18691211938858032
0.41196304559707642 0.31358087062835693 0.18701039254665375
0.43815410137176514 0.31301072239875793 0.18705566227436066
0.46559476852416992 0.31174978613853455 0.18721872568130493
0.49340912699699402 0.31058621406555176 0.18711458146572113
0.52209806442260742 0.30912506580352783 0.18697765469551086
0.55144989490509033 0.30676525831222534 0.186712846159935
0.58037096261978149 0.3036811351776123 0.18616467714309692
0.60853976011276245 0.30007985234260559 0.18563808500766754
0.63528084754943848 0.29571357369422913 0.18473345041275024
0.66035449504852295 0.2903953492641449 0.18386322259902954
0.68438076972961426 0.28395015001296997 0.1827361136674881
0.70658552646636963 0.27651479840278625 0.18129165470600128
0.72760450839996338 0.26776862144470215 0.17997841536998749
0.74808657169342041 0.2570330798625946 0.17806817591190338
0.76741600036621094 0.24451775848865509 0.1756550520658493
0.78621149063110352 0.22854000329971313 0.17300808429718018
0.80344253778457642 0.20910587906837463 0.16972151398658752
0.81833112239837646 0.18098695576190948 0.16526892781257629
0.82832211256027222 0.13509191572666168 0.15934208035469055
0.84095251560211182 0.098237782716751099 0.15318521857261658
0.86565357446670532 0.09667254239320755 0.1473267674446106
0.21669518947601318 0.3406863808631897 0.19534516334533691
0.22380991280078888 0.3406863808631897 0.19547386467456818
0.23167493939399719 0.3406863808631897 0.19569697976112366
0.24173270165920258 0.3406863808631897 0.19581206142902374
0.25407874584197998 0.3406863808631897 0.19620217382907867
0.26914188265800476 0.3406863808631897 0.19658055901527405
0.28590413928031921 0.34084591269493103 0.19680370390415192
0.30464273691177368 0.34149503707885742 0.19705100357532501
0.32543343305587769 0.34158515930175781 0.19706347584724426
0.34752658009529114 0.34164756536483765 0.19713370501995087
0.37077018618583679 0.34166005253791809 0.1976313591003418
0.39548718929290771 0.34160232543945312 0.19806000590324402
0.42059171199798584 0.34158515930175781 0.19818873703479767
0.44663456082344055 0.34117165207862854 0.19830888509750366
0.4740925133228302 0.34045115113258362 0.19810719788074493
0.5020298957824707 0.33924686908721924 0.19810721278190613
0.53081512451171875 0.33732423186302185 0.19809862971305847
0.56005597114562988 0.33545389771461487 0.19758222997188568
0.5886957049369812 0.33245396614074707 0.19708533585071564
0.61662846803665161 0.32863906025886536 0.19656302034854889
0.64287430047988892 0.32415726780891418 0.19572001695632935
0.6677703857421875 0.31933873891830444 0.19486311078071594
0.69170272350311279 0.31308013200759888 0.19386892020702362
0.71400153636932373 0.30588921904563904 0.19253100454807281
0.73503983020782471 0.29751846194267273 0.19117149710655212
0.75568979978561401 0.28753039240837097 0.18919184803962708
0.77545326948165894 0.27634769678115845 0.18694162368774414
0.79477787017822266 0.26237893104553223 0.18433427810668945
0.81330811977386475 0.24526149034500122 0.1812700480222702
0.83082515001296997 0.22630210220813751 0.17766141891479492
0.84607619047164917 0.19722375273704529 0.1730145663022995
0.85605216026306152 0.15060997009277344 0.16663385927677155
