Textures/57.cube
# Created by: G'MIC (https://gmic.eu)
TITLE "Fuji_Superia_Reala_100.cube"
# LUT size
LUT_3D_SIZE 5
# Data domain
DOMAIN_MIN 0.0 0.0 0.0
DOMAIN_MAX 1.0 1.0 1.0
# LUT data points
0.014899987727403641 0.015466681681573391 0.01220351830124855
0.28506666421890259 0.0037582500372081995 0.003458850784227252
0.55306017398834229 0 0.0016553616151213646
0.80002546310424805 0 0.017389625310897827
0.9926377534866333 0 0.11462941765785217
0.10808486491441727 0.29493448138237 0.10386942327022552
0.30017197132110596 0.27900949120521545 0.091049753129482269
0.57386219501495361 0.23893994092941284 0.075653441250324249
0.81641614437103271 0.15241296589374542 0.090832456946372986
0.99524605274200439 0.0015187280951067805 0.12903402745723724
0.16030175983905792 0.54908156394958496 0.12128503620624542
0.34438952803611755 0.54450541734695435 0.1158081442117691
0.61367529630661011 0.52788311243057251 0.11791917681694031
0.84845983982086182 0.49214008450508118 0.15850858390331268
1 0.4014371931552887 0.25530809164047241
0.31166744232177734 0.76217317581176758 0.058015491813421249
0.45961549878120422 0.76004892587661743 0.044916268438100815
0.71841913461685181 0.75229912996292114 0.016243172809481621
0.92897439002990723 0.73930889368057251 0.050212875008583069
1 0.70788747072219849 0.24301108717918396
0.30641329288482666 0.95253294706344604 0
0.46089774370193481 0.95163416862487793 0
0.71932566165924072 0.94896781444549561 0
0.98610204458236694 0.94382745027542114 0
1 0.93180161714553833 0
0.0095567172393202782 0.016234403476119041 0.2325887531042099
0.26702547073364258 0.0037020756863057613 0.20253123342990875
0.52123695611953735 0 0.18068899214267731
0.76356154680252075 0 0.19080369174480438
0.96766418218612671 0 0.23782449960708618
0.096212737262248993 0.29509797692298889 0.29496011137962341
0.27970603108406067 0.27937230467796326 0.27966475486755371
0.5443452000617981 0.23909983038902283 0.258210688829422
0.78374594449996948 0.15065084397792816 0.24506987631320953
0.97357404232025146 0.00071661162655800581 0.23493409156799316
0.11326853185892105 0.55360275506973267 0.31270676851272583
0.30453634262084961 0.54887843132019043 0.30783864855766296
0.57321763038635254 0.53212732076644897 0.30608412623405457
0.8093762993812561 0.49572619795799255 0.32579913735389709
0.99953186511993408 0.40290379524230957 0.36340826749801636
0.32538896799087524 0.76517730951309204 0.1417313814163208
0.4484659731388092 0.76342326402664185 0.14652131497859955
0.66429626941680908 0.75666344165802002 0.18152055144309998
0.86661100387573242 0.74398678541183472 0.2668936550617218
1 0.71130436658859253 0.39643269777297974
0.39413502812385559 0.95555537939071655 0
0.51764309406280518 0.95522862672805786 0
0.74939858913421631 0.95190256834030151 0
0.99690693616867065 0.94739151000976562 0
1 0.93579679727554321 4.6812069740553852e-06
0.017009677365422249 0.014568746089935303 0.41156649589538574
0.27184337377548218 0.0022153183817863464 0.37157219648361206
0.5094836950302124 0 0.33892852067947388
0.74263137578964233 0 0.32745099067687988
0.94846600294113159 0 0.34126186370849609
0.10576481372117996 0.29421213269233704 0.49631473422050476
0.28162357211112976 0.27638682723045349 0.47491961717605591
0.52697783708572388 0.23384968936443329 0.43911328911781311
0.75646436214447021 0.14167843759059906 0.39860042929649353
0.94891119003295898 3.5641009162645787e-05 0.3523661196231842
0.091372951865196228 0.5570259690284729 0.56597864627838135
0.27434113621711731 0.55265802145004272 0.55568027496337891
0.535267174243927 0.53445982933044434 0.53502827882766724
0.76923596858978271 0.49740517139434814 0.51762431859970093
0.98000669479370117 0.39894312620162964 0.50225365161895752
0.16718092560768127 0.77210193872451782 0.56270891427993774
0.33192586898803711 0.77006614208221436 0.55907130241394043
0.56620615720748901 0.76367127895355225 0.55492907762527466
0.78698301315307617 0.74978721141815186 0.56027001142501831
0.99479514360427856 0.71459013223648071 0.5852544903755188
0.52940833568572998 0.96258515119552612 0.010273716412484646
0.61308825016021729 0.96079409122467041 0.013565711677074432
0.78519272804260254 0.95931237936019897 0.026297895237803459
0.9610016942024231 0.95660918951034546 0.12320345640182495
1 0.9482874870300293 0.42086192965507507
0.08140486478805542 0.0087967999279499054 0.56050676107406616
0.31113597750663757 0.0003268334548920393 0.51812565326690674
0.5182722806930542 0 0.48598343133926392
0.73116493225097656 0 0.46215364336967468
0.93016433715820312 0 0.45423397421836853
0.19035279750823975 0.27904894948005676 0.65271937847137451
0.3349190354347229 0.26135233044624329 0.63022822141647339
0.53863054513931274 0.21532502770423889 0.58933568000793457
0.74366545677185059 0.11710277944803238 0.53425121307373047
0.92864614725112915 0 0.47224545478820801
0.19878894090652466 0.55612969398498535 0.74187642335891724
0.32864841818809509 0.54931855201721191 0.73023432493209839
0.54166102409362793 0.53191715478897095 0.70319432020187378
0.75370204448699951 0.49203664064407349 0.67039763927459717
0.95740413665771484 0.3848881721496582 0.62622934579849243
0.21633943915367126 0.77574950456619263 0.79455602169036865
0.34113496541976929 0.77361583709716797 0.78706330060958862
0.54433530569076538 0.76658511161804199 0.77070349454879761
0.75256097316741943 0.75215655565261841 0.75229430198669434
0.9645264744758606 0.71466386318206787 0.73694407939910889
0.27676579356193542 0.97507995367050171 0.70994549989700317
0.38170322775840759 0.97506123781204224 0.70823466777801514
0.57350641489028931 0.97482049465179443 0.70559966564178467
0.78268551826477051 0.97170752286911011 0.71069550514221191
0.99805635213851929 0.9601442813873291 0.74213355779647827
0.21800078451633453 0.00077270198380574584 0.6638827919960022
0.38849544525146484 0 0.63252484798431396
0.55442267656326294 0 0.60565048456192017
0.73703056573867798 0 0.57798075675964355
0.92032963037490845 0 0.55750292539596558
0.33856672048568726 0.24415735900402069 0.75526642799377441
0.43033513426780701 0.22512261569499969 0.73568111658096313
0.58273547887802124 0.17383337020874023 0.69602203369140625
0.75142031908035278 0.066245697438716888 0.63623911142349243
0.92049360275268555 0 0.58003807067871094
0.37606710195541382 0.54236453771591187 0.86083167791366577
0.44665971398353577 0.53659951686859131 0.85081702470779419
0.59610939025878906 0.51605021953582764 0.8253445029258728
0.7683793306350708 0.47163841128349304 0.78841203451156616
0.94914400577545166 0.34703937172889709 0.72683471441268921
0.40020808577537537 0.7720036506652832 0.94229882955551147
0.46271216869354248 0.77005529403686523 0.93590337038040161
0.59936010837554932 0.76294291019439697 0.9195253849029541
0.76373124122619629 0.74734532833099365 0.89687186479568481
0.95187616348266602 0.7053534984588623 0.86557680368423462
0.38774070143699646 0.98447722196578979 0.99834555387496948
0.44746676087379456 0.98447722196578979 0.99707251787185669
0.58010238409042358 0.98414719104766846 0.99131983518600464
0.74743515253067017 0.98112738132476807 0.98181027173995972
0.97011792659759521 0.97051209211349487 0.96871572732925415
