Textures/57.cube
# Created by: G'MIC (https://gmic.eu)
TITLE "Fuji_Superia_Reala_100.cube"
# LUT size
LUT_3D_SIZE 33
# Data domain
DOMAIN_MIN 0.0 0.0 0.0
DOMAIN_MAX 1.0 1.0 1.0
# LUT data points
0.014899987727403641 0.015466681681573391 0.01220351830124855
0.053540170192718506 0.012472750619053841 0.010315774008631706
0.08919428288936615 0.010677305981516838 0.0088805556297302246
0.12407922744750977 0.0091248638927936554 0.0076166293583810329
0.15786343812942505 0.0082516046240925789 0.0066960710100829601
0.1898360550403595 0.0066549140028655529 0.0058837137185037136
0.2202010303735733 0.0050008352845907211 0.0052031157538294792
0.2532288134098053 0.0040033129043877125 0.0042554573155939579
0.28506666421890259 0.0037582500372081995 0.003458850784227252
0.31762713193893433 0.0032986293081194162 0.0027371805626899004
0.35002550482749939 0.0016373461112380028 0.0022161959204822779
0.38467270135879517 0.0011350731365382671 0.0017680831952020526
0.41848570108413696 0.00032683333847671747 0.0016272743232548237
0.45125553011894226 0.00024512509116902947 0.0015898299170657992
0.4850197434425354 0 0.0014774949522688985
0.51924848556518555 0 0.0014915351057425141
0.55306017398834229 0 0.0016553616151213646
0.58789938688278198 0 0.0018835519440472126
0.62122297286987305 0 0.0024109107907861471
0.65376299619674683 0 0.0032762004993855953
0.68610692024230957 0 0.0044278190471231937
0.71631038188934326 0 0.006590686272829771
0.74562066793441772 0 0.0094378739595413208
0.7728569507598877 0 0.013141988776624203
0.80002546310424805 0 0.017389625310897827
0.82632839679718018 0 0.024152763187885284
0.85175520181655884 0 0.032410714775323868
0.87664633989334106 0 0.04222458228468895
0.90116643905639648 0 0.053981993347406387
0.92502111196517944 0 0.067599333822727203
0.94830763339996338 0 0.082848325371742249
0.97154688835144043 0 0.098637610673904419
0.9926377534866333 0 0.11462941765785217
0.027511268854141235 0.057820960879325867 0.020527094602584839
0.058760855346918106 0.053235404193401337 0.017988437786698341
0.092543445527553558 0.049538489431142807 0.016171801835298538
0.12746527791023254 0.045785669237375259 0.014454769901931286
0.16111935675144196 0.041824750602245331 0.012741172686219215
0.1925106942653656 0.038282647728919983 0.011342913843691349
0.22326116263866425 0.035147625952959061 0.010039179585874081
0.2564060389995575 0.031827535480260849 0.0087002525106072426
0.28804773092269897 0.028019024059176445 0.0075783403590321541
0.32041981816291809 0.024512097239494324 0.0064229238778352737
0.35325542092323303 0.020894952118396759 0.0054479348473250866
0.38758119940757751 0.016890538856387138 0.004523168783634901
0.42113915085792542 0.012951641343533993 0.003936154767870903
0.45408517122268677 0.009467502124607563 0.0036514401435852051
0.48766151070594788 0.0064781829714775085 0.003056713379919529
0.52115994691848755 0.0036357732024043798 0.0026249189395457506
0.55496639013290405 0.001785546075552702 0.0022442073095589876
0.5889618992805481 0.00057195842964574695 0.0021123795304447412
0.62228906154632568 0 0.0020694683771580458
0.65438944101333618 0 0.0023256097920238972
0.68649697303771973 0 0.0035533085465431213
0.71655493974685669 0 0.0046056886203587055
0.74576652050018311 0 0.0076480517163872719
0.77319937944412231 0 0.010578102432191372
0.80008125305175781 0 0.014705208130180836
0.82693493366241455 0 0.021075539290904999
0.85243439674377441 0 0.029048385098576546
0.87660837173461914 0 0.039005555212497711
0.90164172649383545 0 0.050637025386095047
0.92523622512817383 0 0.064391270279884338
0.94856423139572144 0 0.080324649810791016
0.97168922424316406 0 0.095262683928012848
0.99274075031280518 0 0.11210978031158447
0.044910524040460587 0.095751307904720306 0.029274581000208855
0.069733664393424988 0.092070199549198151 0.026897994801402092
0.095973044633865356 0.088834740221500397 0.024476140737533569
0.12931691110134125 0.085365153849124908 0.022076232358813286
0.16292478144168854 0.081295520067214966 0.019974969327449799
0.19383956491947174 0.077654138207435608 0.018256179988384247
0.22480279207229614 0.073714904487133026 0.016420371830463409
0.25833651423454285 0.069466784596443176 0.014685757458209991
0.28978660702705383 0.065161906182765961 0.012765274383127689
0.32265311479568481 0.060488287359476089 0.011200540699064732
0.35579764842987061 0.055239219218492508 0.0098460633307695389
0.39018285274505615 0.049768626689910889 0.0086970636621117592
0.42387098073959351 0.043259944766759872 0.007813616655766964
0.45703926682472229 0.037367299199104309 0.0074997693300247192
0.49082785844802856 0.031218966469168663 0.0065183592960238457
0.52437621355056763 0.024294963106513023 0.0057969014160335064
0.55814701318740845 0.018639823421835899 0.0052082878537476063
0.59188395738601685 0.012774121947586536 0.0049894857220351696
0.62483024597167969 0.0083555616438388824 0.0047199493274092674
0.65742844343185425 0.0043684304691851139 0.0048307226970791817
0.68816900253295898 0.0014984268927946687 0.0051583652384579182
0.7177278995513916 9.7312353318557143e-05 0.0056677893735468388
0.74622297286987305 0 0.0075139827094972134
0.77326285839080811 0 0.0099278045818209648
0.80030143260955811 0 0.014092601835727692
0.82720935344696045 0 0.020241890102624893
0.85261541604995728 0 0.028270933777093887
0.8766595721244812 0 0.038866586983203888
0.90156406164169312 0 0.050512894988059998
0.92517060041427612 0 0.06398271769285202
0.948708176612854 0 0.079254545271396637
0.97166043519973755 0 0.095474228262901306
0.99264466762542725 0 0.11217217147350311
0.064513631165027618 0.1325908899307251 0.040836364030838013
0.085172362625598907 0.12953147292137146 0.038444299250841141
0.10600022971630096 0.12661093473434448 0.035946089774370193
0.13197773694992065 0.1235073059797287 0.033077426254749298
0.16408556699752808 0.11982002109289169 0.030739836394786835
0.19460947811603546 0.11661706119775772 0.028446052223443985
0.22688819468021393 0.11249645054340363 0.026318805292248726
0.25996658205986023 0.10824833065271378 0.024019023403525352
0.29191151261329651 0.1039435863494873 0.021540498360991478
0.3244057297706604 0.099545672535896301 0.019192107021808624
0.35774537920951843 0.093967854976654053 0.017484515905380249
0.39225301146507263 0.088427267968654633 0.015486686490476131
0.42625150084495544 0.08260924369096756 0.013988634571433067
0.4594477117061615 0.076088912785053253 0.013040336780250072
0.49321982264518738 0.069001734256744385 0.011830639094114304
0.52660483121871948 0.061144318431615829 0.010819003917276859
0.56055063009262085 0.052614443004131317 0.0099485749378800392
0.59447193145751953 0.043629400432109833 0.0094038099050521851
0.62786394357681274 0.034567192196846008 0.0091537842527031898
0.66071569919586182 0.025692608207464218 0.0091253183782100677
0.69126784801483154 0.016615977510809898 0.0098800584673881531
0.72077977657318115 0.0093718394637107849 0.010671848431229591
0.748981773853302 0.0052568577229976654 0.01222821231931448
0.77513861656188965 0.0022206187713891268 0.01443949993699789
0.80131375789642334 0.00021278212079778314 0.016645524650812149
0.82705020904541016 0 0.021213361993432045
0.85211843252182007 0 0.029166312888264656
0.87700951099395752 0 0.039647065103054047
0.90130364894866943 0 0.051422540098428726
0.92497020959854126 0 0.065431028604507446
0.94834578037261963 0 0.079997502267360687
0.97111183404922485 0 0.096512265503406525
0.99267476797103882 0 0.11270921677350998
0.084830872714519501 0.16644099354743958 0.05488814041018486
0.10237272083759308 0.16395236551761627 0.052298355847597122
0.11993420869112015 0.16156943142414093 0.050069697201251984
0.14095225930213928 0.1582607626914978 0.047006301581859589
0.16612987220287323 0.15507100522518158 0.043913740664720535
0.19544468820095062 0.15222986042499542 0.041445061564445496
0.22830277681350708 0.14863134920597076 0.039106424897909164
0.26098552346229553 0.14424140751361847 0.036341637372970581
0.29301249980926514 0.1403203159570694 0.034083832055330276
0.32638832926750183 0.13607192039489746 0.03127521276473999
0.36011824011802673 0.1306440532207489 0.029285643249750137
0.39476531744003296 0.12475820630788803 0.026526056230068207
0.42852532863616943 0.11967142671346664 0.023696379736065865
0.46187505125999451 0.11297806352376938 0.022511595860123634
0.49575164914131165 0.10627041757106781 0.021119214594364166
0.52904039621353149 0.098747894167900085 0.019963344559073448
0.56347978115081787 0.090272009372711182 0.018280619755387306
0.59738975763320923 0.080615326762199402 0.017833834514021873
0.63024920225143433 0.070983953773975372 0.017468346282839775
0.66312861442565918 0.060088705271482468 0.017346646636724472
0.69397658109664917 0.04777151346206665 0.018270352855324745
0.7233421802520752 0.035787221044301987 0.019454957917332649
0.75172871351242065 0.025803063064813614 0.021282205358147621
0.77788287401199341 0.016427453607320786 0.024393737316131592
0.80366629362106323 0.0074994876049458981 0.027333721518516541
0.82893538475036621 0.0018434623489156365 0.031012630090117455
0.85295999050140381 9.192188736051321e-05 0.034974355250597
0.87708038091659546 0 0.042579777538776398
0.90104073286056519 0 0.054300770163536072
0.92500907182693481 0 0.068138450384140015
0.94820457696914673 0 0.082865588366985321
0.97129613161087036 0 0.098592057824134827
0.99264585971832275 0 0.11461932212114334
0.10074137896299362 0.19684602320194244 0.069176807999610901
0.11619497835636139 0.19607852399349213 0.067464463412761688
0.13265709578990936 0.19280172884464264 0.065153166651725769
0.15206484496593475 0.19115142524242401 0.062631815671920776
0.17209422588348389 0.18826058506965637 0.059820767492055893
0.19750171899795532 0.18525440990924835 0.057021021842956543
0.23074096441268921 0.18206354975700378 0.054260514676570892
0.26247552037239075 0.17805863916873932 0.051600188016891479
0.29474189877510071 0.1743367612361908 0.049167860299348831
0.32781222462654114 0.16980539262294769 0.046387918293476105
0.36182919144630432 0.16450920701026917 0.043889354914426804
0.39660239219665527 0.15918436646461487 0.041088439524173737
0.43037831783294678 0.15376511216163635 0.037770312279462814
0.46390774846076965 0.14781525731086731 0.035711303353309631
0.49787113070487976 0.1414334625005722 0.034555848687887192
0.53131198883056641 0.1343652606010437 0.033049263060092926
0.56564712524414062 0.12606741487979889 0.031045606359839439
0.59979671239852905 0.11682336777448654 0.030601127073168755
0.63288462162017822 0.10705041140317917 0.030564067885279655
0.66552883386611938 0.096316523849964142 0.030362432822585106
0.69644784927368164 0.084180504083633423 0.030903836712241173
0.72582584619522095 0.071431428194046021 0.032379023730754852
0.75414031744003296 0.058967232704162598 0.034261751919984818
0.7806696891784668 0.045729100704193115 0.0376913882791996
0.80645346641540527 0.030600942671298981 0.041565321385860443
0.83153229951858521 0.017341013997793198 0.045375652611255646
0.85557609796524048 0.0076324292458593845 0.050473608076572418
0.87894761562347412 0.0020944529678672552 0.055137328803539276
0.90185809135437012 0.00010553994070505723 0.06135714054107666
0.92487698793411255 0 0.072008833289146423
0.94841480255126953 0 0.08594038337469101
0.97145599126815796 0 0.10185723006725311
0.99268317222595215 0 0.11764265596866608
0.099344298243522644 0.23064540326595306 0.081467501819133759
0.11476468294858932 0.22991028428077698 0.079916447401046753
0.13188013434410095 0.22741521894931793 0.07805999368429184
0.15099509060382843 0.22621366381645203 0.075851976871490479
0.17122782766819 0.22323036193847656 0.073668301105499268
0.19860218465328217 0.22088780999183655 0.070857517421245575
0.23228542506694794 0.21765060722827911 0.067951619625091553
0.26345369219779968 0.21426323056221008 0.065607734024524689
0.2962459921836853 0.21038252115249634 0.063490942120552063
0.32943731546401978 0.20612224936485291 0.061051487922668457
0.36366429924964905 0.2011813223361969 0.058846443891525269
0.39877301454544067 0.19666562974452972 0.056538544595241547
0.43287220597267151 0.19081912934780121 0.053210321813821793
0.46659857034683228 0.1853858083486557 0.051211133599281311
0.50011783838272095 0.17957575619220734 0.049200098961591721
0.53344714641571045 0.17255949974060059 0.048120468854904175
0.56810653209686279 0.16473335027694702 0.046592764556407928
0.60251641273498535 0.15570299327373505 0.044869240373373032
0.63571947813034058 0.14646470546722412 0.045713797211647034
0.66852688789367676 0.13619746267795563 0.04548322781920433
0.69935935735702515 0.12479294091463089 0.047001346945762634
0.72878241539001465 0.11208301782608032 0.048003025352954865
0.75724011659622192 0.099818490445613861 0.050916299223899841
0.78383690118789673 0.085745319724082947 0.053705852478742599
0.80956727266311646 0.069396175444126129 0.05775996670126915
0.83501648902893066 0.052317485213279724 0.061153706163167953
0.85907214879989624 0.035091690719127655 0.066473580896854401
0.88248491287231445 0.020375553518533707 0.071510441601276398
0.90507841110229492 0.0089146923273801804 0.076786212623119354
0.92725914716720581 0.0016806807834655046 0.082018047571182251
0.94915014505386353 1.0213541827397421e-05 0.089758366346359253
0.97158539295196533 0 0.1034059077501297
0.99282008409500122 0 0.11978483200073242
0.10731475800275803 0.26191312074661255 0.093566879630088806
0.11700773239135742 0.2605893611907959 0.092272013425827026
0.12893463671207428 0.2604576051235199 0.091095328330993652
0.14556235074996948 0.2577461302280426 0.089514710009098053
0.16905263066291809 0.25653594732284546 0.087213568389415741
0.20138271152973175 0.25288861989974976 0.084447689354419708
0.23388005793094635 0.25060772895812988 0.081884652376174927
0.26505061984062195 0.2479599267244339 0.079610422253608704
0.2982943058013916 0.24410590529441833 0.077208183705806732
0.33176460862159729 0.2398659884929657 0.0750771164894104
0.36608433723449707 0.23552380502223969 0.072070159018039703
0.40105974674224854 0.23106963932514191 0.069877699017524719
0.4350929856300354 0.22611026465892792 0.067154839634895325
0.46882244944572449 0.22101001441478729 0.064478352665901184
0.50274205207824707 0.21532502770423889 0.063758291304111481
0.53628683090209961 0.20875026285648346 0.062669984996318817
0.57080817222595215 0.20133771002292633 0.061507206410169601
0.60513758659362793 0.19269135594367981 0.060576539486646652
0.63879871368408203 0.18372651934623718 0.061023104935884476
0.67134386301040649 0.17369282245635986 0.062114525586366653
0.70227575302124023 0.16305132210254669 0.063337929546833038
0.73181283473968506 0.15104997158050537 0.065133392810821533
0.76031559705734253 0.13884347677230835 0.067327007651329041
0.7869720458984375 0.12555775046348572 0.070375137031078339
0.81284493207931519 0.10939972102642059 0.074201285839080811
0.83835530281066895 0.092641711235046387 0.077305249869823456
0.86240494251251221 0.075188055634498596 0.082111775875091553
0.88610529899597168 0.055862437933683395 0.08676542341709137
0.90897035598754883 0.035295814275741577 0.092244811356067657
0.93079626560211182 0.017481686547398567 0.097532004117965698
0.95231848955154419 0.00458518136292696 0.10297762602567673
0.97338324785232544 0.00022200269449967891 0.1089988648891449
0.99336147308349609 0 0.1214701384305954
0.10808486491441727 0.29493448138237 0.10386942327022552
0.11610427498817444 0.29431453347206116 0.10246443748474121
0.12557823956012726 0.29203113913536072 0.10198003053665161
0.14210569858551025 0.29103025794029236 0.10047486424446106
0.17146140336990356 0.28918963670730591 0.099019408226013184
0.20467023551464081 0.28709489107131958 0.096929781138896942
0.23521733283996582 0.28414875268936157 0.094910778105258942
0.26770895719528198 0.28187701106071472 0.092875264585018158
0.30017197132110596 0.27900949120521545 0.091049753129482269
0.33415928483009338 0.27493453025817871 0.08882468193769455
0.36835268139839172 0.27086412906646729 0.08610205352306366
0.40343058109283447 0.26659095287322998 0.083602264523506165
0.43758180737495422 0.26228323578834534 0.081659816205501556
0.47146180272102356 0.25734785199165344 0.079718843102455139
0.50544059276580811 0.25187668204307556 0.078205309808254242
0.53933548927307129 0.24599514901638031 0.076378732919692993
0.57386219501495361 0.23893994092941284 0.075653441250324249
0.60832023620605469 0.23063045740127563 0.075410030782222748
0.64200496673583984 0.22213378548622131 0.075394816696643829
0.6746143102645874 0.21285527944564819 0.076537370681762695
0.70529705286026001 0.2030450701713562 0.07899928092956543
0.73489910364151001 0.1917603462934494 0.081181630492210388
0.76350462436676025 0.1798388808965683 0.084132105112075806
0.79034709930419922 0.16726908087730408 0.08690960705280304
0.81641614437103271 0.15241296589374542 0.090832456946372986
0.84198343753814697 0.13646404445171356 0.094273984432220459
0.8661840558052063 0.11950797587633133 0.098593339323997498
0.89003729820251465 0.10020279139280319 0.1029423326253891
0.91298723220825195 0.078323259949684143 0.10838080942630768
0.93509352207183838 0.05440906435251236 0.11370556056499481
0.95670026540756226 0.0301207285374403 0.11914358288049698
0.97743886709213257 0.010947741568088531 0.12404573708772659
0.99524605274200439 0.0015187280951067805 0.12903402745723724
0.085088089108467102 0.32742780447006226 0.11284046620130539
0.097145296633243561 0.3253805935382843 0.1119331493973732
0.11586954444646835 0.32516315579414368 0.11128526926040649
0.14426283538341522 0.32485759258270264 0.11000040173530579
0.17636018991470337 0.32162079215049744 0.10864879190921783
0.20643745362758636 0.3212418258190155 0.10723191499710083
0.23749911785125732 0.31805557012557983 0.10551698505878448
0.26997944712638855 0.31658336520195007 0.10353215783834457
0.30269381403923035 0.31336566805839539 0.10154977440834045
0.33681443333625793 0.31009256839752197 0.099402241408824921
0.3711530864238739 0.30657768249511719 0.09691629558801651
0.40596917271614075 0.30268260836601257 0.094538994133472443
0.43995627760887146 0.29875379800796509 0.093038022518157959
0.4739987850189209 0.29390671849250793 0.091699980199337006
0.50834178924560547 0.28886839747428894 0.09087061882019043
0.54247015714645386 0.28331130743026733 0.089605137705802917
0.57716703414916992 0.27685043215751648 0.089326828718185425
0.61150413751602173 0.26971212029457092 0.089658379554748535
0.64522343873977661 0.26125487685203552 0.090106189250946045
0.67801904678344727 0.25239148736000061 0.090845130383968353
0.70855206251144409 0.24339258670806885 0.092924319207668304
0.73806238174438477 0.23304370045661926 0.094933457672595978
0.76683038473129272 0.22164350748062134 0.098267517983913422
0.79385507106781006 0.20979709923267365 0.10207619518041611
0.81998074054718018 0.19619567692279816 0.10646845400333405
0.84560608863830566 0.18114647269248962 0.1110532209277153
0.87006503343582153 0.16527777910232544 0.11500199884176254
0.89412575960159302 0.14649051427841187 0.11965560168027878
0.91734254360198975 0.12518548965454102 0.1244458332657814
0.93959039449691772 0.10207124054431915 0.13003671169281006
0.96145987510681152 0.075480803847312927 0.13513419032096863
0.98216331005096436 0.04715694859623909 0.14050161838531494
0.99814319610595703 0.019731514155864716 0.14535930752754211
0.081787474453449249 0.35915043950080872 0.12082228064537048
0.10103877633810043 0.35915043950080872 0.12013161182403564
0.12382632493972778 0.35855948925018311 0.11918135732412338
0.15141594409942627 0.35602685809135437 0.11843440681695938
0.17926560342311859 0.35522857308387756 0.11743701249361038
0.20858712494373322 0.35447818040847778 0.11609058082103729
0.24060295522212982 0.35136851668357849 0.11459315568208694
0.27216118574142456 0.35055404901504517 0.11271130293607712
0.30611482262611389 0.34739664196968079 0.11059664934873581
0.339825838804245 0.34484043717384338 0.10892676562070847
0.37416884303092957 0.34161520004272461 0.10709519684314728
0.40892106294631958 0.33821207284927368 0.10523548722267151
0.44284307956695557 0.33448049426078796 0.10356798022985458
0.47722765803337097 0.33006292581558228 0.10224752128124237
0.5117647647857666 0.32527408003807068 0.1009863093495369
0.54570436477661133 0.3203226625919342 0.10038917511701584
0.58071953058242798 0.3144131600856781 0.10026631504297256
0.61499065160751343 0.30778861045837402 0.10046403855085373
0.64858216047286987 0.30047768354415894 0.10147157311439514
0.68138778209686279 0.29195603728294373 0.10357757657766342
0.712188720703125 0.28342190384864807 0.10591417551040649
0.74143385887145996 0.27423250675201416 0.10871827602386475
0.7701418399810791 0.26389127969741821 0.11206252127885818
0.7973167896270752 0.25248676538467407 0.11556472629308701
0.82355034351348877 0.24009053409099579 0.11998008191585541
0.8493162989616394 0.2259957492351532 0.12515367567539215
0.873909592628479 0.21079286932945251 0.13026833534240723
0.89811033010482788 0.19353578984737396 0.13591501116752625
0.92161315679550171 0.17338883876800537 0.1414216160774231
0.94410675764083862 0.15164792537689209 0.14651337265968323
0.96613109111785889 0.12618239223957062 0.15163080394268036
0.98700439929962158 0.09732518345117569 0.15707546472549438
0.99921923875808716 0.063888952136039734 0.16182579100131989
0.10728626698255539 0.39179530739784241 0.12723433971405029
0.12411012500524521 0.39091622829437256 0.12653070688247681
0.1409883052110672 0.38992562890052795 0.12647061049938202
0.16117657721042633 0.38986948132514954 0.12574782967567444
0.18433092534542084 0.38909828662872314 0.12383144348859787
0.21274952590465546 0.38635712862014771 0.12279243767261505
0.24392317235469818 0.3859194815158844 0.12191246449947357
0.27606084942817688 0.38336378335952759 0.11964362114667892
0.31001505255699158 0.38187670707702637 0.1177302673459053
0.34397158026695251 0.37851518392562866 0.11566684395074844
0.37785518169403076 0.37616127729415894 0.11430592834949493
0.41240793466567993 0.37340995669364929 0.11289786547422409
0.44617190957069397 0.36987140774726868 0.11138793081045151
0.48047664761543274 0.36594507098197937 0.11061621457338333
0.51524549722671509 0.36140918731689453 0.10967951267957687
0.54951786994934082 0.35684314370155334 0.10967951267957687
0.58456569910049438 0.35183697938919067 0.1102575957775116
0.61911439895629883 0.34564784169197083 0.11065337061882019
0.652393639087677 0.33909139037132263 0.11230496317148209
0.68487441539764404 0.3318822979927063 0.11449337005615234
0.71571677923202515 0.32382595539093018 0.11674270033836365
0.74492985010147095 0.31545954942703247 0.11981899291276932
0.7736096978187561 0.30618324875831604 0.1239796057343483
0.80082559585571289 0.29598429799079895 0.1279873251914978
0.82711261510848999 0.28464037179946899 0.13345646858215332
0.85303151607513428 0.27141550183296204 0.13882790505886078
0.87783712148666382 0.25727984309196472 0.14407548308372498
0.90218937397003174 0.24130244553089142 0.15001475811004639
0.92590367794036865 0.22280697524547577 0.15685969591140747
0.94866651296615601 0.20275866985321045 0.16307681798934937
0.97096437215805054 0.17844170331954956 0.16865478456020355
0.99133270978927612 0.15113940834999084 0.17443707585334778
0.99987208843231201 0.11839627474546432 0.1794574111700058
0.12181892991065979 0.42345848679542542 0.13034601509571075
0.13218194246292114 0.42308676242828369 0.1297842413187027
0.1448902040719986 0.42238569259643555 0.12921580672264099
0.16431522369384766 0.42122852802276611 0.12866039574146271
0.18866936862468719 0.42010727524757385 0.12812331318855286
0.21688175201416016 0.41970637440681458 0.12677091360092163
0.24790570139884949 0.41759920120239258 0.12520739436149597
0.28090611100196838 0.4160315990447998 0.12445901334285736
0.31451311707496643 0.41383838653564453 0.12270032614469528
0.34846732020378113 0.41196632385253906 0.12107086181640625
0.38224038481712341 0.40880295634269714 0.12021532654762268
0.41653206944465637 0.40661677718162537 0.11882156133651733
0.45048454403877258 0.40378376841545105 0.11746680736541748
0.48452764749526978 0.40031597018241882 0.11664734035730362
