Textures/58.cube
# Created by: G'MIC (https://gmic.eu)
TITLE "Fuji_Superia_X-Tra_800.cube"
# LUT size
LUT_3D_SIZE 5
# Data domain
DOMAIN_MIN 0.0 0.0 0.0
DOMAIN_MAX 1.0 1.0 1.0
# LUT data points
0.014658153988420963 0.014425159431993961 0.011466325260698795
0.25738826394081116 0.0037457705475389957 0.0038551315665245056
0.46826332807540894 0 0.0086411070078611374
0.69658035039901733 0 0.038592446595430374
0.87506604194641113 0 0.13195908069610596
0.12646840512752533 0.26467043161392212 0.10802657157182693
0.29603192210197449 0.25227957963943481 0.095920033752918243
0.50640809535980225 0.21463297307491302 0.10483308881521225
0.72407621145248413 0.12353001534938812 0.10752975940704346
0.88319343328475952 0 0.12340781092643738
0.25814256072044373 0.49653103947639465 0.11918573826551437
0.37668043375015259 0.49153736233711243 0.12161892652511597
0.57643967866897583 0.47467318177223206 0.14738638699054718
0.77599239349365234 0.43382212519645691 0.21479417383670807
0.9402233362197876 0.32872498035430908 0.28617635369300842
0.34779608249664307 0.71008813381195068 0.12460187822580338
0.47053337097167969 0.70961612462997437 0.10017147660255432
0.72392034530639648 0.70727115869522095 0.043650750070810318
0.8905874490737915 0.69147276878356934 0.12172328680753708
0.99950683116912842 0.646811842918396 0.36713787913322449
0.22710926830768585 0.93651950359344482 0.23462054133415222
0.41271078586578369 0.93741828203201294 0.1949303150177002
0.70666718482971191 0.94047027826309204 0.059337645769119263
0.99396133422851562 0.94134014844894409 0
1 0.93000906705856323 0.0007419119356200099
0.0041344254277646542 0.021392077207565308 0.20295359194278717
0.23081442713737488 0.0077479714527726173 0.16239586472511292
0.44235795736312866 0 0.13548554480075836
0.67115145921707153 0 0.14658151566982269
0.86380982398986816 0 0.19310462474822998
0.10912659764289856 0.27093410491943359 0.27321651577949524
0.25914680957794189 0.25836014747619629 0.25858274102210999
0.4787193238735199 0.22334863245487213 0.23715667426586151
0.70045256614685059 0.13354818522930145 0.21118880808353424
0.87216049432754517 0 0.18042691051959991
0.19255848228931427 0.50001132488250732 0.28238201141357422
0.31754913926124573 0.49499773979187012 0.28802844882011414
0.53184854984283447 0.47895202040672302 0.29967504739761353
0.74508649110794067 0.43973010778427124 0.32186701893806458
0.92652243375778198 0.33567574620246887 0.34757265448570251
0.41679826378822327 0.71605557203292847 0.11079233139753342
0.51462006568908691 0.71511417627334595 0.10197130590677261
0.68146896362304688 0.70863765478134155 0.15724505484104156
0.82890409231185913 0.69162255525588989 0.30526688694953918
0.98606246709823608 0.64938551187515259 0.44624185562133789
0.33745470643043518 0.94315606355667114 0.21651890873908997
0.47842150926589966 0.94444674253463745 0.17634381353855133
0.74199569225311279 0.94665658473968506 0.038611959666013718
0.99956595897674561 0.94705760478973389 0
1 0.93039727210998535 0.10472220182418823
0.0078663071617484093 0.030958632007241249 0.34977924823760986
0.22543911635875702 0.014488153159618378 0.29653260111808777
0.43066579103469849 0.00031591037986800075 0.25699406862258911
0.65325850248336792 0 0.23954959213733673
0.85583347082138062 0 0.25124907493591309
0.106778584420681 0.28065401315689087 0.44147151708602905
0.23675771057605743 0.2694338858127594 0.42183637619018555
0.45770961046218872 0.2362779825925827 0.38602495193481445
0.67613339424133301 0.14935663342475891 0.3329351544380188
0.86016231775283813 0.00013121565280016512 0.25167295336723328
0.07550782710313797 0.50636756420135498 0.51259303092956543
0.25042393803596497 0.50214171409606934 0.50552463531494141
0.48767954111099243 0.48709496855735779 0.48725605010986328
0.70361602306365967 0.44963476061820984 0.47095802426338196
0.9085763692855835 0.34796354174613953 0.43842968344688416
0.25204145908355713 0.71511417627334595 0.48927021026611328
0.36317816376686096 0.71307194232940674 0.49070584774017334
0.56181681156158447 0.70766657590866089 0.49956399202346802
0.74637776613235474 0.69376617670059204 0.53067582845687866
0.95350664854049683 0.654319167137146 0.5619814395904541
0.50417917966842651 0.95583808422088623 0.17298421263694763
0.60279029607772827 0.95727121829986572 0.13472880423069
0.81412756443023682 0.95890676975250244 0.0099901966750621796
0.99563902616500854 0.957466721534729 0.02620365098118782
1 0.93206548690795898 0.47805801033973694
0.045946542173624039 0.050112232565879822 0.49445727467536926
0.24350908398628235 0.028330452740192413 0.4407564103603363
0.4384026825428009 0.0046737068332731724 0.38147819042205811
0.64217382669448853 0 0.33662188053131104
0.84523099660873413 0 0.32685181498527527
0.11877498030662537 0.29670459032058716 0.60182493925094604
0.2531847357749939 0.2861296534538269 0.5772290825843811
0.46230402588844299 0.25555795431137085 0.52573287487030029
0.66372692584991455 0.17363058030605316 0.45472881197929382
0.84805762767791748 0.0012675533071160316 0.34237581491470337
0.10548675060272217 0.51761728525161743 0.69379740953445435
0.25824511051177979 0.51413643360137939 0.67928880453109741
0.47921457886695862 0.50024324655532837 0.64324641227722168
0.68149197101593018 0.46489137411117554 0.60257494449615479
0.89166808128356934 0.36524069309234619 0.54232662916183472
0.17759580910205841 0.71809983253479004 0.74546802043914795
0.30674248933792114 0.71699672937393188 0.73656767606735229
0.50617742538452148 0.71274363994598389 0.71734905242919922
0.69999462366104126 0.69992077350616455 0.699940025806427
0.92508858442306519 0.66199487447738647 0.68132537603378296
0.43483740091323853 0.9619794487953186 0.52725178003311157
0.49865683913230896 0.96214753389358521 0.53911936283111572
0.6304585337638855 0.96119290590286255 0.57612895965576172
0.78684991598129272 0.95746529102325439 0.63926678895950317
0.99765044450759888 0.94081664085388184 0.71719712018966675
0.14734162390232086 0.089293241500854492 0.60800033807754517
0.31133925914764404 0.057058140635490417 0.55616277456283569
0.47268903255462646 0.019832126796245575 0.4949478805065155
0.6404954195022583 0 0.43647283315658569
0.83724582195281982 0 0.41176989674568176
0.22758939862251282 0.32203283905982971 0.71661913394927979
0.33263984322547913 0.31238442659378052 0.69394427537918091
0.4960486888885498 0.28397902846336365 0.64869803190231323
0.66457557678222656 0.21031256020069122 0.58269506692886353
0.84288197755813599 0.012251752428710461 0.45231443643569946
0.27065786719322205 0.53645992279052734 0.82110965251922607
0.35162392258644104 0.53320407867431641 0.80879592895507812
0.50650936365127563 0.51997888088226318 0.77883636951446533
0.677490234375 0.48732408881187439 0.73699593544006348
0.88073194026947021 0.39207324385643005 0.66053825616836548
0.31403684616088867 0.72877013683319092 0.91084545850753784
0.38046076893806458 0.72764760255813599 0.90372133255004883
0.51714241504669189 0.72310554981231689 0.88578629493713379
0.68806487321853638 0.71113783121109009 0.85853034257888794
0.90366667509078979 0.67445504665374756 0.81630301475524902
0.27340850234031677 0.96806246042251587 0.988941490650177
0.34539422392845154 0.96840333938598633 0.98672866821289062
0.49411013722419739 0.96934503316879272 0.98180323839187622
0.686287522315979 0.96934312582015991 0.97064477205276489
0.95697331428527832 0.95847427845001221 0.9553261399269104
