Textures/58.cube
# Created by: G'MIC (https://gmic.eu)
TITLE "Fuji_Superia_X-Tra_800.cube"
# LUT size
LUT_3D_SIZE 33
# Data domain
DOMAIN_MIN 0.0 0.0 0.0
DOMAIN_MAX 1.0 1.0 1.0
# LUT data points
0.014658153988420963 0.014425159431993961 0.011466325260698795
0.049187805503606796 0.011707558296620846 0.0092672957107424736
0.080159321427345276 0.010306335054337978 0.0082794474437832832
0.11071404814720154 0.008830338716506958 0.0076384772546589375
0.14075963199138641 0.0080476347357034683 0.0068123158998787403
0.1698923259973526 0.0069185760803520679 0.0057413470931351185
0.19766435027122498 0.005297662690281868 0.0051157395355403423
0.22841894626617432 0.0041027921251952648 0.004379484336823225
0.25738826394081116 0.0037457705475389957 0.0038551315665245056
0.28582316637039185 0.0028371720109134912 0.00370066799223423
0.31258365511894226 0.0016373461112380028 0.0036039326805621386
0.33984491229057312 0.0015227351104840636 0.0033957427367568016
0.36487463116645813 0.00061245140386745334 0.0038630056660622358
0.38986185193061829 0.00012497404532041401 0.0045222113840281963
0.41514933109283447 0 0.0054182871244847775
0.4408283531665802 0 0.0072814188897609711
0.46826332807540894 0 0.0086411070078611374
0.49740269780158997 0 0.010262828320264816
0.52752739191055298 0 0.012215502560138702
0.55798274278640747 0 0.014512714929878712
0.58804106712341309 0 0.017455944791436195
0.6168634295463562 0 0.020829398185014725
0.64488065242767334 0 0.025670969858765602
0.67143028974533081 0 0.031499054282903671
0.69658035039901733 0 0.038592446595430374
0.72038471698760986 0 0.047630392014980316
0.74261343479156494 0 0.058346182107925415
0.76406669616699219 0 0.069927744567394257
0.785511314868927 0 0.08188263326883316
0.80683469772338867 0 0.094368651509284973
0.82896190881729126 0 0.10720416903495789
0.85152393579483032 0 0.11963372677564621
0.87506604194641113 0 0.13195908069610596
0.030080981552600861 0.051778815686702728 0.020905101671814919
0.059215646237134933 0.048061035573482513 0.018511928617954254
0.088565945625305176 0.044832505285739899 0.017174294218420982
0.11865455657243729 0.041522268205881119 0.015552832745015621
0.14819301664829254 0.038443770259618759 0.013874700292944908
0.17683409154415131 0.035559549927711487 0.012158901430666447
0.20483165979385376 0.032966721802949905 0.010639035142958164
0.23555167019367218 0.029670169577002525 0.0092724459245800972
0.26426437497138977 0.026301031932234764 0.0081681087613105774
0.29291850328445435 0.023299472406506538 0.0072819003835320473
0.31990256905555725 0.020946966484189034 0.0069253859110176563
0.34685805439949036 0.017639104276895523 0.0068934708833694458
0.3721621036529541 0.013079119846224785 0.0069025475531816483
0.39665907621383667 0.0089260758832097054 0.0070181475020945072
0.42121794819831848 0.0061263539828360081 0.0073628746904432774
0.44599011540412903 0.0038815087173134089 0.007897435687482357
0.47244447469711304 0.0020418597850948572 0.0081665394827723503
0.50089776515960693 0.00038783092168159783 0.0084188468754291534
0.53011554479598999 0 0.0090007064864039421
0.56010055541992188 0 0.010053628124296665
0.58978027105331421 0 0.012898242101073265
0.61873257160186768 0 0.015641843900084496
0.64670759439468384 0 0.020326849073171616
0.67314130067825317 0 0.025643754750490189
0.69824689626693726 0 0.032806098461151123
0.72197622060775757 0 0.041728876531124115
0.74421745538711548 0 0.052454911172389984
0.76564472913742065 0 0.064392536878585815
0.7870061993598938 0 0.076474636793136597
0.80821657180786133 0 0.08945213258266449
0.83001422882080078 0 0.10255057364702225
0.85252392292022705 0 0.11561079323291779
0.87605857849121094 0 0.1281975656747818
0.048304814845323563 0.085208289325237274 0.02981715090572834
0.070457369089126587 0.081965140998363495 0.027978841215372086
0.094433598220348358 0.078973568975925446 0.026159204542636871
0.12343192100524902 0.075678892433643341 0.024042863398790359
0.15300944447517395 0.072569489479064941 0.022087521851062775
0.18094238638877869 0.069616548717021942 0.020048892125487328
0.20950879156589508 0.06656268984079361 0.018222099170088768
0.24026228487491608 0.062818005681037903 0.016210524365305901
0.26892918348312378 0.058825455605983734 0.014357130043208599
0.29759970307350159 0.055090412497520447 0.01302103977650404
0.32480484247207642 0.05161714181303978 0.012437484227120876
0.35201454162597656 0.046617325395345688 0.011912308633327484
0.3774571418762207 0.040178354829549789 0.012065892107784748
0.40203788876533508 0.034057948738336563 0.012771002016961575
0.42667087912559509 0.028684528544545174 0.013379497453570366
0.4513096809387207 0.022820785641670227 0.014388573355972767
0.47812086343765259 0.017163537442684174 0.014633139595389366
0.5062861442565918 0.011056620627641678 0.014902449212968349
0.5344880223274231 0.0062042451463639736 0.014382616616785526
0.56366312503814697 0.0024979012086987495 0.013676592148840427
0.59221601486206055 0.00047839913167990744 0.01349647156894207
0.62014085054397583 1.6951644283835776e-05 0.014514054171741009
0.64805454015731812 0 0.017959723249077797
0.67423582077026367 0 0.023141654208302498
0.69941538572311401 0 0.030323117971420288
0.72302937507629395 0 0.039044659584760666
0.74530124664306641 0 0.050010204315185547
0.76658046245574951 0 0.061960253864526749
0.78781527280807495 0 0.074472971260547638
0.80907940864562988 0 0.087401382625102997
0.83082765340805054 0 0.10041479766368866
0.85330933332443237 0 0.11369475722312927
0.87659156322479248 0 0.12661738693714142
0.068223491311073303 0.1182287260890007 0.042175017297267914
0.085421755909919739 0.1154811829328537 0.040341123938560486
0.10403723269701004 0.11261306703090668 0.038482975214719772
0.1286422461271286 0.10947334766387939 0.036064606159925461
0.15749762952327728 0.10700759291648865 0.033732317388057709
0.18469618260860443 0.10404727607965469 0.031302820891141891
0.21407119929790497 0.10087229311466217 0.028916165232658386
0.24458560347557068 0.096983708441257477 0.026450639590620995
0.27322980761528015 0.093183711171150208 0.023984938859939575
0.30179557204246521 0.089200079441070557 0.0222470723092556
0.32934316992759705 0.085146032273769379 0.021349968388676643
0.35642331838607788 0.079982273280620575 0.021076930686831474
0.38199523091316223 0.073959581553936005 0.020929491147398949
0.40652957558631897 0.067694716155529022 0.021899152547121048
0.43119746446609497 0.061717454344034195 0.022919146344065666
0.45610526204109192 0.054442297667264938 0.024343358352780342
0.48301815986633301 0.046550299972295761 0.024837115779519081
0.51108044385910034 0.037543095648288727 0.025744028389453888
0.53972280025482178 0.028832903131842613 0.02568812295794487
0.5688546895980835 0.020014259964227676 0.024836646392941475
0.59695255756378174 0.012257474474608898 0.024403899908065796
0.62443488836288452 0.0061848489567637444 0.022956602275371552
0.65096986293792725 0.0022282358258962631 0.022137874737381935
0.67599672079086304 0.00018246070249006152 0.023678120225667953
0.70043498277664185 0 0.028992382809519768
0.72416341304779053 0 0.037425708025693893
0.74606108665466309 0 0.048397418111562729
0.76743829250335693 0 0.060342743992805481
0.78869020938873291 0 0.072866521775722504
0.80967587232589722 0 0.086102396249771118
0.83145815134048462 0 0.099267847836017609
0.85394537448883057 0 0.11270229518413544
0.87723076343536377 0 0.12580519914627075
0.087945081293582916 0.14888431131839752 0.057655658572912216
0.10239985585212708 0.14696010947227478 0.055603336542844772
0.1176343560218811 0.14443963766098022 0.053914651274681091
0.13683794438838959 0.14181095361709595 0.05094778910279274
0.16189256310462952 0.13914789259433746 0.047920320183038712
0.18863677978515625 0.13657324016094208 0.045786816626787186
0.2187512069940567 0.13333652913570404 0.042549751698970795
0.24856221675872803 0.12968231737613678 0.040079317986965179
0.27719581127166748 0.12574943900108337 0.037547923624515533
0.30584380030632019 0.1218053326010704 0.03532753512263298
0.3332151472568512 0.11747705936431885 0.034171413630247116
0.36038708686828613 0.11228553205728531 0.033756047487258911
0.38592818379402161 0.10644649714231491 0.033499758690595627
0.41058748960494995 0.10059878975152969 0.034433919936418533
0.43521043658256531 0.094047874212265015 0.035999760031700134
0.46018138527870178 0.0868845134973526 0.037883080542087555
0.48737332224845886 0.078684717416763306 0.038157317787408829
0.51564955711364746 0.069566234946250916 0.039349745959043503
0.54401654005050659 0.060232400894165039 0.039853911846876144
0.57350099086761475 0.049568809568881989 0.038937568664550781
0.6018218994140625 0.037921298295259476 0.038497082889080048
0.62910139560699463 0.027235271409153938 0.037581842392683029
0.65576004981994629 0.017150899395346642 0.036480262875556946
0.68030005693435669 0.0084344865754246712 0.036405988037586212
0.70336532592773438 0.0021913624368607998 0.036486294120550156
0.725608229637146 0.00015320314560085535 0.039248019456863403
0.74717158079147339 0 0.048098277300596237
0.76832956075668335 0 0.059927411377429962
0.78948938846588135 0 0.072621122002601624
0.81052273511886597 0 0.085806690156459808
0.83223521709442139 0 0.099110588431358337
0.85456287860870361 0 0.11236666887998581
0.87790203094482422 0 0.12532791495323181
0.1073659360408783 0.17807626724243164 0.073758780956268311
0.11960713565349579 0.17668652534484863 0.072361595928668976
0.13328802585601807 0.1746797114610672 0.070036955177783966
0.14993879199028015 0.17259280383586884 0.0678597092628479
0.16825918853282928 0.16981522738933563 0.065074168145656586
0.19337855279445648 0.16752246022224426 0.061859834939241409
0.22388917207717896 0.1643335223197937 0.058673512190580368
0.25265452265739441 0.16095149517059326 0.056082148104906082
0.28127646446228027 0.15728051960468292 0.053800135850906372
0.30945667624473572 0.1533619612455368 0.051193471997976303
0.33701339364051819 0.14873160421848297 0.050476215779781342
0.36401644349098206 0.14344114065170288 0.050300680100917816
0.38951301574707031 0.13819535076618195 0.049875523895025253
0.4142133891582489 0.13222983479499817 0.050506908446550369
0.43883919715881348 0.12598313391208649 0.0528281070291996
0.46400424838066101 0.1185714527964592 0.054354056715965271
0.49147516489028931 0.11001918464899063 0.054567784070968628
0.51972478628158569 0.10145268589258194 0.056014973670244217
0.54837262630462646 0.091778002679347992 0.056968174874782562
0.57771879434585571 0.081450559198856354 0.05594547837972641
0.60616320371627808 0.069016851484775543 0.054943542927503586
0.63356226682662964 0.05715397372841835 0.054134551435709
0.66038793325424194 0.04433094710111618 0.05364815890789032
0.68496811389923096 0.031145863234996796 0.054184123873710632
0.70804828405380249 0.017999779433012009 0.054705653339624405
0.72977262735366821 0.0081315701827406883 0.054807856678962708
0.74956685304641724 0.0024850254412740469 0.055827483534812927
0.76954162120819092 0.00016341495211236179 0.061451204121112823
0.79031157493591309 0 0.072876915335655212
0.81147360801696777 0 0.085865318775177002
0.83315920829772949 0 0.098998934030532837
0.85544449090957642 0 0.11244069784879684
0.87868249416351318 0 0.12558270990848541
0.11845932900905609 0.20933106541633606 0.087110422551631927
0.13025330007076263 0.20820644497871399 0.085660740733146667
0.14359220862388611 0.20619325339794159 0.084280960261821747
0.15933889150619507 0.20488616824150085 0.082310855388641357
0.17636942863464355 0.20256127417087555 0.080282814800739288
0.19928966462612152 0.20040132105350494 0.077405966818332672
0.22927239537239075 0.19757573306560516 0.074302628636360168
0.25684314966201782 0.19458210468292236 0.071843184530735016
0.28577309846878052 0.19108991324901581 0.069788210093975067
0.31369876861572266 0.18739791214466095 0.06827247142791748
0.34106630086898804 0.18297375738620758 0.067264080047607422
0.36812636256217957 0.17784647643566132 0.067354202270507812
0.39358219504356384 0.17306727170944214 0.067294128239154816
0.41836473345756531 0.167302206158638 0.067852042615413666
0.44323796033859253 0.16114303469657898 0.070394307374954224
0.46872121095657349 0.15407285094261169 0.072363264858722687
0.49629941582679749 0.14566496014595032 0.073202669620513916
0.52487051486968994 0.13716086745262146 0.073520958423614502
0.55334436893463135 0.12757809460163116 0.074803456664085388
0.58299034833908081 0.11688340455293655 0.073804773390293121
0.6112968921661377 0.10495930165052414 0.072325460612773895
0.63861685991287231 0.092677213251590729 0.072321198880672455
0.66547757387161255 0.079557456076145172 0.071173779666423798
0.69015884399414062 0.06549835205078125 0.071673981845378876
0.71328526735305786 0.048823576420545578 0.072865307331085205
0.73510444164276123 0.034034427255392075 0.07291875034570694
0.75498545169830322 0.020258769392967224 0.075041048228740692
0.77401679754257202 0.0087363878265023232 0.075625598430633545
0.79290145635604858 0.0014348308322951198 0.077344074845314026
0.81289452314376831 0 0.085348457098007202
0.8344651460647583 0 0.098382465541362762
0.85665428638458252 0 0.11175432801246643
0.88000315427780151 0 0.12482994794845581
0.12089028209447861 0.23723840713500977 0.097798861563205719
0.1326049417257309 0.23606947064399719 0.096713155508041382
0.14495904743671417 0.23494398593902588 0.09559311717748642
0.15978585183620453 0.23383571207523346 0.094005651772022247
0.17872925102710724 0.23180209100246429 0.091965682804584503
0.20601850748062134 0.22974027693271637 0.089246019721031189
0.23471659421920776 0.22718305885791779 0.086541205644607544
0.26209777593612671 0.22507631778717041 0.084424324333667755
0.29051497578620911 0.22194157540798187 0.082764297723770142
0.31811442971229553 0.21852700412273407 0.081806391477584839
0.34554323554039001 0.21454548835754395 0.081433109939098358
0.37241023778915405 0.20985773205757141 0.081919334828853607
0.39758488535881042 0.20514726638793945 0.082653097808361053
0.42231547832489014 0.20015722513198853 0.084035433828830719
0.44755813479423523 0.19446516036987305 0.086384467780590057
0.47333195805549622 0.18756550550460815 0.088443033397197723
0.50080305337905884 0.17996673285961151 0.090004533529281616
0.52949780225753784 0.17157627642154694 0.09107496589422226
0.55881637334823608 0.16225020587444305 0.092022784054279327
0.58784782886505127 0.15184460580348969 0.09133496880531311
0.61641645431518555 0.14012379944324493 0.089869387447834015
0.64381164312362671 0.12780973315238953 0.089869387447834015
0.6705024242401123 0.11456604301929474 0.089225307106971741
0.69525110721588135 0.10066462308168411 0.089299216866493225
0.71845865249633789 0.084993615746498108 0.089833930134773254
0.7403075098991394 0.068540006875991821 0.089994214475154877
0.76013165712356567 0.051530193537473679 0.092907153069972992
0.77953767776489258 0.032149843871593475 0.093681514263153076
0.79806101322174072 0.01527917105704546 0.094185598194599152
0.81645447015762329 0.0032255381811410189 0.09405064582824707
0.83630406856536865 1.7022570318658836e-05 0.099105387926101685
0.85813504457473755 0 0.11084974557161331
0.88129347562789917 0 0.12430144101381302
0.12646840512752533 0.26467043161392212 0.10802657157182693
0.13488033413887024 0.26376357674598694 0.10745394229888916
0.14568409323692322 0.2630457878112793 0.10639359802007675
0.16253884136676788 0.26170504093170166 0.10512574762105942
0.18652947247028351 0.26047933101654053 0.10345975309610367
0.21462126076221466 0.25843268632888794 0.10118133574724197
0.24095728993415833 0.25685542821884155 0.099106118083000183
0.2685340940952301 0.25457540154457092 0.097137421369552612
0.29603192210197449 0.25227957963943481 0.095920033752918243
0.32362905144691467 0.24912945926189423 0.095055937767028809
0.35041040182113647 0.24555385112762451 0.094273418188095093
0.37693870067596436 0.2415669709444046 0.094734683632850647
0.40203216671943665 0.23745603859424591 0.095953233540058136
0.42674872279167175 0.23299545049667358 0.097656995058059692
0.45238316059112549 0.22750630974769592 0.10017171502113342
0.47842606902122498 0.22184228897094727 0.10237333178520203
0.50640809535980225 0.21463297307491302 0.10483308881521225
0.53499585390090942 0.20719680190086365 0.10695704072713852
0.56395894289016724 0.19830781221389771 0.10801167786121368
0.59356123208999634 0.18861314654350281 0.10810564458370209
0.62179809808731079 0.1775483638048172 0.10789294540882111
0.64938914775848389 0.16558852791786194 0.10731019824743271
0.6761324405670166 0.15254957973957062 0.10722827911376953
0.70076638460159302 0.13918052613735199 0.10715888440608978
0.72407621145248413 0.12353001534938812 0.10752975940704346
0.74581509828567505 0.10634105652570724 0.10819403827190399
0.7658277153968811 0.089003279805183411 0.11034522950649261
0.78510946035385132 0.069047175347805023 0.11194754391908646
0.80409109592437744 0.046870056539773941 0.11352336406707764
0.82251483201980591 0.024924661964178085 0.11381489783525467
0.84106099605560303 0.007854316383600235 0.11241262406110764
0.86079978942871094 0.00072057184297591448 0.11318612843751907
0.88319343328475952 0 0.12340781092643738
0.13061265647411346 0.29131582379341125 0.11591088026762009
0.13889023661613464 0.29089760780334473 0.11526608467102051
0.15233413875102997 0.29028600454330444 0.11459556221961975
0.17356525361537933 0.28913697600364685 0.11356636136770248
0.19843965768814087 0.28794822096824646 0.1120404452085495
0.22310763597488403 0.28665214776992798 0.11050472408533096
0.24897202849388123 0.28493046760559082 0.10902998596429825
0.27583113312721252 0.28326964378356934 0.10744150727987289
0.30285245180130005 0.28103941679000854 0.10659284144639969
0.32978934049606323 0.2785378098487854 0.10622069984674454
0.35622191429138184 0.27550321817398071 0.10613466054201126
0.38201400637626648 0.27206617593765259 0.10658828914165497
0.40699368715286255 0.26855340600013733 0.10831401497125626
0.43181508779525757 0.26437368988990784 0.11051969230175018
0.45761233568191528 0.25979644060134888 0.11326900869607925
0.48387834429740906 0.2544502317905426 0.11525154858827591
0.51200950145721436 0.24868543446063995 0.11774658411741257
0.54076778888702393 0.24200597405433655 0.12032365053892136
0.56966894865036011 0.23366014659404755 0.12207621335983276
0.59933149814605713 0.22477152943611145 0.12360291928052902
0.62749040126800537 0.21513350307941437 0.12460732460021973
0.65506213903427124 0.20425277948379517 0.12522049248218536
0.68177884817123413 0.19226320087909698 0.12594021856784821
0.70652264356613159 0.17959226667881012 0.12648901343345642
0.72990727424621582 0.164934903383255 0.12720787525177002
0.75155746936798096 0.14823099970817566 0.12803938984870911
0.77160495519638062 0.13019874691963196 0.12925340235233307
0.79125678539276123 0.11008584499359131 0.13082255423069
0.81018722057342529 0.08727525919675827 0.1323305070400238
0.82890224456787109 0.062865167856216431 0.13341639935970306
0.84777772426605225 0.03678680956363678 0.13295167684555054
0.86682063341140747 0.013678491115570068 0.13008102774620056
0.88668626546859741 0.001819550059735775 0.12810127437114716
0.13646893203258514 0.31839397549629211 0.12208110839128494
0.15090814232826233 0.31804892420768738 0.12164928019046783
0.16757103800773621 0.31712746620178223 0.12075762450695038
0.18823586404323578 0.3161751925945282 0.1197063997387886
0.20964686572551727 0.31507909297943115 0.11844763904809952
0.23281474411487579 0.31414094567298889 0.11757595837116241
0.25856539607048035 0.31265971064567566 0.11601921916007996
0.28393879532814026 0.31093752384185791 0.11438385397195816
0.31088587641716003 0.30924171209335327 0.11350259184837341
0.33687260746955872 0.30691522359848022 0.113228440284729
0.36254733800888062 0.30454477667808533 0.11411803960800171
0.38813883066177368 0.30150148272514343 0.1148420125246048
0.41244521737098694 0.29838639497756958 0.11735697090625763
0.43752217292785645 0.29461780190467834 0.11976917088031769
0.46355584263801575 0.29016301035881042 0.122911237180233
0.4898020327091217 0.28569319844245911 0.12625853717327118
0.51786446571350098 0.28062966465950012 0.12961532175540924
0.54679191112518311 0.27447444200515747 0.13250622153282166
0.57589048147201538 0.26746338605880737 0.13529396057128906
0.60517948865890503 0.25916987657546997 0.13713034987449646
0.63349735736846924 0.25091806054115295 0.13854862749576569
0.6610066294670105 0.2415960431098938 0.1399204283952713
0.68743991851806641 0.23123811185359955 0.14164172112941742
0.71238791942596436 0.21963168680667877 0.14358852803707123
0.73560136556625366 0.2061026394367218 0.14590044319629669
0.75744938850402832 0.1907537430524826 0.14787231385707855
0.77789431810379028 0.17364861071109772 0.14955484867095947
0.7973751425743103 0.15384458005428314 0.1510382741689682
0.81659877300262451 0.13114319741725922 0.15248757600784302
0.83538568019866943 0.10700223594903946 0.15331262350082397
0.85456830263137817 0.079814158380031586 0.15324969589710236
0.87386572360992432 0.049670416861772537 0.15162365138530731
0.8935551643371582 0.020879855379462242 0.14717943966388702
0.15724550187587738 0.3454892635345459 0.12770633399486542
0.1703275740146637 0.34468293190002441 0.12716612219810486
0.18445564806461334 0.34460610151290894 0.12675829231739044
0.20120808482170105 0.34415274858474731 0.12602490186691284
0.22113360464572906 0.34327578544616699 0.12519016861915588
0.24434638023376465 0.34187024831771851 0.12381443381309509
0.26864892244338989 0.3407004177570343 0.12288764119148254
0.29336720705032349 0.3396332859992981 0.12201036512851715
0.31949138641357422 0.33746856451034546 0.12074874341487885
0.34509462118148804 0.33591043949127197 0.12035936862230301
0.36991328001022339 0.33341109752655029 0.12119591236114502
0.39481914043426514 0.33084326982498169 0.12262976914644241
0.41914966702461243 0.32814750075340271 0.1246638149023056
0.44412538409233093 0.32460105419158936 0.12719668447971344
0.47039288282394409 0.32039228081703186 0.13011607527732849
0.49698108434677124 0.31621518731117249 0.13383893668651581
0.52489995956420898 0.31154787540435791 0.1379048079252243
0.55383431911468506 0.30598270893096924 0.1418076753616333
0.58282274007797241 0.29995909333229065 0.14545343816280365
0.61158126592636108 0.29308381676673889 0.14881724119186401
0.63982194662094116 0.2853965163230896 0.15136691927909851
0.66704839468002319 0.27762597799301147 0.153746098279953
0.69358742237091064 0.26832965016365051 0.15600442886352539
0.71824997663497925 0.25841191411018372 0.15855522453784943
0.74144750833511353 0.24656970798969269 0.16193372011184692
0.76346182823181152 0.23268900811672211 0.16556185483932495
0.78392136096954346 0.21716201305389404 0.16905823349952698
0.80382215976715088 0.19951082766056061 0.17190822958946228
0.82342731952667236 0.17819605767726898 0.17379382252693176
0.84227675199508667 0.15494777262210846 0.17511548101902008
0.86154639720916748 0.12754203379154205 0.17510728538036346
0.88111156225204468 0.097386978566646576 0.17334209382534027
0.90114223957061768 0.063172988593578339 0.16979841887950897
0.17762196063995361 0.37288811802864075 0.13011601567268372
0.18720756471157074 0.37279415130615234 0.12953679263591766
0.19895236194133759 0.37263697385787964 0.12919372320175171
0.21513406932353973 0.37155601382255554 0.1285737007856369
0.23468130826950073 0.37107482552528381 0.12775030732154846
0.25597792863845825 0.37041941285133362 0.12676358222961426
0.27900364995002747 0.36930438876152039 0.12587827444076538
0.30345550179481506 0.36766457557678223 0.12539222836494446
0.32849171757698059 0.36625239253044128 0.12495942413806915
0.35355910658836365 0.36419421434402466 0.12522085011005402
0.37783181667327881 0.36220607161521912 0.12617699801921844
0.40252870321273804 0.35957208275794983 0.1279960572719574
0.42688897252082825 0.35706067085266113 0.1300998330116272
0.45176598429679871 0.35403886437416077 0.13310234248638153
0.47803184390068054 0.35025528073310852 0.13670311868190765
0.50450688600540161 0.34636560082435608 0.14096172153949738
0.53277021646499634 0.34166249632835388 0.14514297246932983
