Textures/59.cube
# Created by: G'MIC (https://gmic.eu)
TITLE "Fuji_Velvia_50.cube"
# LUT size
LUT_3D_SIZE 5
# Data domain
DOMAIN_MIN 0.0 0.0 0.0
DOMAIN_MAX 1.0 1.0 1.0
# LUT data points
0.0010668542236089706 0.0010863591451197863 0.00031630066223442554
0.16352288424968719 0 0.00053280655993148685
0.45414212346076965 0 0.0007731085061095655
0.72169005870819092 0 0
0.97519230842590332 0 0
0.032516553997993469 0.20272468030452728 0.018840262666344643
0.17808714509010315 0.17811132967472076 0.019234746694564819
0.46218782663345337 0.13209038972854614 0.01813037134706974
0.72746455669403076 0.075980454683303833 0.012125104665756226
0.97994661331176758 0.014749571681022644 0.0030167184304445982
0 0.50186973810195923 0.066273510456085205
0.11008245497941971 0.48592677712440491 0.066966220736503601
0.4526343047618866 0.45573329925537109 0.063340768218040466
0.72536498308181763 0.41592592000961304 0.050854690372943878
0.98656398057937622 0.3677641749382019 0.02360869012773037
0 0.77565360069274902 0.093994759023189545
0.012657921761274338 0.76710957288742065 0.096651524305343628
0.42892777919769287 0.74321895837783813 0.099636577069759369
0.70916247367858887 0.71301811933517456 0.094208173453807831
0.98473203182220459 0.67355799674987793 0.057130515575408936
0 1 0.15985669195652008
0.014998669736087322 1 0.15746177732944489
0.38528716564178467 1 0.15019683539867401
0.68305027484893799 0.99787873029708862 0.12371286004781723
0.97070914506912231 0.9732624888420105 1.4752895367564633e-05
0.0012256251648068428 0.0011507257586345077 0.10306278616189957
0.16037929058074951 0 0.10379686951637268
0.45794287323951721 0 0.099867217242717743
0.72822117805480957 0 0.080958865582942963
0.98420560359954834 0 0.043888058513402939
0.032931730151176453 0.2001073807477951 0.1741659939289093
0.1781257838010788 0.17541973292827606 0.17585745453834534
0.46665534377098083 0.12854942679405212 0.17401035130023956
0.73272037506103516 0.071237087249755859 0.15591806173324585
0.98699480295181274 0.011625095270574093 0.10398324579000473
0 0.50460809469223022 0.23671695590019226
0.10524947196245193 0.4884803295135498 0.23850277066230774
0.45561882853507996 0.45759886503219604 0.23849458992481232
0.72963553667068481 0.41744378209114075 0.22699576616287231
0.99092388153076172 0.3683411180973053 0.18330205976963043
0 0.77956104278564453 0.29145392775535583
0.0068660303950309753 0.76928037405014038 0.29256868362426758
0.4302329421043396 0.74588876962661743 0.29332455992698669
0.71288859844207764 0.71545422077178955 0.28593885898590088
0.98873716592788696 0.67558908462524414 0.24890144169330597
0 1 0.33269631862640381
0.016646271571516991 1 0.33231133222579956
0.38847282528877258 1 0.32908934354782104
0.68609362840652466 0.99828958511352539 0.31773418188095093
0.97422307729721069 0.97643578052520752 0.26877045631408691
0.0010496897157281637 0.00032683333847671747 0.33285462856292725
0.15503793954849243 0 0.33705154061317444
0.45972225069999695 0 0.33832189440727234
0.73324233293533325 0 0.33093959093093872
0.99086964130401611 0 0.30292788147926331
0.029726363718509674 0.19100791215896606 0.39145830273628235
0.17181874811649323 0.1667240709066391 0.39512941241264343
0.46666654944419861 0.11699116975069046 0.39847448468208313
0.7377849817276001 0.057777907699346542 0.39526700973510742
0.99240690469741821 0.0045294351875782013 0.37679508328437805
0 0.50597971677780151 0.45026507973670959
0.087205797433853149 0.48908871412277222 0.45296072959899902
0.45678776502609253 0.45648470520973206 0.45670586824417114
0.73429030179977417 0.41546514630317688 0.45578515529632568
0.99597740173339844 0.36521068215370178 0.4409615695476532
0 0.78349655866622925 0.50964045524597168
0.0014514855574816465 0.77203142642974854 0.51140636205673218
0.42799621820449829 0.74857896566390991 0.51432305574417114
0.71658462285995483 0.71790748834609985 0.5137641429901123
0.99284708499908447 0.67693710327148438 0.49907374382019043
0 1 0.55389612913131714
0.012428241781890392 1 0.55425179004669189
0.38919910788536072 1 0.55425179004669189
0.69101303815841675 0.99954897165298462 0.55081462860107422
0.97964799404144287 0.98150759935379028 0.52842479944229126
0 3.5889250284526497e-05 0.53630238771438599
0.13427294790744781 0 0.54329383373260498
0.45659255981445312 0 0.54893189668655396
0.73631364107131958 0 0.54915624856948853
0.9953913688659668 0 0.53903508186340332
0.023897083476185799 0.16398102045059204 0.59834688901901245
0.15124872326850891 0.14055776596069336 0.60247790813446045
0.46455621719360352 0.085555180907249451 0.60785883665084839
0.74032622575759888 0.026460785418748856 0.60967594385147095
0.99689429998397827 7.8516612120438367e-05 0.60296660661697388
0 0.50256526470184326 0.65316742658615112
0.065384440124034882 0.4842560887336731 0.65626049041748047
0.4520689845085144 0.44916436076164246 0.66096454858779907
0.73647576570510864 0.40628886222839355 0.66413414478302002
0.99814456701278687 0.35369366407394409 0.66013288497924805
0 0.78349655866622925 0.70712655782699585
0 0.77494543790817261 0.70923399925231934
0.4178810715675354 0.74921709299087524 0.71336448192596436
0.71695876121520996 0.7169572114944458 0.71702659130096436
0.99689644575119019 0.67460328340530396 0.7136579155921936
0 1 0.76012808084487915
0.0015832888893783092 1 0.76130217313766479
0.37803590297698975 1 0.7636798620223999
0.69194674491882324 0.99998855590820312 0.76526117324829102
0.9856419563293457 0.98694038391113281 0.75733339786529541
0 0 0.72570598125457764
0.09725547581911087 0 0.73297667503356934
0.44364917278289795 0 0.74004852771759033
0.73368185758590698 0 0.74480032920837402
0.99743103981018066 0 0.74393588304519653
0.010703288018703461 0.11004597693681717 0.78633016347885132
0.10628076642751694 0.090028680860996246 0.79176300764083862
0.45016148686408997 0.02912893146276474 0.79878067970275879
0.73636424541473389 0.00038293009856715798 0.80453497171401978
0.99812090396881104 0 0.80583971738815308
0 0.48919349908828735 0.84792309999465942
0.026349253952503204 0.46812871098518372 0.85112279653549194
0.43511825799942017 0.42760291695594788 0.85829085111618042
0.73414289951324463 0.38075602054595947 0.86473870277404785
0.99967330694198608 0.32354399561882019 0.86838239431381226
0 0.78261107206344604 0.9105648398399353
0 0.7700691819190979 0.91325473785400391
0.38247454166412354 0.74244260787963867 0.91901993751525879
0.71007174253463745 0.70680391788482666 0.92577666044235229
0.99844765663146973 0.66082388162612915 0.93102103471755981
0 1 0.97365713119506836
0 1 0.97520101070404053
0.30492499470710754 1 0.97921693325042725
0.67051571607589722 1 0.98493224382400513
0.98964744806289673 0.98905575275421143 0.98997998237609863
