Textures/59.cube
# Created by: G'MIC (https://gmic.eu)
TITLE "Fuji_Velvia_50.cube"
# LUT size
LUT_3D_SIZE 33
# Data domain
DOMAIN_MIN 0.0 0.0 0.0
DOMAIN_MAX 1.0 1.0 1.0
# LUT data points
0.0010668542236089706 0.0010863591451197863 0.00031630066223442554
0.0070262923836708069 0.00032683333847671747 0.00050471926806494594
0.015604563057422638 0.00032683339668437839 0.00053280655993148685
0.028532255440950394 6.8090281274635345e-05 0.00053280650172382593
0.046190183609724045 0 0.00053280655993148685
0.067117303609848022 0 0.00053280650172382593
0.090935423970222473 0 0.00053280655993148685
0.12404424697160721 0 0.00053280650172382593
0.16352288424968719 0 0.00053280655993148685
0.20581454038619995 0 0.00053280650172382593
0.24504023790359497 0 0.00053280650172382593
0.28434270620346069 0 0.00053280650172382593
0.32158568501472473 0 0.00053280650172382593
0.35604551434516907 0 0.00053280655993148685
0.39049378037452698 0 0.00053280650172382593
0.42171266674995422 0 0.00057142652804031968
0.45414212346076965 0 0.0007731085061095655
0.48611333966255188 0 0.00071303301956504583
0.52043741941452026 0 0.00050003803335130215
0.55701690912246704 0 0.00025154397008009255
0.59184116125106812 0 0.00013178307563066483
0.6258232593536377 0 5.0642145652091131e-05
0.65963703393936157 0 6.2416092987405136e-06
0.69064807891845703 0 0
0.72169005870819092 0 0
0.75228232145309448 0 0
0.78251171112060547 0 0
0.81360113620758057 0 0
0.84541982412338257 0 0
0.87662768363952637 0 0
0.90986496210098267 0 0
0.9425167441368103 0 0
0.97519230842590332 0 0
0.0019246855517849326 0.0076269456185400486 0.0013754237443208694
0.0071760527789592743 0.0069423140957951546 0.0013754237443208694
0.01555776409804821 0.0055867764167487621 0.0014269171515479684
0.02780706062912941 0.0047517712228000164 0.0015813969075679779
0.046336039900779724 0.0039122584275901318 0.0015813970239832997
0.06687270849943161 0.002598603954538703 0.0015813969075679779
0.091012679040431976 0.0016858731396496296 0.0016543457750231028
0.12454544007778168 0.00050071184523403645 0.0017873698379844427
0.16372008621692657 0 0.00178737030364573
0.20593400299549103 0 0.0017873698379844427
0.24482960999011993 0 0.0017873698379844427
0.28411635756492615 0 0.0017873698379844427
0.3215499222278595 0 0.0017873698379844427
0.35604551434516907 0 0.00178737030364573
0.39044499397277832 0 0.001671510050073266
0.4209848940372467 0 0.0018002433935180306
0.4534403383731842 0 0.0020534184295684099
0.48529419302940369 0 0.0019675965886563063
0.51934909820556641 0 0.0016972566954791546
0.55630892515182495 0 0.0014093626523390412
0.59183025360107422 0 0.00097010919125750661
0.62581700086593628 0 0.00060536520322784781
0.65876644849777222 0 0.00032442185329273343
0.69024527072906494 0 0.00018554602866061032
0.72105437517166138 0 5.9153437177883461e-05
0.7516559362411499 0 1.1348381121933926e-05
0.78203117847442627 0 0
0.81293171644210815 0 0
0.84469312429428101 0 0
0.87619167566299438 0 0
0.9092249870300293 0 0
0.94138473272323608 0 0
0.97483658790588379 0 0
0.0041155498474836349 0.01763748936355114 0.0022061045747250319
0.0087792845442891121 0.0162233617156744 0.0022061045747250319
0.015472211875021458 0.014979049563407898 0.0022061048075556755
0.027418280020356178 0.013650876469910145 0.0022061045747250319
0.046456161886453629 0.011760263703763485 0.0022061048075556755
0.067056328058242798 0.010196556337177753 0.0022263845894485712
0.092595472931861877 0.008164040744304657 0.0022809850051999092
0.12643918395042419 0.0057879271917045116 0.0022809847723692656
0.16509449481964111 0.0035064483527094126 0.0022809850051999092
0.2068261057138443 0.001397088635712862 0.0022809847723692656
0.24666650593280792 0.00020380984642542899 0.0022809847723692656
0.28476306796073914 1.287331815547077e-05 0.0022809847723692656
0.32189539074897766 0 0.0022809847723692656
0.35604551434516907 0 0.0022809850051999092
0.39052298665046692 0 0.0022809847723692656
0.42166510224342346 0 0.0022809850051999092
0.45412448048591614 0 0.0023804516531527042
0.48552918434143066 0 0.0022880090400576591
0.51966261863708496 0 0.0021905044559389353
0.55694043636322021 0 0.002124168211594224
0.59183025360107422 0 0.001943800481967628
0.62581700086593628 0 0.0015790563775226474
0.65903675556182861 0 0.0012482510646805167
0.69032949209213257 0 0.00091900612460449338
0.72111636400222778 0 0.00061160698533058167
0.75170433521270752 0 0.00041169798350892961
0.78203117847442627 0 0.00010589459270704538
0.81295323371887207 0 1.8441119209455792e-06
0.84484416246414185 0 0
0.87617796659469604 0 0
0.90922105312347412 0 0
0.94119894504547119 0 0
0.97483658790588379 0 0
0.0069091059267520905 0.033189382404088974 0.0035565828438848257
0.011546071618795395 0.030982563272118568 0.0034621786326169968
0.017698666080832481 0.030455475673079491 0.0034621790982782841
0.027829935774207115 0.027298737317323685 0.0034621790982782841
0.045907750725746155 0.025888198986649513 0.0034621788654476404
0.067014671862125397 0.022807495668530464 0.0036123672034591436
0.0940389484167099 0.020079541951417923 0.0036681515630334616
0.12825416028499603 0.016247481107711792 0.0036681515630334616
0.16778320074081421 0.012211456894874573 0.0036681515630334616
0.20939928293228149 0.0084066418930888176 0.0036681515630334616
0.24867139756679535 0.0060306387022137642 0.0036681515630334616
0.28712204098701477 0.0040539284236729145 0.0036681515630334616
0.32237258553504944 0.0028371221851557493 0.0036681515630334616
0.35720771551132202 0.00098003912717103958 0.0036681524943560362
0.39059638977050781 8.5112849774304777e-05 0.0036681520286947489
0.42324253916740417 0 0.0037067623343318701
0.45484417676925659 0 0.0040749744512140751
0.48795351386070251 0 0.0039177942089736462
0.5218280553817749 0 0.003535150783136487
0.5576246976852417 0 0.0029590856283903122
0.59183025360107422 0 0.0025477309245616198
0.62581700086593628 0 0.0022497265599668026
0.65977329015731812 0 0.0021322169341146946
0.69058674573898315 0 0.0020073866471648216
0.72157847881317139 0 0.0016925756353884935
0.75228196382522583 0 0.0015037668636068702
0.78231233358383179 0 0.00092329725157469511
0.81335580348968506 0 0.00030917246476747096
0.84520226716995239 0 5.3195537475403398e-05
0.87628680467605591 0 0
0.90972024202346802 0 0
0.94157904386520386 0 0
0.97483658790588379 0 0
0.011114660650491714 0.053658124059438705 0.0059573864564299583
0.015654170885682106 0.052383147180080414 0.0059573864564299583
0.022053439170122147 0.05034959688782692 0.0059530963189899921
0.031748808920383453 0.048438329249620438 0.0057514142245054245
0.046386957168579102 0.045663565397262573 0.0057042236439883709
0.066830150783061981 0.042746808379888535 0.0058071981184184551
0.096738792955875397 0.038627974689006805 0.0059573864564299583
0.1313520073890686 0.033575788140296936 0.0059573864564299583
0.17133869230747223 0.027459081262350082 0.0059573864564299583
0.2124878466129303 0.021934244781732559 0.0059573864564299583
0.25175845623016357 0.01730911061167717 0.0059573864564299583
0.28947675228118896 0.014113010838627815 0.0059402221813797951
0.32564234733581543 0.01115112192928791 0.0058801467530429363
0.35996517539024353 0.0078908242285251617 0.0059573878534138203
0.39316028356552124 0.0044679241254925728 0.0058629829436540604
0.42453855276107788 0.0024660432245582342 0.0060229236260056496
0.45578908920288086 0.0015323505504056811 0.0060580330900847912
0.48921564221382141 0.0003064062912017107 0.005988595075905323
0.52320265769958496 0 0.0057229837402701378
0.55778878927230835 0 0.005107157863676548
0.59336984157562256 0 0.0046432968229055405
0.62696158885955811 0 0.0040172967128455639
0.66038733720779419 0 0.0032158356625586748
0.69130885601043701 0 0.0029560830444097519
0.72247755527496338 0 0.0026077618822455406
0.75289952754974365 0 0.0023057041689753532
0.78308206796646118 0 0.0019871017429977655
0.81417495012283325 0 0.0014409605646505952
0.84584897756576538 0 0.00077853444963693619
0.87683248519897461 0 0.00024384833523072302
0.91040945053100586 0 1.2766927284246776e-06
0.94264692068099976 0 0
0.97491645812988281 0 0
0.015938118100166321 0.079300791025161743 0.0083895977586507797
0.020477067679166794 0.077584393322467804 0.0083895977586507797
0.027287587523460388 0.075765915215015411 0.0083895977586507797
0.037913054227828979 0.073895297944545746 0.0083895977586507797
0.05026819184422493 0.07135714590549469 0.0083895977586507797
0.068033799529075623 0.068207718431949615 0.0083827907219529152
0.098133325576782227 0.064070224761962891 0.0083870450034737587
0.13487535715103149 0.058506682515144348 0.0084797106683254242
0.17546312510967255 0.051689170300960541 0.0085955709218978882
0.21617972850799561 0.045195460319519043 0.0085955709218978882
0.2550044059753418 0.038815043866634369 0.0086899511516094208
0.29246321320533752 0.033325497061014175 0.0086244493722915649
0.32821503281593323 0.028749927878379822 0.0083759836852550507
0.36204710602760315 0.023208703845739365 0.0083716921508312225
0.39469060301780701 0.017858920618891716 0.0081914672628045082
0.42619338631629944 0.014088110066950321 0.008461805060505867
0.45839861035346985 0.010759118013083935 0.0085647925734519958
0.4909331202507019 0.0074342354200780392 0.0081700095906853676
0.52459967136383057 0.0045343050733208656 0.0078361304476857185
0.56078743934631348 0.0022006877698004246 0.0071585588157176971
0.59573060274124146 0.00096575747011229396 0.0066718575544655323
0.62960129976272583 0.00016341666923835874 0.0061921235173940659
0.66133350133895874 4.6031866077100858e-05 0.0056273979134857655
0.69299399852752686 0 0.0054113338701426983
0.72374200820922852 0 0.0048602493479847908
0.75395894050598145 0 0.0043459348380565643
0.7843019962310791 0 0.0034744672011584044
0.81540298461914062 0 0.0026699516456574202
0.84626346826553345 0 0.0020666823256760836
0.87827181816101074 0 0.0013368037762120366
0.91062664985656738 0 0.00043872132664546371
0.94437301158905029 0 5.0642145652091131e-05
0.97620362043380737 0 0
0.02240929938852787 0.11442353576421738 0.011454971507191658
0.027376081794500351 0.11321475356817245 0.011454971507191658
0.034851826727390289 0.11177951842546463 0.011454972438514233
0.044529978185892105 0.10985244810581207 0.011454972438514233
0.057082515209913254 0.10747426748275757 0.011416361667215824
0.074388973414897919 0.10426559299230576 0.01121841836720705
0.099908404052257538 0.099928513169288635 0.011237563565373421
0.13577428460121155 0.094688288867473602 0.011249051429331303
0.17834073305130005 0.087925374507904053 0.011450681835412979
0.21842794120311737 0.081333041191101074 0.011454971507191658
0.25723007321357727 0.075009256601333618 0.011502173729240894
0.29537695646286011 0.068635702133178711 0.01143271941691637
0.32973864674568176 0.063083283603191376 0.011169061064720154
0.36388882994651794 0.056815322488546371 0.011075438000261784
0.39702856540679932 0.050031810998916626 0.011075438000261784
0.42817771434783936 0.044140871614217758 0.011173741891980171
0.45926246047019958 0.038035817444324493 0.011148778721690178
0.4931374192237854 0.031714089214801788 0.010688525624573231
0.52712398767471313 0.026030015200376511 0.010433034971356392
0.56166720390319824 0.020599216222763062 0.0097644617781043053
0.59659481048583984 0.015272235497832298 0.009119977243244648
0.63005518913269043 0.011497854255139828 0.0086080236360430717
0.66357827186584473 0.0077614784240722656 0.0077085304073989391
0.69442224502563477 0.0049087684601545334 0.0070633827708661556
0.72506958246231079 0.0025464373175054789 0.006698299665004015
0.7553362250328064 0.0018791669281199574 0.0061019528657197952
0.7854456901550293 0.0010758109856396914 0.0054960111156105995
0.81619077920913696 0.00012341364345047623 0.0046381368301808834
0.84751510620117188 0 0.0037548760883510113
0.87979274988174438 0 0.0029357874300330877
0.91141724586486816 0 0.0019640857353806496
0.94477128982543945 0 0.00098418840207159519
0.97837644815444946 0 0.00015398334653582424
0.030725911259651184 0.15651291608810425 0.014874407090246677
0.036278031766414642 0.15581929683685303 0.014874407090246677
0.043344896286725998 0.15430530905723572 0.014874408021569252
0.052630040794610977 0.15241384506225586 0.014874408021569252
0.065822519361972809 0.15028451383113861 0.014874407090246677
0.084437362849712372 0.14681068062782288 0.014874407090246677
0.10777624696493149 0.14252065122127533 0.014874407090246677
0.13775455951690674 0.13736675679683685 0.014874407090246677
0.17855645716190338 0.1311553418636322 0.014874407090246677
0.21961149573326111 0.12476347386837006 0.014874407090246677
0.25815275311470032 0.11882996559143066 0.014874407090246677
0.29575139284133911 0.11253709346055984 0.014874407090246677
0.32973864674568176 0.10660383105278015 0.01485880184918642
0.36388882994651794 0.10073598474264145 0.014780783094465733
0.39828065037727356 0.094599448144435883 0.014669992960989475
0.4288189709186554 0.088345244526863098 0.014581830240786076
0.46124738454818726 0.082403428852558136 0.014456636272370815
0.4931502640247345 0.074969343841075897 0.013995224609971046
0.52754932641983032 0.068152174353599548 0.013342686928808689
0.56443899869918823 0.061127584427595139 0.01269094180315733
0.59962058067321777 0.053080048412084579 0.011960648931562901
0.63296669721603394 0.045959651470184326 0.011246631853282452
0.66449004411697388 0.039108294993638992 0.010446622967720032
0.69549322128295898 0.033117145299911499 0.0099047832190990448
0.72649198770523071 0.026569990441203117 0.0092878993600606918
0.7567756175994873 0.021941943094134331 0.0084570432081818581
0.78679734468460083 0.017179582267999649 0.0074228737503290176
0.81776130199432373 0.011340570636093616 0.0063291396945714951
0.84945905208587646 0.0067469854839146137 0.005508064292371273
0.88030636310577393 0.0046551772393286228 0.0045431251637637615
0.91400635242462158 0.0022628968581557274 0.0036136661656200886
0.94544219970703125 0.00058791710762307048 0.0025309014599770308
0.97875833511352539 0 0.001300524570979178
0.032516553997993469 0.20272468030452728 0.018840262666344643
0.037729151546955109 0.20170290768146515 0.019029036164283752
0.045359693467617035 0.20077596604824066 0.019043082371354103
0.055125877261161804 0.19914865493774414 0.019085211679339409
0.070033393800258636 0.19662129878997803 0.019085211679339409
0.091760598123073578 0.19308710098266602 0.019126161932945251
0.11598130315542221 0.18900308012962341 0.019141372293233871
0.14528527855873108 0.18386182188987732 0.019145628437399864
0.17808714509010315 0.17811132967472076 0.019234746694564819
0.217975914478302 0.17234821617603302 0.019466424360871315
0.25713637471199036 0.16665813326835632 0.019161799922585487
0.29564806818962097 0.16064880788326263 0.019161799922585487
0.32973864674568176 0.15502358973026276 0.019161799922585487
0.36388885974884033 0.14942285418510437 0.019125921651721001
0.39821183681488037 0.14348948001861572 0.018899919465184212
0.42873647809028625 0.13784816861152649 0.018157284706830978
0.46218782663345337 0.13209038972854614 0.01813037134706974
0.49357065558433533 0.12538820505142212 0.017771154642105103
0.53011560440063477 0.11881369352340698 0.017024194821715355
0.56552249193191528 0.11175820976495743 0.016232356429100037
0.59967321157455444 0.10428927093744278 0.015492427162826061
0.63366025686264038 0.097042083740234375 0.014537318609654903
0.66569489240646362 0.090041272342205048 0.01377400103956461
0.69654816389083862 0.083355888724327087 0.012862907722592354
0.72746455669403076 0.075980454683303833 0.012125104665756226
0.75783061981201172 0.068528659641742706 0.011148685589432716
0.78792482614517212 0.061187796294689178 0.010045956820249557
0.81925380229949951 0.052496090531349182 0.0089986138045787811
0.85009163618087769 0.044027872383594513 0.0077609713189303875
0.88214313983917236 0.036412861198186874 0.0063565075397491455
0.91454577445983887 0.028729274868965149 0.0051570278592407703
0.94835919141769409 0.020883200690150261 0.0040465299971401691
0.97994661331176758 0.014749571681022644 0.0030167184304445982
0.03139134868979454 0.24692319333553314 0.023100359365344048
0.035398665815591812 0.24575172364711761 0.023100359365344048
0.041255645453929901 0.2444872260093689 0.023137807846069336
0.050095301121473312 0.24275785684585571 0.0232501570135355
0.063398465514183044 0.24015875160694122 0.0232501570135355
0.080766506493091583 0.2368348091840744 0.023359356448054314
0.10664695501327515 0.23284485936164856 0.023399917408823967
0.14090326428413391 0.22813369333744049 0.023411266505718231
0.17519313097000122 0.2227141410112381 0.023454388603568077
0.21491663157939911 0.21752279996871948 0.023454388603568077
0.25524225831031799 0.21207627654075623 0.023407187312841415
0.29328793287277222 0.20632533729076385 0.023059656843543053
0.32965525984764099 0.20078468322753906 0.023424351587891579
0.36388882994651794 0.19534468650817871 0.023331506177783012
0.39673444628715515 0.18993562459945679 0.023234665393829346
0.42843139171600342 0.18496096134185791 0.022549137473106384
0.4614715576171875 0.17932999134063721 0.022375566884875298
0.4936257004737854 0.17306394875049591 0.022132156416773796
0.53068268299102783 0.1665230393409729 0.021284589543938637
0.56552290916442871 0.15996174514293671 0.020463919267058372
0.59967321157455444 0.15287746489048004 0.01978633739054203
0.63366025686264038 0.14602862298488617 0.018611244857311249
0.66665911674499512 0.13918024301528931 0.017554590478539467
0.697296142578125 0.13332055509090424 0.016534853726625443
0.7280152440071106 0.12634667754173279 0.015496634878218174
0.75862580537796021 0.11900836974382401 0.014389012940227985
0.78880840539932251 0.11233438551425934 0.013045773841440678
0.81965970993041992 0.1047801598906517 0.011686448939144611
0.85094565153121948 0.096566103398799896 0.01032742578536272
0.88385051488876343 0.088393740355968475 0.0090838214382529259
0.91526973247528076 0.079460293054580688 0.0074921473860740662
0.94869285821914673 0.069201000034809113 0.0058057778514921665
0.9825294017791748 0.059512142091989517 0.0042893108911812305
0.023910190910100937 0.28759002685546875 0.027777796611189842
0.029920926317572594 0.28698116540908813 0.027777796611189842
0.037749793380498886 0.28577011823654175 0.027777796611189842
0.049004342406988144 0.28357294201850891 0.028103921562433243
0.063714541494846344 0.28112420439720154 0.02849554643034935
0.083255968987941742 0.27773883938789368 0.028938272967934608
0.1052372083067894 0.27349022030830383 0.028968313708901405
0.13015659153461456 0.26924207806587219 0.028792399913072586
0.16724908351898193 0.26450496912002563 0.02878381684422493
0.21109333634376526 0.2594808042049408 0.028835291042923927
0.25219246745109558 0.25457853078842163 0.028800969943404198
0.29121246933937073 0.24942006170749664 0.028348462656140327
0.32665768265724182 0.2442198246717453 0.028314130380749702
0.36154040694236755 0.23897230625152588 0.027969310060143471
0.39455142617225647 0.23382353782653809 0.027654815465211868
0.42775240540504456 0.22867098450660706 0.027126828208565712
0.45956650376319885 0.22329205274581909 0.026651684194803238
0.49344357848167419 0.21741975843906403 0.025922637432813644
0.53085863590240479 0.21147361397743225 0.025208018720149994
0.56552290916442871 0.20492410659790039 0.024384953081607819
0.59967321157455444 0.19832855463027954 0.023699963465332985
0.63366025686264038 0.19201168417930603 0.022880977019667625
0.6670108437538147 0.18512517213821411 0.02170225977897644
0.69769507646560669 0.1795002669095993 0.020651618018746376
0.72830700874328613 0.17297805845737457 0.019638588652014732
0.75885868072509766 0.16614927351474762 0.018327232450246811
0.78934198617935181 0.15961728990077972 0.016755253076553345
0.81991410255432129 0.152370885014534 0.015085549093782902
0.85203951597213745 0.14479675889015198 0.013312569819390774
0.88398706912994385 0.13693995773792267 0.011775418184697628
0.91754448413848877 0.12845951318740845 0.010004081763327122
0.94885051250457764 0.11969501525163651 0.0082494057714939117
0.98267960548400879 0.11030431836843491 0.0062814434058964252
0.016145186498761177 0.32718199491500854 0.033784214407205582
0.019027814269065857 0.32620695233345032 0.033925820142030716
0.022279873490333557 0.32476595044136047 0.034074842929840088
0.027879141271114349 0.32299008965492249 0.034104857593774796
0.03760967031121254 0.32047554850578308 0.034356456249952316
0.055758986622095108 0.31702083349227905 0.034450836479663849
0.082017585635185242 0.31284698843955994 0.034429382532835007
0.11344645172357559 0.30878615379333496 0.034334991127252579
0.15870288014411926 0.30418184399604797 0.034081451594829559
0.20641347765922546 0.29991504549980164 0.034086529165506363
0.24863672256469727 0.29504859447479248 0.034150503575801849
0.2882365882396698 0.290485680103302 0.03398548811674118
0.32462722063064575 0.28593051433563232 0.033805664628744125
0.35949048399925232 0.28069573640823364 0.033921357244253159
0.39299499988555908 0.27583751082420349 0.033761288970708847
0.42479461431503296 0.27086013555526733 0.033056464046239853
0.45882350206375122 0.26589402556419373 0.032477617263793945
0.49321702122688293 0.26025664806365967 0.031800087541341782
0.53062218427658081 0.25434523820877075 0.030735194683074951
0.56552290916442871 0.24774192273616791 0.029816461727023125
0.59967321157455444 0.24146486818790436 0.028509527444839478
0.63366025686264038 0.23565459251403809 0.02737710252404213
0.66680485010147095 0.22964660823345184 0.026050509884953499
0.69771230220794678 0.22406895458698273 0.024471098557114601
0.728465735912323 0.2174735814332962 0.023457137867808342
0.75903522968292236 0.21092048287391663 0.022052839398384094
0.78956776857376099 0.2047303169965744 0.020359257236123085
0.82038682699203491 0.19815473258495331 0.018709829077124596
0.85296469926834106 0.19094079732894897 0.017021730542182922
0.88400548696517944 0.18348045647144318 0.014906431548297405
0.91845124959945679 0.17550671100616455 0.012919493950903416
0.95076638460159302 0.1674121618270874 0.010930786840617657
0.98272383213043213 0.15809158980846405 0.0087421359494328499
0.0038228151388466358 0.36406528949737549 0.039391055703163147
0.0056407595984637737 0.36117351055145264 0.039391055703163147
0.0073393941856920719 0.36111095547676086 0.039486624300479889
0.013372893445193768 0.35884514451026917 0.039768997579813004
0.023663932457566261 0.3566681444644928 0.039992112666368484
0.036938957870006561 0.3532540500164032 0.040065061300992966
0.053826853632926941 0.34973448514938354 0.040065065026283264
0.09357403963804245 0.34577003121376038 0.040347870439291
0.15109258890151978 0.34160244464874268 0.040723096579313278
0.20115137100219727 0.33736392855644226 0.041083533316850662
0.24493744969367981 0.33292660117149353 0.04076598584651947
0.28504326939582825 0.32839024066925049 0.040281571447849274
0.32165032625198364 0.32394623756408691 0.03985251858830452
0.35604551434516907 0.31947869062423706 0.039831619709730148
0.39052298665046692 0.31471538543701172 0.039349272847175598
0.42450982332229614 0.30980563163757324 0.038566030561923981
0.45882350206375122 0.30451390147209167 0.0377633236348629
0.49313747882843018 0.29918462038040161 0.037118002772331238
0.53030699491500854 0.29349479079246521 0.036381900310516357
0.56552290916442871 0.28717392683029175 0.035022430121898651
0.59967321157455444 0.28123781085014343 0.034062732011079788
0.63366025686264038 0.27571505308151245 0.033245179802179337
0.66658180952072144 0.27003505825996399 0.031754449009895325
0.697712242603302 0.26425144076347351 0.030008133500814438
0.72851300239562988 0.25871813297271729 0.02851393073797226
0.7590566873550415 0.25197911262512207 0.026676559820771217
0.78959351778030396 0.24599845707416534 0.02464345283806324
0.82079827785491943 0.24014425277709961 0.022601088508963585
0.85376524925231934 0.23320572078227997 0.020400278270244598
0.88445281982421875 0.22595995664596558 0.018267033621668816
0.9184640645980835 0.21848282217979431 0.01585238054394722
0.95251595973968506 0.21117241680622101 0.013384394347667694
0.98357391357421875 0.20278461277484894 0.011054839938879013
