Textures/6.cube
# Created by: G'MIC (https://gmic.eu)
TITLE "CandleLight.cube"
# LUT size
LUT_3D_SIZE 5
# Data domain
DOMAIN_MIN 0.0 0.0 0.0
DOMAIN_MAX 1.0 1.0 1.0
# LUT data points
0.036255046725273132 0.028932275250554085 0.02234022319316864
0.21047109365463257 0.11189993470907211 0.10096056759357452
0.38353440165519714 0.18074291944503784 0.17120248079299927
0.66373938322067261 0.31839632987976074 0.30227792263031006
0.93447709083557129 0.45457518100738525 0.43443477153778076
0.1438775360584259 0.17491826415061951 0.10126809775829315
0.22728939354419708 0.19067941606044769 0.11439488083124161
0.38879004120826721 0.24432580173015594 0.17948129773139954
0.66542065143585205 0.35540914535522461 0.30733132362365723
0.93322479724884033 0.47849130630493164 0.43580222129821777
0.23276156187057495 0.32562711834907532 0.16460041701793671
0.29712003469467163 0.33038419485092163 0.17262697219848633
0.41621732711791992 0.34941962361335754 0.20350979268550873
0.68197166919708252 0.43192532658576965 0.32132461667060852
0.94730395078659058 0.53552424907684326 0.44757962226867676
0.41823652386665344 0.58789241313934326 0.30027541518211365
0.46255961060523987 0.59680795669555664 0.31284952163696289
0.53039902448654175 0.59775012731552124 0.31850314140319824
0.72707259654998779 0.62871044874191284 0.36818909645080566
0.97152614593505859 0.69663512706756592 0.4720349907875061
0.6446077823638916 0.89921200275421143 0.46965780854225159
0.66628891229629517 0.90068256855010986 0.47128444910049438
0.71789205074310303 0.90682530403137207 0.48174697160720825
0.85755395889282227 0.9211125373840332 0.50369179248809814
0.99195104837417603 0.93444985151290894 0.67625284194946289
0.09396708756685257 0.073825500905513763 0.091640740633010864
0.21394535899162292 0.11204548925161362 0.13046541810035706
0.37707868218421936 0.17548418045043945 0.18917982280254364
0.66076850891113281 0.31660088896751404 0.31232103705406189
0.93380320072174072 0.45410877466201782 0.44266575574874878
0.14738155901432037 0.1740296334028244 0.12629915773868561
0.21528427302837372 0.17905533313751221 0.13925068080425262
0.38087970018386841 0.24856506288051605 0.2078978568315506
0.66594398021697998 0.36554417014122009 0.3293604850769043
0.94018644094467163 0.48788976669311523 0.45296546816825867
0.2336287647485733 0.32138955593109131 0.18520288169384003
0.29534867405891418 0.31712993979454041 0.20251619815826416
0.40102574229240417 0.33787953853607178 0.22418424487113953
0.67975437641143799 0.43721270561218262 0.34217715263366699
0.94776290655136108 0.54005277156829834 0.46042168140411377
0.4260597825050354 0.59231805801391602 0.31749904155731201
0.46050724387168884 0.586203932762146 0.32357197999954224
0.53129416704177856 0.59384191036224365 0.3384893536567688
0.72354012727737427 0.62179982662200928 0.38111868500709534
0.98014956712722778 0.70247560739517212 0.4927009642124176
0.64192938804626465 0.89428412914276123 0.47394207119941711
0.672393798828125 0.90064865350723267 0.48466300964355469
0.71952676773071289 0.90387111902236938 0.49180614948272705
0.85640716552734375 0.91878688335418701 0.51372843980789185
0.99195104837417603 0.93105638027191162 0.6618417501449585
0.13019673526287079 0.097930751740932465 0.17380031943321228
0.22118347883224487 0.11288191378116608 0.1876390278339386
0.380271315574646 0.17511221766471863 0.23506298661231995
0.66572391986846924 0.32063004374504089 0.34817558526992798
0.93447709083557129 0.45470863580703735 0.46519291400909424
0.15986734628677368 0.18454906344413757 0.18737335503101349
0.22985289990901947 0.19028832018375397 0.18529355525970459
0.37662729620933533 0.25583812594413757 0.25315269827842712
0.66390436887741089 0.3782239556312561 0.36601915955543518
0.94298070669174194 0.49769431352615356 0.4813363254070282
0.2383655458688736 0.32143667340278625 0.23154923319816589
0.29282242059707642 0.29955869913101196 0.23272474110126495
0.38575732707977295 0.32622995972633362 0.26270133256912231
0.67456221580505371 0.44771227240562439 0.380891352891922
0.94576156139373779 0.5523638129234314 0.49214833974838257
0.42402741312980652 0.58927935361862183 0.34273755550384521
0.47129544615745544 0.57971751689910889 0.36131766438484192
0.53691184520721436 0.58427983522415161 0.37297618389129639
0.71173012256622314 0.61673671007156372 0.41279545426368713
0.97777491807937622 0.70976126194000244 0.5273139476776123
0.64813274145126343 0.89786750078201294 0.49568778276443481
0.68460547924041748 0.90171843767166138 0.51370370388031006
0.73014330863952637 0.90333062410354614 0.52025038003921509
0.85993283987045288 0.91850781440734863 0.54528695344924927
0.98818302154541016 0.934276282787323 0.70900166034698486
0.23711146414279938 0.17154435813426971 0.34790864586830139
0.29594460129737854 0.17840154469013214 0.3539544939994812
0.40628662705421448 0.19361241161823273 0.3672356903553009
0.67533642053604126 0.31874778866767883 0.44233930110931396
0.93909823894500732 0.45168021321296692 0.53574502468109131
0.25429368019104004 0.23559205234050751 0.35554909706115723
0.32791993021965027 0.26234087347984314 0.34806692600250244
0.40728345513343811 0.27375274896621704 0.35994359850883484
0.67164641618728638 0.37771975994110107 0.44978508353233337
0.94648146629333496 0.49653041362762451 0.5480385422706604
0.29189074039459229 0.33944323658943176 0.36982226371765137
0.351430743932724 0.34240993857383728 0.35936927795410156
0.42594441771507263 0.35892966389656067 0.36160701513290405
0.66947853565216064 0.45692867040634155 0.46244454383850098
0.95113372802734375 0.57848078012466431 0.58038634061813354
0.43524250388145447 0.58584690093994141 0.43457126617431641
0.48495697975158691 0.58317822217941284 0.44134441018104553
0.54854357242584229 0.56558865308761597 0.44978982210159302
0.69689416885375977 0.59922957420349121 0.49323952198028564
0.98318809270858765 0.73620188236236572 0.62775760889053345
0.64813506603240967 0.89324754476547241 0.56097710132598877
0.68628299236297607 0.90182405710220337 0.57981020212173462
0.75677931308746338 0.90240031480789185 0.61019027233123779
0.87848454713821411 0.91432565450668335 0.64352118968963623
0.98426276445388794 0.93218493461608887 0.77067941427230835
0.47879320383071899 0.34861406683921814 0.70844203233718872
0.51357269287109375 0.35885974764823914 0.71503299474716187
0.58008307218551636 0.37175002694129944 0.72782218456268311
0.75034046173095703 0.39355447888374329 0.74552160501480103
0.96584963798522949 0.45242202281951904 0.78281080722808838
0.49079769849777222 0.38600865006446838 0.71353656053543091
0.54037559032440186 0.41336455941200256 0.71832287311553955
0.59815394878387451 0.42000517249107361 0.72405135631561279
0.76191425323486328 0.44820690155029297 0.7486797571182251
0.97259378433227539 0.49632719159126282 0.78549271821975708
0.50784999132156372 0.45359000563621521 0.71870905160903931
0.55812710523605347 0.47618702054023743 0.72359609603881836
0.64317125082015991 0.51957780122756958 0.74010944366455078
0.78390640020370483 0.5408589243888855 0.75870966911315918
0.97244948148727417 0.57732266187667847 0.79110962152481079
0.56027454137802124 0.63086503744125366 0.74180632829666138
0.6007227897644043 0.64503723382949829 0.74980628490447998
0.68398666381835938 0.67122042179107666 0.76375961303710938
0.83972156047821045 0.72631180286407471 0.78625541925430298
0.9781641960144043 0.77446895837783813 0.83736693859100342
0.67158228158950806 0.89045149087905884 0.80034172534942627
0.70426887273788452 0.89767670631408691 0.80575013160705566
0.76775777339935303 0.90241008996963501 0.81591016054153442
0.91606003046035767 0.91696691513061523 0.84537148475646973
0.97259300947189331 0.94948774576187134 0.93020850419998169
