Textures/6.cube
# Created by: G'MIC (https://gmic.eu)
TITLE "CandleLight.cube"
# LUT size
LUT_3D_SIZE 33
# Data domain
DOMAIN_MIN 0.0 0.0 0.0
DOMAIN_MAX 1.0 1.0 1.0
# LUT data points
0.036255046725273132 0.028932275250554085 0.02234022319316864
0.059156473726034164 0.040599241852760315 0.034099191427230835
0.083800472319126129 0.05460594967007637 0.047325119376182556
0.10967956483364105 0.069704875349998474 0.060782123357057571
0.13433413207530975 0.082943670451641083 0.072877921164035797
0.15600155293941498 0.09370073676109314 0.082730576395988464
0.17598040401935577 0.10357850044965744 0.090416803956031799
0.19297374784946442 0.10789114236831665 0.0955682173371315
0.21047109365463257 0.11189993470907211 0.10096056759357452
0.22976177930831909 0.11730807274580002 0.10689730942249298
0.24924919009208679 0.1234043687582016 0.11309852451086044
0.26923856139183044 0.12985317409038544 0.11966758221387863
0.28812286257743835 0.13594016432762146 0.12604205310344696
0.30997833609580994 0.14585264027118683 0.13633912801742554
0.3337155282497406 0.15787802636623383 0.14804847538471222
0.35809653997421265 0.16922469437122345 0.15953949093818665
0.38353440165519714 0.18074291944503784 0.17120248079299927
0.41016474366188049 0.19337537884712219 0.18278621137142181
0.43774837255477905 0.20746205747127533 0.19482897222042084
0.4713493287563324 0.22363319993019104 0.21057252585887909
0.50437605381011963 0.23945406079292297 0.22666974365711212
0.54120898246765137 0.25768318772315979 0.24458484351634979
0.57997679710388184 0.27727073431015015 0.26460480690002441
0.62115633487701416 0.29739001393318176 0.28252094984054565
0.66373938322067261 0.31839632987976074 0.30227792263031006
0.71086597442626953 0.34048706293106079 0.32524308562278748
0.75759810209274292 0.36318928003311157 0.35065370798110962
0.7981143593788147 0.38401421904563904 0.37058824300765991
0.83438855409622192 0.40341266989707947 0.38771930336952209
0.86589217185974121 0.41809123754501343 0.40118762850761414
0.8960070013999939 0.43349698185920715 0.41449296474456787
0.91748368740081787 0.44542494416236877 0.42481440305709839
0.93447709083557129 0.45457518100738525 0.43443477153778076
0.052399609237909317 0.045799244195222855 0.031850229948759079
0.065854959189891815 0.05128677561879158 0.037529192864894867
0.088048741221427917 0.063786864280700684 0.049225505441427231
0.11212369054555893 0.079067990183830261 0.062858395278453827
0.13658075034618378 0.091852344572544098 0.075024805963039398
0.15801340341567993 0.10025022178888321 0.084659457206726074
0.17749236524105072 0.10942763835191727 0.092623881995677948
0.19420091807842255 0.11515496671199799 0.094735965132713318
0.21228289604187012 0.11958957463502884 0.099541045725345612
0.23233199119567871 0.12446707487106323 0.10609344393014908
0.25216245651245117 0.13062818348407745 0.11304277926683426
0.27133530378341675 0.13735276460647583 0.12099696695804596
0.29046347737312317 0.14341062307357788 0.12776027619838715
0.31103771924972534 0.15171621739864349 0.13668113946914673
0.33468097448348999 0.16301821172237396 0.14782533049583435
0.35718652606010437 0.17323000729084015 0.15818017721176147
0.38020887970924377 0.18331353366374969 0.16825364530086517
0.40752372145652771 0.19536420702934265 0.18110929429531097
0.43584051728248596 0.20882193744182587 0.1942809671163559
0.47137314081192017 0.22732509672641754 0.21209713816642761
0.50565069913864136 0.24501292407512665 0.22828294336795807
0.54300451278686523 0.26348558068275452 0.24721567332744598
0.5823245644569397 0.28306519985198975 0.26598390936851501
0.6225319504737854 0.30183783173561096 0.28363201022148132
0.66408658027648926 0.32105720043182373 0.3027971088886261
0.71086591482162476 0.34226936101913452 0.32541856169700623
0.75759810209274292 0.36497816443443298 0.35065373778343201
0.7989380955696106 0.38670846819877625 0.37058824300765991
0.8362116813659668 0.40719303488731384 0.38881215453147888
0.86631613969802856 0.42104771733283997 0.40207356214523315
0.89437460899353027 0.43369778990745544 0.41311362385749817
0.91683012247085571 0.44542494416236877 0.42309853434562683
0.93442261219024658 0.45457518100738525 0.43233779072761536
0.070258632302284241 0.065090693533420563 0.042702604085206985
0.080447442829608917 0.068183273077011108 0.046129405498504639
0.094203375279903412 0.074313998222351074 0.052343510091304779
0.11601982265710831 0.087861016392707825 0.064782679080963135
0.13851611316204071 0.10168501734733582 0.076723933219909668
0.15983790159225464 0.10976463556289673 0.086163453757762909
0.17989246547222137 0.11675507575273514 0.09400448203086853
0.1967962235212326 0.12266483902931213 0.097087487578392029
0.21426531672477722 0.12773558497428894 0.099575124680995941
0.23407219350337982 0.13267074525356293 0.10572370886802673
0.25488919019699097 0.13875620067119598 0.11333996802568436
0.27336600422859192 0.14498366415500641 0.12118568271398544
0.2908480167388916 0.15114188194274902 0.12888263165950775
0.31257858872413635 0.15986326336860657 0.13837164640426636
0.33593258261680603 0.16973178088665009 0.14796420931816101
0.3575538694858551 0.17855273187160492 0.15699779987335205
0.37819918990135193 0.18698683381080627 0.16524098813533783
0.40622720122337341 0.19962145388126373 0.18001705408096313
0.43527555465698242 0.21321257948875427 0.19548650085926056
0.47072634100914001 0.23118874430656433 0.21317481994628906
0.50612729787826538 0.24985364079475403 0.23054298758506775
0.54436260461807251 0.26933214068412781 0.24828523397445679
0.58325165510177612 0.28828221559524536 0.26843544840812683
0.62257844209671021 0.30596399307250977 0.28473925590515137
0.66335785388946533 0.32346710562705994 0.30251574516296387
0.71086591482162476 0.34492060542106628 0.32531186938285828
0.75759810209274292 0.36769473552703857 0.35065373778343201
0.7989380955696106 0.38884115219116211 0.37058824300765991
0.83750027418136597 0.40999972820281982 0.38914909958839417
0.8669934868812561 0.42490300536155701 0.40307876467704773
0.89447015523910522 0.436412513256073 0.41322827339172363
0.9145740270614624 0.44687247276306152 0.42286622524261475
0.93292152881622314 0.45637524127960205 0.43185937404632568
0.086683116853237152 0.087382577359676361 0.057804033160209656
0.093132324516773224 0.086352862417697906 0.056423712521791458
0.10466016829013824 0.090196244418621063 0.060509786009788513
0.11995499581098557 0.097390778362751007 0.067988768219947815
0.14039009809494019 0.10955187678337097 0.078530088067054749
0.16181227564811707 0.11919934302568436 0.08765508234500885
0.18177087604999542 0.12671399116516113 0.096280418336391449
0.19949449598789215 0.13228312134742737 0.10037212818861008
0.21690036356449127 0.13758648931980133 0.10304180532693863
0.23485502600669861 0.14223626255989075 0.10804825276136398
0.25495916604995728 0.14830136299133301 0.11507998406887054
0.27318307757377625 0.15276792645454407 0.12099187821149826
0.29012444615364075 0.15777683258056641 0.12797532975673676
0.31247180700302124 0.16835485398769379 0.13909287750720978
0.33597582578659058 0.17907144129276276 0.14957974851131439
0.35719978809356689 0.18609237670898438 0.15650877356529236
0.37769585847854614 0.19430503249168396 0.16397035121917725
0.4084966778755188 0.20772235095500946 0.18079717457294464
0.43912556767463684 0.22136206924915314 0.19714005291461945
0.47161993384361267 0.23781473934650421 0.21413400769233704
0.50612729787826538 0.25604072213172913 0.23120921850204468
0.54436260461807251 0.27483662962913513 0.25000005960464478
0.58325165510177612 0.29428115487098694 0.26944449543952942
0.62148737907409668 0.31020206212997437 0.28446277976036072
0.6614261269569397 0.32668846845626831 0.30010673403739929
0.70907711982727051 0.34858050942420959 0.32437536120414734
0.75759810209274292 0.37153121829032898 0.35065370798110962
0.7989380955696106 0.39178067445755005 0.37058824300765991
0.83750027418136597 0.41162526607513428 0.38774502277374268
0.8669934868812561 0.42757871747016907 0.40242385864257812
0.89452636241912842 0.43993055820465088 0.41468212008476257
0.91546326875686646 0.45059853792190552 0.42416223883628845
0.93357837200164795 0.45918861031532288 0.43277072906494141
0.10183649510145187 0.10952290892601013 0.071092113852500916
0.10733920335769653 0.10778175294399261 0.069425761699676514
0.11588304489850998 0.10746196657419205 0.070106662809848785
0.12920291721820831 0.11244723200798035 0.07580847293138504
0.14427089691162109 0.11892026662826538 0.081709101796150208
0.1640113890171051 0.1280331015586853 0.089951418340206146
0.18399211764335632 0.13614670932292938 0.09816635400056839
0.20081700384616852 0.14173628389835358 0.10248847305774689
0.21830859780311584 0.14748543500900269 0.1066325306892395
0.23750513792037964 0.15345568954944611 0.11180406808853149
0.2557084858417511 0.15918850898742676 0.11776385456323624
0.27324002981185913 0.16278527677059174 0.12315274029970169
0.28977072238922119 0.16626565158367157 0.12812668085098267
0.31227239966392517 0.17647774517536163 0.13887809216976166
0.33666366338729858 0.18871822953224182 0.15139354765415192
0.35781669616699219 0.1959863156080246 0.15912641584873199
0.37854313850402832 0.202972412109375 0.16597150266170502
0.40986180305480957 0.21546868979930878 0.18144634366035461
0.44118860363960266 0.22898446023464203 0.1987697035074234
0.47501534223556519 0.2443244606256485 0.21504715085029602
0.50792610645294189 0.26132398843765259 0.23194611072540283
0.54440861940383911 0.27962368726730347 0.2506791353225708
0.58342325687408447 0.29832619428634644 0.26953542232513428
0.62256455421447754 0.31655615568161011 0.28722286224365234
0.66135811805725098 0.33239206671714783 0.30117779970169067
0.70750623941421509 0.35327988862991333 0.32336589694023132
0.75759810209274292 0.37602126598358154 0.34986725449562073
0.7993806004524231 0.39620101451873779 0.37058824300765991
0.83780652284622192 0.41530841588973999 0.38774502277374268
0.86794841289520264 0.43044161796569824 0.40176844596862793
0.8951714038848877 0.44396865367889404 0.41544541716575623
0.91642951965332031 0.45494890213012695 0.42601042985916138
0.9341588020324707 0.4626213014125824 0.43395686149597168
0.11330831795930862 0.12851318717002869 0.080078810453414917
0.11904444545507431 0.12851318717002869 0.080448262393474579
0.12703023850917816 0.12792839109897614 0.081091724336147308
0.14042399823665619 0.13029119372367859 0.085433840751647949
0.15419003367424011 0.13524654507637024 0.089951418340206146
0.16931132972240448 0.14058598875999451 0.093448042869567871
0.18761232495307922 0.14738568663597107 0.10055150836706161
0.20367655158042908 0.15185537934303284 0.10443106293678284
0.221430703997612 0.15797591209411621 0.10861117392778397
0.239619180560112 0.16501748561859131 0.11472971737384796
0.2594483494758606 0.17154704034328461 0.12024037539958954
0.27656245231628418 0.17700850963592529 0.12716613709926605
0.29285544157028198 0.18025752902030945 0.13291141390800476
0.3140072226524353 0.18824067711830139 0.14122059941291809
0.33773922920227051 0.19900450110435486 0.15263114869594574
0.3607957661151886 0.20659331977367401 0.16261865198612213
0.38334181904792786 0.21386104822158813 0.17122584581375122
0.41272017359733582 0.22568784654140472 0.18473583459854126
0.44428616762161255 0.23791880905628204 0.20082621276378632
0.47611665725708008 0.25202208757400513 0.21723055839538574
0.50948262214660645 0.26726007461547852 0.23287314176559448
0.54540520906448364 0.28343397378921509 0.2482755035161972
0.58453834056854248 0.30212599039077759 0.26807940006256104
0.62542468309402466 0.32240444421768188 0.28918588161468506
0.66520261764526367 0.33999010920524597 0.30602014064788818
0.70975792407989502 0.35978016257286072 0.3260161280632019
0.75759810209274292 0.38167387247085571 0.35001879930496216
0.8008611798286438 0.4019608199596405 0.37246733903884888
0.83967870473861694 0.42112269997596741 0.39146575331687927
0.86994665861129761 0.43611297011375427 0.40487149357795715
0.89687162637710571 0.45000168681144714 0.41740193963050842
0.91748368740081787 0.4607028067111969 0.42801418900489807
0.93447709083557129 0.46920567750930786 0.4369843602180481
0.12457457184791565 0.14714062213897705 0.087425306439399719
0.13031210005283356 0.14714062213897705 0.088946260511875153
0.1377938836812973 0.14769372344017029 0.091250956058502197
0.15074244141578674 0.1486370861530304 0.094732522964477539
0.16451902687549591 0.15141063928604126 0.097917847335338593
0.17807857692241669 0.15544241666793823 0.1004815399646759
0.19209723174571991 0.15958340466022491 0.10248152166604996
0.20612761378288269 0.16324196755886078 0.10599539428949356
0.22198724746704102 0.16753455996513367 0.11038442701101303
0.24103814363479614 0.17454226315021515 0.11572132259607315
0.25996750593185425 0.18148668110370636 0.12190620601177216
0.27728754281997681 0.18754932284355164 0.1284525990486145
0.29566499590873718 0.1934826523065567 0.13671506941318512
0.31672617793083191 0.20115579664707184 0.14547066390514374
0.33838170766830444 0.20943975448608398 0.15359479188919067
0.36181002855300903 0.21646015346050262 0.16376949846744537
0.38748911023139954 0.22480623424053192 0.17549917101860046
0.41642868518829346 0.23561951518058777 0.18854495882987976
0.44560036063194275 0.24773658812046051 0.20210587978363037
0.47883489727973938 0.26118871569633484 0.21805548667907715
0.50986552238464355 0.27479344606399536 0.23412260413169861
0.54802101850509644 0.29026994109153748 0.25003299117088318
0.58696907758712769 0.3077147901058197 0.26774504780769348
0.62615770101547241 0.32636615633964539 0.28775274753570557
0.66687256097793579 0.34543502330780029 0.3084847629070282
0.71207618713378906 0.36662235856056213 0.32963481545448303
0.75771039724349976 0.38726511597633362 0.35092496871948242
0.80013775825500488 0.40727132558822632 0.37210974097251892
0.84025639295578003 0.42633786797523499 0.3928661048412323
0.87083679437637329 0.44032377004623413 0.4069351851940155
0.89743673801422119 0.45410031080245972 0.41899669170379639
0.91748368740081787 0.46540045738220215 0.42884334921836853
0.93447709083557129 0.47496417164802551 0.43866094946861267
0.13429322838783264 0.16078434884548187 0.094425231218338013
0.13983333110809326 0.16078434884548187 0.095383033156394958
0.14716611802577972 0.1612778902053833 0.096952192485332489
0.15759800374507904 0.16302073001861572 0.099475599825382233
0.17060688138008118 0.16516704857349396 0.10228576511144638
0.18395800888538361 0.16852603852748871 0.10490421950817108
0.1970008909702301 0.17219240963459015 0.10711687803268433
0.20951294898986816 0.17476683855056763 0.10826344788074493
0.22430594265460968 0.17848259210586548 0.11173812299966812
0.24125409126281738 0.18258962035179138 0.11605760455131531
0.25994309782981873 0.18938416242599487 0.12183097749948502
0.27728754281997681 0.19530385732650757 0.12773482501506805
0.29583349823951721 0.20152340829372406 0.13570873439311981
0.31809130311012268 0.21019211411476135 0.14638905227184296
0.34045299887657166 0.21863420307636261 0.15546625852584839
0.36325055360794067 0.22696079313755035 0.16605731844902039
0.38843351602554321 0.23444265127182007 0.17735894024372101
0.4171716570854187 0.24440646171569824 0.19027695059776306
0.44658759236335754 0.2562595009803772 0.20429159700870514
0.4790622889995575 0.27065989375114441 0.21873870491981506
0.51018530130386353 0.28443127870559692 0.23451298475265503
0.55007416009902954 0.29925453662872314 0.25212422013282776
0.58933842182159424 0.31601297855377197 0.26944449543952942
0.62651985883712769 0.3317391574382782 0.28723552823066711
0.66520786285400391 0.34945875406265259 0.30722913146018982
0.71016472578048706 0.37027162313461304 0.32864013314247131
0.75581717491149902 0.39136022329330444 0.34940972924232483
0.79867196083068848 0.4110737144947052 0.37092497944831848
0.83970868587493896 0.43008068203926086 0.39247769117355347
0.87008208036422729 0.44279178977012634 0.40686964988708496
0.89601552486419678 0.45433005690574646 0.41699349880218506
0.91748368740081787 0.4665849506855011 0.42727571725845337
0.93447709083557129 0.47697269916534424 0.43667125701904297
0.1438775360584259 0.17491826415061951 0.10126809775829315
0.14964272081851959 0.17491826415061951 0.10158133506774902
0.15603384375572205 0.1749761551618576 0.10243139415979385
0.16641460359096527 0.17682300508022308 0.10436919331550598
0.17664246261119843 0.17911863327026367 0.10617001354694366
0.18983981013298035 0.18221293389797211 0.10914689302444458
0.20300520956516266 0.18588195741176605 0.11225948482751846
0.21438930928707123 0.18796296417713165 0.11274474859237671
0.22728939354419708 0.19067941606044769 0.11439488083124161
0.24408623576164246 0.19485281407833099 0.11856577545404434
0.26144105195999146 0.19915589690208435 0.12281190603971481
0.27931293845176697 0.20455968379974365 0.12829422950744629
0.29731425642967224 0.2109946608543396 0.13515445590019226
0.31944909691810608 0.21947667002677917 0.14593496918678284
0.3425116240978241 0.22906160354614258 0.15726609528064728
0.36491930484771729 0.23597954213619232 0.16765570640563965
0.38879004120826721 0.24432580173015594 0.17948129773139954
0.41769981384277344 0.25431069731712341 0.19247695803642273
0.44849300384521484 0.26616686582565308 0.20601829886436462
0.48020800948143005 0.27989697456359863 0.22072291374206543
0.51190090179443359 0.29356291890144348 0.23486004769802094
0.5496138334274292 0.30818343162536621 0.25212422013282776
0.59034615755081177 0.32374221086502075 0.27042123675346375
0.62843656539916992 0.33984190225601196 0.29010984301567078
0.66542065143585205 0.35540914535522461 0.30733132362365723
0.70933079719543457 0.37543222308158875 0.32765248417854309
0.75469934940338135 0.39623335003852844 0.34861889481544495
0.79775136709213257 0.4153628945350647 0.36951658129692078
0.83963614702224731 0.4346865713596344 0.39220601320266724
0.8698800802230835 0.44708764553070068 0.40690863132476807
0.89456069469451904 0.45675915479660034 0.41636976599693298
0.91531229019165039 0.46719923615455627 0.42651385068893433
0.93322479724884033 0.47849130630493164 0.43580222129821777
0.15166988968849182 0.1919933557510376 0.10604634135961533
0.15910094976425171 0.19199337065219879 0.10722168534994125
0.16598911583423615 0.1919933557510376 0.10758601129055023
0.17366904020309448 0.19206145405769348 0.10832810401916504
0.1840713769197464 0.19367863237857819 0.10999239981174469
0.19716180860996246 0.1970687061548233 0.11307898163795471
0.2098461389541626 0.20036809146404266 0.11629389226436615
0.22018302977085114 0.20177434384822845 0.11698552966117859
0.23258964717388153 0.20438632369041443 0.11821215599775314
0.24926468729972839 0.20963555574417114 0.12323679774999619
0.26760628819465637 0.2139132022857666 0.12803284823894501
0.28504911065101624 0.21867385506629944 0.13227897882461548
0.30280661582946777 0.22421739995479584 0.13855543732643127
0.32448971271514893 0.23150297999382019 0.14922522008419037
0.34743598103523254 0.23987480998039246 0.16025435924530029
0.36709856986999512 0.24532023072242737 0.16824018955230713
0.38940975069999695 0.25252559781074524 0.17890071868896484
0.41875055432319641 0.26401624083518982 0.19428618252277374
0.45017623901367188 0.27606406807899475 0.20846870541572571
0.48261037468910217 0.28855061531066895 0.2225046306848526
0.51349395513534546 0.30131396651268005 0.23596978187561035
0.54890227317810059 0.31457978487014771 0.25212422013282776
0.5887068510055542 0.32994446158409119 0.2706698477268219
0.63001453876495361 0.34772607684135437 0.29129746556282043
0.66907018423080444 0.36512789130210876 0.31047838926315308
0.71158760786056519 0.38332146406173706 0.33081090450286865
0.75675225257873535 0.40370884537696838 0.35183313488960266
0.79853981733322144 0.42241281270980835 0.37166282534599304
0.84051048755645752 0.44040209054946899 0.39256536960601807
0.87008559703826904 0.45270964503288269 0.40769350528717041
0.89458245038986206 0.46212583780288696 0.41836011409759521
0.91744905710220337 0.47176486253738403 0.42853045463562012
0.93747735023498535 0.48320162296295166 0.43904396891593933
0.15964141488075256 0.20898699760437012 0.11018770933151245
0.16707569360733032 0.20898705720901489 0.11158553510904312
0.17482262849807739 0.2089870274066925 0.1128460094332695
0.18258962035179138 0.2089870274066925 0.11306414008140564
0.19161570072174072 0.20927250385284424 0.11428720504045486
0.20482940971851349 0.21267962455749512 0.11732949316501617
0.21776466071605682 0.2162250280380249 0.12027430534362793
0.22745783627033234 0.21683000028133392 0.12103603780269623
0.23889671266078949 0.21804866194725037 0.12237954139709473
0.25544163584709167 0.22337448596954346 0.12803283333778381
0.27247241139411926 0.22883743047714233 0.13306641578674316
0.28905245661735535 0.23262406885623932 0.13720105588436127
0.30726262927055359 0.23700916767120361 0.14239262044429779
0.32930457592010498 0.24405908584594727 0.15278948843479156
0.3523857593536377 0.25152161717414856 0.16400645673274994
0.37164679169654846 0.25658339262008667 0.1715875118970871
0.39074572920799255 0.26131847500801086 0.17845959961414337
0.41935786604881287 0.27239987254142761 0.19183903932571411
0.45215302705764771 0.28565022349357605 0.2088182270526886
0.48445922136306763 0.29789873957633972 0.22466090321540833
0.51588720083236694 0.309996098279953 0.23833931982517242
0.55133616924285889 0.32294729351997375 0.25423866510391235
0.58827787637710571 0.3368888795375824 0.27252349257469177
0.62875831127166748 0.35436758399009705 0.29191190004348755
0.6711995005607605 0.37323158979415894 0.3128795325756073
0.71456271409988403 0.39163094758987427 0.33374854922294617
0.75870621204376221 0.41087633371353149 0.35472333431243896
0.80054289102554321 0.42884165048599243 0.37449616193771362
0.8405228853225708 0.446541428565979 0.39413809776306152
0.87107157707214355 0.45881173014640808 0.40851733088493347
0.89554905891418457 0.46916362643241882 0.42024520039558411
0.91791725158691406 0.47792026400566101 0.43043959140777588
0.94016098976135254 0.48899278044700623 0.44189435243606567
0.16957466304302216 0.22728084027767181 0.11635497957468033
0.17587882280349731 0.22728084027767181 0.11698993295431137
0.18353934586048126 0.22709321975708008 0.1186487227678299
0.19039003551006317 0.22630725800991058 0.11887263506650925
0.19980897009372711 0.22630725800991058 0.11961071938276291
0.21205255389213562 0.22797387838363647 0.12126612663269043
0.22474017739295959 0.23136588931083679 0.12433511018753052
0.23574560880661011 0.23394793272018433 0.12704664468765259
0.24681445956230164 0.2341504693031311 0.12829422950744629
0.26161050796508789 0.23768053948879242 0.13227896392345428
0.27733689546585083 0.2417415976524353 0.13720102608203888
0.28989505767822266 0.24422149360179901 0.14073529839515686
0.30759787559509277 0.24880506098270416 0.14577256143093109
0.32990208268165588 0.25604599714279175 0.15589679777622223
0.35343140363693237 0.26300910115242004 0.16669638454914093
0.37510117888450623 0.26904791593551636 0.17605239152908325
0.39577019214630127 0.27418977022171021 0.18328627943992615
0.42174902558326721 0.28339812159538269 0.19471168518066406
0.45264843106269836 0.2958400547504425 0.20970626175403595
0.4870353639125824 0.30903449654579163 0.22590397298336029
0.51980012655258179 0.32120615243911743 0.2416820228099823
0.5548166036605835 0.33423188328742981 0.25817000865936279
0.59196478128433228 0.3481464684009552 0.2754901647567749
0.63020002841949463 0.36332374811172485 0.29319527745246887
0.67150759696960449 0.38067987561225891 0.31323534250259399
0.71470576524734497 0.39760351181030273 0.33382338285446167
0.75898712873458862 0.4151279628276825 0.35506537556648254
0.80089861154556274 0.43433937430381775 0.37450975179672241
0.8405228853225708 0.45250207185745239 0.39485299587249756
0.87315493822097778 0.4669748842716217 0.4099673330783844
0.89939236640930176 0.47805348038673401 0.42389360070228577
0.91987007856369019 0.48543387651443481 0.43300330638885498
0.93991541862487793 0.49430492520332336 0.44258579611778259
0.180961012840271 0.24645563960075378 0.12423457205295563
