Textures/60.cube
# Created by: G'MIC (https://gmic.eu)
TITLE "Fuji_Velvia_100_Generic.cube"
# LUT size
LUT_3D_SIZE 33
# Data domain
DOMAIN_MIN 0.0 0.0 0.0
DOMAIN_MAX 1.0 1.0 1.0
# LUT data points
0.0037405379116535187 0.0036765625700354576 0.0036765625700354576
0.020104721188545227 0.0036765625700354576 0.0036765625700354576
0.040600147098302841 0.003655710257589817 0.0036765630356967449
0.064480982720851898 0.0035744276829063892 0.0036612427793443203
0.088457375764846802 0.0034948592074215412 0.0036493265070021152
0.11245313286781311 0.0034160676877945662 0.0036462058778852224
0.13616114854812622 0.0031664604321122169 0.0035744272172451019
0.1645142138004303 0.0029379073530435562 0.0035744272172451019
0.19580841064453125 0.0027101284358650446 0.0035010885912925005
0.2341609001159668 0.0024168214295059443 0.0034433605615049601
0.27710694074630737 0.0027042778674513102 0.0031609875150024891
0.32250893115997314 0.0029745651409029961 0.0028801723383367062
0.36552676558494568 0.0023096764925867319 0.0028630080632865429
0.40890488028526306 0.0013976191403344274 0.0028630082961171865
0.45506897568702698 0.0014147877227514982 0.0030260286293923855
0.50436818599700928 0.00086477975128218532 0.0028501383494585752
0.55363667011260986 0.00047702211304567754 0.0026013173628598452
0.60269016027450562 0.00032683339668437839 0.0024418046232312918
0.6493450403213501 0.00032683333847671747 0.0020544345024973154
0.69507020711898804 0.00028612106689251959 0.0019643215928226709
0.7400815486907959 0.00023335109290201217 0.0019643213599920273
0.78396236896514893 0.00042123766615986824 0.0016811082605272532
0.82821393013000488 3.432884841458872e-05 0.0015695396577939391
0.87071067094802856 1.2483219506975729e-05 0.0015061144949868321
0.91233444213867188 5.6174485507654026e-05 0.0013753859093412757
0.95325225591659546 0 0.0013675855007022619
0.98998218774795532 0 0.0013005055952817202
1 0 0.0012459050631150603
1 0 0.0012256255140528083
1 0 0.0012256251648068428
1 0 0.0011437042849138379
1 0 0.00094475265359506011
1 0 0.00080314616207033396
0.0056124883703887463 0.019735291600227356 0.0036703208461403847
0.016941998153924942 0.019113844260573387 0.0034271818585693836
0.034889083355665207 0.018594320863485336 0.0033973930403590202
0.058778516948223114 0.017886511981487274 0.0033705823589116335
0.083110623061656952 0.017723459750413895 0.003349729347974062
0.10686682164669037 0.017250321805477142 0.003349729347974062
0.13118830323219299 0.016781479120254517 0.003349729347974062
0.16009491682052612 0.016099274158477783 0.003349729347974062
0.19197066128253937 0.015698784962296486 0.0031601886730641127
0.23032259941101074 0.015009993687272072 0.0025330667849630117
0.27370202541351318 0.01472800225019455 0.0024511667434126139
0.31923890113830566 0.01486996840685606 0.0024511667434126139
0.36192214488983154 0.013485440984368324 0.0024511667434126139
0.40534311532974243 0.011556564830243587 0.0024511669762432575
0.4513736367225647 0.01123516634106636 0.0024511669762432575
0.49991965293884277 0.0098200533539056778 0.0024511669762432575
0.55064970254898071 0.0089273173362016678 0.0024511667434126139
0.59881258010864258 0.0084277773275971413 0.0021972116082906723
0.64548462629318237 0.0079039297997951508 0.0015523751499131322
0.69131922721862793 0.0071208467707037926 0.0015523751499131322
0.73612666130065918 0.0067172474227845669 0.0015523751499131322
0.77993345260620117 0.0071035404689610004 0.0014759349869564176
0.82422530651092529 0.0051385201513767242 0.0013481563655659556
0.86666196584701538 0.004468399565666914 0.0012544143246486783
0.90829426050186157 0.004697384312748909 0.0012256253976374865
0.94929158687591553 0.0035552936606109142 0.0012256251648068428
0.98682880401611328 0.0033450524788349867 0.0012256253976374865
0.99989253282546997 0.0027451999485492706 0.0012256251648068428
1 0.0023411745205521584 0.0012256253976374865
1 0.0028244741261005402 0.0011944170109927654
1 0.0020579926203936338 0.00066856149351224303
1 0.0019218694651499391 0.00032683333847671747
1 0.0021098917350172997 0.00032683333847671747
0.0095320474356412888 0.039348885416984558 0.0036765630356967449
0.019727978855371475 0.03872806578874588 0.0035576887894421816
0.033237222582101822 0.038189530372619629 0.0033517156261950731
0.055135659873485565 0.037579823285341263 0.0033497298136353493
0.079605288803577423 0.036878366023302078 0.0033497298136353493
0.10325810313224792 0.036571353673934937 0.0033497298136353493
0.12830105423927307 0.035904362797737122 0.0033497298136353493
0.15764953196048737 0.034950237721204758 0.0033497298136353493
0.18939864635467529 0.034120477735996246 0.0033462194260209799
0.22903075814247131 0.032874774187803268 0.0027787680737674236
0.27281001210212708 0.032286591827869415 0.0024741771630942822
0.31786292791366577 0.032122377306222916 0.0024511669762432575
0.36035481095314026 0.030355174094438553 0.0024511669762432575
0.40358573198318481 0.028171144425868988 0.0024511672090739012
0.45001381635665894 0.027191698551177979 0.0024511669762432575
0.49951004981994629 0.025399293750524521 0.0024511672090739012
0.54889863729476929 0.023811990395188332 0.0024511669762432575
0.59758388996124268 0.022536704316735268 0.0023926522117108107
0.64391511678695679 0.021870743483304977 0.0016101101646199822
0.6895599365234375 0.02061125822365284 0.0015523753827437758
0.7344825267791748 0.019293051213026047 0.001552375266328454
0.77828782796859741 0.019274754449725151 0.001421334920451045
0.8221171498298645 0.017266815528273582 0.0012256253976374865
0.86458414793014526 0.016564717516303062 0.0012256253976374865
0.90645056962966919 0.016054555773735046 0.0012256255140528083
0.94708991050720215 0.014591461978852749 0.0012256253976374865
0.98447614908218384 0.014040211215615273 0.0012256255140528083
0.99983662366867065 0.01266199816018343 0.0012256253976374865
1 0.01208230946213007 0.0012256255140528083
1 0.012026143260300159 0.001171011128462851
1 0.011052144691348076 0.00045283598592504859
1 0.010812261141836643 0.00033424529829062521
1 0.010819667018949986 0.00032683339668437839
0.014663601294159889 0.062643051147460938 0.0036765630356967449
0.024546122178435326 0.06227150559425354 0.0036765630356967449
0.037593569606542587 0.061857715249061584 0.0035924431867897511
0.054442126303911209 0.061260528862476349 0.0034664762206375599
0.076146364212036133 0.060720410197973251 0.0033837747760117054
0.099417097866535187 0.060018811374902725 0.0033745539840310812
0.12554164230823517 0.059443477541208267 0.0033497298136353493
0.1554921567440033 0.058320418000221252 0.0033497295808047056
0.18865276873111725 0.057184919714927673 0.0033497298136353493
0.22814767062664032 0.05601569265127182 0.0033497295808047056
0.27274239063262939 0.05501825362443924 0.0031738388352096081
0.31762266159057617 0.054588336497545242 0.0026570875197649002
0.35984429717063904 0.052941121160984039 0.0024511667434126139
0.40299123525619507 0.050514440983533859 0.0024511669762432575
0.44942218065261841 0.049524657428264618 0.0026196474209427834
0.49941518902778625 0.047396622598171234 0.0025572474114596844
0.54755061864852905 0.045628312975168228 0.0024511667434126139
0.59656202793121338 0.044255506247282028 0.0024511669762432575
0.64299142360687256 0.042992185801267624 0.0024121569003909826
0.6881299614906311 0.041437786072492599 0.0019077569013461471
0.73315060138702393 0.039687063544988632 0.0019292122451588511
0.77657443284988403 0.039211142808198929 0.0018149213865399361
0.82073348760604858 0.036905962973833084 0.0013345417100936174
0.86298114061355591 0.035383984446525574 0.0012914290418848395
0.90458810329437256 0.034496642649173737 0.0012256253976374865
0.94527620077133179 0.032869517803192139 0.0012256251648068428
0.98342585563659668 0.031915508210659027 0.0012256253976374865
0.99983662366867065 0.030237326398491859 0.0012256251648068428
1 0.029166355729103088 0.0012256253976374865
1 0.028496649116277695 0.0012256251648068428
1 0.02763991616666317 0.0012256253976374865
1 0.026930078864097595 0.0010052182478830218
1 0.026828665286302567 0.0006264306721277535
0.021402783691883087 0.085752710700035095 0.00425703264772892
0.03112063929438591 0.085400283336639404 0.0041282991878688335
0.043195635080337524 0.084998816251754761 0.0039995666593313217
0.058841392397880554 0.084566622972488403 0.0038450863212347031
0.075320705771446228 0.084053508937358856 0.0038450863212347031
0.095597073435783386 0.083532921969890594 0.0038340215105563402
0.12311457842588425 0.082698211073875427 0.003743376350030303
0.15321822464466095 0.081702485680580139 0.0037293331697583199
0.18734271824359894 0.08065369725227356 0.0035425454843789339
0.22858788073062897 0.079416699707508087 0.003349729347974062
0.27324306964874268 0.078256666660308838 0.003349729347974062
0.31767687201499939 0.077568367123603821 0.003297469113022089
0.35973116755485535 0.076041951775550842 0.0029499784577637911
0.40297719836235046 0.074094302952289581 0.0028770484495908022
0.44945493340492249 0.072803676128387451 0.0032576892990618944
0.49937313795089722 0.070578932762145996 0.0031999689526855946
0.54737383127212524 0.06898653507232666 0.0025053771678358316
0.59624165296554565 0.067541390657424927 0.0024511672090739012
0.64224880933761597 0.066168330609798431 0.0024511669762432575
0.68743807077407837 0.0649600550532341 0.0024511672090739012
0.73204159736633301 0.063242517411708832 0.0024511669762432575
0.77583098411560059 0.062264993786811829 0.0023782181087881327
0.819771409034729 0.060208704322576523 0.0019268718315288424
0.86202889680862427 0.058661352843046188 0.0019454265711829066
0.90314429998397827 0.057456370443105698 0.0016659472603350878
0.9437975287437439 0.055913317948579788 0.0013730796054005623
0.9814683198928833 0.054600518196821213 0.001285310834646225
0.99983662366867065 0.052962474524974823 0.0012256253976374865
1 0.051771592348814011 0.0012256255140528083
1 0.050707355141639709 0.0012256253976374865
1 0.049741391092538834 0.0012256255140528083
1 0.04860663041472435 0.0012256253976374865
1 0.048321101814508438 0.0012256253976374865
0.029588764533400536 0.10906624794006348 0.0053892908617854118
0.03930993378162384 0.10873430222272873 0.0052305562421679497
0.050433546304702759 0.10846362262964249 0.0051318863406777382
0.064306475222110748 0.10782670974731445 0.0050031854771077633
0.07914327085018158 0.10724803805351257 0.0048187156207859516
0.096401035785675049 0.10674431174993515 0.0046112346462905407
0.12142720818519592 0.10608706623315811 0.0045753540471196175
0.15150623023509979 0.10514535754919052 0.0045753540471196175
0.18757319450378418 0.10413126647472382 0.0045549985952675343
0.22960059344768524 0.10276231169700623 0.0045242868363857269
0.27433660626411438 0.1016538068652153 0.0044556288048624992
0.31818267703056335 0.10093849152326584 0.0041989427991211414
0.36029398441314697 0.099439196288585663 0.0037195801269263029
0.40364816784858704 0.097707010805606842 0.0035974434576928616
0.45039412379264832 0.096426926553249359 0.0038677833508700132
0.49951004981994629 0.094296008348464966 0.0039192764088511467
0.54811954498291016 0.092782832682132721 0.0032939945813268423
0.59624165296554565 0.091178596019744873 0.0025697273667901754
0.64181268215179443 0.089739404618740082 0.0024511667434126139
0.68716925382614136 0.088797196745872498 0.0024511669762432575
0.73153388500213623 0.086777262389659882 0.0024511667434126139
0.77467054128646851 0.085693411529064178 0.0024511667434126139
0.81870943307876587 0.083990581333637238 0.0024511667434126139
0.8604283332824707 0.082665078341960907 0.0024511667434126139
0.90233147144317627 0.081219479441642761 0.0024501034058630466
0.94244915246963501 0.079880908131599426 0.0024328702129423618
0.98055922985076904 0.078552797436714172 0.0022167838178575039
0.99974632263183594 0.076839491724967957 0.0017003378598019481
1 0.075722388923168182 0.0013931897701695561
1 0.074517592787742615 0.0012630748096853495
1 0.073739752173423767 0.0012264054967090487
1 0.072599001228809357 0.0012256251648068428
1 0.072084911167621613 0.0012256251648068428
0.039372343569993973 0.13723531365394592 0.006599747110158205
0.047868922352790833 0.13699780404567719 0.006522507406771183
0.05781911313533783 0.13660971820354462 0.0063251173123717308
0.069961026310920715 0.13599580526351929 0.0060731121338903904
0.083677835762500763 0.13563854992389679 0.0059982119128108025
0.10098166018724442 0.13507410883903503 0.0058023934252560139
0.12205947935581207 0.13447533547878265 0.0055980118922889233
0.14868061244487762 0.13380570709705353 0.0053748846985399723
0.18710695207118988 0.13236150145530701 0.0052118650637567043
0.22990673780441284 0.1309768408536911 0.0052118650637567043
0.274615079164505 0.13008095324039459 0.0050702942535281181
0.31805714964866638 0.12892962992191315 0.0049064848572015762
0.36029398441314697 0.12729363143444061 0.004522999282926321
0.40392163395881653 0.1260252445936203 0.0043642749078571796
0.45097726583480835 0.12447897344827652 0.0044064056128263474
0.49950999021530151 0.12262406200170517 0.0043767578899860382
0.54837596416473389 0.12124834209680557 0.0042139440774917603
0.59624171257019043 0.11957289278507233 0.0038915844634175301
0.64127236604690552 0.11845223605632782 0.0034309483598917723
0.68615555763244629 0.11767110228538513 0.0028119510971009731
0.73069190979003906 0.11545496433973312 0.0024932981468737125
0.77436155080795288 0.11430034041404724 0.0025892495177686214
0.81754434108734131 0.11277825385332108 0.0024511669762432575
0.85927540063858032 0.11149212718009949 0.0024511669762432575
0.90040147304534912 0.1099400594830513 0.0024511669762432575
0.94096994400024414 0.10844574123620987 0.0024511669762432575
0.97831135988235474 0.10713550448417664 0.0024511669762432575
0.99967330694198608 0.10566916316747665 0.0024511669762432575
1 0.10454418510198593 0.0023889087606221437
1 0.10325358808040619 0.0023150213528424501
1 0.10266164690256119 0.0018960819579660892
1 0.10162673145532608 0.0017703789053484797
1 0.10113119333982468 0.0015911496011540294
0.048805262893438339 0.16865639388561249 0.0074587007984519005
0.056403078138828278 0.16817744076251984 0.0074587007984519005
0.064821816980838776 0.16774566471576691 0.0074587007984519005
0.07560044527053833 0.16758686304092407 0.0074274935759603977
0.089041769504547119 0.16716425120830536 0.0072913579642772675
0.10672707110643387 0.16671444475650787 0.006916118785738945
0.12675966322422028 0.16639067232608795 0.0066929822787642479
0.14997643232345581 0.16558739542961121 0.0065599572844803333
0.18544535338878632 0.16394741833209991 0.0065599577501416206
0.22970224916934967 0.16281989216804504 0.0064039169810712337
0.27412325143814087 0.16176412999629974 0.0063727088272571564
0.3173142671585083 0.16007779538631439 0.0063434513285756111
0.35945677757263184 0.15878087282180786 0.0060575311072170734
0.40351596474647522 0.15769059956073761 0.0057735913433134556
0.45116880536079407 0.15586085617542267 0.0057735908776521683
0.49947494268417358 0.15471151471138 0.0055161803029477596
0.54772132635116577 0.15347164869308472 0.0047719767317175865
0.59534001350402832 0.15161606669425964 0.0044123632833361626
0.64049768447875977 0.15040546655654907 0.0042485208250582218
0.68499463796615601 0.14955668151378632 0.0041939145885407925
0.7293403148651123 0.14737097918987274 0.0040964055806398392
0.77228301763534546 0.14612028002738953 0.0041291755624115467
0.81571149826049805 0.14448028802871704 0.0033319422509521246
0.85740238428115845 0.1436038464307785 0.0029017264023423195
0.89849460124969482 0.14189240336418152 0.0028443888295441866
0.93852627277374268 0.14030437171459198 0.0026384152006357908
0.97646629810333252 0.13938671350479126 0.0026033064350485802
0.99924606084823608 0.13804374635219574 0.0024511667434126139
1 0.13658297061920166 0.0024511672090739012
1 0.13562206923961639 0.0024511667434126139
1 0.13509432971477509 0.0024511672090739012
1 0.13395597040653229 0.0024306029081344604
1 0.13343703746795654 0.0023828104604035616
0.044975366443395615 0.20852993428707123 0.0081700626760721207
0.051139619201421738 0.20827287435531616 0.0081700626760721207
0.059196725487709045 0.20806460082530975 0.0081700626760721207
0.069486089050769806 0.20771206915378571 0.0081700626760721207
0.083771549165248871 0.20733775198459625 0.0081665534526109695
0.10252393782138824 0.20692743360996246 0.0077952719293534756
0.123601995408535 0.20639358460903168 0.0075335805304348469
0.14956744015216827 0.20544801652431488 0.0075335805304348469
0.18191489577293396 0.20436236262321472 0.0072117764502763748
0.22537596523761749 0.20310729742050171 0.006771773099899292
0.27003461122512817 0.20184406638145447 0.0063902628608047962
0.31314012408256531 0.20048530399799347 0.0063727088272571564
0.35609865188598633 0.19908048212528229 0.0063727088272571564
0.40138545632362366 0.19775334000587463 0.0063727092929184437
0.44933032989501953 0.19642466306686401 0.0063727092929184437
0.49749746918678284 0.1951499730348587 0.0063727088272571564
0.54569423198699951 0.19395478069782257 0.0063072945922613144
0.59266853332519531 0.19239804148674011 0.0058816857635974884
0.63788992166519165 0.1906990110874176 0.0049783941358327866
0.682425856590271 0.1895751953125 0.0048625399358570576
0.72625118494033813 0.18796463310718536 0.0047166417352855206
0.76938563585281372 0.18631531298160553 0.0043604802340269089
0.81257808208465576 0.18504354357719421 0.0042485208250582218
0.85391807556152344 0.18432590365409851 0.0041510211303830147
0.89496183395385742 0.18268474936485291 0.0041182609274983406
0.93526917695999146 0.18119640648365021 0.0035933183971792459
0.97268939018249512 0.1802607923746109 0.0033464482985436916
0.99828243255615234 0.17881475389003754 0.0031338431872427464
1 0.17746065557003021 0.0031252610497176647
1 0.17663611471652985 0.0029879454523324966
1 0.17591920495033264 0.0028120102360844612
1 0.17455101013183594 0.0025888725649565458
1 0.17415204644203186 0.0026489482261240482
0.041351817548274994 0.25288066267967224 0.0082925939932465553
0.046174760907888412 0.25248163938522339 0.0082925939932465553
0.052407640963792801 0.25229009985923767 0.0082925949245691299
0.061405755579471588 0.25195851922035217 0.0082504749298095703
0.072822928428649902 0.25151222944259644 0.0082177137956023216
0.087410442531108856 0.2512165904045105 0.0082177137956023216
0.10539579391479492 0.2504902184009552 0.0081789977848529816
0.13226769864559174 0.24948777258396149 0.0081700626760721207
0.16875523328781128 0.24867977201938629 0.0081700626760721207
0.21669667959213257 0.24748919904232025 0.0081139039248228073
0.26237595081329346 0.24631465971469879 0.0076813413761556149
0.3061470091342926 0.24505311250686646 0.0071883229538798332
0.35017532110214233 0.24370692670345306 0.0070123882032930851
0.39709630608558655 0.24230006337165833 0.0065848873928189278
0.44585460424423218 0.24111141264438629 0.0064000091515481472
0.49416801333427429 0.23990418016910553 0.0063727088272571564
0.54208916425704956 0.23887334764003754 0.0063727088272571564
0.58891868591308594 0.23722448945045471 0.0063658999279141426
0.63386458158493042 0.23564310371875763 0.0060771908611059189
0.67870742082595825 0.23402196168899536 0.005643477663397789
0.72234600782394409 0.2329319566488266 0.0055483835749328136
0.76512116193771362 0.23142163455486298 0.0051367655396461487
0.80837398767471313 0.22994782030582428 0.0049975141882896423
0.84972578287124634 0.22921322286128998 0.0048215785063803196
0.89027971029281616 0.22784262895584106 0.0047915419563651085
0.93029320240020752 0.22615721821784973 0.0044541317038238049
0.96795332431793213 0.22529910504817963 0.0040239146910607815
0.99649548530578613 0.2240586131811142 0.0036752284504473209
1 0.22268971800804138 0.0034809994976967573
1 0.22185733914375305 0.0034236686769872904
1 0.2209416925907135 0.003349959384649992
1 0.22002570331096649 0.003349958686158061
1 0.2193777859210968 0.003349958686158061
0.023469619452953339 0.29465958476066589 0.0095265209674835205
0.027852240949869156 0.29446223378181458 0.0095265209674835205
0.034723896533250809 0.29413884878158569 0.0095179397612810135
0.04475884884595871 0.29399487376213074 0.0091146267950534821
0.05619136244058609 0.29370778799057007 0.0091146258637309074
0.070747852325439453 0.29317256808280945 0.0090569062158465385
0.091797478497028351 0.2923704981803894 0.0087832137942314148
0.11614309996366501 0.29146552085876465 0.0084009431302547455
0.15474233031272888 0.29046884179115295 0.0081743532791733742
0.20666784048080444 0.28981736302375793 0.0081700626760721207
0.25334528088569641 0.28871598839759827 0.0081700626760721207
0.298786461353302 0.28760764002799988 0.0081700626760721207
0.34439042210578918 0.28629034757614136 0.0081700626760721207
0.39276286959648132 0.28512787818908691 0.0078380880877375603
0.44218486547470093 0.28372067213058472 0.0069760512560606003
0.49111652374267578 0.28237077593803406 0.0066515593789517879
0.53881388902664185 0.28121909499168396 0.0065700486302375793
0.58560103178024292 0.27987757325172424 0.0063727088272571564
0.63010460138320923 0.27838140726089478 0.0063727088272571564
0.67499536275863647 0.27675348520278931 0.0063727088272571564
0.71843016147613525 0.27555039525032043 0.0063624950125813484
0.76107221841812134 0.27433541417121887 0.0060880193486809731
0.804176926612854 0.27316248416900635 0.0058594541624188423
0.84556305408477783 0.27205458283424377 0.0054733539000153542
0.88603144884109497 0.27054321765899658 0.0052931737154722214
0.92582738399505615 0.26926702260971069 0.0051902132108807564
0.96340799331665039 0.26837372779846191 0.005147312767803669
0.99470990896224976 0.26689767837524414 0.0050926981493830681
1 0.26599544286727905 0.0050724134780466557
1 0.26502758264541626 0.0049495398998260498
1 0.2637292742729187 0.0045770448632538319
1 0.26304420828819275 0.0042080660350620747
1 0.26244863867759705 0.0039849849417805672
0.015146782621741295 0.33741840720176697 0.010294167324900627
0.016793631017208099 0.33735442161560059 0.010294167324900627
0.018863765522837639 0.33707594871520996 0.010294168256223202
0.022930936887860298 0.33662506937980652 0.010294168256223202
0.029414258897304535 0.33600720763206482 0.010294167324900627
0.038766652345657349 0.33553412556648254 0.010294167324900627
0.055323250591754913 0.335062175989151 0.010294167324900627
0.079446136951446533 0.33409321308135986 0.010294167324900627
0.13501186668872833 0.3333972692489624 0.010018771514296532
0.1926187127828598 0.33245435357093811 0.0093466397374868393
0.24208322167396545 0.33158838748931885 0.0088689457625150681
0.28987398743629456 0.33084070682525635 0.0088627040386199951
0.33770650625228882 0.32973024249076843 0.0086868144571781158
0.38750481605529785 0.32813957333564758 0.0084578841924667358
0.43883949518203735 0.32669585943222046 0.0081700626760721207
0.48748305439949036 0.3253338634967804 0.008037039078772068
0.53547275066375732 0.32394474744796753 0.0079051852226257324
0.58165222406387329 0.32292386889457703 0.007228391245007515
0.62629222869873047 0.3216705322265625 0.0068808798678219318
0.67093366384506226 0.32005181908607483 0.0068594301119446754
0.7143404483795166 0.31889092922210693 0.0065353387035429478
0.75685817003250122 0.31790497899055481 0.0063727041706442833
0.79980236291885376 0.31651753187179565 0.0062853177078068256
0.84110647439956665 0.31544482707977295 0.0061355275101959705
0.88124769926071167 0.31407052278518677 0.0061246054247021675
0.9210735559463501 0.31240606307983398 0.0059419618919491768
0.95844799280166626 0.31186637282371521 0.005659774411469698
0.9916195273399353 0.31065809726715088 0.0055310740135610104
1 0.30923837423324585 0.0053551835007965565
1 0.30821293592453003 0.0051894327625632286
1 0.30752319097518921 0.0051473132334649563
1 0.30679664015769958 0.0051473123021423817
1 0.30589988827705383 0.0051473123021423817
0 0.38255897164344788 0.010294167324900627
0 0.38235336542129517 0.010294167324900627
0 0.38227376341819763 0.010294168256223202
0.00048935174709185958 0.38200342655181885 0.010294168256223202
0.0027012773789465427 0.38169446587562561 0.010294167324900627
0.0065355147235095501 0.38122096657752991 0.010294167324900627
