Textures/60.cube
# Created by: G'MIC (https://gmic.eu)
TITLE "Fuji_Velvia_100_Generic.cube"
# LUT size
LUT_3D_SIZE 5
# Data domain
DOMAIN_MIN 0.0 0.0 0.0
DOMAIN_MAX 1.0 1.0 1.0
# LUT data points
0.0037405379116535187 0.0036765625700354576 0.0036765625700354576
0.19580841064453125 0.0027101284358650446 0.0035010885912925005
0.55363667011260986 0.00047702211304567754 0.0026013173628598452
0.91233444213867188 5.6174485507654026e-05 0.0013753859093412757
1 0 0.00080314616207033396
0.044975366443395615 0.20852993428707123 0.0081700626760721207
0.18191489577293396 0.20436236262321472 0.0072117764502763748
0.54569423198699951 0.19395478069782257 0.0063072945922613144
0.89496183395385742 0.18268474936485291 0.0041182609274983406
1 0.17415204644203186 0.0026489482261240482
0 0.57056510448455811 0.011192957870662212
0.00078127824235707521 0.56738471984863281 0.010072246193885803
0.49298533797264099 0.55957019329071045 0.0094048921018838882
0.8452451229095459 0.5502592921257019 0.0081690540537238121
1 0.54353207349777222 0.0069444375112652779
0 0.89142662286758423 0
0 0.88937926292419434 0
0.40065190196037292 0.88234943151473999 0
0.77480417490005493 0.87748682498931885 0
0.99610555171966553 0.86977142095565796 0
0.0018723587272688746 1 0
0.1674918532371521 1 0
0.53398966789245605 1 0
0.79874902963638306 1 0
0.97454559803009033 1 0
0.0066994596272706985 0.0011694506974890828 0.20167344808578491
0.19954359531402588 0.00031619431683793664 0.19904248416423798
0.55654531717300415 0 0.19527618587017059
0.9156116247177124 0 0.19058814644813538
1 0 0.18725845217704773
0.053413081914186478 0.19315746426582336 0.19072054326534271
0.1901385486125946 0.18879351019859314 0.18902128934860229
0.55040132999420166 0.17900028824806213 0.18583743274211884
0.89871835708618164 0.167655348777771 0.18138320744037628
1 0.15896321833133698 0.17810098826885223
0 0.55802714824676514 0.15356580913066864
0.003509448142722249 0.55479931831359863 0.15291133522987366
0.50236666202545166 0.54691648483276367 0.15039992332458496
0.85094887018203735 0.53780698776245117 0.14871419966220856
1 0.53077042102813721 0.14702208340167999
0 0.87989532947540283 0.052017204463481903
0 0.87759220600128174 0.050480596721172333
0.41764727234840393 0.87160795927047729 0.048378683626651764
0.78334444761276245 0.86503076553344727 0.048473220318555832
0.99845606088638306 0.85875535011291504 0.05161527544260025
0.0042895041406154633 1 0.099218733608722687
0.17863136529922485 1 0.097972318530082703
0.53836411237716675 1 0.095033653080463409
0.80180078744888306 1 0.090816140174865723
0.97720485925674438 1 0.086955823004245758
0.010529208928346634 0 0.55691927671432495
0.20635807514190674 0 0.55472660064697266
0.56294608116149902 0 0.55099201202392578
0.92126190662384033 0 0.5468563437461853
1 0 0.54359763860702515
0.066042810678482056 0.16361334919929504 0.54628086090087891
0.20633804798126221 0.1592583954334259 0.54471111297607422
0.5594744086265564 0.14880567789077759 0.54114788770675659
0.90566658973693848 0.13792064785957336 0.53727686405181885
1 0.1286783367395401 0.53418600559234619
0 0.53179806470870972 0.52468514442443848
0.018498720601201057 0.52841973304748535 0.52335488796234131
0.52067214250564575 0.52036309242248535 0.52065461874008179
0.86247622966766357 0.51131314039230347 0.51726830005645752
1 0.50427967309951782 0.5146024227142334
0 0.8551943302154541 0.50050562620162964
0 0.85332447290420532 0.49981057643890381
0.45046287775039673 0.84739530086517334 0.49780192971229553
0.80052429437637329 0.8405221700668335 0.49521738290786743
0.99999815225601196 0.83475494384765625 0.49347811937332153
0.0093715013936161995 1 0.5007864236831665
0.20188198983669281 1 0.49993562698364258
0.54723173379898071 1 0.4982265830039978
0.80845773220062256 1 0.49571767449378967
0.98332363367080688 1 0.49395418167114258
0.013227273710072041 0 0.87785488367080688
0.21290421485900879 0 0.87593692541122437
0.56833302974700928 0 0.87225407361984253
0.92702358961105347 0 0.86818814277648926
1 0 0.86574453115463257
0.071874573826789856 0.13441483676433563 0.86588990688323975
0.220976322889328 0.13031899929046631 0.86567002534866333
0.56733584403991699 0.11988791078329086 0.86192411184310913
0.91231942176818848 0.10840877145528793 0.85800665616989136
1 0.09932456910610199 0.85413897037506104
0 0.50588339567184448 0.84517979621887207
0.074418403208255768 0.50247591733932495 0.84339112043380737
0.53690361976623535 0.49451369047164917 0.84124231338500977
0.87310463190078735 0.48556917905807495 0.83824187517166138
1 0.47836035490036011 0.83464068174362183
0 0.83080071210861206 0.82240623235702515
0 0.82938593626022339 0.82093524932861328
0.47974157333374023 0.82310193777084351 0.81879085302352905
0.81675004959106445 0.81617581844329834 0.81613647937774658
1 0.81094837188720703 0.81486773490905762
0.016142567619681358 1 0.81126588582992554
0.22351202368736267 1 0.81094753742218018
0.55588442087173462 1 0.81089901924133301
0.81493782997131348 1 0.80704265832901001
0.98924392461776733 0.99988400936126709 0.8070177435874939
0.014534494839608669 0 1
0.21681249141693115 0 1
0.57238608598709106 0 1
0.93037265539169312 0 1
1 0 1
0.07594618946313858 0.11549554765224457 1
0.22909413278102875 0.11131169646978378 1
0.57242769002914429 0.10116544365882874 1
0.91654062271118164 0.08935682475566864 1
1 0.079483374953269958 1
0 0.48947581648826599 1
0.12127065658569336 0.48595845699310303 1
0.5471266508102417 0.47795543074607849 1
0.87986546754837036 0.46880471706390381 1
1 0.46186792850494385 1
0 0.81513935327529907 1
0.0020588974002748728 0.81473255157470703 1
0.49707555770874023 0.80715298652648926 1
0.82682979106903076 0.80066812038421631 0.99979037046432495
1 0.79526162147521973 0.99967330694198608
0.023496335372328758 1 0.99844765663146973
0.23997852206230164 0.99968630075454712 0.99836969375610352
0.56197488307952881 0.99954921007156372 0.99632346630096436
0.82137668132781982 0.99665212631225586 0.99632346630096436
0.9938814640045166 0.99422448873519897 0.99441343545913696
