Textures/62.cube
# Created by: G'MIC (https://gmic.eu)
TITLE "Kodak_E-100_GX_Ektachrome_100.cube"
# LUT size
LUT_3D_SIZE 33
# Data domain
DOMAIN_MIN 0.0 0.0 0.0
DOMAIN_MAX 1.0 1.0 1.0
# LUT data points
0.0051251999102532864 0.0061783408746123314 0.0046473601832985878
0.017860006541013718 0.0040070139802992344 0.0039507676847279072
0.03297882154583931 0.0036750026047229767 0.003570253262296319
0.05183584988117218 0.0033200702164322138 0.0031718548852950335
0.071225494146347046 0.0024580417666584253 0.0024786866270005703
0.091414168477058411 0.0018773290794342756 0.0021038679406046867
0.11301691830158234 0.0015164951328188181 0.001962379552423954
0.13796277344226837 0.0011749974219128489 0.0014798477059230208
0.16263626515865326 0.00051291129784658551 0.0010398459853604436
0.18754273653030396 0.00032683333847671747 0.00065008056117221713
0.21236632764339447 0.00022384680050890893 0.00041070501902140677
0.23946462571620941 6.2416092987405136e-06 0.00018795755750034004
0.26758658885955811 0 7.2487775469198823e-05
0.29759839177131653 0 7.9438659668085165e-06
0.32931676506996155 0 0
0.36126819252967834 0 0
0.39280045032501221 0 0
0.42375129461288452 0 0
0.45441234111785889 0 0
0.48559865355491638 0 0
0.51717114448547363 0 0
0.54780137538909912 0 0
0.57839953899383545 0.00067331362515687943 0
0.60799264907836914 0.0035029614809900522 0
0.6369134783744812 0.0039220014587044716 0
0.66559511423110962 0.003922000527381897 0
0.69326013326644897 0.0039220014587044716 0
0.72152531147003174 0.003922000527381897 0
0.74954968690872192 0.0047846832312643528 0
0.77701181173324585 0.0078245643526315689 0
0.80530297756195068 0.006618645042181015 0
0.83309894800186157 0.0061707468703389168 0
0.84485983848571777 0.0076660104095935822 0
0.015475346706807613 0.024906495586037636 0.010216637514531612
0.029297953471541405 0.022370129823684692 0.0093311136588454247
0.046519584953784943 0.020465398207306862 0.0083946390077471733
0.065838903188705444 0.018867464736104012 0.007801140658557415
0.085696190595626831 0.016676135361194611 0.0072164488956332207
0.10574710369110107 0.015706023201346397 0.0064547639340162277
0.1277269721031189 0.014066526666283607 0.0057526165619492531
0.15256595611572266 0.011980320326983929 0.0048254416324198246
0.17641153931617737 0.010197609663009644 0.0038625674787908792
0.20038770139217377 0.0086550163105130196 0.0030841035768389702
0.22473661601543427 0.0075324545614421368 0.0024567598011344671
0.25080603361129761 0.0059531820006668568 0.0018094192491844296
0.27782267332077026 0.0046830517239868641 0.0012007922632619739
0.30644053220748901 0.0032943154219537973 0.0005914989160373807
0.33632346987724304 0.0027878284454345703 0.00018554601410869509
0.3662773072719574 0.00094897300004959106 3.1775463867234066e-05
0.39631986618041992 2.0994504666305147e-05 0
0.4263845682144165 0 0
0.45656350255012512 0 0
0.48785746097564697 0 0
0.51877439022064209 0 0
0.54924166202545166 0 0
0.57945418357849121 0.00011585986794671044 0
0.60878634452819824 0.0031378273852169514 0
0.63734954595565796 0.0039220014587044716 0
0.66584795713424683 0.003922000527381897 0
0.6933748722076416 0.0039220014587044716 0
0.72140747308731079 0.003922000527381897 0
0.74908638000488281 0.0044648824259638786 0
0.77650117874145508 0.0077153625898063183 0
0.80468052625656128 0.0058417627587914467 0
0.83216863870620728 0.0052035441622138023 0
0.84403598308563232 0.006617687176913023 0
0.02834833599627018 0.048338953405618668 0.016347642987966537
0.040569111704826355 0.045628469437360764 0.015339868143200874
0.056131601333618164 0.043153967708349228 0.0143013009801507
0.075230129063129425 0.040634065866470337 0.013220930472016335
0.095290333032608032 0.038213986903429031 0.012305970303714275
0.11561249196529388 0.035900592803955078 0.011433064937591553
0.13835771381855011 0.03356228768825531 0.010198578238487244
0.16305811703205109 0.03096836619079113 0.0088519053533673286
0.18649645149707794 0.028454329818487167 0.0076874978840351105
0.21016153693199158 0.025545600801706314 0.0064828000031411648
0.23456861078739166 0.02285425178706646 0.0055014556273818016
0.26064556837081909 0.020723989233374596 0.0045064752921462059
0.28771963715553284 0.017774509266018867 0.0034175657201558352
0.31621634960174561 0.016310086473822594 0.0025251270271837711
0.34571012854576111 0.01265278086066246 0.0016400578897446394
0.37465333938598633 0.0090675363317131996 0.00092694663908332586
0.40316674113273621 0.0056818476878106594 0.00039261850179173052
0.43120062351226807 0.0031343437731266022 0.00012071842502336949
0.45941242575645447 0.0016392982797697186 3.0356919523910619e-05
0.48949137330055237 0.00023108140158001333 0
0.5202031135559082 0 0
0.55040067434310913 0 0
0.58044588565826416 7.3338902438990772e-05 0
0.60949653387069702 0.0027410951443016529 0
0.63770508766174316 0.0039220014587044716 0
0.66617470979690552 0.0039220014587044716 0
0.69361823797225952 0.0039220014587044716 0
0.72161185741424561 0.0039220014587044716 0
0.74925953149795532 0.004333842545747757 0
0.77650117874145508 0.0075617036782205105 0
0.80457556247711182 0.0049560703337192535 0
0.83184367418289185 0.0046899127773940563 0
0.8433992862701416 0.0059812064282596111 0
0.045030225068330765 0.074569270014762878 0.024487994611263275
0.055839698761701584 0.072185903787612915 0.023317592218518257
0.067703984677791595 0.069830238819122314 0.022243482992053032
0.085207268595695496 0.067282967269420624 0.020807184278964996
0.10539789497852325 0.064819850027561188 0.019545448943972588
0.12573248147964478 0.062326207756996155 0.018312027677893639
0.14914366602897644 0.059563230723142624 0.016871070489287376
0.17310827970504761 0.05630502849817276 0.015508640557527542
0.19650165736675262 0.053088098764419556 0.01358442660421133
0.22000995278358459 0.049695894122123718 0.01223478838801384
0.2442726343870163 0.046601291745901108 0.010638819076120853
0.27038279175758362 0.043244622647762299 0.0089285140857100487
0.29764527082443237 0.039465174078941345 0.0074433740228414536
0.32603511214256287 0.036026481539011002 0.0059501021169126034
0.35522696375846863 0.031015139073133469 0.0045158411376178265
0.38373568654060364 0.025306291878223419 0.0032486184500157833
0.41182351112365723 0.019919067621231079 0.0023091998882591724
0.43949407339096069 0.015428647398948669 0.0016489652916789055
0.46687939763069153 0.010885381139814854 0.00099808722734451294
0.49528998136520386 0.0063050012104213238 0.00029853338492102921
0.52351653575897217 0.0024274317547678947 3.3761432860046625e-05
0.55214792490005493 0.00050060549983754754 0
0.58164942264556885 0 0
0.61044019460678101 0.0023763508070260286 0
0.63852697610855103 0.0039220014587044716 0
0.66657364368438721 0.003922000527381897 0
0.69409686326980591 0.0039220014587044716 0
0.72178268432617188 0.003922000527381897 0
0.74935430288314819 0.0041466415859758854 0
0.77650117874145508 0.0072683515027165413 0
0.80421948432922363 0.004434710368514061 0
0.83152312040328979 0.004126750398427248 0
0.84313714504241943 0.0047082426026463509 0
0.063605882227420807 0.10210394114255905 0.035031963139772415
0.072676278650760651 0.099857836961746216 0.033988725394010544
0.082748405635356903 0.097512967884540558 0.032793939113616943
0.096698284149169922 0.094802983105182648 0.030890263617038727
0.11549628525972366 0.092009037733078003 0.029262814670801163
0.13609679043292999 0.089379340410232544 0.027529198676347733
0.16002638638019562 0.086209617555141449 0.02578435093164444
0.18307670950889587 0.083040446043014526 0.024072384461760521
0.206271693110466 0.079468026757240295 0.021946258842945099
0.22944462299346924 0.075740769505500793 0.019984818994998932
0.2536827027797699 0.071990109980106354 0.018081158399581909
0.2801344096660614 0.06830887496471405 0.01578727550804615
0.30713456869125366 0.064401082694530487 0.013415525667369366
0.33545252680778503 0.060056637972593307 0.011668308638036251
0.3642103374004364 0.054112762212753296 0.0095804827287793159
0.39232251048088074 0.047650702297687531 0.0076453303918242455
0.42013227939605713 0.040993921458721161 0.0059366705827414989
0.4475645124912262 0.034633614122867584 0.0046838396228849888
0.47494125366210938 0.027438696473836899 0.0034385956823825836
0.50318866968154907 0.019721616059541702 0.0021579454187303782
0.53078204393386841 0.013011520728468895 0.0011791650904342532
0.55763113498687744 0.0077085164375603199 0.00029144063591957092
0.58466774225234985 0.003355921246111393 2.8087242753827013e-05
0.61166656017303467 0.0027738281060010195 0
0.63943785429000854 0.0039220014587044716 0
0.66724973917007446 0.0039220014587044716 0
0.69453787803649902 0.0039220014587044716 0
0.72213834524154663 0.0039220014587044716 0
0.74955290555953979 0.004027301911264658 0
0.77658694982528687 0.0065845376811921597 0
0.80423355102539062 0.0040499214082956314 0
0.83149582147598267 0.0039220014587044716 0
0.84313714504241943 0.0039220014587044716 0
0.082890041172504425 0.13058100640773773 0.047734625637531281
0.090788878500461578 0.12866894900798798 0.04683980718255043
0.099906638264656067 0.12638944387435913 0.045269928872585297
0.11188867688179016 0.12373819947242737 0.043490547686815262
0.12650968134403229 0.12128081172704697 0.041660487651824951
0.14714600145816803 0.11844019591808319 0.039531230926513672
0.17139194905757904 0.1150008887052536 0.037329297512769699
0.19325196743011475 0.11144883185625076 0.035315703600645065
0.21626624464988708 0.10730931907892227 0.033093202859163284
0.23921097815036774 0.1033647432923317 0.030646061524748802
0.26352199912071228 0.09898744523525238 0.028211364522576332
0.29000949859619141 0.09462042897939682 0.025176431983709335
0.31718337535858154 0.090138912200927734 0.022185221314430237
0.34515920281410217 0.085121549665927887 0.019610157236456871
0.37347239255905151 0.079015538096427917 0.017165156081318855
0.40099650621414185 0.071783974766731262 0.014409396797418594
0.42833879590034485 0.065043322741985321 0.01193857379257679
0.45548182725906372 0.057784192264080048 0.010251505300402641
0.48281881213188171 0.049422811716794968 0.0079872366040945053
0.51103991270065308 0.040052682161331177 0.0057922424748539925
0.5384218692779541 0.030627669766545296 0.0040273307822644711
0.56512898206710815 0.022160211578011513 0.0023946245200932026
0.59148269891738892 0.014145220629870892 0.0011655783746391535
0.61641120910644531 0.0078769326210021973 0.00038499382208101451
0.64146345853805542 0.0044564562849700451 3.4399778087390587e-05
0.66819214820861816 0.003922000527381897 0
0.69534891843795776 0.0039220014587044716 0
0.72275185585021973 0.003922000527381897 0
0.74984890222549438 0.0039220014587044716 0
0.77683389186859131 0.0049500437453389168 0
0.80445307493209839 0.003953590989112854 0
0.83168965578079224 0.003922000527381897 0
0.84313714504241943 0.003922000527381897 0
0.10427094995975494 0.16263984143733978 0.061552777886390686
0.1113533228635788 0.16107472777366638 0.060517378151416779
0.12005692720413208 0.15919747948646545 0.059125039726495743
0.13045160472393036 0.15704654157161713 0.057686977088451385
0.14260017871856689 0.15499319136142731 0.055664859712123871
0.16023583710193634 0.15203447639942169 0.053493116050958633
0.18311329185962677 0.14864283800125122 0.051194198429584503
0.20440606772899628 0.14514277875423431 0.049015406519174576
0.22722674906253815 0.14096345007419586 0.046681325882673264
0.2503189742565155 0.13673467934131622 0.044065862894058228
0.27476224303245544 0.13214406371116638 0.04142066091299057
0.30148836970329285 0.1268898993730545 0.037999216467142105
0.32875874638557434 0.12193161249160767 0.034240949898958206
0.35640606284141541 0.11598517000675201 0.031107001006603241
0.38413694500923157 0.10898014903068542 0.027725595980882645
0.41092205047607422 0.1014229878783226 0.024470876902341843
0.4377625584602356 0.09361228346824646 0.020965799689292908
0.46477735042572021 0.085367023944854736 0.018242029473185539
0.49204602837562561 0.076530948281288147 0.015372935682535172
0.51983416080474854 0.066996872425079346 0.012073245830833912
0.54702085256576538 0.056595377624034882 0.0095860129222273827
0.57332068681716919 0.046207915991544724 0.0070454468950629234
0.5996747612953186 0.035184610635042191 0.0047714905813336372
0.62440747022628784 0.024665579199790955 0.003055845620110631
0.64822018146514893 0.015086555853486061 0.0014114044606685638
0.67205756902694702 0.00712584238499403 0.00055734737543389201
0.69687378406524658 0.0040955864824354649 7.3764480475801975e-05
0.72347170114517212 0.0039220014587044716 0
0.75060564279556274 0.0039220014587044716 0
0.77725517749786377 0.0039220014587044716 0
0.80495160818099976 0.0039220014587044716 0
0.83186560869216919 0.0039220014587044716 0
0.84313714504241943 0.0039220014587044716 0
0.1239563375711441 0.19181551039218903 0.074014425277709961
0.1309235543012619 0.19069980084896088 0.073018357157707214
0.13852430880069733 0.18978473544120789 0.072156861424446106
0.14837631583213806 0.18791463971138 0.07122773677110672
0.16086117923259735 0.18593689799308777 0.069518893957138062
0.17573986947536469 0.18312165141105652 0.0673389732837677
0.19441321492195129 0.18045307695865631 0.06523316353559494
0.21549762785434723 0.17734166979789734 0.063086643815040588
0.2378869503736496 0.17371392250061035 0.06097785010933876
0.2613804042339325 0.16951552033424377 0.058385070413351059
0.28613767027854919 0.165040522813797 0.05518675222992897
0.31323793530464172 0.16018104553222656 0.05205782875418663
0.34051662683486938 0.15485011041164398 0.048491083085536957
0.36793094873428345 0.14880546927452087 0.04476068913936615
0.39515209197998047 0.14157718420028687 0.041208073496818542
0.42134571075439453 0.13369636237621307 0.037186019122600555
0.44788900017738342 0.1246659904718399 0.033138692378997803
0.47465473413467407 0.1152183786034584 0.02912486158311367
0.50157684087753296 0.10515855997800827 0.025362448766827583
0.52883517742156982 0.095093607902526855 0.021111365407705307
0.55573093891143799 0.083701178431510925 0.017572270706295967
0.58167582750320435 0.072731092572212219 0.014136447571218014
0.60764259099960327 0.061118621379137039 0.010912518948316574
0.63233083486557007 0.048727378249168396 0.0083894291892647743
0.65612208843231201 0.035294406116008759 0.0058359373360872269
0.67959421873092651 0.022391891106963158 0.0036857544910162687
0.70206671953201294 0.011178453452885151 0.0018670902354642749
0.72559618949890137 0.0049425126053392887 0.00066611450165510178
0.75153952836990356 0.0039220014587044716 0.00015157181769609451
0.77814781665802002 0.003922000527381897 2.2696762243867852e-05
0.80564588308334351 0.0039220014587044716 0
0.83210867643356323 0.003922000527381897 0
0.84313714504241943 0.003922000527381897 0
0.13266406953334808 0.22254396975040436 0.085313700139522552
0.13942624628543854 0.22159408032894135 0.084917381405830383
0.14726296067237854 0.22070154547691345 0.084441475570201874
0.15807370841503143 0.21951368451118469 0.083144001662731171
0.17174158990383148 0.2171705961227417 0.081648804247379303
0.18758074939250946 0.21509742736816406 0.080351315438747406
0.20585541427135468 0.21262575685977936 0.078322462737560272
0.22728829085826874 0.2095889151096344 0.076896302402019501
0.24922697246074677 0.20661737024784088 0.074969269335269928
0.27311214804649353 0.20305712521076202 0.072451412677764893
0.29837295413017273 0.19880449771881104 0.069777324795722961
0.32545962929725647 0.19436906278133392 0.066931374371051788
0.35281965136528015 0.18924476206302643 0.063769333064556122
0.38002240657806396 0.1836269348859787 0.06038377434015274
0.40667402744293213 0.17726074159145355 0.056793197989463806
0.43270790576934814 0.16961391270160675 0.052654746919870377
0.45909535884857178 0.16091459989547729 0.048666074872016907
0.48571908473968506 0.15073162317276001 0.043853636831045151
0.51251131296157837 0.13994120061397552 0.039015933871269226
0.53937011957168579 0.12872613966464996 0.03430219367146492
0.56561279296875 0.11628171056509018 0.029442185536026955
0.59137016534805298 0.10361706465482712 0.024836556985974312
0.61673974990844727 0.090821132063865662 0.020618079230189323
0.64100843667984009 0.077687568962574005 0.016818283125758171
0.66459786891937256 0.06325097382068634 0.013222940266132355
0.68796300888061523 0.047917045652866364 0.0099645862355828285
0.71037399768829346 0.032201126217842102 0.0070967245846986771
0.73268204927444458 0.017680022865533829 0.004532958846539259
0.75477296113967896 0.0079339025542140007 0.0025270015466958284
0.7793039083480835 0.0047187432646751404 0.0010024150833487511
0.80644243955612183 0.0039220014587044716 0.00022054871078580618
0.83275753259658813 0.0039220014587044716 1.2766928193741478e-05
0.8433992862701416 0.0039220014587044716 0
0.13644784688949585 0.25458773970603943 0.099751710891723633
0.14344543218612671 0.2545752227306366 0.09859795868396759
0.15218077600002289 0.25393006205558777 0.097355663776397705
0.16464784741401672 0.25125023722648621 0.096732087433338165
0.180609330534935 0.2504851222038269 0.09640955924987793
0.19812305271625519 0.247679203748703 0.093830868601799011
0.21802036464214325 0.24602185189723969 0.092804595828056335
0.23910892009735107 0.24292749166488647 0.091181226074695587
0.26156219840049744 0.23997431993484497 0.088900797069072723
0.28537335991859436 0.23703452944755554 0.08649146556854248
0.31100109219551086 0.23294053971767426 0.084207586944103241
0.33819109201431274 0.22858111560344696 0.080963820219039917
0.36526155471801758 0.22378268837928772 0.077755071222782135
0.39178630709648132 0.21832938492298126 0.07497793436050415
0.41805702447891235 0.21269237995147705 0.071718573570251465
0.44415616989135742 0.20571433007717133 0.068147413432598114
0.47061198949813843 0.19783221185207367 0.06472412496805191
0.49724644422531128 0.18833076953887939 0.060417722910642624
0.52399700880050659 0.17844949662685394 0.055590461939573288
0.55081027746200562 0.16712157428264618 0.051109600812196732
0.57684439420700073 0.15418221056461334 0.045641053467988968
0.602120041847229 0.14049360156059265 0.040032718330621719
0.62704926729202271 0.12602326273918152 0.034711785614490509
0.65076625347137451 0.11085497587919235 0.029353303834795952
0.67384093999862671 0.095961220562458038 0.024771938100457191
0.69680017232894897 0.078921645879745483 0.019910531118512154
0.71926456689834595 0.061928141862154007 0.015897423028945923
0.74131518602371216 0.043725039809942245 0.01179061271250248
0.76264119148254395 0.026529598981142044 0.008606763556599617
0.7836725115776062 0.011926779523491859 0.0051709837280213833
0.80765384435653687 0.0043167206458747387 0.002772963372990489
0.8338584303855896 0.003922000527381897 0.001373078441247344
0.84525305032730103 0.003922000527381897 0.00094645487843081355
0.14288407564163208 0.28919482231140137 0.11347891390323639
0.1518934965133667 0.28859031200408936 0.11309310793876648
0.1630878746509552 0.28844600915908813 0.1125485748052597
0.17790128290653229 0.28662127256393433 0.11178521811962128
0.19347639381885529 0.28477823734283447 0.11028662323951721
0.21099145710468292 0.28342705965042114 0.10969031602144241
0.23081231117248535 0.28085628151893616 0.10879949480295181
0.25147253274917603 0.27837589383125305 0.10610810667276382
0.27467352151870728 0.27561536431312561 0.10476618260145187
0.29886656999588013 0.2722887396812439 0.10210274159908295
0.3244042694568634 0.26857218146324158 0.10017001628875732
0.35135236382484436 0.26437735557556152 0.097583748400211334
0.37773582339286804 0.25977152585983276 0.09421876072883606
0.40383100509643555 0.25447669625282288 0.090928845107555389
0.42966011166572571 0.24867469072341919 0.087711028754711151
0.45556733012199402 0.24195922911167145 0.084025099873542786
0.48196858167648315 0.23455999791622162 0.080317310988903046
0.50870484113693237 0.22586280107498169 0.076197266578674316
0.53545665740966797 0.21663998067378998 0.071871653199195862
0.56247115135192871 0.20618131756782532 0.067712649703025818
0.58845144510269165 0.19459627568721771 0.063207566738128662
0.61371850967407227 0.18172208964824677 0.058087956160306931
0.63854914903640747 0.16687078773975372 0.052729513496160507
0.66191112995147705 0.15081699192523956 0.047075353562831879
0.68442487716674805 0.13342855870723724 0.04116637259721756
0.70685207843780518 0.11468558013439178 0.034792460501194
0.72874444723129272 0.096238426864147186 0.02929118275642395
0.75036376714706421 0.076274015009403229 0.023603508248925209
0.77171099185943604 0.056490063667297363 0.0185044314712286
0.79251629114151001 0.034384697675704956 0.01335159782320261
0.81315034627914429 0.014024875126779079 0.0088583538308739662
0.83566063642501831 0.0048003215342760086 0.0056316494010388851
0.84703189134597778 0.003922000527381897 0.0045584104955196381
0.16037647426128387 0.32683676481246948 0.12731070816516876
0.1696525514125824 0.3257216215133667 0.12709693610668182
0.1797807514667511 0.32417690753936768 0.12702514231204987
0.19204011559486389 0.32328459620475769 0.12682858109474182
0.20720450580120087 0.32250186800956726 0.12612141668796539
0.22493195533752441 0.32016977667808533 0.12432871758937836
0.24411159753799438 0.31858721375465393 0.12310715019702911
0.26531931757926941 0.31613489985466003 0.1217469796538353
0.28844046592712402 0.31344231963157654 0.11922392994165421
0.31319737434387207 0.31036704778671265 0.1170869767665863
0.33865064382553101 0.3069741427898407 0.11508986353874207
0.36492434144020081 0.30312895774841309 0.11256006360054016
0.39039778709411621 0.29883399605751038 0.11047168076038361
0.41586866974830627 0.29362398386001587 0.10757026821374893
0.44148468971252441 0.28751766681671143 0.10427681356668472
0.46720615029335022 0.28087303042411804 0.10152982920408249
0.49370303750038147 0.27333471179008484 0.098149366676807404
0.52044868469238281 0.26527673006057739 0.093835480511188507
0.54728204011917114 0.25587582588195801 0.089786425232887268
0.57415223121643066 0.24565963447093964 0.085324555635452271
0.60017329454421997 0.23498328030109406 0.08026934415102005
0.62525802850723267 0.22321929037570953 0.075819261372089386
0.65044218301773071 0.20950603485107422 0.070651568472385406
0.67375361919403076 0.19464881718158722 0.066285431385040283
0.69607973098754883 0.17783738672733307 0.060951754450798035
0.71852678060531616 0.15853491425514221 0.054436974227428436
0.739795982837677 0.13738900423049927 0.047754574567079544
0.76070708036422729 0.11502308398485184 0.040705010294914246
0.78170895576477051 0.092136621475219727 0.033553984016180038
0.80224752426147461 0.068113468587398529 0.026518737897276878
0.82249909639358521 0.041080955415964127 0.019786201417446136
0.84148705005645752 0.017594248056411743 0.013792520388960838
0.84950971603393555 0.0097222104668617249 0.011696676723659039
0.17945058643817902 0.36111095547676086 0.14203947782516479
0.18641862273216248 0.36111095547676086 0.14186707139015198
0.19520922005176544 0.36107119917869568 0.14141194522380829
0.20743875205516815 0.35936957597732544 0.14095951616764069
0.22218480706214905 0.35727214813232422 0.14005880057811737
0.23873484134674072 0.35713467001914978 0.13912537693977356
0.25819095969200134 0.35504806041717529 0.13799124956130981
0.27960303425788879 0.35313424468040466 0.13640715181827545
0.30285102128982544 0.35088127851486206 0.1347699761390686
0.32741230726242065 0.34838747978210449 0.13261592388153076
0.35251590609550476 0.34521827101707458 0.13080176711082458
0.37818431854248047 0.34175899624824524 0.12829259037971497
0.40294554829597473 0.33784511685371399 0.12588270008563995
0.42785936594009399 0.33340379595756531 0.12337973713874817
0.45331117510795593 0.3275848925113678 0.12018438428640366
0.47906547784805298 0.32120969891548157 0.11714556813240051
0.5055922269821167 0.31396582722663879 0.11386650800704956
0.53234028816223145 0.30575740337371826 0.11020829528570175
0.55914759635925293 0.29699856042861938 0.10677048563957214
0.58600777387619019 0.28673475980758667 0.10258978605270386
0.61172425746917725 0.2760222852230072 0.098638899624347687
0.63676661252975464 0.26481711864471436 0.094371885061264038
