Textures/62.cube
# Created by: G'MIC (https://gmic.eu)
TITLE "Kodak_E-100_GX_Ektachrome_100.cube"
# LUT size
LUT_3D_SIZE 5
# Data domain
DOMAIN_MIN 0.0 0.0 0.0
DOMAIN_MAX 1.0 1.0 1.0
# LUT data points
0.0051251999102532864 0.0061783408746123314 0.0046473601832985878
0.16263626515865326 0.00051291129784658551 0.0010398459853604436
0.39280045032501221 0 0
0.6369134783744812 0.0039220014587044716 0
0.84485983848571777 0.0076660104095935822 0
0.13266406953334808 0.22254396975040436 0.085313700139522552
0.24922697246074677 0.20661737024784088 0.074969269335269928
0.45909535884857178 0.16091459989547729 0.048666074872016907
0.66459786891937256 0.06325097382068634 0.013222940266132355
0.8433992862701416 0.0039220014587044716 0
0.26903977990150452 0.50072705745697021 0.19763655960559845
0.37284767627716064 0.49496170878410339 0.18975900113582611
0.55642175674438477 0.47447749972343445 0.17147175967693329
0.75526857376098633 0.41963905096054077 0.1486676037311554
0.91323864459991455 0.25455990433692932 0.10895103961229324
0.46857652068138123 0.75923210382461548 0.33971798419952393
0.52862685918807983 0.75808823108673096 0.33585724234580994
0.66759622097015381 0.75175774097442627 0.32391205430030823
0.834136962890625 0.73175573348999023 0.30484586954116821
0.9945293664932251 0.67401611804962158 0.2738596498966217
0.70660281181335449 0.97156870365142822 0.503975510597229
0.73537665605545044 0.97156870365142822 0.5022929310798645
0.81254363059997559 0.97246742248535156 0.49713847041130066
0.92722916603088379 0.97161203622817993 0.48726242780685425
1 0.96217304468154907 0.46768969297409058
0.00080618925858289003 0.011605335399508476 0.1572643518447876
0.13832293450832367 0.0036059224512428045 0.14237202703952789
0.37279334664344788 0 0.11748975515365601
0.62055850028991699 0 0.08776257187128067
0.83118408918380737 0.0039220009930431843 0.052576985210180283
0.10195303708314896 0.23624233901500702 0.24472463130950928
0.22317579388618469 0.22008316218852997 0.23465359210968018
0.44338804483413696 0.17579157650470734 0.21122643351554871
0.65138596296310425 0.072061106562614441 0.17486518621444702
0.82910561561584473 0.0039220009930431843 0.13424389064311981
0.2311805784702301 0.50939482450485229 0.34689584374427795
0.34575757384300232 0.50338280200958252 0.34068706631660461
0.5386081337928772 0.48310890793800354 0.32509136199951172
0.74114245176315308 0.42942491173744202 0.30050930380821228
0.9022977352142334 0.26639273762702942 0.26047289371490479
0.44609183073043823 0.76297825574874878 0.4572359025478363
0.50914555788040161 0.76182413101196289 0.45368373394012451
0.65204054117202759 0.75535327196121216 0.44349420070648193
0.82111036777496338 0.73624205589294434 0.42780673503875732
0.98407560586929321 0.67838722467422485 0.40279656648635864
0.69463551044464111 0.97156870365142822 0.59354579448699951
0.72404384613037109 0.97156870365142822 0.59254562854766846
0.80162173509597778 0.97335267066955566 0.58807933330535889
0.91642820835113525 0.97336626052856445 0.57905346155166626
1 0.96427875757217407 0.56265991926193237
0 0.019288560375571251 0.36591020226478577
0.10329481959342957 0.0077296788804233074 0.35424157977104187
0.34513035416603088 0.00018058111891150475 0.33213916420936584
0.59477055072784424 0 0.30827528238296509
0.80775463581085205 0 0.28283300995826721
0.070647917687892914 0.25807687640190125 0.4581446647644043
0.17516197264194489 0.24175603687763214 0.44950270652770996
0.41633394360542297 0.19876012206077576 0.42854070663452148
0.63054120540618896 0.091318331658840179 0.39651268720626831
0.80455344915390015 0 0.36103281378746033
0.13771854341030121 0.52305114269256592 0.55067932605743408
0.29104503989219666 0.51818168163299561 0.54499858617782593
0.50586211681365967 0.49935218691825867 0.53112918138504028
0.71772027015686035 0.44798079133033752 0.50982081890106201
0.8852006196975708 0.29248195886611938 0.47466641664505005
0.39645832777023315 0.76981532573699951 0.64285469055175781
0.46738699078559875 0.76879948377609253 0.64013797044754028
0.62032777070999146 0.76265913248062134 0.63087761402130127
0.79651898145675659 0.74469339847564697 0.61695981025695801
0.96387696266174316 0.68758362531661987 0.5955355167388916
0.67207515239715576 0.97336626052856445 0.74033248424530029
0.70238900184631348 0.97336626052856445 0.73858809471130371
0.78180289268493652 0.97516345977783203 0.73455089330673218
0.89870244264602661 0.9751744270324707 0.7276076078414917
1 0.96696966886520386 0.71438241004943848
0 0.043251551687717438 0.59113490581512451
0.049338199198246002 0.023415990173816681 0.58113777637481689
0.30927163362503052 0.0043893787078559399 0.55768418312072754
0.56243139505386353 0 0.53343719244003296
0.78059124946594238 0 0.51247107982635498
0.016103774309158325 0.29590106010437012 0.67565172910690308
0.1123211458325386 0.28139710426330566 0.66723877191543579
0.37860450148582458 0.23848859965801239 0.64550769329071045
0.60939854383468628 0.13477350771427155 0.61461955308914185
0.77856940031051636 0 0.57696926593780518
0.0030941211152821779 0.54543334245681763 0.75143939256668091
0.18870462477207184 0.54201054573059082 0.74541860818862915
0.45980086922645569 0.52513903379440308 0.73069185018539429
0.68995070457458496 0.47796273231506348 0.70993161201477051
0.87062573432922363 0.33776545524597168 0.67848086357116699
0.31594386696815491 0.78109359741210938 0.82441288232803345
0.40363147854804993 0.78008043766021729 0.82084333896636963
0.57730597257614136 0.77531677484512329 0.81183135509490967
0.76686328649520874 0.75913888216018677 0.79881125688552856
0.9432988166809082 0.70460265874862671 0.77957522869110107
0.63823604583740234 0.97640746831893921 0.89654076099395752
0.67043578624725342 0.97728753089904785 0.89543521404266357
0.7545129656791687 0.97877579927444458 0.89166653156280518
0.87595295906066895 0.97998392581939697 0.88541656732559204
0.99875569343566895 0.9712214469909668 0.87510901689529419
0 0.086781620979309082 0.74517971277236938
0.012896591797471046 0.055565789341926575 0.7349315881729126
0.28010973334312439 0.019846154376864433 0.71007776260375977
0.53652632236480713 0 0.68142712116241455
0.7607840895652771 0 0.66250032186508179
0.0019167417194694281 0.33509162068367004 0.82369261980056763
0.035746995359659195 0.32417094707489014 0.81581234931945801
0.33782666921615601 0.28709158301353455 0.79339420795440674
0.59294164180755615 0.18931782245635986 0.76307862997055054
0.7648690938949585 0.0022877708543092012 0.72197723388671875
0 0.57058811187744141 0.89376205205917358
0.049424756318330765 0.56779026985168457 0.8872143030166626
0.40542620420455933 0.55399656295776367 0.87139338254928589
0.66258174180984497 0.51293915510177612 0.85051923990249634
0.85988575220108032 0.39003258943557739 0.82156848907470703
0.17789182066917419 0.79452639818191528 0.95457524061203003
0.31121650338172913 0.79362761974334717 0.95069801807403564
0.52503395080566406 0.79084795713424683 0.94093799591064453
0.73544901609420776 0.77752226591110229 0.92696082592010498
0.92622554302215576 0.72834944725036621 0.90849655866622925
0.58921563625335693 0.98031044006347656 1
0.62526214122772217 0.9812091588973999 1
0.71768450736999512 0.98300647735595703 0.99877446889877319
0.84944695234298706 0.98602956533432007 0.99478816986083984
0.99150323867797852 0.98055541515350342 0.99027782678604126
