Textures/63.cube
# Created by: G'MIC (https://gmic.eu)
TITLE "Kodak_Ektachrome_100_VS.cube"
# LUT size
LUT_3D_SIZE 5
# Data domain
DOMAIN_MIN 0.0 0.0 0.0
DOMAIN_MAX 1.0 1.0 1.0
# LUT data points
0.0013001121114939451 0.0012256251648068428 0.00088038609828799963
0.13498130440711975 0.00032513114274479449 0
0.44155833125114441 0 0
0.76136553287506104 0 0
1 0 0
0.094586126506328583 0.19294711947441101 0.085380487143993378
0.23353953659534454 0.18443930149078369 0.058027759194374084
0.51160567998886108 0.15941473841667175 0.013174987398087978
0.79804962873458862 0.095546320080757141 0.0012887559132650495
1 0.01511446014046669 0.00015150089166127145
0.23694242537021637 0.48636305332183838 0.17973777651786804
0.36210355162620544 0.48453819751739502 0.16373629868030548
0.58516442775726318 0.47393155097961426 0.13855431973934174
0.83963614702224731 0.44479811191558838 0.12785708904266357
1 0.37863725423812866 0.16106002032756805
0.47644492983818054 0.76437151432037354 0.2849876880645752
0.54217827320098877 0.76388883590698242 0.27175551652908325
0.70456695556640625 0.76368212699890137 0.23340904712677002
0.92367392778396606 0.75359398126602173 0.16540467739105225
1 0.72253549098968506 0.20170384645462036
0.80194485187530518 1 0.36797371506690979
0.83161228895187378 1 0.36119544506072998
0.91376751661300659 1 0.34307229518890381
1 1 0.30971699953079224
1 1 0.26053929328918457
0 0.00022157712373882532 0.11503614485263824
0.081640265882015228 0 0.10850068926811218
0.39742103219032288 0 0.071463711559772491
0.72855675220489502 0 0.04419625923037529
1 0 0.041843675076961517
0.057242576032876968 0.18513600528240204 0.20505803823471069
0.18719504773616791 0.17618118226528168 0.18750379979610443
0.47101283073425293 0.15029923617839813 0.15275287628173828
0.76587367057800293 0.087007470428943634 0.11014146357774734
1 0.011192771606147289 0.067545033991336823
0.18678498268127441 0.48470523953437805 0.27600443363189697
0.32264566421508789 0.48093816637992859 0.27196264266967773
0.5479779839515686 0.4679311215877533 0.26702308654785156
0.8026728630065918 0.4369397759437561 0.26857349276542664
1 0.37453192472457886 0.26502931118011475
0.47674012184143066 0.77171164751052856 0.28779888153076172
0.54269957542419434 0.77131712436676025 0.27668985724449158
0.69937276840209961 0.76459121704101562 0.26179242134094238
0.89923453330993652 0.74998980760574341 0.2795560359954834
1 0.71202856302261353 0.37033453583717346
0.80985617637634277 1 0.36927223205566406
0.83880913257598877 1 0.36369135975837708
0.92067527770996094 1 0.3454383909702301
1 1 0.31215479969978333
1 1 0.2632354199886322
0 0 0.27529916167259216
0.024880468845367432 0 0.25910517573356628
0.35708144307136536 0 0.20726954936981201
0.70115703344345093 0 0.15885922312736511
0.98965287208557129 0 0.13766661286354065
0.0054172379896044731 0.17124372720718384 0.39172118902206421
0.12255511432886124 0.16263967752456665 0.36847680807113647
0.41893735527992249 0.13790321350097656 0.31809625029563904
0.72909986972808838 0.076381072402000427 0.24970053136348724
1 0.0043302499689161777 0.1811036616563797
0.05700204148888588 0.46753314137458801 0.51247578859329224
0.20471087098121643 0.46505680680274963 0.50183254480361938
0.47564852237701416 0.45373687148094177 0.47734856605529785
0.75246936082839966 0.42682376503944397 0.44367712736129761
1 0.36842149496078491 0.40196084976196289
0.3504650890827179 0.75202226638793945 0.55815798044204712
0.42707380652427673 0.74979525804519653 0.55917954444885254
0.59841346740722656 0.74421799182891846 0.558726966381073
0.81590813398361206 0.72996670007705688 0.55803370475769043
1 0.69955402612686157 0.56167447566986084
0.82226872444152832 1 0.37303632497787476
0.85113567113876343 1 0.36744323372840881
0.93202066421508789 1 0.34923115372657776
1 1 0.32230129837989807
1 0.9986911416053772 0.41456460952758789
0 0 0.42766058444976807
1.2766927284246776e-06 0 0.40802508592605591
0.30128788948059082 0 0.34766742587089539
0.66294747591018677 0 0.28511694073677063
0.96543782949447632 0 0.24442917108535767
0 0.15767957270145416 0.5595671534538269
0.049141883850097656 0.14944584667682648 0.53202074766159058
0.35720658302307129 0.12505267560482025 0.47099262475967407
0.68539053201675415 0.064082108438014984 0.38712269067764282
0.97764527797698975 0.0011439168592914939 0.29591682553291321
0 0.45500579476356506 0.69658327102661133
0.076721683144569397 0.45319342613220215 0.6816902756690979
0.40184310078620911 0.44302192330360413 0.64600718021392822
0.70210826396942139 0.41750574111938477 0.59503436088562012
0.97851324081420898 0.36012911796569824 0.52949684858322144
0.15078969299793243 0.73302358388900757 0.79784190654754639
0.28224948048591614 0.73251652717590332 0.79174011945724487
0.50225549936294556 0.72859460115432739 0.77541941404342651
0.74841862916946411 0.71702218055725098 0.74961400032043457
0.99074578285217285 0.68986767530441284 0.71733725070953369
0.68155419826507568 0.99812090396881104 0.72927373647689819
0.71009784936904907 0.99811404943466187 0.73253566026687622
0.788948655128479 0.99802041053771973 0.74254405498504639
0.91402453184127808 0.996848464012146 0.76147693395614624
1 0.98959851264953613 0.80194389820098877
0 0 0.53851616382598877
0 0 0.5173218846321106
0.24439004063606262 0 0.45106720924377441
0.62805873155593872 0 0.37747842073440552
0.94509798288345337 0 0.32369285821914673
0 0.14591503143310547 0.67602968215942383
0.0013038964243605733 0.13795435428619385 0.64796596765518188
0.29713362455368042 0.11364711076021194 0.57871556282043457
0.64638304710388184 0.052626356482505798 0.48363298177719116
0.95318615436553955 0 0.37883999943733215
0 0.44705879688262939 0.82337957620620728
1.0213541827397421e-05 0.44373157620429993 0.80571568012237549
0.32842442393302917 0.43469518423080444 0.76155197620391846
0.65784311294555664 0.4101288914680481 0.69871509075164795
0.95294106006622314 0.35294124484062195 0.61674845218658447
0 0.72459155321121216 0.94317984580993652
0.07918538898229599 0.72183901071548462 0.93496042490005493
0.41319447755813599 0.72068184614181519 0.91127783060073853
0.69263178110122681 0.7089918851852417 0.87157714366912842
0.9596405029296875 0.68341481685638428 0.81911754608154297
0.52484667301177979 0.98660159111022949 1
0.56284213066101074 0.98660159111022949 1
0.66184979677200317 0.98660159111022949 1
0.81346678733825684 0.98660159111022949 1
0.9966503381729126 0.98235279321670532 0.99027782678604126
