Textures/63.cube
# Created by: G'MIC (https://gmic.eu)
TITLE "Kodak_Ektachrome_100_VS.cube"
# LUT size
LUT_3D_SIZE 33
# Data domain
DOMAIN_MIN 0.0 0.0 0.0
DOMAIN_MAX 1.0 1.0 1.0
# LUT data points
0.0013001121114939451 0.0012256251648068428 0.00088038609828799963
0.0074713379144668579 0.0012256251648068428 0.00053280650172382593
0.015923604369163513 0.0012069004587829113 0.00041109512676484883
0.028107566758990288 0.000871803960762918 0.00018483675376046449
0.043921511620283127 0.00051993329543620348 7.092738087521866e-05
0.0609157495200634 0.00032683333847671747 1.361805698252283e-05
0.08094247430562973 0.00032683339668437839 0
0.10595300793647766 0.00032683333847671747 0
0.13498130440711975 0.00032513114274479449 0
0.16920067369937897 0.00019192948821000755 0
0.20627105236053467 9.830534690991044e-05 0
0.24291367828845978 0.00011546977475518361 0
0.27753487229347229 0.00022625834390055388 0
0.31408491730690002 0.000321442901622504 0
0.35437819361686707 3.1208048312691972e-05 0
0.39712324738502502 0 0
0.44155833125114441 0 0
0.4861583411693573 0 0
0.52946573495864868 0 0
0.57074213027954102 0 0
0.61015510559082031 0 0
0.64777493476867676 0 0
0.68617290258407593 0 0
0.72375392913818359 0 0
0.76136553287506104 0 0
0.7997165322303772 0 0
0.83825689554214478 0 0
0.87659716606140137 0 0
0.91531306505203247 0 0
0.95407819747924805 0 0
0.99034476280212402 0 0
1 0 0
1 0 0
0.0048776543699204922 0.0091450084000825882 0.0029457034543156624
0.012115521356463432 0.0088158454746007919 0.0025314681697636843
0.022647622972726822 0.0081551335752010345 0.0020907027646899223
0.0372159443795681 0.0072966208681464195 0.0017760862829163671
0.055032823234796524 0.0070262923836708069 0.0013730833306908607
0.073558703064918518 0.0070262923836708069 0.00083665939746424556
0.096143737435340881 0.0069789150729775429 0.00032715257839299738
0.12365923076868057 0.0062299487181007862 2.5959425329347141e-05
0.1553063690662384 0.0055728750303387642 0
0.19032929837703705 0.0052379816770553589 0
0.22571815550327301 0.0050398190505802631 0
0.26056194305419922 0.0049005961045622826 0
0.2946459949016571 0.0048928461037576199 0
0.33102795481681824 0.0050937389023602009 0
0.37113633751869202 0.0035926031414419413 0
0.4130595326423645 0.002308473689481616 0
0.45629590749740601 0.0022004155907779932 0
0.49987253546714783 0.0011457963846623898 0
0.54192787408828735 0.00033392611658200622 0
0.58242177963256836 3.1208048767439323e-06 0
0.62098890542984009 0 0
0.6580512523651123 0 0
0.69587874412536621 0 0
0.73300313949584961 0 0
0.77000737190246582 0 0
0.80792945623397827 0 0
0.84559530019760132 0 0
0.88351190090179443 0 0
0.92168384790420532 0 0
0.95987558364868164 0 0
0.99334871768951416 0 0
1 0 0
1 0 0
0.010094204917550087 0.021125510334968567 0.0061248545534908772
0.016868328675627708 0.019941708073019981 0.005357988178730011
0.027624104171991348 0.018870972096920013 0.0046340483240783215
0.043709471821784973 0.018054220825433731 0.0038451922591775656
0.062518149614334106 0.017555279657244682 0.0030365758575499058
0.082168877124786377 0.017338357865810394 0.0024268690031021833
0.10686361789703369 0.016616202890872955 0.0017312973504886031
0.13599066436290741 0.015684783458709717 0.0007259417325258255
0.16867347061634064 0.015025597997009754 6.5678759710863233e-05
0.20317794382572174 0.014562844298779964 0
0.23707324266433716 0.014262151904404163 0
0.27085590362548828 0.013738252222537994 0
0.30483415722846985 0.01324908621609211 0
0.34146514534950256 0.01238577626645565 0
0.38124719262123108 0.010700513608753681 0
0.42265015840530396 0.0094235651195049286 0
0.46515649557113647 0.0085472222417593002 0
0.50782161951065063 0.0066889212466776371 0
0.54901248216629028 0.005390300415456295 0
0.58867698907852173 0.0039842738769948483 0
0.62660259008407593 0.002886457834392786 0
0.6632695198059082 0.0016978933708742261 0
0.70063024759292603 0.00040258382796309888 0
0.73754644393920898 3.3158550650114194e-05 0
0.77453154325485229 2.3796135792508721e-05 0
0.81251704692840576 0 0
0.84996968507766724 0 0
0.88775169849395752 0 0
0.92559939622879028 0 0
0.96340930461883545 0 0
0.99514502286911011 0 0
1 0 0
1 0 0
0.017185427248477936 0.038687162101268768 0.010870582424104214
0.024437028914690018 0.037561103701591492 0.010031986981630325
0.034492842853069305 0.036283671855926514 0.0091653773561120033
0.050621408969163895 0.035361982882022858 0.0080527849495410919
0.070457853376865387 0.03480616956949234 0.0068872519768774509
0.091819360852241516 0.033650420606136322 0.0056169405579566956
0.11860610544681549 0.032210305333137512 0.0039199539460241795
0.14904715120792389 0.031000245362520218 0.0024057412520051003
0.1823965311050415 0.030619155615568161 0.0011339158518239856
0.21558463573455811 0.029586467891931534 0.00018189326510764658
0.24801956117153168 0.027851881459355354 2.8370952804834815e-06
0.28141584992408752 0.026848556473851204 0
0.31529504060745239 0.02663402259349823 0
0.35180762410163879 0.025030648335814476 0
0.39128085970878601 0.022378813475370407 0
0.43192708492279053 0.020511860027909279 0
0.47379258275032043 0.019127605482935905 0
0.51553535461425781 0.016303380951285362 0
0.5557096004486084 0.014295119792222977 0
0.59481298923492432 0.011811751872301102 0
0.63208407163619995 0.010147777386009693 0
0.66844707727432251 0.0077452440746128559 0
0.70504170656204224 0.0054448451846837997 0
0.74153691530227661 0.0040808911435306072 0
0.77821391820907593 0.0034237261861562729 0
0.81593465805053711 0.00066129141487181187 0
0.85315936803817749 0 0
0.89098435640335083 0 0
0.92908179759979248 0 0
0.96677577495574951 0 0
0.99678677320480347 0 0
1 0 0
1 0 0
0.026448259130120277 0.061680775135755539 0.019030548632144928
0.034487608820199966 0.060618750751018524 0.017648214474320412
0.044483069330453873 0.059595953673124313 0.016404937952756882
0.058756127953529358 0.058409199118614197 0.014652284793555737
0.078467011451721191 0.056977912783622742 0.012844773940742016
0.10174586623907089 0.055845204740762711 0.010823801159858704
0.13109806180000305 0.054609324783086777 0.0084003349766135216
0.16182583570480347 0.053097259253263474 0.0060139605775475502
0.19494004547595978 0.051434483379125595 0.0036953792441636324
0.22671419382095337 0.04962032288312912 0.0020168002229183912
0.25827446579933167 0.048544533550739288 0.00075516389915719628
0.29126086831092834 0.047322843223810196 9.7915246442425996e-05
0.32521486282348633 0.045650310814380646 0
0.36167305707931519 0.043067079037427902 0
0.40081137418746948 0.039722748100757599 0
0.44077953696250916 0.037098780274391174 0
0.48188281059265137 0.03452572226524353 0
0.52287715673446655 0.030989576131105423 0
0.56235283613204956 0.027662387117743492 0
0.60067790746688843 0.023892154917120934 0
0.63726431131362915 0.020883312448859215 0
0.67304575443267822 0.017281351611018181 0
0.70944058895111084 0.013632080517709255 0
0.74544054269790649 0.01143171451985836 0
0.78173601627349854 0.0093295695260167122 0
0.81937021017074585 0.0051878467202186584 0
0.85618233680725098 0.0025403604377061129 0
0.89384090900421143 0.0013987233396619558 0
0.93166297674179077 0 0
0.96926885843276978 0 0
0.99794405698776245 0 0
1 0 0
1 0 0
0.038730107247829437 0.089799888432025909 0.031784027814865112
0.046858899295330048 0.087576769292354584 0.03052452951669693
0.057124350219964981 0.0867299884557724 0.028333358466625214
0.0704212486743927 0.086377181112766266 0.026104118674993515
0.087113365530967712 0.084735073149204254 0.023336099460721016
0.11222200095653534 0.08290824294090271 0.020031677559018135
0.14366687834262848 0.081993944942951202 0.016325881704688072
0.17414198815822601 0.079546354711055756 0.012837138026952744
0.20588761568069458 0.077861472964286804 0.0096512110903859138
0.23661603033542633 0.075517766177654266 0.006850795354694128
0.26767769455909729 0.073383241891860962 0.0045301876962184906
0.30071938037872314 0.071732349693775177 0.0024875493254512548
0.33492201566696167 0.069336660206317902 0.00088669586693868041
0.37141168117523193 0.066376745700836182 0.00010919270425802097
0.40978875756263733 0.062575235962867737 2.8370952804834815e-06
0.44924524426460266 0.059493891894817352 0
0.48982936143875122 0.055481418967247009 0
0.52986598014831543 0.051227416843175888 0
0.56847459077835083 0.046923220157623291 0
0.60616451501846313 0.041733987629413605 0
0.64228314161300659 0.036829352378845215 0
0.67765212059020996 0.031920570880174637 0
0.71369194984436035 0.026578070595860481 0
0.74941539764404297 0.022511400282382965 0
0.78548586368560791 0.018503788858652115 0
0.82276809215545654 0.013042918406426907 0
0.85934549570083618 0.0090080695226788521 0
0.89656621217727661 0.0064941355958580971 0
0.93413072824478149 0.0029605845920741558 0
0.97143256664276123 0.00057887379080057144 0
0.99843758344650269 3.4045142456307076e-06 0
1 0 0
1 0 0
0.054689448326826096 0.12450964003801346 0.05138794332742691
0.062830150127410889 0.12437303364276886 0.049592316150665283
0.07305879145860672 0.12362478673458099 0.047339528799057007
0.085905022919178009 0.12087291479110718 0.044419143348932266
0.10175725817680359 0.12058822065591812 0.040824919939041138
0.12450131773948669 0.11954575031995773 0.036154404282569885
0.15516884624958038 0.11674738675355911 0.031082862988114357
0.18528801202774048 0.11562635004520416 0.026221269741654396
0.21564798057079315 0.11266946792602539 0.021631728857755661
0.24594666063785553 0.11029159277677536 0.017554540187120438
0.27669551968574524 0.10799622535705566 0.013629975728690624
0.31004217267036438 0.10495323687791824 0.0098962727934122086
0.34439125657081604 0.10244561731815338 0.006618062499910593
0.38089537620544434 0.098992891609668732 0.0038641497958451509
0.41925147175788879 0.094800300896167755 0.0017363773658871651
0.45784714818000793 0.090535156428813934 0.00057961727725341916
0.49771815538406372 0.085344523191452026 6.3338156905956566e-05
0.53708446025848389 0.080584459006786346 0
0.57485359907150269 0.075237706303596497 0
0.61218798160552979 0.068610288202762604 0
0.64766514301300049 0.062203042209148407 0
0.68291658163070679 0.055939041078090668 0
0.71864640712738037 0.048606287688016891 0
0.75397074222564697 0.042445093393325806 0
0.78989219665527344 0.035865511745214462 0
0.82681560516357422 0.027861164882779121 0
0.86301732063293457 0.021300610154867172 0
0.89997786283493042 0.016264250501990318 0
0.937328040599823 0.010420439764857292 0
0.97417402267456055 0.0062412791885435581 0
0.99884992837905884 0.002127643208950758 0
1 8.1708334619179368e-05 0
1 0 0
0.073641203343868256 0.15849690139293671 0.069374941289424896
0.081823594868183136 0.15849690139293671 0.067911230027675629
0.091409586369991302 0.15847821533679962 0.06567847728729248
0.10390567779541016 0.15578597784042358 0.062934346497058868
0.12050385028123856 0.15457497537136078 0.059162206947803497
0.14160391688346863 0.15455403923988342 0.054285071790218353
0.16592112183570862 0.1522982120513916 0.049260493367910385
0.19486540555953979 0.1506536453962326 0.044420000165700912
0.22411392629146576 0.14876411855220795 0.039202619343996048
0.25386533141136169 0.14644768834114075 0.033875256776809692
0.28509512543678284 0.14369440078735352 0.028322860598564148
0.31872615218162537 0.14122062921524048 0.022933976724743843
0.35323676466941833 0.13831157982349396 0.017910949885845184
0.38952359557151794 0.1347823292016983 0.013507526367902756
0.42735108733177185 0.13081543147563934 0.0093895904719829559
0.46542695164680481 0.12616853415966034 0.0063579743728041649
0.50469613075256348 0.12072566896677017 0.0034736448433250189
0.54330891370773315 0.11526298522949219 0.0016926411772146821
0.58055806159973145 0.10906685888767242 0.0007492750883102417
0.61726939678192139 0.10157888382673264 0.00030059026903472841
0.65262645483016968 0.09374450147151947 6.8090281274635345e-05
0.68746495246887207 0.086224108934402466 3.6882240237900987e-05
0.72311151027679443 0.077692106366157532 0
0.75822550058364868 0.069439344108104706 0
0.79407978057861328 0.06072615459561348 0
0.83080410957336426 0.050622317939996719 0
0.86696928739547729 0.041340630501508713 0
0.90370184183120728 0.032793521881103516 0
0.94067686796188354 0.023551641032099724 0
0.97720581293106079 0.016054974868893623 0
0.9989173412322998 0.0092043094336986542 0
1 0.0048913857899606228 0
1 0.0047421753406524658 0
0.094586126506328583 0.19294711947441101 0.085380487143993378
0.10204556584358215 0.19156821072101593 0.08397364616394043
0.11150470376014709 0.19026751816272736 0.08184109628200531
0.12468823045492172 0.18919274210929871 0.078940868377685547
0.14184339344501495 0.18905247747898102 0.075320854783058167
0.16079291701316833 0.18898920714855194 0.071195505559444427
0.17964914441108704 0.18598498404026031 0.067119315266609192
0.20510247349739075 0.18513055145740509 0.062736012041568756
0.23353953659534454 0.18443930149078369 0.058027759194374084
0.26336351037025452 0.1812092512845993 0.052612587809562683
0.29463613033294678 0.17964816093444824 0.046783808618783951
0.32869386672973633 0.17726406455039978 0.040684349834918976
0.36317342519760132 0.17393553256988525 0.034279800951480865
0.39896476268768311 0.171352818608284 0.028264245018362999
0.43612053990364075 0.16814033687114716 0.022405099123716354
0.47341781854629517 0.16414675116539001 0.017486324533820152
0.51160567998886108 0.15941473841667175 0.013174987398087978
0.54955166578292847 0.15407437086105347 0.0096499286592006683
0.58613884449005127 0.14826153218746185 0.0072744004428386688
0.62206768989562988 0.14107590913772583 0.0054277991876006126
0.65720772743225098 0.13316918909549713 0.0041249990463256836
0.69165760278701782 0.12525777518749237 0.0036939785350114107
0.72717165946960449 0.11601491272449493 0.0028023731429129839
0.76221168041229248 0.10628681629896164 0.0021900697611272335
0.79804962873458862 0.095546320080757141 0.0012887559132650495
0.83452790975570679 0.083979807794094086 0.00074324331944808364
0.87068241834640503 0.072269409894943237 0.00039141278830356896
0.90728580951690674 0.060358162969350815 0.00020533477072604001
0.94430714845657349 0.0471663698554039 0.00015150092076510191
0.98051786422729492 0.035205043852329254 0.00015150089166127145
0.99949687719345093 0.023127611726522446 0.00015150092076510191
1 0.015604632906615734 0.00015150089166127145
1 0.01511446014046669 0.00015150089166127145
0.10086476802825928 0.22706350684165955 0.098779395222663879
0.10962735116481781 0.22549957036972046 0.097305156290531158
0.12056950479745865 0.22389353811740875 0.095362626016139984
0.13529627025127411 0.22320260107517242 0.092690281569957733
0.15224230289459229 0.22320260107517242 0.089584395289421082
0.16930384933948517 0.22318786382675171 0.086257755756378174
0.19010508060455322 0.22099396586418152 0.082613565027713776
0.21568280458450317 0.2193085253238678 0.078521944582462311
0.24408794939517975 0.21919706463813782 0.074158251285552979
0.27393978834152222 0.21625664830207825 0.069154821336269379
0.30563879013061523 0.21514521539211273 0.063496746122837067
0.33943533897399902 0.21190613508224487 0.05757661908864975
0.37408697605133057 0.20959703624248505 0.051397010684013367
0.40921050310134888 0.20710355043411255 0.04509323462843895
0.44563031196594238 0.20374533534049988 0.038535770028829575
0.48218616843223572 0.20040546357631683 0.032682467252016068
0.51934778690338135 0.19647015631198883 0.027313614264130592
0.55643892288208008 0.1916278749704361 0.022487407550215721
0.59224849939346313 0.18619537353515625 0.018939398229122162
0.62750804424285889 0.17995235323905945 0.016737481579184532
0.66214734315872192 0.17309287190437317 0.015156793408095837
0.69616371393203735 0.16604623198509216 0.013950717635452747
0.73127985000610352 0.15767985582351685 0.013127396814525127
0.76597839593887329 0.14860458672046661 0.012077288702130318
0.80150300264358521 0.13777987658977509 0.010352911427617073
0.83766931295394897 0.12661930918693542 0.0086647188290953636
0.87393498420715332 0.11342880129814148 0.0070151803083717823
0.91039246320724487 0.098940595984458923 0.0059498706832528114
0.9474102258682251 0.083469688892364502 0.0051532643847167492
0.98349326848983765 0.06693500280380249 0.0042795971967279911
0.99992114305496216 0.049119975417852402 0.0038971162866801023
1 0.0371263287961483 0.0036730309948325157
1 0.036519505083560944 0.0036511907819658518
0.11147218942642212 0.26147589087486267 0.11396729946136475
0.11796557903289795 0.26111119985580444 0.11279724538326263
0.12671086192131042 0.26102954149246216 0.11075247079133987
0.13964717090129852 0.26043781638145447 0.10874122381210327
0.15440736711025238 0.25936982035636902 0.10628131031990051
0.17467756569385529 0.2583145797252655 0.10343950241804123
0.2000173032283783 0.25725871324539185 0.099958024919033051
0.22644342482089996 0.25648513436317444 0.096104450523853302
0.25565087795257568 0.25461587309837341 0.09170309454202652
0.28585663437843323 0.25329521298408508 0.086878426373004913
0.31756591796875 0.25129386782646179 0.081678666174411774
0.35079759359359741 0.24909462034702301 0.075987890362739563
0.38472843170166016 0.24668164551258087 0.069988571107387543
0.4195694625377655 0.24393068253993988 0.063519500195980072
0.45537090301513672 0.24072130024433136 0.057267896831035614
0.49121692776679993 0.23741692304611206 0.050768651068210602
0.52743035554885864 0.2339055985212326 0.044782161712646484
0.56374114751815796 0.22909852862358093 0.039221417158842087
0.59894430637359619 0.22369129955768585 0.034846469759941101
0.63365548849105835 0.21788150072097778 0.031698554754257202
0.66772276163101196 0.2116873562335968 0.02978200651705265
0.70132780075073242 0.20519933104515076 0.028229175135493279
0.7360389232635498 0.19744251668453217 0.0277576744556427
0.7702181339263916 0.18896724283695221 0.027295045554637909
0.8054039478302002 0.17953689396381378 0.025840707123279572
0.84103220701217651 0.16976480185985565 0.024452747777104378
0.87682998180389404 0.1577947586774826 0.022172799333930016
0.91312301158905029 0.1445118635892868 0.020845530554652214
0.94999366998672485 0.12868037819862366 0.019405551254749298
0.98547321557998657 0.11072619259357452 0.017180239781737328
0.99996286630630493 0.090123668313026428 0.01509370468556881
1 0.074073173105716705 0.013294576667249203
1 0.073166757822036743 0.013179118745028973
0.11605962365865707 0.29989820718765259 0.12869429588317871
0.12256432324647903 0.29967343807220459 0.12755651772022247
0.1304493248462677 0.2989252507686615 0.12622334063053131
0.1431686133146286 0.298269122838974 0.12460217624902725
0.16230069100856781 0.29751855134963989 0.12252215296030045
0.18661224842071533 0.29689246416091919 0.11979716271162033
0.21157343685626984 0.29592511057853699 0.11675405502319336
0.23904979228973389 0.29445955157279968 0.11302868276834488
0.26824679970741272 0.29328018426895142 0.10879513621330261
0.29889252781867981 0.29192212224006653 0.10421021282672882
0.33009925484657288 0.29010778665542603 0.099456019699573517
0.36308953166007996 0.28836637735366821 0.094182759523391724
0.39611971378326416 0.2861570417881012 0.088731087744235992
0.43008044362068176 0.28361424803733826 0.082701869308948517
0.46496441960334778 0.28048670291900635 0.076913326978683472
0.49998721480369568 0.27727976441383362 0.071037665009498596
0.53565448522567749 0.27326110005378723 0.065208122134208679
0.57119131088256836 0.26886537671089172 0.059759087860584259
0.60542458295822144 0.26384532451629639 0.055452596396207809
0.63996762037277222 0.25821909308433533 0.051689822226762772
0.67366981506347656 0.25221514701843262 0.04951544851064682
0.70698803663253784 0.24599330127239227 0.048379208892583847
0.74130725860595703 0.23820634186267853 0.047543350607156754
0.77506637573242188 0.2297825962305069 0.046990618109703064
0.80975252389907837 0.22099097073078156 0.045632630586624146
0.84505248069763184 0.21213482320308685 0.044339489191770554
0.88047367334365845 0.20081539452075958 0.042647343128919601
0.91641288995742798 0.18881607055664062 0.042181313037872314
0.95255047082901001 0.17508766055107117 0.041665304452180862
0.98700422048568726 0.15868084132671356 0.040421050041913986
0.99997448921203613 0.1394781768321991 0.038212373852729797
1 0.12271237373352051 0.03563627228140831
1 0.12205877900123596 0.035486489534378052
0.11508814990520477 0.33740308880805969 0.14241641759872437
0.12563030421733856 0.33700984716415405 0.14151847362518311
0.13879358768463135 0.33700984716415405 0.1404118686914444
0.15642194449901581 0.33629831671714783 0.13890866935253143
0.1772935688495636 0.33557778596878052 0.13691756129264832
0.20023250579833984 0.33476290106773376 0.13471324741840363
0.22566893696784973 0.3340105414390564 0.13175739347934723
0.25299596786499023 0.33290082216262817 0.1282837986946106
0.2821386456489563 0.33181580901145935 0.12410528212785721
0.31236866116523743 0.33066466450691223 0.11979328095912933
0.34325611591339111 0.32880938053131104 0.11538610607385635
0.37539383769035339 0.32750040292739868 0.11026167869567871
0.4073415994644165 0.32542359828948975 0.10545869171619415
0.44036433100700378 0.32333886623382568 0.10004980117082596
0.47460839152336121 0.3201180100440979 0.094477429986000061
0.50890994071960449 0.31695583462715149 0.088922701776027679
0.54380804300308228 0.31342142820358276 0.083512082695960999
0.57850205898284912 0.30940356850624084 0.07869933545589447
0.61222046613693237 0.3049309253692627 0.074332736432552338
0.64617747068405151 0.29951828718185425 0.071091495454311371
0.67956632375717163 0.29383823275566101 0.069025225937366486
0.71267521381378174 0.28790658712387085 0.068249017000198364
0.74647533893585205 0.28046965599060059 0.068364456295967102
0.77992242574691772 0.27259945869445801 0.068518921732902527
0.81407088041305542 0.2642054557800293 0.067660592496395111
0.84912526607513428 0.25498229265213013 0.066604055464267731
0.88416105508804321 0.24439813196659088 0.06532316654920578
0.91994595527648926 0.23239149153232574 0.064593710005283356
0.95565891265869141 0.21936683356761932 0.064668983221054077
0.98897957801818848 0.20398816466331482 0.064792238175868988
0.999988853931427 0.18692758679389954 0.064446792006492615
1 0.17306423187255859 0.063795939087867737
1 0.17238572239875793 0.063727281987667084
0.14244739711284637 0.37450966238975525 0.15399324893951416
0.15134298801422119 0.37450966238975525 0.15340939164161682
0.16307277977466583 0.37398460507392883 0.15222261846065521
0.17809003591537476 0.37361088395118713 0.15082661807537079
0.19662080705165863 0.3731420636177063 0.149152010679245
0.2186523824930191 0.3726748526096344 0.1468300074338913
0.24368350207805634 0.37172695994377136 0.14405880868434906
0.27002161741256714 0.37121385335922241 0.1408669501543045
0.29863977432250977 0.37012037634849548 0.1371837705373764
0.32804086804389954 0.36914679408073425 0.13335750997066498
0.35770091414451599 0.3675263524055481 0.12921647727489471
0.38878431916236877 0.36617976427078247 0.12478744983673096
0.41969454288482666 0.36469718813896179 0.12015832960605621
0.45175668597221375 0.36237460374832153 0.11555802822113037
0.48490127921104431 0.35984277725219727 0.11086687445640564
0.51837760210037231 0.35731008648872375 0.10589782148599625
0.55260986089706421 0.35392138361930847 0.10100544989109039
0.58631795644760132 0.35036608576774597 0.096536494791507721
0.61940199136734009 0.34631869196891785 0.092573955655097961
0.65299850702285767 0.34195500612258911 0.089531593024730682
0.68615657091140747 0.3368065357208252 0.087879486382007599
0.71875131130218506 0.33146733045578003 0.086964026093482971
0.75227969884872437 0.32496267557144165 0.086735069751739502
0.78528344631195068 0.31765240430831909 0.087497986853122711
0.81878215074539185 0.30977964401245117 0.087989233434200287
0.853385329246521 0.3008514940738678 0.088033325970172882
0.88799697160720825 0.29101797938346863 0.087863236665725708
0.9233173131942749 0.27951681613922119 0.088119521737098694
0.95897018909454346 0.2668050229549408 0.088599793612957001
0.99121630191802979 0.25102701783180237 0.088908396661281586
1 0.23388874530792236 0.089009799063205719
1 0.22100622951984406 0.089237615466117859
