Textures/64.cube
# Created by: G'MIC (https://gmic.eu)
TITLE "Kodak_Ektachrome_100_VS_Generic.cube"
# LUT size
LUT_3D_SIZE 5
# Data domain
DOMAIN_MIN 0.0 0.0 0.0
DOMAIN_MAX 1.0 1.0 1.0
# LUT data points
0.0047250622883439064 0.0036765625700354576 0.0032631130889058113
0.22671258449554443 0.0015523751499131322 0.0019425005884841084
0.59266871213912964 0 0.00027221930213272572
0.99132740497589111 0 0
1 0 0
0.05757397785782814 0.18421012163162231 0.028761595487594604
0.19764374196529388 0.17778441309928894 0.025546392425894737
0.57641440629959106 0.16152675449848175 0.017484892159700394
0.96847116947174072 0.14259932935237885 0.0099531970918178558
1 0.13300658762454987 0.0074160578660666943
0 0.50302296876907349 0.083032026886940002
0.03423299640417099 0.49776691198348999 0.080122902989387512
0.54272150993347168 0.48455715179443359 0.073218256235122681
0.9150429368019104 0.46968293190002441 0.064211025834083557
1 0.46094769239425659 0.060212600976228714
0 0.80989235639572144 0.064859189093112946
0 0.80557775497436523 0.064373575150966644
0.47866377234458923 0.79519355297088623 0.065725535154342651
0.83974671363830566 0.78351020812988281 0.064777292311191559
1 0.77565360069274902 0.064433641731739044
0 1 0.10213775187730789
0 1 0.098216280341148376
0.46650317311286926 1 0.088866584002971649
0.77957522869110107 1 0.076607517898082733
1 1 0.064222708344459534
0.0052145877853035927 0.0042090504430234432 0.16086897253990173
0.22489959001541138 0.0015523751499131322 0.154574915766716
0.5912785530090332 0 0.14407312870025635
0.99048912525177002 0 0.13135834038257599
1 0 0.12513953447341919
0.056659124791622162 0.18401238322257996 0.18087765574455261
0.19730280339717865 0.17746616899967194 0.17677715420722961
0.57562333345413208 0.16150103509426117 0.16688339412212372
0.96779060363769531 0.14254315197467804 0.15539461374282837
1 0.13300658762454987 0.14894306659698486
0 0.50295627117156982 0.20494101941585541
0.034310102462768555 0.49752345681190491 0.20152555406093597
0.54163026809692383 0.48455482721328735 0.19265390932559967
0.91453045606613159 0.46923351287841797 0.18308842182159424
1 0.46078428626060486 0.17820484936237335
0 0.80927902460098267 0.2249712198972702
0 0.80557769536972046 0.22294090688228607
0.47796386480331421 0.79518371820449829 0.21513156592845917
0.83918040990829468 0.78347623348236084 0.20679549872875214
1 0.77565360069274902 0.20142117142677307
0 1 0.26642197370529175
0 1 0.26368808746337891
0.46461749076843262 1 0.25632143020629883
0.7785448431968689 1 0.24883122742176056
1 1 0.24094489216804504
0.005304332822561264 0.0036765625700354576 0.44243451952934265
0.22293667495250702 0.0022935662418603897 0.43633395433425903
0.58928883075714111 0 0.42659330368041992
0.98935031890869141 0 0.41492003202438354
1 0 0.4088626503944397
0.055084586143493652 0.18382607400417328 0.46196886897087097
0.19488497078418732 0.17727507650852203 0.45826438069343567
0.57456028461456299 0.16076222062110901 0.44895657896995544
0.96633315086364746 0.14208631217479706 0.43806937336921692
1 0.13145245611667633 0.43240410089492798
0 0.50285959243774414 0.49456691741943359
0.033334255218505859 0.49746540188789368 0.4908958375453949
0.5400204062461853 0.484098881483078 0.48295348882675171
0.91299301385879517 0.46918749809265137 0.4739747941493988
1 0.46078428626060486 0.46887093782424927
0 0.80906879901885986 0.52524930238723755
0 0.80536937713623047 0.52295321226119995
0.47568616271018982 0.79495859146118164 0.51638484001159668
0.83738934993743896 0.78345733880996704 0.5092197060585022
1 0.77565360069274902 0.50479477643966675
0 1 0.55662423372268677
0 1 0.5543932318687439
0.46254754066467285 1 0.54924678802490234
0.7756536602973938 1 0.54334187507629395
1 1 0.53725475072860718
0.0041579022072255611 0.0036765625700354576 0.7220647931098938
0.22197818756103516 0.0014945130096748471 0.71671587228775024
0.58796232938766479 0 0.70714926719665527
0.98860514163970947 0 0.69596433639526367
1 0 0.68998163938522339
0.05327887088060379 0.18308830261230469 0.73986250162124634
0.19373242557048798 0.17687608301639557 0.7362743616104126
0.57253497838973999 0.16016073524951935 0.72708702087402344
0.96477830410003662 0.14183123409748077 0.71659696102142334
1 0.13126520812511444 0.71111804246902466
0 0.50285959243774414 0.76890403032302856
0.032758351415395737 0.49685171246528625 0.76571160554885864
0.53839278221130371 0.48380216956138611 0.75781881809234619
0.9112696647644043 0.46887776255607605 0.74890214204788208
1 0.4606209397315979 0.74434059858322144
0 0.80906879901885986 0.79496961832046509
0 0.80488604307174683 0.79270881414413452
0.47333171963691711 0.7947075366973877 0.78624612092971802
0.83582401275634766 0.78341996669769287 0.77924001216888428
1 0.77565360069274902 0.77502906322479248
0 1 0.8168300986289978
0 1 0.81490635871887207
0.46008467674255371 1 0.80971759557723999
0.77478092908859253 1 0.8045426607131958
1 1 0.79927158355712891
0.0051370086148381233 0.0036765625700354576 0.92202675342559814
0.22075346112251282 0.0014570730272680521 0.91607421636581421
0.58630341291427612 0 0.90751957893371582
0.98783200979232788 0 0.89624202251434326
1 0 0.89052319526672363
0.053291738033294678 0.18218974769115448 0.93929725885391235
0.19232365489006042 0.1765812486410141 0.93580639362335205
0.57165044546127319 0.15959969162940979 0.92642796039581299
0.9636300802230835 0.14150671660900116 0.91649806499481201
1 0.13120903074741364 0.91094779968261719
0 0.50278466939926147 0.9686272144317627
0.032070495188236237 0.49677449464797974 0.96545833349227905
0.53766000270843506 0.4832959771156311 0.95767480134963989
0.91005086898803711 0.46859690546989441 0.94884812831878662
1 0.4606209397315979 0.94403588771820068
0 0.80817025899887085 0.99607807397842407
0 0.80467879772186279 0.99308115243911743
0.47166216373443604 0.7946932315826416 0.98754048347473145
0.83434092998504639 0.78319531679153442 0.98031711578369141
1 0.7756536602973938 0.97622597217559814
0 1 1
0 1 1
0.45684915781021118 1 1
0.77173209190368652 1 1
1 1 1
