Textures/64.cube
# Created by: G'MIC (https://gmic.eu)
TITLE "Kodak_Ektachrome_100_VS_Generic.cube"
# LUT size
LUT_3D_SIZE 33
# Data domain
DOMAIN_MIN 0.0 0.0 0.0
DOMAIN_MAX 1.0 1.0 1.0
# LUT data points
0.0047250622883439064 0.0036765625700354576 0.0032631130889058113
0.02447441965341568 0.0036765625700354576 0.0029932116158306599
0.050565637648105621 0.0034793850500136614 0.0029520739335566759
0.079030737280845642 0.0033497295808047056 0.0028220582753419876
0.10734902322292328 0.002705057617276907 0.0027319679502397776
0.13382990658283234 0.0024511667434126139 0.0024788184091448784
0.16302350163459778 0.0024511669762432575 0.0022841938771307468
0.19385276734828949 0.0016459992621093988 0.0020329982507973909
0.22671258449554443 0.0015523751499131322 0.0019425005884841084
0.26110723614692688 0.0015523751499131322 0.0017650180961936712
0.2994672954082489 0.0020715990103781223 0.0015719227958470583
0.34640038013458252 0.0013005053624510765 0.0011155257234349847
0.39888238906860352 0.0004579071537591517 0.0010236230446025729
0.45026901364326477 0.00032683339668437839 0.0010153609327971935
0.49758714437484741 0.00021788894082419574 0.00081367895472794771
0.54290831089019775 0 0.0006420348072424531
0.59266871213912964 0 0.00027221930213272572
0.64713847637176514 0 0.00017703475896269083
0.70335984230041504 0 9.4333408924285322e-05
0.75839495658874512 0 1.9292248907731846e-05
0.8094901442527771 0 0
0.8579399585723877 0 0
0.90631121397018433 0 0
0.95152312517166138 0 0
0.99132740497589111 0 0
1 0 0
1 0 0
1 0 0
1 0 0
1 0 0
1 0 0
1 0 0
1 0 0
0.005942879244685173 0.019655859097838402 0.0042764986865222454
0.019965188577771187 0.016914196312427521 0.004054174292832613
0.043437059968709946 0.016076521947979927 0.0038132756017148495
0.07214142382144928 0.015849629417061806 0.0036210978869348764
0.10049004107713699 0.015849629417061806 0.0035539998207241297
0.12695463001728058 0.015789633616805077 0.0034993861336261034
0.1567796915769577 0.014056334272027016 0.0033889994956552982
0.18732647597789764 0.013147156685590744 0.0030870824120938778
0.21982192993164062 0.012499980628490448 0.0028454584535211325
0.25466206669807434 0.012499980628490448 0.0025790873914957047
0.29388061165809631 0.012200381606817245 0.0024511667434126139
0.34100687503814697 0.010637999512255192 0.0023501308169215918
0.39299851655960083 0.0085071073845028877 0.0019922845531255007
0.44406124949455261 0.0072884401306509972 0.0019771556835621595
0.4917927086353302 0.0065361186861991882 0.001637195935472846
0.53697496652603149 0.0049838125705718994 0.0012443502200767398
0.58647781610488892 0.0039562778547406197 0.00093265960458666086
0.64180296659469604 0.0032763946801424026 0.00038924950058571994
0.69772839546203613 0.0024256224278360605 0.00032683333847671747
0.75219053030014038 0.0025669168680906296 0.00031293163192458451
0.80325508117675781 0.0018860730342566967 0.00017150239727925509
0.85225218534469604 0.00065366667695343494 2.3264181436388753e-05
0.90051543712615967 0.00065366667695343494 0
0.94566380977630615 0.00024512509116902947 0
0.98718392848968506 1.2483218597481027e-05 0
1 0 0
1 0 0
1 0 0
1 0 0
1 0 0
1 0 0
1 0 0
1 0 0
0.0093666799366474152 0.037820599973201752 0.0062566110864281654
0.021549409255385399 0.036482948809862137 0.0059387027285993099
0.040119096636772156 0.035543497651815414 0.0056565450504422188
0.067960120737552643 0.03471040353178978 0.0053589041344821453
0.096165627241134644 0.033905234187841415 0.0049555860459804535
0.12266352027654648 0.033180501312017441 0.0047488417476415634
0.15291379392147064 0.031495273113250732 0.0044176969677209854
0.18326340615749359 0.030283274129033089 0.0039761853404343128
0.21645860373973846 0.029084151610732079 0.0036772012244910002
0.25152865052223206 0.028554771095514297 0.0034860542509704828
0.29105508327484131 0.026550550013780594 0.0032294041011482477
0.33791431784629822 0.025343827903270721 0.0029117583762854338
0.39045971632003784 0.022050248458981514 0.002594297518953681
0.44148597121238708 0.02116004191339016 0.0024698870256543159
0.48885476589202881 0.018680164590477943 0.0024572298862040043
0.53414046764373779 0.017269143834710121 0.0022333702072501183
0.58340013027191162 0.015624990686774254 0.0015877950936555862
0.63914215564727783 0.014142554253339767 0.0011246951762586832
0.69496268033981323 0.01220217440277338 0.00082616216968744993
0.7485242486000061 0.011359643191099167 0.00054294918663799763
0.79968875646591187 0.01023118756711483 0.00032995420042425394
0.84917980432510376 0.0078364629298448563 0.00027846088050864637
0.89716774225234985 0.0077547556720674038 0.00013320162543095648
0.94234055280685425 0.006403378676623106 6.9225126935634762e-05
0.9852834939956665 0.0056233578361570835 4.2556428070383845e-07
1 0.0041416608728468418 0
1 0.0037583333905786276 0
1 0.003964307252317667 0
1 0.0024103326722979546 0
1 0.0028597714845091105 0
1 0.0019797040149569511 0
1 0.0019609793089330196 0
1 0.0019609793089330196 0
0.014531379565596581 0.060493253171443939 0.0072705182246863842
0.026283346116542816 0.059839535504579544 0.0070212539285421371
0.042301256209611893 0.059152491390705109 0.0068170088343322277
0.064622931182384491 0.057991359382867813 0.0066313864663243294
0.091385260224342346 0.056906111538410187 0.0066001862287521362
0.11869748681783676 0.056252516806125641 0.0065057924948632717
0.14945195615291595 0.054864794015884399 0.0063084177672863007
0.17982031404972076 0.053141787648200989 0.0061243013478815556
0.21277022361755371 0.051714405417442322 0.0056658159010112286
0.24891701340675354 0.050110694020986557 0.0052629644051194191
0.28860986232757568 0.049043402075767517 0.0047082863748073578
0.33668839931488037 0.047424759715795517 0.0040898332372307777
0.3887256383895874 0.043839085847139359 0.0037828441709280014
0.43927019834518433 0.041305381804704666 0.0036509938072413206
0.48609811067581177 0.038954619318246841 0.0034352648071944714
0.53166145086288452 0.036659281700849533 0.0028708081226795912
0.58166468143463135 0.034272920340299606 0.0025065471418201923
0.63670945167541504 0.032150618731975555 0.0020798873156309128
0.69248592853546143 0.029588134959340096 0.0016778367571532726
0.74669891595840454 0.027108475565910339 0.0013417982263490558
0.79716438055038452 0.025684250518679619 0.0010695848613977432
0.84624367952346802 0.022904343903064728 0.00075516384094953537
0.89413803815841675 0.022494502365589142 0.0005148618365637958
0.93932479619979858 0.019075067713856697 0.00036194242420606315
0.98201847076416016 0.018753346055746078 0.00024427392054349184
1 0.015686286613345146 0.00015887734480202198
1 0.014869250357151031 6.0571986978175119e-05
1 0.014818682335317135 9.2205600594752468e-06
1 0.012849490158259869 0
1 0.012476212345063686 0
1 0.011764666996896267 0
1 0.011764666996896267 0
1 0.011764666996896267 0
0.020797023549675941 0.083425357937812805 0.010589508339762688
0.03239050880074501 0.082628704607486725 0.010516961105167866
0.047268114984035492 0.08212830126285553 0.010220516473054886
0.0659303218126297 0.080996021628379822 0.0098464665934443474
0.087406441569328308 0.079975128173828125 0.0093588829040527344
0.11472777277231216 0.079100295901298523 0.008879522792994976
0.14627645909786224 0.077794872224330902 0.0088172554969787598
0.17645347118377686 0.076240912079811096 0.0083603262901306152
0.20963293313980103 0.074816130101680756 0.0078444778919219971
0.24664878845214844 0.073274105787277222 0.0075350864790380001
0.28728944063186646 0.072188198566436768 0.0069691301323473454
0.33401253819465637 0.070195086300373077 0.0062790657393634319
0.38848456740379333 0.066930875182151794 0.0056998184882104397
0.43805643916130066 0.064484760165214539 0.0055465204641222954
0.48426386713981628 0.062093283981084824 0.0052091735415160656
0.5292975902557373 0.059706978499889374 0.0044681336730718613
0.57914477586746216 0.057343568652868271 0.0038656678516417742
0.63532459735870361 0.054777756333351135 0.0030330764129757881
0.69085383415222168 0.051838226616382599 0.0025845475029200315
0.74436265230178833 0.049407772719860077 0.0024322327226400375
0.79548090696334839 0.047225616872310638 0.0020830519497394562
0.84359639883041382 0.043945007026195526 0.001813516253605485
0.89194989204406738 0.041818451136350632 0.0014885531272739172
0.93647658824920654 0.039629615843296051 0.0011799833737313747
0.9793163537979126 0.037455864250659943 0.00086868315702304244
0.99947237968444824 0.034950338304042816 0.00067987444344907999
1 0.032916348427534103 0.00034789889468811452
1 0.032046210020780563 0.00029704387998208404
1 0.029820967465639114 0.00021576111612375826
1 0.028523363173007965 0.00013618056254927069
1 0.02794119156897068 0.00013618057710118592
1 0.02794119156897068 0.00013618056254927069
1 0.02794119156897068 0.00013618056254927069
0.029040789231657982 0.1060456857085228 0.0144465621560812
0.040148019790649414 0.10594355314970016 0.014093159697949886
0.053957350552082062 0.10490517318248749 0.013719882816076279
0.070556700229644775 0.10392150282859802 0.013113751076161861
0.087876208126544952 0.10336141288280487 0.012747100554406643
0.11175963282585144 0.10207990556955338 0.012181926518678665
0.14234383404254913 0.10077958554029465 0.011849318630993366
0.17327870428562164 0.099419578909873962 0.01155946496874094
0.2078704833984375 0.09785538911819458 0.011262635700404644
0.24472722411155701 0.09646141529083252 0.01095137931406498
0.28636440634727478 0.094636909663677216 0.010267630219459534
0.33402475714683533 0.093299068510532379 0.0093136560171842575
0.38850593566894531 0.090192787349224091 0.0085448939353227615
0.43684813380241394 0.08778594434261322 0.0083997957408428192
0.48232150077819824 0.085423380136489868 0.0081404158845543861
0.52812337875366211 0.083122394979000092 0.0070384959690272808
0.57855039834976196 0.080642275512218475 0.0062814364209771156
0.63435620069503784 0.078048534691333771 0.0054440139792859554
0.68953049182891846 0.075238317251205444 0.0046404879540205002
0.74391686916351318 0.072627328336238861 0.0040511102415621281
0.7928735613822937 0.070460602641105652 0.0034000934101641178
0.84195435047149658 0.067766264081001282 0.0030023169238120317
0.88933956623077393 0.065378449857234955 0.0026275161653757095
0.93400931358337402 0.063050635159015656 0.0023150872439146042
0.97720140218734741 0.060727402567863464 0.0020170712377876043
0.99918293952941895 0.058052580803632736 0.0016999400686472654
1 0.05613439530134201 0.0014379813801497221
1 0.054665379226207733 0.0011784229427576065
1 0.052558280527591705 0.00093343987828120589
1 0.051109872758388519 0.00077622925164178014
1 0.050980504602193832 0.00077622942626476288
1 0.050980504602193832 0.00077622925164178014
1 0.050980504602193832 0.00077622925164178014
0.038980778306722641 0.13120907545089722 0.01864846795797348
0.048747207969427109 0.13044154644012451 0.018479164689779282
0.060871254652738571 0.12978960573673248 0.018059862777590752
0.075016491115093231 0.12936994433403015 0.017535276710987091
0.092131473124027252 0.1283019632101059 0.017115546390414238
0.11302078515291214 0.12760758399963379 0.016541793942451477
0.13798131048679352 0.12579137086868286 0.0160676259547472
0.16977120935916901 0.12491438537836075 0.015758629888296127
0.20454952120780945 0.12364760786294937 0.015084215439856052
0.24267442524433136 0.12172359228134155 0.01464543305337429
0.28519538044929504 0.12021540850400925 0.01386921014636755
0.33412644267082214 0.1182783916592598 0.012800909578800201
0.38844045996665955 0.11551900953054428 0.011883108876645565
0.43527659773826599 0.1132335364818573 0.01143182348459959
0.48104402422904968 0.11094919592142105 0.011071435175836086
0.52716505527496338 0.1086948961019516 0.0098897386342287064
0.57843130826950073 0.10658354312181473 0.0092287641018629074
0.63317245244979858 0.10403895378112793 0.0082312226295471191
0.68838739395141602 0.10133779048919678 0.0073184971697628498
0.74044120311737061 0.098359234631061554 0.0070382249541580677
0.7915952205657959 0.096451312303543091 0.005952661857008934
0.83955448865890503 0.09366326779127121 0.005463846493512392
0.88702428340911865 0.091241829097270966 0.005044939462095499
0.93162280321121216 0.089236132800579071 0.0042702746577560902
0.97410458326339722 0.086927764117717743 0.0036929326597601175
0.99918293952941895 0.084963984787464142 0.0032507975120097399
1 0.082552053034305573 0.0028282022103667259
1 0.080756552517414093 0.0025510147679597139
1 0.07895805686712265 0.0023013744503259659
1 0.07750885933637619 0.002071617403998971
1 0.076797313988208771 0.002071617403998971
1 0.076797313988208771 0.002071617403998971
1 0.076797313988208771 0.002071617403998971
0.049098581075668335 0.15648296475410461 0.02353399433195591
0.058280739933252335 0.15588220953941345 0.02328086830675602
0.067948393523693085 0.15567800402641296 0.02316775731742382
0.080773487687110901 0.15458977222442627 0.022639922797679901
0.097543947398662567 0.15399806201457977 0.02192671038210392
0.11732872575521469 0.15315736830234528 0.021112298592925072
0.13805826008319855 0.15202732384204865 0.020771749317646027
0.16596537828445435 0.15043315291404724 0.020373821258544922
0.20114374160766602 0.14918188750743866 0.019880009815096855
0.24056379497051239 0.14739567041397095 0.019042305648326874
0.28444266319274902 0.14584733545780182 0.018214654177427292
0.33578950166702271 0.14378751814365387 0.017180902883410454
0.38827735185623169 0.14132267236709595 0.016226042062044144
0.43451002240180969 0.13918681442737579 0.015586956404149532
0.47954115271568298 0.13723964989185333 0.015001877211034298
0.52526253461837769 0.13460461795330048 0.013799193315207958
0.57718122005462646 0.13265416026115417 0.01268275547772646
0.63308823108673096 0.12985597550868988 0.011680999770760536
0.68762516975402832 0.12710021436214447 0.010657132603228092
0.74044120311737061 0.12469204515218735 0.0099042011424899101
0.78991532325744629 0.12254726886749268 0.0090896263718605042
0.83762151002883911 0.12026974558830261 0.0082943355664610863
0.88468486070632935 0.11767777055501938 0.0077492096461355686
0.92919576168060303 0.11559431999921799 0.0071890889666974545
0.97170299291610718 0.11342105269432068 0.0066836634650826454
0.99863845109939575 0.11090047657489777 0.0059096291661262512
1 0.10897330194711685 0.0054446756839752197
1 0.10714168101549149 0.0050464351661503315
1 0.10572735965251923 0.0045402389951050282
1 0.10454452782869339 0.0042680976912379265
1 0.10318630933761597 0.0042485976591706276
1 0.10318631678819656 0.0042485971935093403
1 0.10318630933761597 0.0042485971935093403
0.05757397785782814 0.18421012163162231 0.028761595487594604
0.064474485814571381 0.18406856060028076 0.028585661202669144
0.074138663709163666 0.18341165781021118 0.028409762308001518
0.087396331131458282 0.18299472332000732 0.028313107788562775
0.1041819155216217 0.18218974769115448 0.028065565973520279
0.12171503156423569 0.18152414262294769 0.027582267299294472
0.14204959571361542 0.18051132559776306 0.026825934648513794
0.16547466814517975 0.17907291650772095 0.026358660310506821
0.19764374196529388 0.17778441309928894 0.025546392425894737
0.23788811266422272 0.17621363699436188 0.02454727329313755
0.28303363919258118 0.17442141473293304 0.02360251359641552
0.33714038133621216 0.17212848365306854 0.022672057151794434
0.3875090479850769 0.16997207701206207 0.021505033597350121
0.43333852291107178 0.16751952469348907 0.020519498735666275
0.47775834798812866 0.16582238674163818 0.01961246132850647
0.52361112833023071 0.16364027559757233 0.018608124926686287
0.57641440629959106 0.16152675449848175 0.017484892159700394
0.63262027502059937 0.15849363803863525 0.016184389591217041
0.68542009592056274 0.15608806908130646 0.015206591226160526
0.73808038234710693 0.15372589230537415 0.014037180691957474
0.78759205341339111 0.15119126439094543 0.013226622715592384
0.83522266149520874 0.14930625259876251 0.012154458090662956
0.88229423761367798 0.14661465585231781 0.01149821188300848
0.92630541324615479 0.14481878280639648 0.010616309940814972
0.96847116947174072 0.14259932935237885 0.0099531970918178558
0.99784696102142334 0.1402999609708786 0.0091476663947105408
1 0.13867779076099396 0.008669842965900898
1 0.13720369338989258 0.0080840094015002251
1 0.13498097658157349 0.0075164050795137882
1 0.13392066955566406 0.0073793977499008179
1 0.13300658762454987 0.0074160578660666943
1 0.13300658762454987 0.0074160578660666943
1 0.13300658762454987 0.0074160578660666943
0.048469152301549911 0.21535937488079071 0.03461172804236412
0.055410429835319519 0.21535937488079071 0.03461172804236412
0.064260035753250122 0.21535937488079071 0.034414336085319519
0.078196510672569275 0.21535937488079071 0.033946651965379715
0.095670014619827271 0.21535937488079071 0.033274214714765549
0.11426324397325516 0.21398429572582245 0.033032264560461044
0.1369195282459259 0.21154530346393585 0.03274986520409584
0.16126447916030884 0.21143807470798492 0.032221730798482895
0.19166421890258789 0.21102270483970642 0.031531412154436111
0.23372478783130646 0.20774261653423309 0.030611351132392883
0.28191724419593811 0.20751622319221497 0.029445312917232513
0.33474999666213989 0.20372585952281952 0.028483560308814049
0.38523963093757629 0.20226891338825226 0.02734365314245224
0.43072575330734253 0.1997089684009552 0.026367008686065674
0.47533145546913147 0.19850942492485046 0.024941893294453621
0.52233290672302246 0.19582310318946838 0.023903533816337585
0.57521098852157593 0.19412168860435486 0.022881841287016869
0.63140988349914551 0.19144894182682037 0.021522276103496552
0.68474441766738892 0.18813018500804901 0.020448587834835052
0.73616546392440796 0.18672554194927216 0.019285952672362328
0.78523492813110352 0.18408237397670746 0.018366463482379913
0.83235132694244385 0.18202726542949677 0.017209092155098915
0.87889271974563599 0.17999032139778137 0.016246391460299492
0.92255580425262451 0.17697773873806 0.0152860963717103
0.96457135677337646 0.17612509429454803 0.014517319388687611
0.99665015935897827 0.17311419546604156 0.013599724508821964
1 0.17222222685813904 0.012966887094080448
1 0.1696719229221344 0.012429776601493359
1 0.16830058395862579 0.011793992482125759
1 0.16640621423721313 0.011449570767581463
1 0.16495119035243988 0.0114838732406497
1 0.16495119035243988 0.0114838732406497
1 0.16495119035243988 0.0114838732406497
0.048965312540531158 0.25381642580032349 0.042885217815637589
0.054432190954685211 0.25303134322166443 0.042696453630924225
0.061793822795152664 0.25294125080108643 0.042640674859285355
0.071152672171592712 0.25193038582801819 0.042284511029720306
0.082884103059768677 0.25114414095878601 0.042005211114883423
0.097613930702209473 0.25090071558952332 0.041602425277233124
0.11842681467533112 0.24986746907234192 0.040877703577280045
0.14411880075931549 0.24862650036811829 0.039891641587018967
0.1791587769985199 0.24724085628986359 0.038869332522153854
0.22630339860916138 0.24598589539527893 0.038153111934661865
0.2772945761680603 0.24406835436820984 0.03692888468503952
0.33153939247131348 0.24207545816898346 0.035883154720067978
0.38076308369636536 0.23964126408100128 0.034405767917633057
0.42578470706939697 0.23779945075511932 0.033191423863172531
0.47068530321121216 0.23583179712295532 0.032059084624052048
0.51842820644378662 0.23401081562042236 0.03081786260008812
0.57272964715957642 0.2319718599319458 0.02930489182472229
0.62848150730133057 0.2289436012506485 0.028000913560390472
0.68117517232894897 0.22661006450653076 0.026534829288721085
0.7320244312286377 0.22455425560474396 0.025310330092906952
0.78110957145690918 0.22233474254608154 0.024065595120191574
0.82767057418823242 0.22033290565013885 0.022775664925575256
0.87395179271697998 0.21790905296802521 0.021847762167453766
0.91782069206237793 0.21579538285732269 0.020887836813926697
0.95928835868835449 0.21402530372142792 0.019888147711753845
0.99386072158813477 0.2119128406047821 0.018867241218686104
1 0.20991608500480652 0.018158318474888802
1 0.20861062407493591 0.017667649313807487
1 0.20642538368701935 0.016782229766249657
1 0.20489019155502319 0.016171811148524284
1 0.20408514142036438 0.016013044863939285
1 0.20408514142036438 0.016013044863939285
1 0.20408514142036438 0.016013044863939285
0.03241431713104248 0.29730391502380371 0.051098685711622238
0.036887597292661667 0.29673764109611511 0.050712931901216507
0.042179744690656662 0.2960970401763916 0.050500378012657166
0.049157939851284027 0.29607829451560974 0.050384517759084702
0.061443071812391281 0.29549798369407654 0.050091136246919632
0.079260341823101044 0.29493632912635803 0.049382496625185013
0.098644278943538666 0.29355087876319885 0.049121171236038208
0.12117782235145569 0.29235953092575073 0.048535306006669998
0.15816392004489899 0.29142671823501587 0.047536756843328476
0.21304337680339813 0.28963789343833923 0.046597406268119812
0.26894915103912354 0.28782334923744202 0.045335371047258377
0.32352933287620544 0.28608208894729614 0.044235836714506149
0.37190908193588257 0.28400573134422302 0.04297088086605072
0.41730672121047974 0.28212332725524902 0.041507214307785034
0.46323782205581665 0.28016078472137451 0.040511295199394226
0.51312470436096191 0.27853864431381226 0.039106320589780807
0.56775772571563721 0.2760348916053772 0.037345673888921738
0.62353271245956421 0.27350917458534241 0.036158397793769836
0.67573541402816772 0.27095773816108704 0.034912176430225372
0.72651398181915283 0.26895242929458618 0.033661890774965286
0.77487581968307495 0.26684874296188354 0.032442379742860794
0.82169336080551147 0.26516386866569519 0.030890710651874542
0.86744016408920288 0.26275885105133057 0.029969437047839165
0.91085928678512573 0.26047620177268982 0.028691589832305908
0.95217704772949219 0.25880387425422668 0.027591386809945107
0.98920726776123047 0.25674915313720703 0.026346191763877869
1 0.25521531701087952 0.02551572397351265
1 0.25359147787094116 0.024498023092746735
1 0.25193014740943909 0.023579146713018417
1 0.25015151500701904 0.022763492539525032
1 0.24934637546539307 0.022460406646132469
1 0.24934640526771545 0.022460406646132469
1 0.24934637546539307 0.022460406646132469
0.015270084142684937 0.33913427591323853 0.058306623250246048
0.01813536137342453 0.33912631869316101 0.058014843612909317
0.020747005939483643 0.33816438913345337 0.057950478047132492
0.02548070065677166 0.33766353130340576 0.057834617793560028
0.032690040767192841 0.33724138140678406 0.057517513632774353
0.042565677314996719 0.33635452389717102 0.057057537138462067
0.055906180292367935 0.3355867862701416 0.056708075106143951
0.078862063586711884 0.33443772792816162 0.056349180638790131
0.13223636150360107 0.33278340101242065 0.055611554533243179
0.19879892468452454 0.33156314492225647 0.054766237735748291
0.25941804051399231 0.32963016629219055 0.053660515695810318
0.31488293409347534 0.32798722386360168 0.052241463214159012
0.36258849501609802 0.32631900906562805 0.050998203456401825
0.40827316045761108 0.32442435622215271 0.04992598295211792
0.45587566494941711 0.32242131233215332 0.04870990663766861
0.50792229175567627 0.32036885619163513 0.047162491828203201
0.56367784738540649 0.31790235638618469 0.045570842921733856
0.61879771947860718 0.31566393375396729 0.044101487845182419
0.67058825492858887 0.31309914588928223 0.042777631431818008
0.72120374441146851 0.31114193797111511 0.04139169305562973
0.76896095275878906 0.3092745840549469 0.040265817195177078
0.81574040651321411 0.30736809968948364 0.038666993379592896
0.86141902208328247 0.30520817637443542 0.037376787513494492
0.9040873646736145 0.30299577116966248 0.036218713968992233
0.94540619850158691 0.3012511134147644 0.035029657185077667
0.98390519618988037 0.29929694533348083 0.033762205392122269
0.9998059868812561 0.29744502902030945 0.032663445919752121
1 0.29629114270210266 0.031508501619100571
1 0.29450076818466187 0.030844580382108688
1 0.29297402501106262 0.02986983023583889
1 0.29297402501106262 0.029557378962635994
1 0.29297402501106262 0.029553091153502464
1 0.29297402501106262 0.029553087428212166
0.00049018749268725514 0.37635317444801331 0.06550201028585434
