Textures/65.cube
# Created by: G'MIC (https://gmic.eu)
TITLE "Kodak_Ektar_100.cube"
# LUT size
LUT_3D_SIZE 33
# Data domain
DOMAIN_MIN 0.0 0.0 0.0
DOMAIN_MAX 1.0 1.0 1.0
# LUT data points
0.01437062956392765 0.011265668086707592 0.010826155543327332
0.050809703767299652 0.012988902628421783 0.01011244673281908
0.084169574081897736 0.014262787997722626 0.0096299126744270325
0.11606157571077347 0.01545687485486269 0.0094000073149800301
0.14798016846179962 0.017271174117922783 0.0090200789272785187
0.17769251763820648 0.018859667703509331 0.008683948777616024
0.20563152432441711 0.020665591582655907 0.0083285653963685036
0.23585553467273712 0.021924830973148346 0.0079725990071892738
0.26386010646820068 0.024048781022429466 0.0075303120538592339
0.29232755303382874 0.026097429916262627 0.0070345201529562473
0.32082366943359375 0.028945246711373329 0.0067035849206149578
0.35117608308792114 0.030702240765094757 0.0065915645100176334
0.38344040513038635 0.031224556267261505 0.0063019106164574623
0.41706308722496033 0.032890170812606812 0.0058364337310194969
0.4532751739025116 0.035955179482698441 0.005527956411242485
0.49519670009613037 0.038339246064424515 0.0049231769517064095
0.54258555173873901 0.041995156556367874 0.0039992001838982105
0.59096556901931763 0.045805402100086212 0.0030760115478187799
0.63509291410446167 0.048763051629066467 0.0023339276667684317
0.67320066690444946 0.051686998456716537 0.0019471985287964344
0.70676004886627197 0.054876375943422318 0.0015173940919339657
0.7381436824798584 0.058612022548913956 0.0011747785611078143
0.76842260360717773 0.062389012426137924 0.00095015804981812835
0.79903256893157959 0.066382348537445068 0.00059097242774441838
0.83020985126495361 0.070419356226921082 0.00032054440816864371
0.86201530694961548 0.075352884829044342 0.00017117836978286505
0.89385372400283813 0.080177523195743561 2.9040009394520894e-05
0.92514467239379883 0.084482528269290924 0
0.95537358522415161 0.088812090456485748 0
0.98364758491516113 0.093597106635570526 0
0.99923449754714966 0.097234867513179779 0
1 0.10038343816995621 0
1 0.10451339930295944 0
0.017072949558496475 0.038477580994367599 0.017443424090743065
0.042698245495557785 0.040723212063312531 0.016638608649373055
0.073767378926277161 0.042968720197677612 0.016029525548219681
0.10554385185241699 0.045281298458576202 0.015509354881942272
0.13741032779216766 0.047835636883974075 0.015066583640873432
0.16669152677059174 0.050100270658731461 0.014746011234819889
0.19501756131649017 0.052394963800907135 0.014403235167264938
0.22530725598335266 0.054352704435586929 0.013989477418363094
0.25329986214637756 0.056386213749647141 0.013380292803049088
0.28192001581192017 0.058499608188867569 0.012734420597553253
0.31073194742202759 0.061087094247341156 0.012227518483996391
0.34107682108879089 0.063403896987438202 0.011816861107945442
0.37378039956092834 0.064296171069145203 0.011235832236707211
0.40803614258766174 0.065605700016021729 0.010587450116872787
0.44469648599624634 0.068174518644809723 0.0099946847185492516
0.48710855841636658 0.070536501705646515 0.0091842412948608398
0.53486061096191406 0.073650389909744263 0.0080259265378117561
0.58337277173995972 0.076318748295307159 0.00682407571002841
0.62754553556442261 0.077849552035331726 0.005677451379597187
0.66595512628555298 0.078686028718948364 0.00484045734629035
0.70077723264694214 0.077984817326068878 0.0041647795587778091
0.73400568962097168 0.076768413186073303 0.0034777838736772537
0.76604717969894409 0.075822286307811737 0.0031494386494159698
0.79831171035766602 0.074886761605739594 0.0024863381404429674
0.831165611743927 0.074551098048686981 0.0018087432254105806
0.86407524347305298 0.076651781797409058 0.0013195078354328871
0.89595413208007812 0.080490082502365112 0.00079002761049196124
0.92700403928756714 0.084482528269290924 0.0004138691583648324
0.95714044570922852 0.088786892592906952 0.00012527377111837268
0.98561018705368042 0.093597106635570526 3.3779683690227102e-06
0.99956119060516357 0.097022615373134613 0
1 0.10019551217556 0
1 0.10448820143938065 0
0.024666083976626396 0.064619772136211395 0.023702090606093407
0.046236883848905563 0.066560171544551849 0.022889871150255203
0.070051267743110657 0.068344302475452423 0.022267861291766167
0.10019499063491821 0.07046421617269516 0.021658027544617653
0.13169637322425842 0.072667814791202545 0.021159252151846886
0.1601080596446991 0.074849590659141541 0.020838955417275429
0.18861706554889679 0.076967246830463409 0.020444612950086594
0.21877215802669525 0.078986771404743195 0.019913865253329277
0.24634368717670441 0.080914922058582306 0.019173489883542061
0.27504011988639832 0.082954332232475281 0.018537519499659538
0.30406847596168518 0.085406780242919922 0.018017254769802094
0.3343367874622345 0.08753521740436554 0.017263531684875488
0.36703130602836609 0.088844753801822662 0.01652083732187748
0.40145573019981384 0.090375758707523346 0.015660230070352554
0.43845412135124207 0.092711508274078369 0.014757392928004265
0.48096522688865662 0.095302633941173553 0.01369301974773407
0.52880096435546875 0.098493531346321106 0.011921070516109467
0.57688087224960327 0.10151556879281998 0.010525587946176529
0.62051022052764893 0.10331819951534271 0.0091990344226360321
0.65855616331100464 0.10410183668136597 0.0080680754035711288
0.69316655397415161 0.10387169569730759 0.0072248983196914196
0.72606456279754639 0.10276467353105545 0.0063469079323112965
0.75803476572036743 0.10200688987970352 0.0057242577895522118
0.79071122407913208 0.10006186366081238 0.0048278043977916241
0.82458913326263428 0.097269728779792786 0.0038888587150722742
0.85903942584991455 0.094579830765724182 0.0031254286877810955
0.89376020431518555 0.091384120285511017 0.0023381339851766825
0.92717939615249634 0.089692391455173492 0.0017056978540495038
0.95852196216583252 0.090037457644939423 0.0011018397053703666
0.98707032203674316 0.093731388449668884 0.00052149733528494835
0.99974572658538818 0.097001485526561737 0.00012337205407675356
1 0.10029889643192291 2.629906020956696e-06
1 0.10448820143938065 0
0.034442637115716934 0.090215355157852173 0.032320369035005569
0.053524397313594818 0.09177042543888092 0.031441163271665573
0.073373191058635712 0.09332624077796936 0.030692074447870255
0.096992798149585724 0.095109850168228149 0.029892560094594955
0.12642702460289001 0.097214937210083008 0.02934635803103447
0.15389002859592438 0.099250525236129761 0.028755702078342438
0.18272648751735687 0.10127561539411545 0.028334552422165871
0.21249356865882874 0.10309556126594543 0.027846723794937134
0.24001976847648621 0.10485953092575073 0.027074916288256645
0.26853987574577332 0.10662293434143066 0.02625470794737339
0.29796597361564636 0.10872182995080948 0.025575175881385803
0.32834839820861816 0.11083345115184784 0.024618912488222122
0.36085918545722961 0.11234038323163986 0.023474927991628647
0.3953993022441864 0.11392585188150406 0.022622289136052132
0.43285930156707764 0.11619807779788971 0.021343352273106575
0.47581022977828979 0.11887528747320175 0.020201569423079491
0.52375513315200806 0.12191329896450043 0.018109094351530075
0.57138049602508545 0.12488391995429993 0.016286095604300499
0.61441880464553833 0.12666772305965424 0.014514056965708733
0.6521298885345459 0.12724202871322632 0.012891237623989582
0.68638753890991211 0.12735447287559509 0.011760607361793518
0.71913391351699829 0.12648195028305054 0.010483019053936005
0.75098961591720581 0.12556985020637512 0.0094856712967157364
0.78351980447769165 0.12427583336830139 0.0086185326799750328
0.81728547811508179 0.12206019461154938 0.007299844641238451
0.85160857439041138 0.1199529767036438 0.0061262678354978561
0.88633394241333008 0.11662980914115906 0.0048605483025312424
0.92063885927200317 0.1124759241938591 0.0039155683480203152
0.95418530702590942 0.10726911574602127 0.002962861442938447
0.9859541654586792 0.10156625509262085 0.0020457361824810505
0.99971765279769897 0.098968543112277985 0.0012392771895974874
1 0.1007918119430542 0.00059535069158300757
1 0.10448820143938065 0.00013833398406859487
0.046637147665023804 0.11496450752019882 0.042718607932329178
0.062836356461048126 0.11625070869922638 0.041999239474534988
0.080183550715446472 0.11764920502901077 0.041176352649927139
0.10040976852178574 0.11924193799495697 0.040179375559091568
0.12261223047971725 0.1208997443318367 0.039138082414865494
0.14832913875579834 0.1226637214422226 0.038669679313898087
0.17768719792366028 0.12448923289775848 0.03817816823720932
0.20647799968719482 0.12625853717327118 0.037810042500495911
0.234182208776474 0.1279042512178421 0.037147384136915207
0.26261088252067566 0.12968052923679352 0.036359790712594986
0.29204690456390381 0.13150732219219208 0.035674471408128738
0.32276776432991028 0.13365355134010315 0.034586671739816666
0.35532951354980469 0.13521650433540344 0.032843474298715591
0.39016887545585632 0.13687153160572052 0.031927056610584259
0.42813166975975037 0.13905824720859528 0.030531255528330803
0.47145649790763855 0.14161744713783264 0.02900904044508934
0.51947951316833496 0.144563227891922 0.025918714702129364
0.56674516201019287 0.14741218090057373 0.023881126195192337
0.60912668704986572 0.14915017783641815 0.0221837367862463
0.64626437425613403 0.149563267827034 0.019909687340259552
0.68056708574295044 0.14941868185997009 0.018564509227871895
0.71298092603683472 0.14884118735790253 0.017080651596188545
0.74491351842880249 0.14775781333446503 0.015440667979419231
0.77738386392593384 0.14664933085441589 0.014406196773052216
0.811126708984375 0.1445448100566864 0.012611205689609051
0.84522688388824463 0.14278161525726318 0.010823040269315243
0.87977027893066406 0.13982376456260681 0.0092814890667796135
0.91386479139328003 0.13639409840106964 0.0076876133680343628
0.94718515872955322 0.13159859180450439 0.006235211156308651
0.97944825887680054 0.12513169646263123 0.0047677960246801376
0.99883437156677246 0.1171267107129097 0.0033771635498851538
1 0.10875771194696426 0.0023215038236230612
1 0.10581377893686295 0.0013064161175861955
0.059952851384878159 0.13797496259212494 0.054527763277292252
0.073712907731533051 0.13913780450820923 0.053999654948711395
0.088904961943626404 0.14024467766284943 0.053100306540727615
0.10670750588178635 0.14168877899646759 0.052261359989643097
0.1248796209692955 0.14322280883789062 0.051388639956712723
0.14581403136253357 0.14478524029254913 0.05030510202050209
0.17386984825134277 0.14664939045906067 0.04982202872633934
0.20132164657115936 0.14827106893062592 0.049327697604894638
0.22902683913707733 0.14991487562656403 0.048605334013700485
0.2575221061706543 0.15164212882518768 0.047805186361074448
0.28718724846839905 0.15344811975955963 0.047207240015268326
0.31814020872116089 0.15542975068092346 0.045996434986591339
0.35065844655036926 0.15702579915523529 0.044021528214216232
0.38569721579551697 0.15886467695236206 0.04272095113992691
0.42423489689826965 0.16106095910072327 0.041328072547912598
0.46807461977005005 0.16367346048355103 0.039550624787807465
0.51616597175598145 0.16653443872928619 0.036242764443159103
0.56281834840774536 0.16934618353843689 0.033723562955856323
0.60444211959838867 0.17096173763275146 0.031812772154808044
0.64105212688446045 0.17135892808437347 0.029160426929593086
0.67509406805038452 0.17096970975399017 0.027190076187252998
0.70741951465606689 0.17049331963062286 0.025721646845340729
0.73926091194152832 0.16918958723545074 0.023410344496369362
0.7717711329460144 0.16794447600841522 0.021973034366965294
0.80556714534759521 0.16581688821315765 0.020027946680784225
0.83957415819168091 0.16417111456394196 0.017635680735111237
0.87410056591033936 0.16130609810352325 0.015692992135882378
0.90800786018371582 0.15793822705745697 0.013358181342482567
0.94105708599090576 0.15371681749820709 0.011447468772530556
0.97318130731582642 0.14773207902908325 0.0094685452058911324
0.99697756767272949 0.14048922061920166 0.0073560685850679874
1 0.13162481784820557 0.0055354712530970573
1 0.12064904719591141 0.0037156133912503719
0.073389559984207153 0.16193671524524689 0.066233336925506592
0.085015080869197845 0.16284051537513733 0.065768346190452576
0.098150856792926788 0.16401998698711395 0.065105020999908447
0.11313893646001816 0.16528438031673431 0.064433149993419647
0.12940080463886261 0.16658596694469452 0.063510291278362274
0.1484110951423645 0.1682647317647934 0.062582112848758698
0.17054165899753571 0.1698291003704071 0.061648417264223099
0.1955353170633316 0.17146636545658112 0.061100244522094727
0.2234978973865509 0.17311793565750122 0.060434732586145401
0.2519054114818573 0.17476443946361542 0.05966506153345108
0.28157347440719604 0.17664848268032074 0.0589795783162117
0.31286683678627014 0.17855764925479889 0.057994596660137177
0.34561002254486084 0.18044868111610413 0.056145641952753067
0.38088732957839966 0.18233248591423035 0.054464589804410934
0.41992396116256714 0.18487350642681122 0.052788123488426208
0.46442151069641113 0.18745076656341553 0.050968490540981293
0.51235920190811157 0.19034342467784882 0.047540221363306046
0.55816590785980225 0.19314944744110107 0.04440610483288765
0.59899216890335083 0.19464820623397827 0.042316310107707977
0.63496339321136475 0.19509987533092499 0.039669811725616455
0.66871500015258789 0.19448268413543701 0.03732970729470253
0.70083081722259521 0.19426888227462769 0.03573763370513916
0.73248451948165894 0.19322448968887329 0.03309989720582962
0.76510429382324219 0.19177058339118958 0.031220961362123489
0.79887694120407104 0.18976011872291565 0.029283469542860985
0.83297067880630493 0.18793565034866333 0.026303257793188095
0.86740398406982422 0.18522843718528748 0.023900389671325684
0.90131276845932007 0.18153217434883118 0.021057073026895523
0.93425047397613525 0.17749407887458801 0.018647914752364159
0.96622562408447266 0.17186546325683594 0.016080955043435097
0.9933013916015625 0.16511207818984985 0.013283038511872292
1 0.15684062242507935 0.010822460986673832
1 0.14693397283554077 0.0083655323833227158
0.087367124855518341 0.18431083858013153 0.077166654169559479
0.097197011113166809 0.18516336381435394 0.076903969049453735
0.10768856108188629 0.18605127930641174 0.076648436486721039
0.12013821303844452 0.18715803325176239 0.07603127509355545
0.13544467091560364 0.1885397881269455 0.075401239097118378
0.15364965796470642 0.19004140794277191 0.074410811066627502
0.17204347252845764 0.19149024784564972 0.073454320430755615
0.19226552546024323 0.19309088587760925 0.072906933724880219
0.2190217524766922 0.19471997022628784 0.072086960077285767
0.24747781455516815 0.19648060202598572 0.071283407509326935
0.27723181247711182 0.19833062589168549 0.070152699947357178
0.30873662233352661 0.20025129616260529 0.069065742194652557
0.34188589453697205 0.2022387832403183 0.067359529435634613
0.37755253911018372 0.20435032248497009 0.065275512635707855
0.41730117797851562 0.20694112777709961 0.063275158405303955
0.46232014894485474 0.2097523957490921 0.060868017375469208
0.50967371463775635 0.2129291445016861 0.057702664285898209
0.55456334352493286 0.21561628580093384 0.054722592234611511
0.59441101551055908 0.21720905601978302 0.052392914891242981
0.62956267595291138 0.21784543991088867 0.050051789730787277
0.66284668445587158 0.2174309641122818 0.047681517899036407
0.69450342655181885 0.21729037165641785 0.045734290033578873
0.72629368305206299 0.21645228564739227 0.043116182088851929
0.7586967945098877 0.21540440618991852 0.040811974555253983
0.79241591691970825 0.21340619027614594 0.03860531747341156
0.82657361030578613 0.21162086725234985 0.035318732261657715
0.86081409454345703 0.20905598998069763 0.032699018716812134
0.89468222856521606 0.20535413920879364 0.02945326641201973
0.92758262157440186 0.20117637515068054 0.026930060237646103
0.95936793088912964 0.19551524519920349 0.023917090147733688
0.98790395259857178 0.18887260556221008 0.020823702216148376
0.99987417459487915 0.18071421980857849 0.017735050991177559
1 0.17155010998249054 0.01462636049836874
0.091189578175544739 0.2069503515958786 0.087407611310482025
0.098847553133964539 0.20761929452419281 0.08702465146780014
0.10785215348005295 0.20841924846172333 0.086691044270992279
0.11980824172496796 0.20944735407829285 0.086274988949298859
0.1349186897277832 0.2107354998588562 0.085637360811233521
0.15173837542533875 0.21226903796195984 0.08483954519033432
0.16847553849220276 0.21356143057346344 0.083966813981533051
0.18843132257461548 0.21513327956199646 0.083279915153980255
0.21449610590934753 0.21686401963233948 0.082523919641971588
0.24346323311328888 0.21853332221508026 0.081523671746253967
0.27327531576156616 0.22039839625358582 0.079980924725532532
0.30491092801094055 0.22226206958293915 0.078799545764923096
0.33876389265060425 0.22433589398860931 0.077633745968341827
0.37514659762382507 0.22657197713851929 0.075991377234458923
0.41562682390213013 0.2294127345085144 0.074124999344348907
0.46092575788497925 0.23253048956394196 0.07140234112739563
0.50746840238571167 0.23577168583869934 0.068922817707061768
0.55125194787979126 0.23830986022949219 0.066476859152317047
0.59002077579498291 0.23978975415229797 0.063846342265605927
0.62448751926422119 0.24060282111167908 0.061540693044662476
0.65703248977661133 0.24054199457168579 0.059476248919963837
0.68864941596984863 0.24047377705574036 0.057145148515701294
0.72003287076950073 0.23997773230075836 0.054826132953166962
0.75236159563064575 0.23918221890926361 0.052156500518321991
0.78576564788818359 0.23813124001026154 0.049655783921480179
0.81994909048080444 0.23602922260761261 0.046375621110200882
0.85376965999603271 0.23419342935085297 0.043254803866147995
0.88740766048431396 0.23061826825141907 0.039696507155895233
0.92013746500015259 0.22648242115974426 0.036631155759096146
0.95167052745819092 0.22115989029407501 0.033106882125139236
0.9816443920135498 0.21446363627910614 0.029522150754928589
0.99892765283584595 0.20619463920593262 0.025600781664252281
1 0.19697840511798859 0.022406702861189842
0.083578698337078094 0.23032502830028534 0.096944801509380341
0.090687431395053864 0.23088781535625458 0.096719980239868164
0.099728137254714966 0.2317156195640564 0.09645446389913559
0.11246956139802933 0.23293545842170715 0.096143051981925964
0.12804089486598969 0.2340349406003952 0.095673538744449615
0.14382739365100861 0.23518180847167969 0.095344707369804382
0.16123408079147339 0.23664237558841705 0.094762317836284637
0.18254305422306061 0.23806804418563843 0.094133585691452026
0.20991820096969604 0.23969964683055878 0.093539327383041382
0.23905010521411896 0.24147801101207733 0.09271453320980072
0.26960381865501404 0.24317707121372223 0.091365300118923187
0.30130162835121155 0.24518129229545593 0.090058580040931702
0.33562189340591431 0.24726834893226624 0.088928170502185822
0.37306743860244751 0.24970053136348724 0.08746250718832016
0.41445305943489075 0.25278192758560181 0.08572319895029068
0.4600086510181427 0.25595039129257202 0.082863651216030121
0.50574564933776855 0.2590542733669281 0.080310329794883728
0.54807478189468384 0.26154670119285583 0.077989190816879272
0.58567118644714355 0.26277586817741394 0.075558163225650787
0.61949026584625244 0.26374316215515137 0.073214016854763031
0.65129435062408447 0.26410189270973206 0.071252040565013885
0.68249672651290894 0.26390969753265381 0.068818613886833191
0.71401751041412354 0.26382043957710266 0.066635116934776306
0.74614161252975464 0.26320433616638184 0.064059391617774963
0.77929365634918213 0.26228660345077515 0.061169039458036423
0.81326872110366821 0.26111644506454468 0.058179605752229691
0.8467257022857666 0.25920671224594116 0.054824646562337875
0.87998723983764648 0.25649642944335938 0.051272418349981308
0.91238445043563843 0.25279787182807922 0.047923177480697632
0.94350087642669678 0.24805830419063568 0.04443759098649025
0.97348397970199585 0.24171790480613708 0.040235016494989395
0.99648493528366089 0.23374417424201965 0.035779297351837158
1 0.22439415752887726 0.031496640294790268
0.088127486407756805 0.2551458477973938 0.10813827812671661
0.093493171036243439 0.25574186444282532 0.1078801229596138
0.10010357946157455 0.25632211565971375 0.1077117845416069
0.1093815341591835 0.25698325037956238 0.10745086520910263
0.12025188654661179 0.2580094039440155 0.10707886517047882
0.13448791205883026 0.25948330760002136 0.10677792131900787
0.15251040458679199 0.26056396961212158 0.10625527054071426
0.17570531368255615 0.26194450259208679 0.1054035946726799
0.20450097322463989 0.26379469037055969 0.10443495959043503
0.23426564037799835 0.26528629660606384 0.10368603467941284
0.26523673534393311 0.26737779378890991 0.10272262990474701
0.29765254259109497 0.26908034086227417 0.10148367285728455
0.33255347609519958 0.27150720357894897 0.10035356879234314
0.37113809585571289 0.27377048134803772 0.098427928984165192
0.41388618946075439 0.27684414386749268 0.096280917525291443
0.45936053991317749 0.28022140264511108 0.093785353004932404
0.50400668382644653 0.28332939743995667 0.091055870056152344
0.54474645853042603 0.28535929322242737 0.088317587971687317
0.58112943172454834 0.28677505254745483 0.085889086127281189
0.61404615640640259 0.28760400414466858 0.083719618618488312
0.64567553997039795 0.28798592090606689 0.081379525363445282
0.67675632238388062 0.28793984651565552 0.07929171621799469
0.7079196572303772 0.28788796067237854 0.07698405534029007
0.73994207382202148 0.28774374723434448 0.074367493391036987
0.77300471067428589 0.28717684745788574 0.071748115122318268
0.80671060085296631 0.28598558902740479 0.068828761577606201
0.84000480175018311 0.28439804911613464 0.065654076635837555
0.87275487184524536 0.28216069936752319 0.062469121068716049
0.90476459264755249 0.2788766622543335 0.059166096150875092
0.93529921770095825 0.27477374672889709 0.055762972682714462
0.96504926681518555 0.26907205581665039 0.051744662225246429
0.99169284105300903 0.26193705201148987 0.047315347939729691
1 0.25312191247940063 0.042258776724338531
0.092864334583282471 0.28129780292510986 0.11873210966587067
0.097428813576698303 0.28161910176277161 0.11864662170410156
0.10268525779247284 0.28218066692352295 0.11831317096948624
0.10914731025695801 0.28285029530525208 0.11809362471103668
0.11755150556564331 0.28396925330162048 0.11777999997138977
0.12781699001789093 0.28517210483551025 0.11715395748615265
0.14179779589176178 0.28609547019004822 0.11660180985927582
0.16759730875492096 0.28738060593605042 0.11582304537296295
0.19780309498310089 0.28910183906555176 0.11470001190900803
0.2286248505115509 0.29051545262336731 0.11344169825315475
0.26046690344810486 0.29249712824821472 0.1123661994934082
0.29357695579528809 0.29451870918273926 0.11116471141576767
0.32928082346916199 0.29698312282562256 0.10967861860990524
0.36913353204727173 0.29954907298088074 0.10764667391777039
0.41319867968559265 0.30241730809211731 0.10485389828681946
0.45856037735939026 0.30560442805290222 0.10236284136772156
0.50190794467926025 0.30836287140846252 0.10001425445079803
0.54090654850006104 0.31028610467910767 0.097574956715106964
0.5760006308555603 0.31133186817169189 0.09526737779378891
0.60853230953216553 0.31220552325248718 0.093334846198558807
0.63939255475997925 0.31297436356544495 0.091099686920642853
0.6701921820640564 0.31310030817985535 0.089230939745903015
0.70136928558349609 0.31300243735313416 0.087007202208042145
0.73369079828262329 0.31289747357368469 0.084164366126060486
0.76662337779998779 0.31208023428916931 0.081770002841949463
0.80004537105560303 0.31111800670623779 0.078875832259654999
0.83322769403457642 0.3099292516708374 0.07563355565071106
0.86556804180145264 0.30779719352722168 0.072348564863204956
0.89711707830429077 0.30489784479141235 0.069089911878108978
0.92725324630737305 0.30122995376586914 0.065540052950382233
0.95668292045593262 0.29600533843040466 0.061813067644834518
0.98464727401733398 0.28966984152793884 0.057556349784135818
0.99949729442596436 0.28169673681259155 0.053074527531862259
0.066148556768894196 0.31028816103935242 0.12683483958244324
