Textures/65.cube
# Created by: G'MIC (https://gmic.eu)
TITLE "Kodak_Ektar_100.cube"
# LUT size
LUT_3D_SIZE 5
# Data domain
DOMAIN_MIN 0.0 0.0 0.0
DOMAIN_MAX 1.0 1.0 1.0
# LUT data points
0.01437062956392765 0.011265668086707592 0.010826155543327332
0.26386010646820068 0.024048781022429466 0.0075303120538592339
0.54258555173873901 0.041995156556367874 0.0039992001838982105
0.83020985126495361 0.070419356226921082 0.00032054440816864371
1 0.10451339930295944 0
0.091189578175544739 0.2069503515958786 0.087407611310482025
0.21449610590934753 0.21686401963233948 0.082523919641971588
0.50746840238571167 0.23577168583869934 0.068922817707061768
0.78576564788818359 0.23813124001026154 0.049655783921480179
1 0.19697840511798859 0.022406702861189842
0 0.44509810209274292 0.15609206259250641
0.11346770823001862 0.45294126868247986 0.15143392980098724
0.45597139000892639 0.47254911065101624 0.13698844611644745
0.70942693948745728 0.47935378551483154 0.12152200937271118
0.95365595817565918 0.4501347541809082 0.099313370883464813
0.0026202714070677757 0.65519201755523682 0.20936517417430878
0.1542217880487442 0.66169357299804688 0.20509222149848938
0.4086529016494751 0.67395365238189697 0.19396571815013885
0.64844077825546265 0.68821918964385986 0.17408375442028046
0.86161285638809204 0.69120830297470093 0.13845893740653992
0.062794551253318787 0.85248172283172607 0.2908119261264801
0.20329095423221588 0.85638481378555298 0.28843924403190613
0.40899994969367981 0.8666917085647583 0.28227254748344421
0.5927351713180542 0.87924027442932129 0.26862165331840515
0.83673453330993652 0.89439922571182251 0.22416618466377258
0.027228383347392082 0.02323283813893795 0.19016420841217041
0.28103241324424744 0.037533137947320938 0.1809038370847702
0.56685519218444824 0.056155499070882797 0.16729326546192169
0.8587678074836731 0.071560941636562347 0.14651301503181458
1 0.10448820143938065 0.11706272512674332
0.095330148935317993 0.2178928405046463 0.23287081718444824
0.22843272984027863 0.2280581146478653 0.22809988260269165
0.52609145641326904 0.24821744859218597 0.21472522616386414
0.80398696660995483 0.25078338384628296 0.19727613031864166
1 0.20950883626937866 0.17403538525104523
8.8917477114591748e-05 0.45341724157333374 0.28143429756164551
0.12204106897115707 0.4615415632724762 0.27766528725624084
0.47101318836212158 0.48241358995437622 0.26484370231628418
0.72406107187271118 0.49098137021064758 0.249958336353302
0.96719896793365479 0.46364042162895203 0.22769239544868469
0.023247221484780312 0.65955251455307007 0.35065087676048279
0.1919545978307724 0.66634970903396606 0.34812644124031067
0.43167528510093689 0.67857736349105835 0.34207633137702942
0.66815024614334106 0.6935417652130127 0.33053335547447205
0.88173335790634155 0.696632981300354 0.30666229128837585
0.13625010848045349 0.85745012760162354 0.43632543087005615
0.24904261529445648 0.86138010025024414 0.43506354093551636
0.4356440007686615 0.87186557054519653 0.43045151233673096
0.61413317918777466 0.8842087984085083 0.42215734720230103
0.86206281185150146 0.90008264780044556 0.39515480399131775
0.037001948803663254 0.037900380790233612 0.36476996541023254
0.29359611868858337 0.055875234305858612 0.36020904779434204
0.58866512775421143 0.074404522776603699 0.35098543763160706
0.88478577136993408 0.081461846828460693 0.33768182992935181
1 0.10369698703289032 0.31617772579193115
0.098985433578491211 0.23375353217124939 0.43891802430152893
0.24416027963161469 0.24433325231075287 0.43794572353363037
0.54906809329986572 0.26529088616371155 0.43045762181282043
0.82854408025741577 0.26933300495147705 0.42038848996162415
1 0.22885647416114807 0.40436980128288269
0.01694248802959919 0.46581724286079407 0.50815457105636597
0.14376889169216156 0.47436794638633728 0.50569581985473633
0.4966697096824646 0.49620559811592102 0.49633875489234924
0.74957680702209473 0.50747466087341309 0.48707768321037292
0.98923629522323608 0.48624396324157715 0.47403112053871155
0.078340798616409302 0.66724669933319092 0.55609548091888428
0.2388797402381897 0.67409294843673706 0.55354785919189453
0.46148982644081116 0.68704718351364136 0.54851412773132324
0.69561225175857544 0.70259404182434082 0.54012364149093628
0.9121435284614563 0.70667296648025513 0.52734971046447754
0.18414022028446198 0.86786544322967529 0.5995069146156311
0.2844792902469635 0.87202322483062744 0.59838235378265381
0.46044334769248962 0.88266569375991821 0.59487992525100708
0.63564282655715942 0.89542180299758911 0.58947974443435669
0.89357119798660278 0.91236156225204468 0.5714537501335144
0.040945317596197128 0.064357385039329529 0.58509212732315063
0.29876801371574402 0.085000835359096527 0.57960659265518188
0.60241317749023438 0.10475090146064758 0.57030212879180908
0.90806710720062256 0.10382369160652161 0.55839908123016357
1 0.10259575396776199 0.54560595750808716
0.0919342041015625 0.25730863213539124 0.63311374187469482
0.23762376606464386 0.26896563172340393 0.63048970699310303
0.55598998069763184 0.29069617390632629 0.62142062187194824
0.84285092353820801 0.29638233780860901 0.61166399717330933
1 0.25997483730316162 0.60067844390869141
0.0068075335584580898 0.48118966817855835 0.68305057287216187
0.12602224946022034 0.4901740550994873 0.68078851699829102
0.50475776195526123 0.51397496461868286 0.67195463180541992
0.76278108358383179 0.52769553661346436 0.66435152292251587
0.99702197313308716 0.51502811908721924 0.65503948926925659
0.076494447886943817 0.67648553848266602 0.72779154777526855
0.25264224410057068 0.68413615226745605 0.72547394037246704
0.47748905420303345 0.69758415222167969 0.72122234106063843
0.71458703279495239 0.71440005302429199 0.71442395448684692
0.93618178367614746 0.72058761119842529 0.70556622743606567
0.20397888123989105 0.88165384531021118 0.76320332288742065
0.30109453201293945 0.88609486818313599 0.76191341876983643
0.47615939378738403 0.89703613519668579 0.75889283418655396
0.65180593729019165 0.91071867942810059 0.75470733642578125
0.92461061477661133 0.9295506477355957 0.74183911085128784
0.022989282384514809 0.1084313839673996 0.75927907228469849
0.273455411195755 0.12734027206897736 0.75367039442062378
0.59070056676864624 0.14911936223506927 0.74428665637969971
0.91059935092926025 0.15144716203212738 0.7331993579864502
1 0.11028269678354263 0.7231786847114563
0.045655675232410431 0.29344910383224487 0.80083882808685303
0.18563446402549744 0.30628487467765808 0.79725068807601929
0.53522098064422607 0.32918179035186768 0.78713899850845337
0.84105569124221802 0.33710822463035583 0.7769438624382019
1 0.30580988526344299 0.76769155263900757
0 0.50119709968566895 0.83702045679092407
0.013024291954934597 0.51071768999099731 0.83438271284103394
0.48865240812301636 0.53735554218292236 0.8242335319519043
0.7608380913734436 0.55449759960174561 0.81624007225036621
0.9980354905128479 0.55058777332305908 0.80859148502349854
0 0.68700724840164185 0.87449020147323608
0.19796295464038849 0.69617325067520142 0.87172055244445801
0.4662926197052002 0.7118217945098877 0.86819308996200562
0.71700996160507202 0.73063760995864868 0.86375564336776733
0.94975805282592773 0.74037879705429077 0.85925453901290894
0.13775390386581421 0.89884686470031738 0.94522696733474731
0.26420676708221436 0.90344619750976562 0.94582438468933105
0.46554768085479736 0.91598802804946899 0.94780063629150391
0.65684360265731812 0.93172347545623779 0.95254701375961304
0.95392376184463501 0.95573830604553223 0.95413577556610107
