Textures/66.cube
# Created by: G'MIC (https://gmic.eu)
TITLE "Kodak_Elite_100_XPRO.cube"
# LUT size
LUT_3D_SIZE 33
# Data domain
DOMAIN_MIN 0.0 0.0 0.0
DOMAIN_MAX 1.0 1.0 1.0
# LUT data points
0.0057235304266214371 0.0010902603389695287 0
0.021105123683810234 0.0016051928978413343 0
0.038128532469272614 0.0020137913525104523 0
0.056564554572105408 0.0023263667244464159 0
0.073951117694377899 0.0024558473378419876 0
0.090155273675918579 0.0029024030081927776 0
0.10550985485315323 0.0035791425034403801 5.8018606068799272e-05
0.1229122057557106 0.0042939493432641029 0.00019263876311015338
0.14115405082702637 0.0050117382779717445 0.00040719410753808916
0.16152313351631165 0.0056565050035715103 0.00085658993339166045
0.18549345433712006 0.0062435776926577091 0.0014659271109849215
0.21557909250259399 0.0081017697229981422 0.00207721465267241
0.24852204322814941 0.0098837371915578842 0.0027848572935909033
0.28097587823867798 0.010905902832746506 0.0038897814229130745
0.31249228119850159 0.013637596741318703 0.0043310406617820263
0.34451660513877869 0.015596039593219757 0.0050798431038856506
0.37938511371612549 0.017074145376682281 0.0065165716223418713
0.41829517483711243 0.019252974539995193 0.0080886920914053917
0.46274033188819885 0.022696271538734436 0.01077609695494175
0.51490455865859985 0.026277244091033936 0.012452325783669949
0.56908786296844482 0.030895775184035301 0.015932243317365646
0.62046539783477783 0.035740174353122711 0.019668806344270706
0.6680450439453125 0.040898356586694717 0.023117180913686752
0.71066164970397949 0.045932084321975708 0.026664877310395241
0.74956029653549194 0.052319478243589401 0.030584855005145073
0.78500837087631226 0.058485891669988632 0.034149918705224991
0.81743454933166504 0.062723875045776367 0.037265215069055557
0.84727996587753296 0.069227047264575958 0.039917226880788803
0.87501370906829834 0.076230734586715698 0.042702514678239822
0.90065723657608032 0.082699917256832123 0.044728618115186691
0.92528587579727173 0.090826064348220825 0.047534223645925522
0.94834262132644653 0.098945587873458862 0.049768727272748947
0.9695286750793457 0.10896189510822296 0.051383443176746368
0.011945116333663464 0.0066338605247437954 0
0.027675976976752281 0.0075551429763436317 0
0.044289648532867432 0.0084895314648747444 0
0.061793960630893707 0.0092892283573746681 0
0.078359067440032959 0.010169615037739277 4.9223610403714702e-05
0.094041205942630768 0.010988757945597172 0.0001871064305305481
0.1093938946723938 0.011869868263602257 0.00039669687976129353
0.1270139068365097 0.01289552915841341 0.00086283159907907248
0.14482997357845306 0.014098935760557652 0.0012228945270180702
0.16529786586761475 0.015470142476260662 0.001582177123054862
0.18959012627601624 0.017141973599791527 0.0021134940907359123
0.21953506767749786 0.019167395308613777 0.0021369003225117922
0.25265392661094666 0.021461056545376778 0.002960497047752142
0.28487718105316162 0.024378843605518341 0.0038380888290703297
0.31621050834655762 0.027341760694980621 0.0051184529438614845
0.34812095761299133 0.030096881091594696 0.0059007951058447361
0.38293009996414185 0.032569784671068192 0.0066250143572688103
0.42164707183837891 0.03619781881570816 0.0085517782717943192
0.46595621109008789 0.040848474949598312 0.010833082720637321
0.51835840940475464 0.045600492507219315 0.012401590123772621
0.57223975658416748 0.051093138754367828 0.01533119473606348
0.62339329719543457 0.056787155568599701 0.018875002861022949
0.67125499248504639 0.062636293470859528 0.022098477929830551
0.71375274658203125 0.068409323692321777 0.025401340797543526
0.7523876428604126 0.074825555086135864 0.028974521905183792
0.7878919243812561 0.081171922385692596 0.032324329018592834
0.8205145001411438 0.086732558906078339 0.035401247441768646
0.85034894943237305 0.093478433787822723 0.038862261921167374
0.8782382607460022 0.10131777822971344 0.040663190186023712
0.90394866466522217 0.10892117768526077 0.043137010186910629
0.92884665727615356 0.11822604387998581 0.045345503836870193
0.95186877250671387 0.12817972898483276 0.04711633175611496
0.97342562675476074 0.1402195543050766 0.048834279179573059
0.019516637548804283 0.014188697561621666 0
0.03432014212012291 0.015055389143526554 0
0.049836546182632446 0.015991538763046265 7.9438659668085165e-06
0.06609770655632019 0.01705104298889637 0.00016597007925156504
0.08181290328502655 0.01834334060549736 0.0003180383937433362
0.096825674176216125 0.019438644871115685 0.00065451790578663349
0.11206328123807907 0.020816020667552948 0.001103523769415915
0.12950387597084045 0.022229660302400589 0.0012810195330530405
0.14734427630901337 0.023552550002932549 0.0016305499011650681
0.16804108023643494 0.025241198018193245 0.0021150545217096806
0.19267790019512177 0.027323246002197266 0.0021287081763148308
0.22287489473819733 0.029924329370260239 0.0025946653913706541
0.25576072931289673 0.033044487237930298 0.0033044812735170126
0.28773161768913269 0.036488063633441925 0.0046772812493145466
0.31899836659431458 0.040188319981098175 0.0057381642982363701
0.35080868005752563 0.043095659464597702 0.0060662664473056793
0.38560298085212708 0.045999027788639069 0.0071042855270206928
0.42457801103591919 0.050094477832317352 0.0090148607268929482
0.46919763088226318 0.055286116898059845 0.010872633196413517
0.52148425579071045 0.060365919023752213 0.012860832735896111
0.57547056674957275 0.06601279228925705 0.015479836612939835
0.62666225433349609 0.071901611983776093 0.018674883991479874
0.67383146286010742 0.078020446002483368 0.021529465913772583
0.7164958119392395 0.084014371037483215 0.024444814771413803
0.75535368919372559 0.090713329613208771 0.027983134612441063
0.7905614972114563 0.097330287098884583 0.031479012221097946
0.82320040464401245 0.10368701070547104 0.034807216376066208
0.85290312767028809 0.11122805625200272 0.037290897220373154
0.88083815574645996 0.11942050606012344 0.039298124611377716
0.90673762559890747 0.12822915613651276 0.042347710579633713
0.93154191970825195 0.13843593001365662 0.043264672160148621
0.95478779077529907 0.15018957853317261 0.045898277312517166
0.97649484872817993 0.16413366794586182 0.047055315226316452
0.028645137324929237 0.024586368352174759 0.00011518607789184898
0.042276795953512192 0.025751844048500061 0.00024625990772619843
0.056057725101709366 0.026906818151473999 0.00046769520849920809
0.070952616631984711 0.028321634978055954 0.000763745978474617
0.08605627715587616 0.029651718214154243 0.0011163970921188593
0.099985711276531219 0.031072694808244705 0.0013496770989149809
0.1154496818780899 0.032793167978525162 0.0017183223972097039
0.13249066472053528 0.034617912024259567 0.0020620005670934916
0.15028254687786102 0.036503598093986511 0.002130268607288599
0.17127308249473572 0.038530793040990829 0.0023253187537193298
0.19632576406002045 0.041002959012985229 0.0028145047836005688
0.22686111927032471 0.04422389343380928 0.003359753405675292
0.25932297110557556 0.04757385328412056 0.0046320846304297447
0.29105755686759949 0.051267415285110474 0.0057252948172390461
0.32222422957420349 0.055128119885921478 0.0060806227847933769
0.35414591431617737 0.058212995529174805 0.0068157995119690895
0.38908672332763672 0.061294745653867722 0.0079125873744487762
0.42805862426757812 0.065935082733631134 0.0096140019595623016
0.47287338972091675 0.070859327912330627 0.011184249073266983
0.52539604902267456 0.076593153178691864 0.013486967422068119
0.57912933826446533 0.082361437380313873 0.015935316681861877
0.63005471229553223 0.088577322661876678 0.018770823255181313
0.67753589153289795 0.095111243426799774 0.020937833935022354
0.71978884935379028 0.10159805417060852 0.023670854046940804
0.7584528923034668 0.10850389301776886 0.027249321341514587
0.79404860734939575 0.11571869254112244 0.030373351648449898
0.82613813877105713 0.12294076383113861 0.033271960914134979
0.85600382089614868 0.13132092356681824 0.035545725375413895
0.8838391900062561 0.14045023918151855 0.038747351616621017
0.90979659557342529 0.15060544013977051 0.040026571601629257
0.93477398157119751 0.16272500157356262 0.042985357344150543
0.95810425281524658 0.17630895972251892 0.043191622942686081
0.97994440793991089 0.19196295738220215 0.044294819235801697
0.039333630353212357 0.038935888558626175 0.0009244676330126822
0.050688840448856354 0.039943385869264603 0.0012759481323882937
0.062884598970413208 0.041059035807847977 0.0014928443124517798
0.07627839595079422 0.042631600052118301 0.0016687795286998153
0.09011378139257431 0.044091876596212387 0.0018919175490736961
0.10363388806581497 0.045828595757484436 0.0020939891692250967
0.11918749660253525 0.047580964863300323 0.0022227228619158268
0.13584247231483459 0.04956691712141037 0.002567571122199297
0.15388242900371552 0.051659148186445236 0.0029155411757528782
0.17482715845108032 0.054128021001815796 0.0033161744941025972
0.20044121146202087 0.056593604385852814 0.0038217210676521063
0.23129473626613617 0.059945672750473022 0.0047658919356763363
0.26360207796096802 0.063489988446235657 0.005720614455640316
0.29492825269699097 0.067224986851215363 0.0061823753640055656
0.32600373029708862 0.071019649505615234 0.0069937342777848244
0.35771539807319641 0.074347443878650665 0.008325992152094841
0.39304578304290771 0.077738896012306213 0.0094131194055080414
0.43214797973632812 0.08279746025800705 0.010447493754327297
0.47731608152389526 0.08810918778181076 0.012468757107853889
0.52994132041931152 0.094202645123004913 0.014297416433691978
0.58360636234283447 0.10030850768089294 0.016741639003157616
0.63398963212966919 0.10677935928106308 0.018951006233692169
0.68124961853027344 0.11383604258298874 0.021219804883003235
0.72363400459289551 0.12076961994171143 0.023608453571796417
0.76216620206832886 0.12816134095191956 0.026458196341991425
0.79755842685699463 0.1361205130815506 0.028496187180280685
0.82963722944259644 0.1444830596446991 0.03158072754740715
0.85951101779937744 0.15398965775966644 0.034802384674549103
0.88743239641189575 0.1644044816493988 0.036160849034786224
0.91346526145935059 0.17610783874988556 0.039131604135036469
0.93850904703140259 0.189747154712677 0.039857774972915649
0.9620215892791748 0.20497524738311768 0.040576614439487457
0.98368954658508301 0.22118781507015228 0.040898755192756653
0.051219400018453598 0.055967167019844055 0.0021887833718210459
0.059525966644287109 0.05679330974817276 0.0023623784072697163
0.069764778017997742 0.057404033839702606 0.0024665354285389185
0.082065999507904053 0.059488497674465179 0.0025777139235287905
0.094142556190490723 0.060771159827709198 0.0028301093261688948
0.10752181708812714 0.062255494296550751 0.0031347775366157293
0.12358064204454422 0.064506039023399353 0.0034827471245080233
0.13959169387817383 0.066164880990982056 0.0036785774864256382
0.15773320198059082 0.068453691899776459 0.0038951539900153875
0.17916414141654968 0.071246258914470673 0.0040424754843115807
0.20524142682552338 0.073744513094425201 0.0047561768442392349
0.23646563291549683 0.077219776809215546 0.0057572741061449051
0.26852408051490784 0.080942817032337189 0.0064584962092339993
0.29952102899551392 0.084953248500823975 0.0073811672627925873
0.33012953400611877 0.088841639459133148 0.0086722085252404213
0.36210206151008606 0.092336416244506836 0.0097251646220684052
0.39759504795074463 0.096302323043346405 0.010383440181612968
0.43703511357307434 0.10154291987419128 0.012047780677676201
0.48263028264045715 0.10732696205377579 0.013823079876601696
0.53516113758087158 0.11396327614784241 0.015747087076306343
0.58894109725952148 0.12040755897760391 0.01806013286113739
0.63904035091400146 0.12719863653182983 0.020009852945804596
0.68613559007644653 0.13507938385009766 0.021743940189480782
0.72803854942321777 0.14272864162921906 0.023599186912178993
0.76629543304443359 0.15086257457733154 0.025283990427851677
0.80162066221237183 0.15977638959884644 0.027460221201181412
0.83370411396026611 0.16964012384414673 0.030170358717441559
0.86354970932006836 0.18023315072059631 0.032218530774116516
0.89150714874267578 0.19172114133834839 0.034330349415540695
0.9175034761428833 0.20458470284938812 0.035783834755420685
0.94234329462051392 0.21862709522247314 0.036767382174730301
0.96563094854354858 0.23311726748943329 0.038852505385875702
0.98607861995697021 0.24789325892925262 0.03921600803732872
0.064030535519123077 0.076743245124816895 0.0034530996344983578
0.070287212729454041 0.077663756906986237 0.0035475040785968304
0.077545054256916046 0.078811697661876678 0.0036461995914578438
0.087196707725524902 0.080164574086666107 0.0037710319738835096
0.098517224192619324 0.081581473350524902 0.0039220014587044716
0.11215414106845856 0.083357922732830048 0.0039220014587044716
0.1278102695941925 0.085457652807235718 0.0039220014587044716
0.14346617460250854 0.087536334991455078 0.0039648301899433136
0.16235759854316711 0.089822806417942047 0.0041963839903473854
0.18422634899616241 0.092462867498397827 0.0048353117890655994
0.21103592216968536 0.095671728253364563 0.00574869429692626
0.24264737963676453 0.099364571273326874 0.0068122269585728645
0.27431800961494446 0.10322243720293045 0.0076719983480870724
0.30481380224227905 0.10736776143312454 0.0086419256404042244
0.33548235893249512 0.11172185093164444 0.0097594941034913063
0.36741846799850464 0.11550766974687576 0.010557249188423157
0.40298610925674438 0.11993478983640671 0.011546858586370945
0.44294139742851257 0.12562459707260132 0.013053883798420429
0.4892127513885498 0.13226695358753204 0.014884445816278458
0.54198342561721802 0.13972283899784088 0.017242457717657089
0.59508168697357178 0.1470380574464798 0.019318491220474243
0.64525789022445679 0.15458948910236359 0.0214970912784338
0.69168949127197266 0.16344304382801056 0.022534091025590897
0.73355072736740112 0.17219489812850952 0.024024082347750664
0.77181333303451538 0.18106028437614441 0.02476164698600769
0.80714249610900879 0.19081024825572968 0.025868752971291542
0.83864444494247437 0.20160302519798279 0.027380784973502159
0.8683200478553772 0.21239039301872253 0.028961293399333954
0.89596879482269287 0.22399061918258667 0.031281083822250366
0.92179489135742188 0.23580135405063629 0.033002324402332306
0.94633233547210693 0.2484080046415329 0.035182781517505646
0.9691510796546936 0.26115259528160095 0.035689923912286758
0.98931777477264404 0.27430093288421631 0.037252351641654968
0.077270060777664185 0.10076665878295898 0.003922000527381897
0.082375876605510712 0.10157836973667145 0.003922000527381897
0.088026180863380432 0.10248669236898422 0.0039220014587044716
0.095067918300628662 0.10389641672372818 0.003922000527381897
0.10421057045459747 0.10536192357540131 0.0039220014587044716
0.11704269796609879 0.10732067376375198 0.0039919172413647175
0.13181555271148682 0.10964111983776093 0.0041179945692420006
0.14773759245872498 0.11206056922674179 0.0045380960218608379
0.16694873571395874 0.11460952460765839 0.0051999632269144058
0.18987177312374115 0.11740631610155106 0.0060060950927436352
0.21760228276252747 0.12082326412200928 0.0068293875083327293
0.24939721822738647 0.12491659075021744 0.0078038354404270649
0.28063124418258667 0.12930060923099518 0.0085584800690412521
0.31071996688842773 0.13377915322780609 0.0096089150756597519
0.34135091304779053 0.13834317028522491 0.010733184404671192
0.37350139021873474 0.14297038316726685 0.011595185846090317
0.40923610329627991 0.14838145673274994 0.012399213388562202
0.44968494772911072 0.15449188649654388 0.013886077329516411
0.49672907590866089 0.16177640855312347 0.015985216945409775
0.54955142736434937 0.17027167975902557 0.018150541931390762
0.60277074575424194 0.17817462980747223 0.020393522456288338
0.65203297138214111 0.18644845485687256 0.021917127072811127
0.69816237688064575 0.19582179188728333 0.023096885532140732
0.73919880390167236 0.20476040244102478 0.024374671280384064
0.77707540988922119 0.21372422575950623 0.024741753935813904
0.81219255924224854 0.22289596498012543 0.024664511904120445
0.84364819526672363 0.23296859860420227 0.025223525241017342
0.8729698657989502 0.24243339896202087 0.027273111045360565
0.90018278360366821 0.25278681516647339 0.029251992702484131
0.92566287517547607 0.26333880424499512 0.031373001635074615
0.95002824068069458 0.27466145157814026 0.032478053122758865
0.97255522012710571 0.28673672676086426 0.033578567206859589
0.99251681566238403 0.30037716031074524 0.034563712775707245
0.091380707919597626 0.13116778433322906 0.0039220014587044716
0.095374271273612976 0.13239578902721405 0.0039300844073295593
0.1002318412065506 0.13365520536899567 0.0039611430838704109
0.10691805183887482 0.13456268608570099 0.0040672230534255505
0.11547289788722992 0.13665907084941864 0.004208792932331562
0.12584391236305237 0.13857182860374451 0.0045175682753324509
0.13724388182163239 0.14100061357021332 0.0050026229582726955
0.15233761072158813 0.14365389943122864 0.0055661736987531185
0.1715138852596283 0.14681896567344666 0.006254915613681078
0.19605809450149536 0.15027725696563721 0.0070052780210971832
0.22461250424385071 0.15379251539707184 0.0077560311183333397
0.25643616914749146 0.15822421014308929 0.0082899844273924828
0.28732973337173462 0.162809818983078 0.0094872042536735535
0.31706538796424866 0.16767741739749908 0.010522529482841492
0.34779280424118042 0.17252339422702789 0.011619493365287781
0.37992730736732483 0.17771697044372559 0.01195730734616518
0.4162183403968811 0.18380023539066315 0.012874482199549675
0.45791986584663391 0.19017621874809265 0.01443768572062254
0.50536185503005981 0.1976722925901413 0.016448033973574638
0.5584484338760376 0.2060360461473465 0.01835123635828495
0.61074286699295044 0.21390220522880554 0.020591504871845245
0.65941649675369263 0.22139221429824829 0.022053629159927368
0.70502233505249023 0.23005977272987366 0.023452559486031532
0.74542194604873657 0.23800818622112274 0.024636035785079002
0.78251355886459351 0.24609611928462982 0.024953186511993408
0.81706339120864868 0.25427410006523132 0.024882189929485321
0.84842097759246826 0.2627989649772644 0.024735510349273682
0.87755757570266724 0.27161240577697754 0.025086138397455215
0.90440523624420166 0.28123196959495544 0.026928408071398735
0.9297061562538147 0.29167497158050537 0.028131900355219841
0.95393723249435425 0.30367696285247803 0.029913105070590973
0.97633397579193115 0.31675824522972107 0.03124554455280304
0.99560457468032837 0.3319193422794342 0.03123997338116169
0.10606039315462112 0.16972236335277557 0.0041194120422005653
0.10982580482959747 0.1705949455499649 0.0041877683252096176
0.11466266214847565 0.17164582014083862 0.0042514814995229244
0.1209651380777359 0.17315647006034851 0.0044956211932003498
0.12943340837955475 0.17510940134525299 0.0048797726631164551
0.13838586211204529 0.17722657322883606 0.0051473123021423817
0.14889533817768097 0.17955148220062256 0.005585674662142992
0.16171559691429138 0.18223638832569122 0.0061589754186570644
0.17811660468578339 0.18535862863063812 0.0069966977462172508
0.20169112086296082 0.18883943557739258 0.0078180395066738129
0.2314576655626297 0.1927030086517334 0.007906976155936718
0.2632463276386261 0.19680121541023254 0.0086266417056322098
0.29352313280105591 0.20101895928382874 0.0096693802624940872
0.32338988780975342 0.20546133816242218 0.010849824175238609
0.35428822040557861 0.21002154052257538 0.011765001341700554
0.38710802793502808 0.21519352495670319 0.011994357220828533
0.42372274398803711 0.22085191309452057 0.013074163347482681
0.46606412529945374 0.22676675021648407 0.014730615541338921
0.51494699716567993 0.23333269357681274 0.016866946592926979
0.56801950931549072 0.24058219790458679 0.019137263298034668
0.61938512325286865 0.24749860167503357 0.021245937794446945
0.66738265752792358 0.25450959801673889 0.022965859621763229
0.711803138256073 0.26203200221061707 0.024462832137942314
0.75182437896728516 0.26951727271080017 0.025012090802192688
0.78874516487121582 0.27727779746055603 0.02550283819437027
0.8228486180305481 0.28504982590675354 0.025104938074946404
0.8533293604850769 0.29366540908813477 0.024242816492915154
0.88230210542678833 0.30298161506652832 0.023617519065737724
0.90928983688354492 0.313405841588974 0.023812001571059227
0.93421626091003418 0.32517537474632263 0.025629941374063492
0.95837253332138062 0.33867353200912476 0.026868509128689766
0.98063403367996216 0.35292771458625793 0.027691304683685303
0.99801874160766602 0.36894291639328003 0.02767711877822876
0.11064107716083527 0.20958167314529419 0.0042487503960728645
0.11429108679294586 0.21048399806022644 0.0044246404431760311
0.11888161301612854 0.21169912815093994 0.0045591918751597404
0.12497911602258682 0.2130388617515564 0.0051044127903878689
0.13219822943210602 0.21410828828811646 0.0052331127226352692
0.14067582786083221 0.21623976528644562 0.005662113893777132
0.15154735743999481 0.21807128190994263 0.0062248855829238892
0.16423802077770233 0.22061477601528168 0.0067435870878398418
0.18210621178150177 0.22288490831851959 0.0075711691752076149
0.20761878788471222 0.22617903351783752 0.0078429998829960823
0.23842315375804901 0.2296406626701355 0.0080618467181921005
0.27000772953033447 0.23340858519077301 0.0090686250478029251
0.29976958036422729 0.23706890642642975 0.010569731704890728
0.32970428466796875 0.24078080058097839 0.01165304146707058
0.36093005537986755 0.24485896527767181 0.011822721920907497
0.39419212937355042 0.24982358515262604 0.012522028759121895
0.43132781982421875 0.25502666831016541 0.014163435436785221
0.47480365633964539 0.26082125306129456 0.015757717192173004
0.52424907684326172 0.26704272627830505 0.017683245241641998
0.57768911123275757 0.27365496754646301 0.019925585016608238
0.62822085618972778 0.28085345029830933 0.02164880745112896
0.6754075288772583 0.28802940249443054 0.02321779727935791
0.71937549114227295 0.29582050442695618 0.024329807609319687
0.75847125053405762 0.30389556288719177 0.024754626676440239
0.79447799921035767 0.31239387392997742 0.025245372205972672
0.82821357250213623 0.32094272971153259 0.024920418858528137
0.85876405239105225 0.33082738518714905 0.024117201566696167
0.88721585273742676 0.34114560484886169 0.023224001750349998
0.91408085823059082 0.35199889540672302 0.022216256707906723
0.93897092342376709 0.36392968893051147 0.023215830326080322
0.96277910470962524 0.37655702233314514 0.023533681407570839
0.98447859287261963 0.38954424858093262 0.024086525663733482
0.99852263927459717 0.40253850817680359 0.02475462481379509
0.10399593412876129 0.24772469699382782 0.0054281135089695454
0.106902115046978 0.24846415221691132 0.0056040035560727119
0.1107732355594635 0.24910183250904083 0.0056383246555924416
0.11623282730579376 0.2497870922088623 0.0059979045763611794
0.12350656092166901 0.25133538246154785 0.0064339260570704937
0.1331784576177597 0.25304114818572998 0.0066901566460728645
0.14490951597690582 0.25473010540008545 0.007371098268777132
0.16061964631080627 0.25707137584686279 0.0077743600122630596
0.18479777872562408 0.25980931520462036 0.0078429998829960823
0.21456442773342133 0.26283389329910278 0.0079140700399875641
0.24588668346405029 0.26619201898574829 0.0087815113365650177
0.27675312757492065 0.26994264125823975 0.010201088152825832
0.30612924695014954 0.27364638447761536 0.011569560505449772
0.33579090237617493 0.27761977910995483 0.011765001341700554
0.36786004900932312 0.28189846873283386 0.011873918585479259
0.40153929591178894 0.28691232204437256 0.01290490198880434
0.44040724635124207 0.29281875491142273 0.014551486819982529
0.48508015275001526 0.29920423030853271 0.015989003702998161
0.53550028800964355 0.30604276061058044 0.017979724332690239
0.58814358711242676 0.31326082348823547 0.019885808229446411
0.63810878992080688 0.32102110981941223 0.021479157730937004
0.68381524085998535 0.32913634181022644 0.023224815726280212
0.72690516710281372 0.33781298995018005 0.024084044620394707
0.76568013429641724 0.34621575474739075 0.024267781525850296
0.80130720138549805 0.3547004759311676 0.024366475641727448
0.83447378873825073 0.36352267861366272 0.024118373170495033
