Textures/66.cube
# Created by: G'MIC (https://gmic.eu)
TITLE "Kodak_Elite_100_XPRO.cube"
# LUT size
LUT_3D_SIZE 5
# Data domain
DOMAIN_MIN 0.0 0.0 0.0
DOMAIN_MAX 1.0 1.0 1.0
# LUT data points
0.0057235304266214371 0.0010902603389695287 0
0.14115405082702637 0.0050117382779717445 0.00040719410753808916
0.37938511371612549 0.017074145376682281 0.0065165716223418713
0.74956029653549194 0.052319478243589401 0.030584855005145073
0.9695286750793457 0.10896189510822296 0.051383443176746368
0.091380707919597626 0.13116778433322906 0.0039220014587044716
0.1715138852596283 0.14681896567344666 0.006254915613681078
0.4162183403968811 0.18380023539066315 0.012874482199549675
0.78251355886459351 0.24609611928462982 0.024953186511993408
0.99560457468032837 0.3319193422794342 0.03123997338116169
0.064206831157207489 0.46476000547409058 0.0076199187897145748
0.20568205416202545 0.47360002994537354 0.0078429998829960823
0.49704742431640625 0.49709466099739075 0.014927447773516178
0.83333688974380493 0.53482788801193237 0.020442252978682518
1 0.5823136568069458 0.011765001341700554
0.20616315305233002 0.72296363115310669 0.0078430008143186569
0.35404050350189209 0.72796547412872314 0.0083172917366027832
0.65619164705276489 0.74145990610122681 0.011839881539344788
0.8892633318901062 0.75773721933364868 0.011710776947438717
1 0.77626603841781616 0.0029748361557722092
0.64573055505752563 0.87990188598632812 0
0.70453351736068726 0.8819701075553894 0
0.82840067148208618 0.88593935966491699 0
0.963470458984375 0.88933861255645752 0
1 0.89073377847671509 0
0.0012434826930984855 0.0050289151258766651 0.032183375209569931
0.12565761804580688 0.011009079404175282 0.04013129323720932
0.36980721354484558 0.028596315532922745 0.05446094274520874
0.74968475103378296 0.066987007856369019 0.073653556406497955
0.97478270530700684 0.12469004094600677 0.055909480899572372
0.081805847585201263 0.1542946845293045 0.050000440329313278
0.15543137490749359 0.17011474072933197 0.053576096892356873
0.40662223100662231 0.20767594873905182 0.064125008881092072
0.78116512298583984 0.26739528775215149 0.077315591275691986
0.99711275100708008 0.35535728931427002 0.052064180374145508
0.017587730661034584 0.48274248838424683 0.057271271944046021
0.15725657343864441 0.49158808588981628 0.061178490519523621
0.48039975762367249 0.51458030939102173 0.065487787127494812
0.82814949750900269 0.55114799737930298 0.066746190190315247
1 0.59649485349655151 0.037605538964271545
0.13532742857933044 0.73774421215057373 0.063965588808059692
0.31129199266433716 0.74179553985595703 0.062970533967018127
0.63852256536483765 0.75461810827255249 0.059119202196598053
0.88050121068954468 0.76942139863967896 0.045625362545251846
1 0.78598499298095703 0.017270445823669434
0.61722099781036377 0.89277321100234985 0.011902720667421818
0.68006318807601929 0.89460641145706177 0.0088938698172569275
0.81095379590988159 0.89772480726242065 0.0019246911397203803
0.95310288667678833 0.89913314580917358 0
1 0.89657235145568848 0
0 0.019116839393973351 0.18599000573158264
0.096136726438999176 0.031014714390039444 0.19229526817798615
0.34930524230003357 0.051932889968156815 0.19929040968418121
0.7416573166847229 0.091327369213104248 0.19213069975376129
0.9737657904624939 0.15394522249698639 0.1419290155172348
0.047498490661382675 0.19899849593639374 0.24630452692508698
0.11510217189788818 0.21517007052898407 0.24995829164981842
0.37085172533988953 0.25165665149688721 0.25785383582115173
0.76369047164916992 0.30801850557327271 0.2557949423789978
0.99182522296905518 0.39618960022926331 0.17089211940765381
0 0.52786809206008911 0.33174186944961548
0.00029170588823035359 0.53644037246704102 0.33570155501365662
0.41008725762367249 0.55891948938369751 0.33702471852302551
0.79571139812469482 0.59305769205093384 0.31982988119125366
0.99795407056808472 0.63257873058319092 0.22861707210540771
0 0.78194969892501831 0.46552976965904236
0.058237295597791672 0.78619372844696045 0.46752586960792542
0.55405688285827637 0.79951703548431396 0.47270286083221436
0.83037054538726807 0.81299567222595215 0.44150212407112122
0.99956947565078735 0.82078444957733154 0.29413393139839172
0.51084256172180176 0.93420952558517456 0.55921828746795654
0.58872711658477783 0.93609213829040527 0.55799978971481323
0.74095213413238525 0.93964105844497681 0.54977726936340332
0.89633870124816895 0.94163662195205688 0.51562923192977905
1 0.92769753932952881 0.30059951543807983
0 0.069880984723567963 0.55326622724533081
0.028524819761514664 0.08606719970703125 0.56646460294723511
0.28489521145820618 0.11092250049114227 0.58155667781829834
0.69920581579208374 0.15424501895904541 0.58832937479019165
0.94759321212768555 0.22473511099815369 0.50407207012176514
0.0013345696497708559 0.27639296650886536 0.65255856513977051
0.025879360735416412 0.29174372553825378 0.66053521633148193
0.26956599950790405 0.3264058530330658 0.67765438556671143
0.70616006851196289 0.38833090662956238 0.69515925645828247
0.9498257040977478 0.4775988757610321 0.63935041427612305
0 0.59001255035400391 0.71916395425796509
0 0.59825855493545532 0.72601348161697388
0.23623785376548767 0.62206023931503296 0.74352705478668213
0.72459876537322998 0.65943348407745361 0.76080727577209473
0.94779074192047119 0.70156896114349365 0.72985881567001343
0 0.82318288087844849 0.78376829624176025
0 0.82794672250747681 0.79013234376907349
0.41643565893173218 0.84301340579986572 0.80965441465377808
0.76176726818084717 0.86166965961456299 0.82496047019958496
0.94505488872528076 0.88046205043792725 0.80428493022918701
0.346382737159729 0.96306663751602173 0.84155279397964478
0.46612703800201416 0.96595138311386108 0.84666192531585693
0.66288203001022339 0.9718177318572998 0.85696125030517578
0.83886414766311646 0.97805595397949219 0.86290854215621948
0.97664749622344971 0.98123455047607422 0.84091752767562866
0 0.1235380694270134 0.82923495769500732
0 0.13651958107948303 0.83789724111557007
0.18956026434898376 0.1640128493309021 0.85947513580322266
0.6444362998008728 0.21842452883720398 0.89279818534851074
0.91276812553405762 0.31764045357704163 0.89433437585830688
0 0.33839273452758789 0.85971647500991821
0 0.35426735877990723 0.86782807111740112
0.089015737175941467 0.39236000180244446 0.8880576491355896
0.64126831293106079 0.46351468563079834 0.92106246948242188
0.9149126410484314 0.54646742343902588 0.92868715524673462
0 0.63481724262237549 0.88161486387252808
0 0.64233630895614624 0.8875998854637146
0.00060646457131952047 0.66591942310333252 0.90887129306793213
0.65035301446914673 0.7048448920249939 0.94298094511032104
0.91332560777664185 0.75044351816177368 0.95541083812713623
0 0.84574156999588013 0.9041590690612793
0 0.8512033224105835 0.91230005025863647
0.043103337287902832 0.86605888605117798 0.93380743265151978
0.69309061765670776 0.88846349716186523 0.96332848072052002
0.91541486978530884 0.91116237640380859 0.97645151615142822
0 0.97009789943695068 0.93882101774215698
0.032258547842502594 0.97375816106796265 0.94626623392105103
0.5180060863494873 0.98232746124267578 0.96476954221725464
0.78157299757003784 0.99112826585769653 0.982646644115448
0.95613068342208862 0.99886500835418701 0.99526208639144897
