Textures/67.cube
# Created by: G'MIC (https://gmic.eu)
TITLE "Kodak_Elite_Chrome_200.cube"
# LUT size
LUT_3D_SIZE 5
# Data domain
DOMAIN_MIN 0.0 0.0 0.0
DOMAIN_MAX 1.0 1.0 1.0
# LUT data points
0.0044972705654799938 0.0052270544692873955 0.0034729735925793648
0.15877047181129456 0.00033112452365458012 0
0.40493300557136536 0 0
0.66784441471099854 0 0
0.90597134828567505 0 0
0.12534083425998688 0.23263880610466003 0.088816605508327484
0.25302869081497192 0.21692098677158356 0.064482487738132477
0.49129921197891235 0.17770346999168396 0.015650514513254166
0.71958845853805542 0.10069014132022858 0
0.90871167182922363 0.0023026904091238976 0
0.26034870743751526 0.52653509378433228 0.19034959375858307
0.38245314359664917 0.52090466022491455 0.17274139821529388
0.61145079135894775 0.50057822465896606 0.1385219544172287
0.83769786357879639 0.46274134516716003 0.099108569324016571
1 0.38068097829818726 0.052345480769872665
0.48185470700263977 0.7836601734161377 0.28801372647285461
0.56279778480529785 0.7807077169418335 0.27665221691131592
0.73567479848861694 0.77096772193908691 0.24774448573589325
0.94095194339752197 0.75413358211517334 0.20858913660049438
1 0.71904784440994263 0.16989989578723907
0.7117997407913208 0.98545759916305542 0.35556572675704956
0.76090532541275024 0.9851306676864624 0.34883612394332886
0.88439953327178955 0.9812006950378418 0.3324267566204071
1 0.97553539276123047 0.3101993203163147
1 0.96435236930847168 0.28870037198066711
0 0.0029379073530435562 0.13455431163311005
0.11887101829051971 0 0.10340823978185654
0.36616978049278259 0 0.05315006896853447
0.62216705083847046 0 0.011004310101270676
0.85421514511108398 0 1.7022571228153538e-06
0.087400831282138824 0.2224922776222229 0.22850435972213745
0.20617687702178955 0.20550985634326935 0.20571587979793549
0.44590899348258972 0.16545958817005157 0.15690416097640991
0.66807043552398682 0.085634171962738037 0.094714231789112091
0.85333734750747681 0.00020767537353094667 0.029888508841395378
0.18689969182014465 0.52645319700241089 0.33348479866981506
0.33210435509681702 0.52031952142715454 0.31835484504699707
0.56515944004058838 0.4998248815536499 0.28226271271705627
0.79048478603363037 0.46112141013145447 0.23816323280334473
0.98381263017654419 0.37522575259208679 0.19012132287025452
0.41970786452293396 0.78668314218521118 0.43175792694091797
0.50524526834487915 0.78365582227706909 0.42225044965744019
0.68308562040328979 0.77420258522033691 0.3985213041305542
0.89046329259872437 0.75699925422668457 0.36615467071533203
1 0.72106438875198364 0.33241438865661621
0.65267342329025269 0.99031525850296021 0.49898290634155273
0.70369195938110352 0.98911011219024658 0.49309048056602478
0.83135759830474854 0.9854964017868042 0.47660964727401733
0.99440246820449829 0.98024928569793701 0.45421543717384338
1 0.96913081407546997 0.42848902940750122
0 0.00032569849281571805 0.32641482353210449
0.059537909924983978 0 0.29839101433753967
0.31013256311416626 0 0.2567279040813446
0.55999529361724854 0 0.21305590867996216
0.78752303123474121 0 0.17540794610977173
0.041009955108165741 0.20024104416370392 0.42495420575141907
0.14578060805797577 0.18247267603874207 0.4041893482208252
0.3753277063369751 0.13770973682403564 0.35848656296730042
0.59114521741867065 0.057697493582963943 0.30193370580673218
0.77294403314590454 0 0.24010616540908813
0.031426649540662766 0.51983076333999634 0.53879976272583008
0.2489577978849411 0.51224154233932495 0.52384769916534424
0.49127954244613647 0.49094384908676147 0.4911477267742157
0.7171323299407959 0.449515700340271 0.44808545708656311
0.90688437223434448 0.3535371720790863 0.39507129788398743
0.32305461168289185 0.78848046064376831 0.63130348920822144
0.41977500915527344 0.78503358364105225 0.62235045433044434
0.60815829038619995 0.7752833366394043 0.59963345527648926
0.81786233186721802 0.75757825374603271 0.56796109676361084
0.99982279539108276 0.71951532363891602 0.53186404705047607
0.56943207979202271 0.99623507261276245 0.69419312477111816
0.62341582775115967 0.99579203128814697 0.68844050168991089
0.75470560789108276 0.99296349287033081 0.67299646139144897
0.92306077480316162 0.98779046535491943 0.65123426914215088
1 0.97670984268188477 0.6238255500793457
0 0 0.52796763181686401
0.017555022612214088 0 0.49840319156646729
0.25766819715499878 0 0.45901024341583252
0.49908420443534851 0 0.41782200336456299
0.72055143117904663 0 0.3807586133480072
0.0073959450237452984 0.144328773021698 0.60461831092834473
0.092015869915485382 0.12416432052850723 0.58338969945907593
0.30568641424179077 0.07863018661737442 0.54043108224868774
0.51366293430328369 0.0143997548148036 0.48828980326652527
0.70352202653884888 0 0.43765932321548462
0.022147798910737038 0.49536305665969849 0.7175944447517395
0.18795871734619141 0.48740705847740173 0.704276442527771
0.42961147427558899 0.46381351351737976 0.67378133535385132
0.64831972122192383 0.41671669483184814 0.6307559609413147
0.82502055168151855 0.29914560914039612 0.5727049708366394
0.23940964043140411 0.78277373313903809 0.81146794557571411
0.34892019629478455 0.77932435274124146 0.80319672822952271
0.54435133934020996 0.76917284727096558 0.78147047758102417
0.75091731548309326 0.75071161985397339 0.75070422887802124
0.9486117959022522 0.70809721946716309 0.71254372596740723
0.5005650520324707 0.99844765663146973 0.87889575958251953
0.55618119239807129 0.99844765663146973 0.87336093187332153
0.68675732612609863 0.99638855457305908 0.85870873928070068
0.85164690017700195 0.99297374486923218 0.83758538961410522
1 0.98377639055252075 0.80823177099227905
0 0 0.70509231090545654
0.010341395623981953 0 0.6731114387512207
0.22418317198753357 0 0.63810580968856812
0.45162975788116455 0 0.59909117221832275
0.66270053386688232 0 0.56261831521987915
0 0.048408966511487961 0.74746870994567871
0.06567768007516861 0.031120939180254936 0.72657394409179688
0.24826289713382721 0.0057146479375660419 0.68937355279922485
0.44783729314804077 0 0.64518892765045166
0.649799644947052 0 0.61022168397903442
0.087898626923561096 0.43142944574356079 0.85725384950637817
0.19433416426181793 0.42094120383262634 0.84586769342422485
0.39519539475440979 0.38951769471168518 0.81592279672622681
0.58561950922012329 0.32327514886856079 0.77119052410125732
0.73202043771743774 0.16657604277133942 0.70541632175445557
0.24869255721569061 0.7572711706161499 0.95868748426437378
0.34244051575660706 0.75369089841842651 0.95087307691574097
0.51841342449188232 0.74191492795944214 0.93136358261108398
0.70235633850097656 0.71914827823638916 0.9036327600479126
0.88539332151412964 0.66487044095993042 0.86474478244781494
0.49429979920387268 0.99844765663146973 1
0.54149454832077026 0.99824172258377075 1
0.65302681922912598 0.99727493524551392 1
0.80065590143203735 0.99451792240142822 0.99972611665725708
0.98623847961425781 0.98538374900817871 0.98588091135025024
