Textures/67.cube
# Created by: G'MIC (https://gmic.eu)
TITLE "Kodak_Elite_Chrome_200.cube"
# LUT size
LUT_3D_SIZE 33
# Data domain
DOMAIN_MIN 0.0 0.0 0.0
DOMAIN_MAX 1.0 1.0 1.0
# LUT data points
0.0044972705654799938 0.0052270544692873955 0.0034729735925793648
0.016444562003016472 0.0036874823272228241 0.0021358418744057417
0.030756933614611626 0.0036202168557792902 0.0015638431068509817
0.048787809908390045 0.0029078815132379532 0.0011045994469895959
0.067490719258785248 0.0020243970211595297 0.00064738566288724542
0.087200507521629333 0.0015609574038535357 0.00033775620977394283
0.10744751989841461 0.0014506913721561432 0.000106816652987618
0.13247723877429962 0.00075438158819451928 9.0787052613450214e-06
0.15877047181129456 0.00033112452365458012 0
0.1861928254365921 0.00027136816061101854 0
0.21309779584407806 4.6812074288027361e-05 0
0.24139460921287537 0 0
0.27013194561004639 0 0
0.30066189169883728 0 0
0.33410826325416565 0 0
0.36916440725326538 0 0
0.40493300557136536 0 0
0.44012948870658875 0 0
0.47452309727668762 0 0
0.50823390483856201 0 0
0.54108917713165283 0 0
0.5732300877571106 0 0
0.60511887073516846 0 0
0.63635724782943726 0 0
0.66784441471099854 0 0
0.69947350025177002 0 0
0.73066484928131104 0 0
0.76111358404159546 0 0
0.7913709282875061 0 0
0.82104521989822388 0 0
0.84998542070388794 0 0
0.87828630208969116 0 0
0.90597134828567505 0 0
0.014220118522644043 0.023837804794311523 0.0085843596607446671
0.027317702770233154 0.021319935098290443 0.006913274060934782
0.04374317079782486 0.019926629960536957 0.0056709880009293556
0.06272280216217041 0.01784403994679451 0.0045682191848754883
0.08153650164604187 0.016141792759299278 0.0035143021959811449
0.10057283192873001 0.015238483436405659 0.0024896031245589256
0.12121609598398209 0.012875912711024284 0.0016959112836048007
0.14612920582294464 0.011141395196318626 0.00077236228389665484
0.17202422022819519 0.009166741743683815 0.000198029272723943
0.19884742796421051 0.007887725718319416 9.0787052613450214e-06
0.22521644830703735 0.0062613207846879959 0
0.25302740931510925 0.0052582649514079094 0
0.28117421269416809 0.0036843686830252409 0
0.31107959151268005 0.0031036161817610264 0
0.34415894746780396 0.0022042670752853155 0
0.37844783067703247 0.00052720331586897373 0
0.41269999742507935 0 0
0.44597306847572327 0 0
0.47832778096199036 0 0
0.51024913787841797 0 0
0.54136639833450317 0 0
0.57182538509368896 0 0
0.60298210382461548 0 0
0.63391083478927612 0 0
0.66510897874832153 0 0
0.69655227661132812 0 0
0.7278258204460144 0 0
0.7583649754524231 0 0
0.78844952583312988 0 0
0.81804656982421875 0 0
0.84702157974243164 0 0
0.87505930662155151 0 0
0.90271955728530884 0 0
0.026758633553981781 0.04775744304060936 0.014333467930555344
0.03854086622595787 0.045312982052564621 0.012540904805064201
0.053145918995141983 0.042914945632219315 0.010984589345753193
0.07172548770904541 0.040456604212522507 0.0091246739029884338
0.09078650176525116 0.03787047415971756 0.0077202692627906799
0.10958969593048096 0.035592913627624512 0.0062002697959542274
0.13094763457775116 0.033070363104343414 0.0046271295286715031
0.15629549324512482 0.030170101672410965 0.0032072698231786489
0.18209490180015564 0.027052996680140495 0.0018410873599350452
0.20867685973644257 0.024109391495585442 0.00074161600787192583
0.2351168692111969 0.021343592554330826 0.00011525698937475681
0.26255527138710022 0.018874449655413628 1.5604023246851284e-06
0.29091814160346985 0.017010750249028206 0
0.32096466422080994 0.014382588677108288 0
0.3538517951965332 0.011328399181365967 0
0.38801079988479614 0.0079273385927081108 0
0.42213064432144165 0.005516513716429472 0
0.4553506076335907 0.0038450425490736961 0
0.48742392659187317 0.0017165306489914656 0
0.51923650503158569 0.00033367786090821028 0
0.54937875270843506 6.2416097534878645e-06 0
0.5784609317779541 0 0
0.60758125782012939 0 0
0.63591104745864868 0 0
0.66539120674133301 0 0
0.69550377130508423 0 0
0.72613942623138428 0 0
0.75654506683349609 0 0
0.78662478923797607 0 0
0.81610167026519775 0 0
0.84501463174819946 0 0
0.87306773662567139 0 0
0.90063101053237915 0 0
0.043612461537122726 0.074972644448280334 0.02269299328327179
0.0540606789290905 0.07270069420337677 0.020675383508205414
0.065289050340652466 0.070652671158313751 0.018736705183982849
0.081017449498176575 0.06821729987859726 0.016591586172580719
0.099864691495895386 0.065655142068862915 0.014375018887221813
0.11865656822919846 0.063042119145393372 0.012428346090018749
0.14098729193210602 0.060052484273910522 0.010080775246024132
0.1665726900100708 0.056268494576215744 0.0074953921139240265
0.19210825860500336 0.052821390330791473 0.0052843894809484482
0.21865631639957428 0.049262579530477524 0.0033740466460585594
0.24484823644161224 0.045533038675785065 0.0018962678732350469
0.27238857746124268 0.042087804526090622 0.00074714707443490624
0.30061405897140503 0.038322355598211288 0.00010249007027596235
0.33088535070419312 0.034183133393526077 0
0.36407166719436646 0.029416752979159355 0
0.39787963032722473 0.023883018642663956 0
0.43139460682868958 0.01955324225127697 0
0.46440157294273376 0.015978273004293442 0
0.49625840783119202 0.011348332278430462 0
0.52804189920425415 0.0077686547301709652 0
0.55781441926956177 0.004343885462731123 0
0.58695650100708008 0.0019939495250582695 0
0.61603128910064697 0.00075612135697156191 0
0.64398390054702759 8.1034530012402683e-05 0
0.67214101552963257 0 0
0.7003675103187561 0 0
0.72806131839752197 0 0
0.75595271587371826 0 0
0.78488200902938843 0 0
0.814136803150177 0 0
0.84293484687805176 0 0
0.87097138166427612 0 0
0.89840555191040039 0 0
0.062892928719520569 0.10413703322410583 0.034158352762460709
0.071448080241680145 0.10209474712610245 0.03196479007601738
0.081082046031951904 0.10001901537179947 0.029702199622988701
0.093110620975494385 0.097568482160568237 0.026907173916697502
0.10953239351511002 0.09473690390586853 0.024142272770404816
0.12846919894218445 0.091833263635635376 0.021425275132060051
0.15177623927593231 0.088656120002269745 0.018108123913407326
0.17694151401519775 0.084962658584117889 0.01472417451441288
0.20274151861667633 0.081240259110927582 0.011656181886792183
0.22891698777675629 0.077198483049869537 0.0085113560780882835
0.25483036041259766 0.073057450354099274 0.0059827803634107113
0.28235802054405212 0.068980298936367035 0.0035578475799411535
0.31073987483978271 0.065214015543460846 0.0016814136179164052
0.34105804562568665 0.060133583843708038 0.00049117219168692827
0.37395215034484863 0.053985588252544403 1.2766928193741478e-05
0.40730255842208862 0.047614298760890961 0
0.44086542725563049 0.041841745376586914 0
0.47341775894165039 0.035718310624361038 0
0.50493419170379639 0.02904021367430687 0
0.53644073009490967 0.022866921499371529 0
0.56608098745346069 0.017192814499139786 0
0.59485453367233276 0.01209645252674818 0
0.62389367818832397 0.0083216121420264244 0
0.65178006887435913 0.004880338441580534 0
0.67987287044525146 0.00163475819863379 0
0.70801109075546265 0.00014043622650206089 0
0.73517578840255737 0 0
0.76142615079879761 0 0
0.78711509704589844 0 0
0.81316119432449341 0 0
0.84103286266326904 0 0
0.868796706199646 0 0
0.89616888761520386 0 0
0.083170525729656219 0.13442827761173248 0.048122327774763107
0.09051281213760376 0.13318717479705811 0.045993484556674957
0.09897720068693161 0.13081873953342438 0.043780460953712463
0.10936754941940308 0.12856900691986084 0.040780548006296158
0.1215137392282486 0.12588806450366974 0.037553694099187851
0.13932918012142181 0.12299300730228424 0.034025747328996658
0.16405488550662994 0.11981220543384552 0.029604244977235794
0.18867138028144836 0.11610767990350723 0.025340793654322624
0.21430115401744843 0.11199888586997986 0.02109084278345108
0.23988690972328186 0.10754780471324921 0.016998855397105217
0.26586392521858215 0.10336519777774811 0.013268995098769665
0.29335412383079529 0.098847575485706329 0.0096580525860190392
0.32172587513923645 0.094253107905387878 0.0062734130769968033
0.35233813524246216 0.088639780879020691 0.0035953288897871971
0.38496780395507812 0.082353405654430389 0.0013920406345278025
0.4177863597869873 0.075440995395183563 0.0002176406851503998
0.45076346397399902 0.068826824426651001 3.6882238418911584e-06
0.48305988311767578 0.061834529042243958 0
0.51410990953445435 0.053991638123989105 0
0.54501074552536011 0.046405937522649765 0
0.57443183660507202 0.038037553429603577 0
0.60294485092163086 0.030327918007969856 0
0.63166767358779907 0.023668676614761353 0
0.65935039520263672 0.016834305599331856 0
0.68721318244934082 0.010899565182626247 0
0.71524167060852051 0.0059208590537309647 0
0.74231266975402832 0.0026140406262129545 0
0.76841831207275391 0.0013596311910077929 0
0.79406380653381348 3.0640636396128684e-05 0
0.818256676197052 0 0
0.84215939044952393 0 0
0.867148756980896 0 0
0.8939063549041748 0 0
0.10519655793905258 0.16892573237419128 0.063357941806316376
0.11171583086252213 0.16761364042758942 0.061251435428857803
0.11932611465454102 0.16601733863353729 0.05965939536690712
0.12862767279148102 0.16383042931556702 0.056837804615497589
0.13974015414714813 0.16163995862007141 0.053589407354593277
0.15477859973907471 0.15904240310192108 0.049603924155235291
0.17756123840808868 0.15582011640071869 0.044721465557813644
0.20173825323581696 0.15231969952583313 0.039997473359107971
0.22753319144248962 0.1484435647726059 0.034903690218925476
0.25279790163040161 0.14423808455467224 0.029746018350124359
0.27881333231925964 0.13990585505962372 0.024828571826219559
0.30655467510223389 0.13513518869876862 0.019818102940917015
0.33538365364074707 0.13019868731498718 0.014802291058003902
0.36619842052459717 0.12438207864761353 0.010398212820291519
0.3988877534866333 0.11824153363704681 0.0066568008624017239
0.43102681636810303 0.11121351271867752 0.0036162871401757002
0.4635041356086731 0.10361108183860779 0.0013437365414574742
0.49547520279884338 0.095718026161193848 0.00023040760424919426
0.52597391605377197 0.08758477121591568 0
0.55618035793304443 0.079407289624214172 0
0.58540242910385132 0.069444172084331512 0
0.61314100027084351 0.060063324868679047 0
0.64148032665252686 0.050776030868291855 0
0.6689915657043457 0.041243329644203186 0
0.69635468721389771 0.031138211488723755 0
0.72411561012268066 0.022312356159090996 0
0.75072568655014038 0.015576796606183052 0
0.77695614099502563 0.0097915288060903549 0
0.80238199234008789 0.0040347403846681118 0
0.82644402980804443 0.00036938977427780628 0
0.84972876310348511 0 0
0.87167739868164062 0 0
0.89362215995788574 0 0
0.122323177754879 0.20094534754753113 0.076496541500091553
0.12872229516506195 0.19894769787788391 0.075191162526607513
0.13582721352577209 0.1978013664484024 0.07322518527507782
0.14491835236549377 0.19684600830078125 0.071039997041225433
0.15668630599975586 0.19406399130821228 0.068140901625156403
0.17228193581104279 0.19152075052261353 0.064092271029949188
0.19113638997077942 0.18916840851306915 0.059601664543151855
0.21473534405231476 0.18595243990421295 0.055212870240211487
0.24000337719917297 0.18237049877643585 0.050065565854310989
0.26531445980072021 0.17849870026111603 0.044583737850189209
0.29162710905075073 0.17431893944740295 0.038710016757249832
0.31959739327430725 0.16979578137397766 0.033109404146671295
0.34885621070861816 0.16500601172447205 0.026878835633397102
0.38014394044876099 0.15975338220596313 0.020701345056295395
0.41276919841766357 0.15391230583190918 0.015343533828854561
0.44490987062454224 0.14745649695396423 0.010602718219161034
0.47717395424842834 0.14011043310165405 0.0067804493010044098
0.50872421264648438 0.13218118250370026 0.0034347395412623882
0.53904944658279419 0.12412469089031219 0.0011397617636248469
0.56879830360412598 0.11520741879940033 0.00011766852549044415
0.59723830223083496 0.10491932183504105 0
0.62473738193511963 0.09468541294336319 0
0.65274286270141602 0.08399122953414917 0
0.67971915006637573 0.073490798473358154 0
0.70659548044204712 0.061331573873758316 0
0.73383462429046631 0.049345910549163818 0
0.75979536771774292 0.039001598954200745 0
0.78569233417510986 0.027613157406449318 0
0.81078004837036133 0.016618339344859123 0
0.83459669351577759 0.0082537969574332237 0
0.85778677463531494 0.0026134620420634747 0
0.87939244508743286 0.0003078248118981719 0
0.90004366636276245 0 0
0.12534083425998688 0.23263880610466003 0.088816605508327484
0.13171128928661346 0.23219925165176392 0.087499015033245087
0.13948982954025269 0.23206700384616852 0.086132802069187164
0.15040034055709839 0.22952386736869812 0.083938650786876678
0.16472639143466949 0.22813694179058075 0.081032395362854004
0.18302559852600098 0.22493931651115417 0.077149488031864166
0.20408904552459717 0.22317948937416077 0.073315724730491638
0.22847484052181244 0.22030779719352722 0.068834550678730011
0.25302869081497192 0.21692098677158356 0.064482487738132477
0.27869948744773865 0.21357341110706329 0.059459004551172256
0.30480813980102539 0.20960325002670288 0.05380532518029213
0.33324608206748962 0.20524659752845764 0.047834094613790512
0.3630715012550354 0.20045933127403259 0.041358593851327896
0.3945048451423645 0.19544968008995056 0.03443482518196106
0.42717719078063965 0.19020883738994598 0.027612144127488136
0.4594075083732605 0.1842968761920929 0.021044027060270309
0.49129921197891235 0.17770346999168396 0.015650514513254166
0.52254515886306763 0.17042843997478485 0.010702774859964848
0.55297720432281494 0.16279026865959167 0.0066628465428948402
0.58263880014419556 0.15423013269901276 0.0035189900081604719
0.61096775531768799 0.14481481909751892 0.0011722744675353169
0.63857471942901611 0.1348070353269577 0.00014525928418152034
0.66622447967529297 0.12403316795825958 0
0.69297301769256592 0.11340460926294327 0
0.71958845853805542 0.10069014132022858 0
0.74602484703063965 0.087022379040718079 0
0.77138590812683105 0.074116498231887817 0
0.79656398296356201 0.05893227830529213 0
0.82091104984283447 0.043446008116006851 0
0.84397900104522705 0.029079724103212357 0
0.86678797006607056 0.017097663134336472 0
0.88820147514343262 0.0083228722214698792 0
0.90871167182922363 0.0023026904091238976 0
0.12875629961490631 0.26890453696250916 0.10335742682218552
0.13416977226734161 0.26780232787132263 0.10227137058973312
0.1427578330039978 0.26675885915756226 0.10051430016756058
0.15637694299221039 0.26559829711914062 0.098385624587535858
0.17510926723480225 0.26327380537986755 0.095523573458194733
0.19579987227916718 0.26130422949790955 0.092247366905212402
0.21858334541320801 0.2589934766292572 0.088581748306751251
0.24262464046478271 0.25615671277046204 0.084522522985935211
0.26693925261497498 0.25351253151893616 0.080143190920352936
0.29225516319274902 0.25015634298324585 0.075405709445476532
0.31900203227996826 0.24628756940364838 0.070018701255321503
0.34767720103263855 0.24201132357120514 0.063547499477863312
0.3776799738407135 0.23747946321964264 0.056990351527929306
0.40941092371940613 0.23270821571350098 0.049870356917381287
0.44188535213470459 0.2274838387966156 0.042397134006023407
0.47390389442443848 0.22189953923225403 0.034669846296310425
0.50565272569656372 0.21584093570709229 0.02793143130838871
0.53666931390762329 0.20895035564899445 0.021460773423314095
0.56680935621261597 0.2014307826757431 0.015838086605072021
0.59645044803619385 0.19336090981960297 0.011066249571740627
0.62473416328430176 0.18461257219314575 0.0072537180967628956
0.65251731872558594 0.17530956864356995 0.0040779365226626396
0.68019652366638184 0.16582998633384705 0.0015374264912679791
0.70718890428543091 0.15552425384521484 0.00033945843460969627
0.73408776521682739 0.14376024901866913 1.3901768397772685e-05
0.76025748252868652 0.13050970435142517 0
0.78548473119735718 0.11694278568029404 0
0.81013941764831543 0.10119547694921494 0
0.83369541168212891 0.083813495934009552 0
0.85579073429107666 0.06612812727689743 0
0.87762504816055298 0.047786891460418701 0
0.89845508337020874 0.03071204200387001 0
0.91834700107574463 0.015802245587110519 0
0.13222590088844299 0.30680522322654724 0.11656226217746735
0.14208756387233734 0.30608916282653809 0.11543270200490952
0.1547282487154007 0.30507144331932068 0.11382602900266647
0.17210669815540314 0.30331119894981384 0.11188652366399765
0.19084098935127258 0.30194193124771118 0.10948783904314041
0.21128284931182861 0.30005449056625366 0.10677347332239151
0.23413196206092834 0.29778733849525452 0.10334312915802002
0.25698089599609375 0.29522788524627686 0.099609322845935822
0.28179258108139038 0.29243192076683044 0.095327340066432953
0.30718702077865601 0.28933361172676086 0.09109092503786087
0.33397617936134338 0.28579914569854736 0.08605540543794632
0.3628191351890564 0.28162163496017456 0.080300651490688324
0.39305269718170166 0.2773691713809967 0.074160054326057434
0.42482671141624451 0.27263247966766357 0.067026577889919281
0.45736122131347656 0.26731839776039124 0.059671118855476379
0.48889955878257751 0.26171216368675232 0.052343528717756271
0.52037602663040161 0.25575226545333862 0.044744297862052917
0.55134904384613037 0.24906745553016663 0.037033215165138245
0.58121788501739502 0.2414143979549408 0.029787743464112282
0.61044251918792725 0.23369459807872772 0.023319778963923454
0.63884842395782471 0.22541549801826477 0.01748848520219326
0.66658097505569458 0.21670269966125488 0.012737521901726723
0.69415664672851562 0.20769655704498291 0.0085302069783210754
0.7214159369468689 0.19747669994831085 0.0050704795867204666
0.74823647737503052 0.1865508109331131 0.002431550994515419
0.77461814880371094 0.17432066798210144 0.00069398898631334305
0.8001973032951355 0.1615399569272995 5.2273477194830775e-05
0.82493847608566284 0.14732566475868225 0
0.84858739376068115 0.13053980469703674 0
0.8705371618270874 0.11255126446485519 0
0.89147067070007324 0.091959699988365173 0
0.9111437201499939 0.070014007389545441 0
0.92994850873947144 0.04680711030960083 0
0.15107026696205139 0.34609320759773254 0.13042642176151276
0.16240330040454865 0.34516656398773193 0.1291787326335907
0.17476622760295868 0.34442269802093506 0.1281181275844574
0.18943238258361816 0.34337681531906128 0.12647238373756409
0.20722483098506927 0.34174966812133789 0.12437015026807785
0.22781127691268921 0.3403298556804657 0.12176500260829926
0.24953477084636688 0.33812558650970459 0.11865437030792236
0.27215826511383057 0.33616960048675537 0.11518800258636475
0.29675108194351196 0.33349308371543884 0.11091582477092743
0.32267919182777405 0.33060106635093689 0.10644514113664627
0.34952214360237122 0.32737773656845093 0.10175140202045441
0.37894114851951599 0.3237571120262146 0.096454650163650513
0.40939965844154358 0.31999552249908447 0.090606071054935455
0.44113698601722717 0.315561443567276 0.083876259624958038
0.47366395592689514 0.30998125672340393 0.076655067503452301
0.50489407777786255 0.3048018217086792 0.069901354610919952
0.53604245185852051 0.29887431859970093 0.062988340854644775
0.56690865755081177 0.29224511981010437 0.055292308330535889
0.59649550914764404 0.28521537780761719 0.048075143247842789
0.62548959255218506 0.27752608060836792 0.041254609823226929
0.65368956327438354 0.26933866739273071 0.034043546766042709
0.6812559962272644 0.26071324944496155 0.027431119233369827
0.70896965265274048 0.25184682011604309 0.02136637456715107
0.73619329929351807 0.24180617928504944 0.015825757756829262
0.76272100210189819 0.23090478777885437 0.01103509683161974
0.78944253921508789 0.2193254679441452 0.0070772948674857616
0.81499785184860229 0.20707964897155762 0.0038193201180547476
0.83969968557357788 0.19368898868560791 0.0015075638657435775
0.86365419626235962 0.17850953340530396 0.00028626291896216571
0.88607174158096313 0.16161088645458221 9.0787052613450214e-06
0.90721386671066284 0.14254948496818542 0
0.92664790153503418 0.12056668847799301 0
0.94512546062469482 0.094683997333049774 0
0.1759188324213028 0.3833954930305481 0.14204145967960358
0.18403694033622742 0.38231456279754639 0.14123134315013885
0.19367697834968567 0.38123556971549988 0.14018872380256653
0.20736464858055115 0.38071879744529724 0.13857059180736542
0.22487059235572815 0.38014423847198486 0.13666808605194092
0.2436596155166626 0.37830904126167297 0.13432973623275757
0.26441588997840881 0.3766351044178009 0.13162840902805328
0.28721874952316284 0.3746350109577179 0.12848201394081116
0.31162536144256592 0.37221512198448181 0.124892458319664
0.33755803108215332 0.36956396698951721 0.12075135856866837
0.36514419317245483 0.36681219935417175 0.11620255559682846
0.39487177133560181 0.36350667476654053 0.11124814301729202
0.42576676607131958 0.3601050078868866 0.10547950118780136
0.45749300718307495 0.3561500608921051 0.099770188331604004
0.48937061429023743 0.3516576886177063 0.09343661367893219
0.52025890350341797 0.3467523455619812 0.087186478078365326
0.55148124694824219 0.34129118919372559 0.080694355070590973
0.58212751150131226 0.33546194434165955 0.073905438184738159
0.6115337610244751 0.3290884792804718 0.067133836448192596
0.64055907726287842 0.32213267683982849 0.060172289609909058
0.66877704858779907 0.31442320346832275 0.0532674640417099
0.69635695219039917 0.30638480186462402 0.046320907771587372
0.72402018308639526 0.2980186939239502 0.039509657770395279
0.75135308504104614 0.28855305910110474 0.03220704197883606
0.77802747488021851 0.27821215987205505 0.025726785883307457
0.80458825826644897 0.26658552885055542 0.019709505140781403
0.83018535375595093 0.25435331463813782 0.014238706789910793
0.85500460863113403 0.24138085544109344 0.0097150718793272972
0.87890279293060303 0.22544100880622864 0.005901846569031477
0.90139514207839966 0.21080464124679565 0.0028509285766631365
0.92285662889480591 0.19219624996185303 0.00093020527856424451
0.94307559728622437 0.17169769108295441 0.00010582364484434947
0.96179711818695068 0.14838346838951111 0
0.19539132714271545 0.41879087686538696 0.15335491299629211
0.20355233550071716 0.41879087686538696 0.15272063016891479
0.21349139511585236 0.41870144009590149 0.15169899165630341
0.22670871019363403 0.41745913028717041 0.15031275153160095
0.24216781556606293 0.41555878520011902 0.14868630468845367
0.26013177633285522 0.41486468911170959 0.14658819139003754
0.28094801306724548 0.41394442319869995 0.14427879452705383
0.30304613709449768 0.41138675808906555 0.14140346646308899
0.32771658897399902 0.40974524617195129 0.13803078234195709
0.3536505401134491 0.40698543190956116 0.13438898324966431
0.3812660276889801 0.40467685461044312 0.13008062541484833
0.41146871447563171 0.40187680721282959 0.12509234249591827
0.44224706292152405 0.39872005581855774 0.12000314146280289
0.47354927659034729 0.39520692825317383 0.11447679251432419
0.50495308637619019 0.39141315221786499 0.10923591256141663
0.53558236360549927 0.38707497715950012 0.10342730581760406
0.56638932228088379 0.38227313756942749 0.096954807639122009
0.59695863723754883 0.37720069289207458 0.090646073222160339
0.62619960308074951 0.37166398763656616 0.084563165903091431
0.65508151054382324 0.36564594507217407 0.078646950423717499
0.68340814113616943 0.35910540819168091 0.072405546903610229
0.71111994981765747 0.35215795040130615 0.065782606601715088
0.7392580509185791 0.34511041641235352 0.059389218688011169
0.76667279005050659 0.33653220534324646 0.052763167768716812
0.79379189014434814 0.32717710733413696 0.04554462805390358
0.82061749696731567 0.31700170040130615 0.038001962006092072
0.84628146886825562 0.30532833933830261 0.031196672469377518
0.87150877714157104 0.29292756319046021 0.024505281820893288
0.895457923412323 0.2783435583114624 0.018582733348011971
0.9179379940032959 0.26282799243927002 0.01345331035554409
0.9395679235458374 0.24506139755249023 0.0088571812957525253
0.95982068777084351 0.22478002309799194 0.0048590800724923611
0.97886687517166138 0.2026800811290741 0.0020125953014940023
0.21664725244045258 0.45448333024978638 0.1645672619342804
0.22427807748317719 0.45367661118507385 0.1639353334903717
0.23335690796375275 0.45329359173774719 0.16294154524803162
0.24529603123664856 0.45326808094978333 0.16191667318344116
