Textures/68.cube
# Created by: G'MIC (https://gmic.eu)
TITLE "Kodak_Elite_Chrome_400.cube"
# LUT size
LUT_3D_SIZE 5
# Data domain
DOMAIN_MIN 0.0 0.0 0.0
DOMAIN_MAX 1.0 1.0 1.0
# LUT data points
0.0045378510840237141 0.0051197768189013004 0.0039550894871354103
0.14181216061115265 0.0017899464583024383 0.00013958511408418417
0.380382239818573 0.011908095329999924 0
0.66065353155136108 0.044158075004816055 0
0.90246105194091797 0.079312652349472046 0
0.12294944375753403 0.19892494380474091 0.071420438587665558
0.21915462613105774 0.18911617994308472 0.057603161782026291
0.45828959345817566 0.16739450395107269 0.023471647873520851
0.6977507472038269 0.11304169893264771 0
0.91824942827224731 0.081132054328918457 0
0.22049990296363831 0.50964051485061646 0.1647283136844635
0.33931213617324829 0.50980377197265625 0.15178410708904266
0.5572885274887085 0.50431632995605469 0.11468011885881424
0.76485896110534668 0.45226478576660156 0.045262381434440613
0.9773067831993103 0.27671757340431213 0
0.46940222382545471 0.75923210382461548 0.3414495587348938
0.51983523368835449 0.7614254355430603 0.32829985022544861
0.6463693380355835 0.7645764946937561 0.28173241019248962
0.8252183198928833 0.76388883590698242 0.16735714673995972
1 0.73147255182266235 0.012742613442242146
0.6938520073890686 0.98480397462844849 0.55463802814483643
0.71916490793228149 0.98724877834320068 0.54894888401031494
0.78894662857055664 0.99159950017929077 0.53088176250457764
0.90163403749465942 0.99694865942001343 0.48495793342590332
1 0.99994945526123047 0.25679567456245422
0.00033034427906386554 0.0066994591616094112 0.13271036744117737
0.11762119829654694 0.0024511669762432575 0.10621653497219086
0.36561056971549988 0.0058137890882790089 0.065716288983821869
0.65973150730133057 0.039657376706600189 0.004238717257976532
0.91068452596664429 0.080228604376316071 0
0.099792920053005219 0.20205928385257721 0.20930887758731842
0.19396829605102539 0.19298094511032104 0.19300752878189087
0.44338127970695496 0.17048574984073639 0.15107372403144836
0.68624472618103027 0.11291099339723587 0.066938810050487518
0.9249846339225769 0.082026176154613495 0
0.1805843859910965 0.50476491451263428 0.31252887845039368
0.31176653504371643 0.50588256120681763 0.30021169781684875
0.53740447759628296 0.50220835208892822 0.2585110068321228
0.74933886528015137 0.45688989758491516 0.16685542464256287
0.97411531209945679 0.28686836361885071 0.016772555187344551
0.44875219464302063 0.75369358062744141 0.45882368087768555
0.50043851137161255 0.754860520362854 0.4509945809841156
0.62748259305953979 0.75687074661254883 0.42207404971122742
0.80614978075027466 0.755440354347229 0.34417626261711121
1 0.72448825836181641 0.10290371626615524
0.68671548366546631 0.98181474208831787 0.61798614263534546
0.71213853359222412 0.98392778635025024 0.61360776424407959
0.7809290885925293 0.98941528797149658 0.5985875129699707
0.89194673299789429 0.9948652982711792 0.5615047812461853
1 0.99817705154418945 0.42262148857116699
0 0.0036765625700354576 0.33032578229904175
0.078764453530311584 0.0014984840527176857 0.30896452069282532
0.33361616730690002 0.00021490997460205108 0.27029138803482056
0.63420236110687256 0.016766471788287163 0.18250051140785217
0.90756702423095703 0.071552969515323639 0.018860474228858948
0.058067183941602707 0.20478908717632294 0.42934140563011169
0.15468147397041321 0.19539938867092133 0.41981008648872375
0.40686357021331787 0.16978447139263153 0.38900873064994812
0.65372949838638306 0.10464780777692795 0.31357917189598083
0.90228754281997681 0.056382820010185242 0.13594336807727814
0.087756142020225525 0.49803945422172546 0.52065682411193848
0.25463259220123291 0.49984866380691528 0.51581275463104248
0.49762314558029175 0.4976753294467926 0.4972749650478363
0.71054673194885254 0.45713138580322266 0.4511314332485199
0.94046187400817871 0.28714278340339661 0.29844903945922852
0.41244825720787048 0.74902123212814331 0.60997575521469116
0.46753251552581787 0.75016695261001587 0.60587882995605469
0.59836727380752563 0.75114381313323975 0.59190964698791504
0.77608019113540649 0.74530470371246338 0.55924952030181885
0.98532110452651978 0.70418542623519897 0.46163395047187805
0.67185801267623901 0.97607362270355225 0.7343137264251709
0.6973344087600708 0.97791838645935059 0.73166567087173462
0.76584458351135254 0.98353296518325806 0.72253501415252686
0.87460625171661377 0.99009817838668823 0.69860488176345825
1 0.99348986148834229 0.60917049646377563
0 0.0065292632207274437 0.55622726678848267
0.022984568029642105 0.0023832898586988449 0.55010563135147095
0.28127190470695496 2.8370953941703192e-07 0.53507620096206665
0.58135664463043213 0 0.49619325995445251
0.85667318105697632 0.021728541702032089 0.3748510479927063
0.01663624681532383 0.22704541683197021 0.62349015474319458
0.098432637751102448 0.21721398830413818 0.62089717388153076
0.36036106944084167 0.18994061648845673 0.60901939868927002
0.61366266012191772 0.10929812490940094 0.57992124557495117
0.84711480140686035 0.0099093988537788391 0.50511550903320312
0.0018622771603986621 0.50160127878189087 0.69405335187911987
0.15971450507640839 0.50391298532485962 0.69179672002792358
0.45358395576477051 0.50372999906539917 0.68220829963684082
0.67534387111663818 0.47289076447486877 0.65978914499282837
0.90217626094818115 0.30467292666435242 0.60002410411834717
0.35662662982940674 0.74631786346435547 0.76941722631454468
0.41955855488777161 0.74746739864349365 0.7673223614692688
0.55971461534500122 0.74926459789276123 0.76082545518875122
0.74414491653442383 0.7440146803855896 0.74403482675552368
0.95516300201416016 0.70069742202758789 0.69290769100189209
0.65137165784835815 0.96963101625442505 0.86084562540054321
0.67698889970779419 0.9719538688659668 0.85783308744430542
0.74622458219528198 0.97697603702545166 0.85378497838973999
0.85489612817764282 0.98474812507629395 0.84354317188262939
0.99925178289413452 0.98692452907562256 0.79781198501586914
0 0.024011634290218353 0.74012923240661621
3.798161560553126e-05 0.011550968512892723 0.7386474609375
0.2291092723608017 0.0036598239094018936 0.73282128572463989
0.53731173276901245 0 0.71395081281661987
0.80962437391281128 0.00031520129414275289 0.66636013984680176
0 0.27494391798973083 0.80141276121139526
0.037513181567192078 0.26534086465835571 0.80163204669952393
0.29248020052909851 0.24156269431114197 0.79761284589767456
0.57817947864532471 0.15956911444664001 0.78490394353866577
0.8083806037902832 0.0020549469627439976 0.74954265356063843
0 0.51444435119628906 0.86172741651535034
0.0001920985960168764 0.51776754856109619 0.86152148246765137
0.38475751876831055 0.5218389630317688 0.85850173234939575
0.63051360845565796 0.50052499771118164 0.85088562965393066
0.87198340892791748 0.36979112029075623 0.82730185985565186
0.24007497727870941 0.74978798627853394 0.92318564653396606
0.33038243651390076 0.75182074308395386 0.92318564653396606
0.49738362431526184 0.75473582744598389 0.92206102609634399
0.69938057661056519 0.75276511907577515 0.91802996397018433
0.92126214504241943 0.71417546272277832 0.90164995193481445
0.6101115345954895 0.96167623996734619 0.98981988430023193
0.63760024309158325 0.9640878438949585 0.99002581834793091
0.71130794286727905 0.96937048435211182 0.99082142114639282
0.82468998432159424 0.97811496257781982 0.99067604541778564
0.98527395725250244 0.98468697071075439 0.98445290327072144
