Textures/68.cube
# Created by: G'MIC (https://gmic.eu)
TITLE "Kodak_Elite_Chrome_400.cube"
# LUT size
LUT_3D_SIZE 33
# Data domain
DOMAIN_MIN 0.0 0.0 0.0
DOMAIN_MAX 1.0 1.0 1.0
# LUT data points
0.0045378510840237141 0.0051197768189013004 0.0039550894871354103
0.016774408519268036 0.0036765625700354576 0.0027100148145109415
0.031168395653367043 0.0036765630356967449 0.0020554994698613882
0.048750951886177063 0.0036765630356967449 0.0017363214865326881
0.066700875759124756 0.0036765625700354576 0.001174801611341536
0.084239624440670013 0.0034125023521482944 0.0010254161898046732
0.10161053389310837 0.0025810373481363058 0.00067405396839603782
0.1213950514793396 0.0023610538337379694 0.0003677939239423722
0.14181216061115265 0.0017899464583024383 0.00013958511408418417
0.16441254317760468 0.0015523751499131322 3.9719328924547881e-05
0.18891334533691406 0.0022132054436951876 2.2696763153362554e-06
0.21646805107593536 0.004133305512368679 0
0.24510855972766876 0.0040414119139313698 0
0.27588760852813721 0.0063265338540077209 0
0.308148592710495 0.008714982308447361 0
0.34273058176040649 0.011765001341700554 0
0.380382239818573 0.011908095329999924 0
0.42054551839828491 0.016185656189918518 0
0.4620700478553772 0.020572666078805923 0
0.503376305103302 0.024059291929006577 0
0.54029732942581177 0.028222301974892616 0
0.57280826568603516 0.032569527626037598 0
0.6033361554145813 0.036577366292476654 0
0.63209545612335205 0.041066024452447891 0
0.66065353155136108 0.044158075004816055 0
0.68961882591247559 0.048758350312709808 0
0.71900558471679688 0.052637577056884766 0
0.74922549724578857 0.057471912354230881 0
0.77994149923324585 0.062057040631771088 0
0.81077510118484497 0.065528973937034607 0
0.84187662601470947 0.070154733955860138 0
0.87240594625473022 0.074764683842658997 0
0.90246105194091797 0.079312652349472046 0
0.01344430074095726 0.023081129416823387 0.0082738734781742096
0.026109008118510246 0.020555911585688591 0.0070829493924975395
0.042543068528175354 0.019812021404504776 0.0061314706690609455
0.060350239276885986 0.019771168008446693 0.0054583344608545303
0.078394874930381775 0.0195640679448843 0.0045656231231987476
0.095761634409427643 0.016547074541449547 0.0037065383512526751
0.11338131874799728 0.015849629417061806 0.0030650296248495579
0.13364489376544952 0.015849629417061806 0.0024151713587343693
0.15450987219810486 0.015849629417061806 0.0017583232838660479
0.17736691236495972 0.013905889354646206 0.0011664275079965591
0.20169058442115784 0.012604917399585247 0.00060887611471116543
0.2288183867931366 0.012327989563345909 0.00022611649183090776
0.25715941190719604 0.011949149891734123 3.2910305890254676e-05
0.28704133629798889 0.011694730259478092 0
0.3190905749797821 0.011645924299955368 0
0.35305196046829224 0.012418501079082489 0
0.39036524295806885 0.013047997839748859 0
0.43025609850883484 0.01707504503428936 0
0.47124543786048889 0.021426394581794739 0
0.51135319471359253 0.024672919884324074 0
0.54666215181350708 0.028921753168106079 0
0.57833284139633179 0.033170130103826523 0
0.60811513662338257 0.037388384342193604 0
0.6363760232925415 0.041666626930236816 0
0.66453105211257935 0.044909015297889709 0
0.69330030679702759 0.049264568835496902 0
0.72251248359680176 0.053281236439943314 0
0.75238329172134399 0.057905662804841995 0
0.78275299072265625 0.062657251954078674 0
0.81324225664138794 0.066181212663650513 0
0.84401512145996094 0.070751458406448364 0
0.87432318925857544 0.075081817805767059 0
0.90416491031646729 0.079329811036586761 0
0.024512052536010742 0.043339747935533524 0.013258114457130432
0.035903532058000565 0.04230847954750061 0.011809194460511208
0.049986373633146286 0.041180748492479324 0.010590582154691219
0.067815698683261871 0.039423611015081406 0.0092898337170481682
0.085472270846366882 0.038567278534173965 0.0082595357671380043
0.10272104293107986 0.037765275686979294 0.0073064053431153297
0.12089212983846664 0.036327298730611801 0.0062307571060955524
0.14176814258098602 0.03493499755859375 0.0052684466354548931
0.16301803290843964 0.034129928797483444 0.0043404600583016872
0.18607485294342041 0.032567910850048065 0.003231545677408576
0.21062788367271423 0.031422004103660583 0.0024371272884309292
0.23845809698104858 0.030841754749417305 0.0017098871758207679
0.26670464873313904 0.030034448951482773 0.00088928639888763428
0.2966245710849762 0.028774859383702278 0.00032435092725791037
0.32822734117507935 0.027231773361563683 3.8868205592734739e-05
0.36156639456748962 0.024588350206613541 0
0.39804667234420776 0.021669762209057808 0
0.43735215067863464 0.021383661776781082 0
0.47752344608306885 0.02282150462269783 0
0.51645290851593018 0.025241045281291008 0
0.5509677529335022 0.029416792094707489 0
0.58198904991149902 0.033665038645267487 0
0.61133992671966553 0.037548717111349106 0
0.6392824649810791 0.041676770895719528 0
0.667347252368927 0.045022144913673401 0
0.69574993848800659 0.049390539526939392 0
0.72498458623886108 0.053512956947088242 0
0.75463038682937622 0.058214232325553894 0
0.78477895259857178 0.062744997441768646 0
0.81507790088653564 0.066258437931537628 0
0.84569579362869263 0.070751458406448364 0
0.87581098079681396 0.075083382427692413 0
0.90543806552886963 0.079331368207931519 0
0.038877677172422409 0.067153275012969971 0.01980174332857132
0.049154572188854218 0.065683789551258087 0.018338782712817192
0.060205765068531036 0.064616762101650238 0.016900958493351936
0.075153082609176636 0.063581377267837524 0.015432683750987053
0.09277622401714325 0.062146008014678955 0.013885151594877243
0.10988211631774902 0.061149116605520248 0.012731537222862244
0.12890700995922089 0.059900518506765366 0.011591996066272259
0.14975214004516602 0.058477409183979034 0.010023253969848156
0.17105142772197723 0.057106625288724899 0.0085636787116527557
0.19463540613651276 0.055959548801183701 0.0071741719730198383
0.21961818635463715 0.055103447288274765 0.0057131946086883545
0.24730776250362396 0.053882401436567307 0.0043683345429599285
0.27582353353500366 0.052840862423181534 0.0030544004403054714
0.30585762858390808 0.052144676446914673 0.0020616527181118727
0.33764243125915527 0.050489176064729691 0.0010828445665538311
0.37121203541755676 0.047370836138725281 0.00032818099134601653
0.40770423412322998 0.04416714608669281 1.2341364708845504e-05
0.44644567370414734 0.041503746062517166 0
0.48563545942306519 0.037296716123819351 0
0.52289986610412598 0.032987106591463089 0
0.55574148893356323 0.031613651663064957 0
0.58596295118331909 0.034307867288589478 0
0.6148877739906311 0.038317214697599411 0
0.64252853393554688 0.042432200163602829 0
0.67031282186508179 0.045786350965499878 0
0.69859731197357178 0.05012023076415062 0
0.72764992713928223 0.05369669571518898 0
0.75712627172470093 0.059187836945056915 0
0.78710645437240601 0.062840528786182404 0
0.81722003221511841 0.066505059599876404 0
0.84763419628143311 0.070814572274684906 0
0.87741035223007202 0.075525641441345215 0
0.90688943862915039 0.079773738980293274 0
0.054774235934019089 0.089731954038143158 0.028239646926522255
0.063516393303871155 0.088817290961742401 0.026725590229034424
0.072870925068855286 0.087712615728378296 0.025033058598637581
0.084650687873363495 0.086327962577342987 0.023405984044075012
0.10019960254430771 0.085160195827484131 0.021567013114690781
0.11713676154613495 0.08427940309047699 0.020091058686375618
0.13685601949691772 0.082796923816204071 0.018473895266652107
0.15746018290519714 0.081436425447463989 0.016801917925477028
0.17935824394226074 0.080176807940006256 0.014905431307852268
0.2030206173658371 0.078729301691055298 0.012911288999021053
0.22831267118453979 0.077813565731048584 0.011247937567532063
0.25609752535820007 0.076670773327350616 0.0091280592605471611
0.28470289707183838 0.075531072914600372 0.0070680230855941772
0.31452524662017822 0.074490994215011597 0.0052540353499352932
0.34632289409637451 0.072735846042633057 0.0035108535084873438
0.37976691126823425 0.069925442337989807 0.0020701796747744083
0.41663044691085815 0.067167095839977264 0.0008668028749525547
0.45557045936584473 0.064973652362823486 0.00020341975323390216
0.49441421031951904 0.060933127999305725 0
0.53096109628677368 0.055683460086584091 0
0.56262046098709106 0.048607088625431061 0
0.59096646308898926 0.041560176759958267 0
0.61871099472045898 0.039766658097505569 0
0.64605110883712769 0.042784333229064941 0
0.67359179258346558 0.046011157333850861 0
0.70174103975296021 0.050210997462272644 0
0.73047298192977905 0.054386008530855179 0
0.75981217622756958 0.059722535312175751 0
0.78958982229232788 0.063235253095626831 0
0.81957238912582397 0.067460469901561737 0
0.84967333078384399 0.071652345359325409 0
0.87943941354751587 0.075980372726917267 0
0.90887081623077393 0.080228604376316071 0
0.071082800626754761 0.11345633119344711 0.038368720561265945
0.078372307121753693 0.11205338686704636 0.037043105810880661
0.086703285574913025 0.11093772202730179 0.035393074154853821
0.096989698708057404 0.10983546823263168 0.033556580543518066
0.10855641961097717 0.10849326103925705 0.031565513461828232
0.12482324242591858 0.10728117078542709 0.029644088819622993
0.14528799057006836 0.10595349222421646 0.027460193261504173
0.16583384573459625 0.10446117073297501 0.025535786524415016
0.1879299134016037 0.10284380614757538 0.02321975864470005
0.21183133125305176 0.10179456323385239 0.020835112780332565
0.23738047480583191 0.10024417191743851 0.018497120589017868
0.2651343047618866 0.098614484071731567 0.015939297154545784
0.29367789626121521 0.097964055836200714 0.012919599190354347
0.32353368401527405 0.096527770161628723 0.010656300000846386
0.35514330863952637 0.094145990908145905 0.0082061467692255974
0.38860964775085449 0.091492064297199249 0.0059133889153599739
0.42545872926712036 0.089185118675231934 0.003478597616776824
0.46429789066314697 0.086626477539539337 0.0018283786484971642
0.50235509872436523 0.082881689071655273 0.00045443171984516084
0.53817099332809448 0.078740134835243225 4.9649161155684851e-06
0.56966686248779297 0.072078816592693329 0
0.59783315658569336 0.064343899488449097 0
0.62450861930847168 0.055051397532224655 0
0.65024495124816895 0.047579918056726456 0
0.67706221342086792 0.047167636454105377 0
0.70509189367294312 0.050930730998516083 0
0.73364388942718506 0.055059663951396942 0
0.76278865337371826 0.05988224595785141 0
0.79249817132949829 0.063235260546207428 0
0.82228225469589233 0.067483872175216675 0
0.85197120904922485 0.071731917560100555 0
0.88133001327514648 0.075980372726917267 0
0.91060042381286621 0.080228604376316071 0
0.088741391897201538 0.14035333693027496 0.049535706639289856
0.095288969576358795 0.13914941251277924 0.048150956630706787
0.10258692502975464 0.13845321536064148 0.046976417303085327
0.11154397577047348 0.13741858303546906 0.045209534466266632
0.12149513512849808 0.13605119287967682 0.043348673731088638
0.13518421351909637 0.13465967774391174 0.041105907410383224
0.1547805517911911 0.13337054848670959 0.038570955395698547
0.17511910200119019 0.13157457113265991 0.036065094172954559
0.19796188175678253 0.12988880276679993 0.033715091645717621
0.22199113667011261 0.12818147242069244 0.030946949496865273
0.24762994050979614 0.12633292376995087 0.027967473492026329
0.27554625272750854 0.12480863183736801 0.024862300604581833
0.30408674478530884 0.12324900180101395 0.021200951188802719
0.33376678824424744 0.1213943213224411 0.017996005713939667
0.36534887552261353 0.11911413073539734 0.014887033961713314
0.39882943034172058 0.11623591929674149 0.011668074876070023
0.43570193648338318 0.11344113200902939 0.0084057208150625229
0.47406640648841858 0.11051543056964874 0.0055568409152328968
0.51117628812789917 0.10703808814287186 0.0028794184327125549
0.54580903053283691 0.1027466282248497 0.00073424010770395398
0.57664132118225098 0.096659235656261444 2.8654658308369108e-05
0.60499906539916992 0.089588746428489685 0
0.63212740421295166 0.081470340490341187 0
0.65768921375274658 0.071283996105194092 0
0.68262851238250732 0.060137119144201279 0
0.70917010307312012 0.053564198315143585 0
0.73732942342758179 0.055672481656074524 0
0.76614862680435181 0.060707271099090576 0
0.79565656185150146 0.063712351024150848 0
0.82512646913528442 0.06786646693944931 0
0.85464036464691162 0.071792781352996826 0
0.88385570049285889 0.076268583536148071 0
0.91297227144241333 0.080228604376316071 0
0.10719519853591919 0.16782285273075104 0.060387548059225082
0.11267326027154922 0.16732090711593628 0.059568773955106735
0.11911389231681824 0.16674526035785675 0.058391489088535309
0.12680326402187347 0.16566209495067596 0.056902412325143814
0.13676691055297852 0.16393734514713287 0.055212397128343582
0.14956161379814148 0.16290082037448883 0.052727125585079193
0.16523705422878265 0.16102121770381927 0.050420176237821579
0.18495790660381317 0.15943582355976105 0.04801449179649353
0.20805948972702026 0.15791325271129608 0.045101284980773926
0.23229463398456573 0.15565633773803711 0.042140785604715347
0.25838324427604675 0.15406143665313721 0.038680762052536011
0.28628093004226685 0.15185603499412537 0.035202410072088242
0.3146892786026001 0.14989164471626282 0.03121691569685936
0.34437647461891174 0.14759762585163116 0.027173012495040894
0.37627050280570984 0.14471109211444855 0.023199999704957008
0.40987837314605713 0.14144168794155121 0.019085416570305824
0.44641080498695374 0.13844126462936401 0.014980695210397243
0.48411387205123901 0.13466513156890869 0.010865784250199795
0.5200994610786438 0.13088499009609222 0.0070783034898340702
0.55344098806381226 0.12609240412712097 0.0037353530060499907
0.58335459232330322 0.11983755975961685 0.0011547657195478678
0.61128616333007812 0.11321954429149628 4.3123847717652097e-05
0.63860756158828735 0.10529385507106781 0
0.66448330879211426 0.096517398953437805 0
0.68999648094177246 0.085901759564876556 0
0.71586424112319946 0.072454161942005157 0
0.7420160174369812 0.062476880848407745 0
0.76992380619049072 0.061216045171022415 0
0.79913032054901123 0.06413404643535614 0
0.82840865850448608 0.068382449448108673 0
0.85764044523239136 0.07258780300617218 0
0.88660562038421631 0.076878942549228668 0
0.91534698009490967 0.080939352512359619 0
0.12294944375753403 0.19892494380474091 0.071420438587665558
0.12783479690551758 0.19789952039718628 0.070483975112438202
0.13369806110858917 0.19721314311027527 0.069585464894771576
0.14182157814502716 0.19692462682723999 0.068444795906543732
0.15233123302459717 0.19578744471073151 0.066643059253692627
0.16506211459636688 0.19352789223194122 0.064795322716236115
0.17831654846668243 0.19298209249973297 0.062331825494766235
0.19630312919616699 0.19077710807323456 0.059961967170238495
0.21915462613105774 0.18911617994308472 0.057603161782026291
0.24379628896713257 0.18756751716136932 0.054419003427028656
0.26985439658164978 0.18522395193576813 0.050621885806322098
0.29793542623519897 0.18260854482650757 0.046898927539587021
0.32654273509979248 0.18044884502887726 0.043059360235929489
0.35625073313713074 0.17746728658676147 0.038570251315832138
0.388100266456604 0.17415925860404968 0.033897317945957184
0.42181104421615601 0.17099490761756897 0.028570014983415604
0.45828959345817566 0.16739450395107269 0.023471647873520851
0.49518513679504395 0.16283006966114044 0.018070889636874199
0.52990925312042236 0.1579466313123703 0.013136958703398705
0.56190615892410278 0.15242224931716919 0.0085097942501306534
0.59080648422241211 0.14573270082473755 0.0047966968268156052
0.61805331707000732 0.13847865164279938 0.0015592839336022735
0.64519798755645752 0.13060289621353149 6.124579522293061e-05
0.67155176401138306 0.12217438966035843 0
0.6977507472038269 0.11304169893264771 0
0.7244226336479187 0.10055878013372421 0
0.74995583295822144 0.087187290191650391 0
0.77589565515518188 0.072834014892578125 0
0.80333614349365234 0.066309988498687744 0
0.83203709125518799 0.068867608904838562 0
0.86122280359268188 0.072704054415225983 0
0.88970911502838135 0.07704664021730423 0
0.91824942827224731 0.081132054328918457 0
0.12283007800579071 0.23199829459190369 0.081798523664474487
0.12841133773326874 0.23114557564258575 0.080984123051166534
0.13545414805412292 0.23104581236839294 0.080005981028079987
0.14523203670978546 0.23104581236839294 0.078676961362361908
0.15708024799823761 0.22990527749061584 0.077204465866088867
0.17006479203701019 0.22741875052452087 0.075359448790550232
0.18626238405704498 0.22712422907352448 0.073444440960884094
0.20736488699913025 0.22536410391330719 0.070971600711345673
0.23089104890823364 0.22328861057758331 0.068466350436210632
0.25599899888038635 0.2222021073102951 0.065390907227993011
0.28232589364051819 0.21944044530391693 0.061757270246744156
0.31019946932792664 0.21696880459785461 0.057886078953742981
0.33880376815795898 0.21442748606204987 0.05385097861289978
0.36880603432655334 0.21119378507137299 0.049444597214460373
0.40089195966720581 0.20759832859039307 0.044664777815341949
0.43508058786392212 0.204088494181633 0.038977578282356262
0.47111713886260986 0.20005474984645844 0.033135399222373962
0.50683146715164185 0.19464397430419922 0.027149075642228127
0.54013407230377197 0.18934828042984009 0.020852567628026009
0.57079237699508667 0.18237575888633728 0.015267137438058853
0.59878247976303101 0.17490898072719574 0.010141043923795223
0.62565255165100098 0.16689713299274445 0.0058284299448132515
0.65230458974838257 0.15775087475776672 0.0019993188325315714
0.67824769020080566 0.14968279004096985 0.00016611191676929593
0.70486581325531006 0.14077559113502502 0
0.73253053426742554 0.1292891800403595 0
0.75848996639251709 0.11676795780658722 0
0.78423207998275757 0.10166509449481964 0
0.8099866509437561 0.083890616893768311 0
0.83655345439910889 0.072427093982696533 0
0.86491668224334717 0.073684200644493103 0
0.89328199625015259 0.077777497470378876 0
0.92158752679824829 0.081888861954212189 0
0.12531712651252747 0.26888427138328552 0.094435237348079681
0.12986959517002106 0.26843389868736267 0.093513548374176025
0.1362689733505249 0.26736298203468323 0.092581190168857574
0.14651694893836975 0.26623016595840454 0.091267667710781097
0.15935812890529633 0.26524791121482849 0.089984439313411713
0.1761208176612854 0.26469516754150391 0.088300935924053192
0.19702252745628357 0.26326251029968262 0.086054645478725433
0.21904641389846802 0.2618432343006134 0.083547495305538177
0.24339863657951355 0.26038956642150879 0.080771535634994507
0.26875272393226624 0.25851237773895264 0.077642999589443207
0.29513531923294067 0.25641754269599915 0.074386931955814362
0.32309514284133911 0.25404730439186096 0.070494703948497772
0.35159644484519958 0.25135505199432373 0.066340819001197815
0.38197121024131775 0.24797360599040985 0.061759762465953827
0.41477292776107788 0.24453540146350861 0.056435570120811462
0.44904226064682007 0.24081963300704956 0.050772711634635925
0.48431089520454407 0.23629367351531982 0.044337052851915359
0.51908153295516968 0.23091365396976471 0.03726288303732872
0.55071038007736206 0.22441889345645905 0.030258120968937874
0.58022868633270264 0.21656724810600281 0.023193139582872391
0.6073462963104248 0.20813268423080444 0.016949865967035294
0.63370352983474731 0.19903138279914856 0.01122796256095171
0.66037732362747192 0.18983606994152069 0.0063646351918578148
0.6858905553817749 0.18010011315345764 0.0024865157902240753
0.71220135688781738 0.17005860805511475 0.00015135903959162533
0.73980051279067993 0.15859711170196533 0
0.76693439483642578 0.14680610597133636 0
0.79272878170013428 0.13235807418823242 0
0.81847089529037476 0.115262471139431 0
0.84396111965179443 0.095697373151779175 0
0.87009948492050171 0.079544350504875183 0
0.89723652601242065 0.078123830258846283 0
0.92532444000244141 0.082026183605194092 0
0.12490120530128479 0.30580040812492371 0.10558240860700607
0.13195185363292694 0.30525115132331848 0.10471581667661667
0.14092905819416046 0.30482476949691772 0.10401333868503571
0.15287095308303833 0.30461409687995911 0.10308836400508881
0.16930598020553589 0.30395641922950745 0.10182368755340576
0.18901291489601135 0.30278098583221436 0.10003293305635452
0.20981204509735107 0.30151036381721497 0.098165802657604218
0.23218780755996704 0.30066445469856262 0.095595560967922211
0.25682121515274048 0.2991727888584137 0.092600114643573761
0.28230747580528259 0.29740971326828003 0.089403025805950165
0.30875828862190247 0.29582279920578003 0.086222484707832336
0.33664485812187195 0.29357233643531799 0.082411698997020721
0.36527258157730103 0.29104593396186829 0.078521318733692169
0.39569425582885742 0.2882828414440155 0.073874913156032562
0.42868489027023315 0.28480148315429688 0.068583071231842041
0.4629722535610199 0.28097692131996155 0.063464529812335968
0.49794116616249084 0.27642107009887695 0.056877091526985168
0.53103995323181152 0.27071869373321533 0.049584325402975082
0.5616612434387207 0.26348534226417542 0.041977215558290482
0.59003341197967529 0.25530087947845459 0.034257527440786362
0.61634296178817749 0.24633322656154633 0.026148198172450066
0.64242017269134521 0.23721034824848175 0.019020132720470428
0.66864871978759766 0.22664991021156311 0.012571698985993862
0.69410026073455811 0.21610516309738159 0.0070572970435023308
0.72035831212997437 0.20404252409934998 0.0025326854083687067
0.74765205383300781 0.19192682206630707 0.00015781342517584562
0.77510976791381836 0.17940706014633179 0
0.80175822973251343 0.16439624130725861 0
0.82790607213973999 0.14727365970611572 0
0.85276812314987183 0.12981139123439789 0
0.87818747758865356 0.10704657435417175 0
0.90251314640045166 0.087620101869106293 0
0.9293944239616394 0.082615010440349579 0
0.13435858488082886 0.34510749578475952 0.11752138286828995
0.14259867370128632 0.34465301036834717 0.11690884828567505
0.15262067317962646 0.34435495734214783 0.11633455008268356
0.16636389493942261 0.34369078278541565 0.11524675786495209
0.18333537876605988 0.34306463599205017 0.11393085867166519
0.2022038996219635 0.34258490800857544 0.11241434514522552
0.22291010618209839 0.34154313802719116 0.11043312400579453
0.24580617249011993 0.34055450558662415 0.10799034684896469
0.2700687050819397 0.33904734253883362 0.10535667091608047
0.29569575190544128 0.33765217661857605 0.10214311629533768
0.32225817441940308 0.33592018485069275 0.098545573651790619
0.3502105176448822 0.33394792675971985 0.094880402088165283
0.3792668879032135 0.33177760243415833 0.090501822531223297
0.41059160232543945 0.32947531342506409 0.085856519639492035
0.44389015436172485 0.32606413960456848 0.080385766923427582
0.47757712006568909 0.32230308651924133 0.074646905064582825
0.51116883754730225 0.31762483716011047 0.068063095211982727
0.54287761449813843 0.31206762790679932 0.06080564484000206
0.57199078798294067 0.30497118830680847 0.053408972918987274
0.59945815801620483 0.29671096801757812 0.045265950262546539
0.62592649459838867 0.28786909580230713 0.036576095968484879
0.65147888660430908 0.27850362658500671 0.028774773702025414
0.67726129293441772 0.26741340756416321 0.020793315023183823
0.70287930965423584 0.25604099035263062 0.013422532938420773
0.72887694835662842 0.24352706968784332 0.0073609673418104649
0.75609725713729858 0.22958967089653015 0.0023971931077539921
0.78332763910293579 0.21555854380130768 6.6104323195759207e-05
0.81113892793655396 0.20029784739017487 0
0.83757215738296509 0.18309412896633148 0
0.86270570755004883 0.16430054605007172 0
0.88717252016067505 0.14221885800361633 0
0.91118150949478149 0.11789440363645554 0
0.93508791923522949 0.093797661364078522 0
0.15601058304309845 0.38725507259368896 0.1292465478181839
0.16316932439804077 0.38725507259368896 0.12848758697509766
0.17197979986667633 0.38710877299308777 0.12769889831542969
0.18426670134067535 0.38634130358695984 0.12683330476284027
0.19841444492340088 0.38576787710189819 0.12548531591892242
0.21604405343532562 0.38519835472106934 0.12382134050130844
0.23735998570919037 0.38431909680366516 0.12176165729761124
0.25967004895210266 0.3833746612071991 0.11944373697042465
0.28435248136520386 0.38235035538673401 0.11668707430362701
