Textures/69.cube
# Created by: G'MIC (https://gmic.eu)
TITLE "Kodak_Elite_Color_200.cube"
# LUT size
LUT_3D_SIZE 33
# Data domain
DOMAIN_MIN 0.0 0.0 0.0
DOMAIN_MAX 1.0 1.0 1.0
# LUT data points
0.0047160177491605282 0.0040412242524325848 0.0046278638765215874
0.019071865826845169 0.0047008087858557701 0.0066994586959481239
0.03611220046877861 0.005246888380497694 0.0066994596272706985
0.056169535964727402 0.0056330258958041668 0.0067892828956246376
0.076325379312038422 0.0060785282403230667 0.007962716743350029
0.095898255705833435 0.006997773889452219 0.0088033620268106461
0.11524692922830582 0.0077115548774600029 0.0089159701019525528
0.13689914345741272 0.0082272039726376534 0.010048303753137589
0.15856243669986725 0.0087972097098827362 0.011368562467396259
0.18125714361667633 0.0097814947366714478 0.01218535378575325
0.20439018309116364 0.01084282249212265 0.013048312626779079
0.22939629852771759 0.012156091630458832 0.01441748533397913
0.25492903590202332 0.01341739296913147 0.016887197270989418
0.28093913197517395 0.014664917252957821 0.01775752380490303
0.30825647711753845 0.016828982159495354 0.019255602732300758
0.33676943182945251 0.01853213831782341 0.020868998020887375
0.36816829442977905 0.019913339987397194 0.022968543693423271
0.40236738324165344 0.02127336710691452 0.026064097881317139
0.43933308124542236 0.024058632552623749 0.028192674741148949
0.47929170727729797 0.027095835655927658 0.031369972974061966
0.5199550986289978 0.029868217185139656 0.033806584775447845
0.55937319993972778 0.032971397042274475 0.036489635705947876
0.59800887107849121 0.037199810147285461 0.040628477931022644
0.63546586036682129 0.042006779462099075 0.044027701020240784
0.67334270477294922 0.046984750777482986 0.047711052000522614
0.71194839477539062 0.053223457187414169 0.052335880696773529
0.7498663067817688 0.059460572898387909 0.057396061718463898
0.78756415843963623 0.06760040670633316 0.062905721366405487
0.8240007758140564 0.075134143233299255 0.068562984466552734
0.85945791006088257 0.083254821598529816 0.0750226229429245
0.89232140779495239 0.094036199152469635 0.082567080855369568
0.92500209808349609 0.10442487150430679 0.090562507510185242
0.95569700002670288 0.11678314954042435 0.099316298961639404
0.0097928242757916451 0.015667466446757317 0.0060597704723477364
0.022735932841897011 0.016880974173545837 0.0066994586959481239
0.039605788886547089 0.017907151952385902 0.0066994600929319859
0.059114474803209305 0.019046325236558914 0.0068173571489751339
0.079162724316120148 0.020188458263874054 0.0081168022006750107
0.098783396184444427 0.021424612030386925 0.0088181858882308006
0.11796998232603073 0.02261023037135601 0.0089557506144046783
0.13955038785934448 0.023936856538057327 0.010565864853560925
0.16095682978630066 0.025119693949818611 0.011578773148357868
0.18372471630573273 0.026419159024953842 0.012138159014284611
0.20693027973175049 0.028296152129769325 0.013309678062796593
0.23186145722866058 0.030001448467373848 0.015571012161672115
0.25728327035903931 0.03235805407166481 0.016884483397006989
0.2832951545715332 0.034476146101951599 0.017819521948695183
0.31051802635192871 0.037291292101144791 0.019424052909016609
0.33915528655052185 0.040213849395513535 0.021098727360367775
0.37061589956283569 0.041840571910142899 0.023695195093750954
0.40475603938102722 0.044735118746757507 0.026044202968478203
0.44141057133674622 0.048052392899990082 0.028782885521650314
0.48148193955421448 0.052140474319458008 0.031375430524349213
0.5221102237701416 0.055617351084947586 0.034034743905067444
0.56131160259246826 0.059669151902198792 0.037062209099531174
0.59987884759902954 0.064564481377601624 0.041009962558746338
0.6372411847114563 0.069990769028663635 0.044735752046108246
0.67495983839035034 0.075265541672706604 0.048521842807531357
0.71350497007369995 0.081754870712757111 0.052956163883209229
0.7513701319694519 0.08835514634847641 0.058057576417922974
0.788643479347229 0.096088491380214691 0.063724935054779053
0.82599127292633057 0.10334160178899765 0.069417588412761688
0.86045771837234497 0.1118457168340683 0.075975112617015839
0.89464110136032104 0.12215371429920197 0.083312869071960449
0.92540013790130615 0.13286079466342926 0.09144989401102066
0.95676267147064209 0.14467781782150269 0.1002914234995842
0.016653472557663918 0.029883937910199165 0.0066947792656719685
0.02769758366048336 0.030668359249830246 0.0066994596272706985
0.043244421482086182 0.032143145799636841 0.0067350971512496471
0.062164001166820526 0.033812735229730606 0.0077642472460865974
0.081871844828128815 0.034646879881620407 0.0087815150618553162
0.10035671293735504 0.036588989198207855 0.0090485718101263046
0.12002146989107132 0.038095269352197647 0.0099866902455687523
0.14173370599746704 0.039364907890558243 0.011453591287136078
0.16308307647705078 0.041277099400758743 0.01212410070002079
0.18582084774971008 0.042527399957180023 0.01344289630651474
0.20914244651794434 0.04494103416800499 0.015237938612699509
0.23393042385578156 0.046714566648006439 0.01641831174492836
0.25914609432220459 0.049256052821874619 0.017237424850463867
0.2852555513381958 0.051825962960720062 0.019368730485439301
0.31238672137260437 0.054563641548156738 0.020814487710595131
0.34115642309188843 0.057443480938673019 0.022871185094118118
0.37233424186706543 0.059533704072237015 0.025015832856297493
0.40650519728660583 0.0623958520591259 0.027489108964800835
0.44335386157035828 0.066092275083065033 0.030237695202231407
0.48342335224151611 0.069897860288619995 0.03306443989276886
0.52398616075515747 0.073588036000728607 0.035822093486785889
0.56297510862350464 0.077758416533470154 0.038998018950223923
0.60138851404190063 0.082749031484127045 0.042754579335451126
0.63878720998764038 0.087964385747909546 0.046834837645292282
0.67644703388214111 0.093467727303504944 0.050543863326311111
0.71482318639755249 0.099620416760444641 0.055345632135868073
0.75282043218612671 0.10634557157754898 0.06041359156370163
0.79008126258850098 0.11355668306350708 0.066006295382976532
0.82646024227142334 0.12079398334026337 0.071897134184837341
0.86045771837234497 0.12933051586151123 0.078435122966766357
0.89493459463119507 0.13923737406730652 0.085578076541423798
0.92650210857391357 0.1496872752904892 0.093876242637634277
0.95757770538330078 0.1613152027130127 0.1026974618434906
0.025875840336084366 0.047695804387331009 0.0070006828755140305
0.036414317786693573 0.048816464841365814 0.007778835017234087
0.048851232975721359 0.050225343555212021 0.0085876593366265297
0.066154912114143372 0.051404222846031189 0.0091446181759238243
0.085138745605945587 0.052660435438156128 0.0096241021528840065
0.10336283594369888 0.054467972368001938 0.010526357218623161
0.12282545864582062 0.055754274129867554 0.012160418555140495
0.14442881941795349 0.057721409946680069 0.013138767331838608
0.16541385650634766 0.059182338416576385 0.014389684423804283
0.18811249732971191 0.060815688222646713 0.015503871254622936
0.21169674396514893 0.062835022807121277 0.016696944832801819
0.23638996481895447 0.065021611750125885 0.018095960840582848
0.261588454246521 0.067209266126155853 0.019591303542256355
0.28750064969062805 0.070095926523208618 0.021168824285268784
0.3146190345287323 0.072710573673248291 0.023024313151836395
0.34330999851226807 0.075146518647670746 0.025323919951915741
0.37479010224342346 0.077602863311767578 0.027315473183989525
0.40907782316207886 0.080428667366504669 0.030017107725143433
0.44575682282447815 0.084228739142417908 0.033082954585552216
0.48583105206489563 0.087929114699363708 0.035521429032087326
0.52624613046646118 0.091730467975139618 0.038852300494909286
0.56507641077041626 0.095948778092861176 0.041866518557071686
0.60329467058181763 0.10064240545034409 0.04566444456577301
0.64053606986999512 0.10611899942159653 0.050118766725063324
0.67813742160797119 0.11140195280313492 0.054248567670583725
0.71647030115127563 0.11739601194858551 0.058942791074514389
0.7540779709815979 0.12378785014152527 0.064040638506412506
0.79177999496459961 0.1308358758687973 0.069658711552619934
0.82710528373718262 0.13809959590435028 0.075636789202690125
0.86197125911712646 0.14657881855964661 0.082232251763343811
0.89500206708908081 0.15588453412055969 0.089160114526748657
0.92787104845046997 0.16630509495735168 0.097486704587936401
0.95855128765106201 0.17776541411876678 0.10621090978384018
0.037531200796365738 0.066624842584133148 0.010198161005973816
0.047116883099079132 0.067467346787452698 0.010492270812392235
0.057858392596244812 0.068610198795795441 0.010660880245268345
0.071598216891288757 0.069445401430130005 0.011218971572816372
0.088447198271751404 0.071042880415916443 0.012216208502650261
0.10604745149612427 0.072156466543674469 0.013095811009407043
0.12622413039207458 0.073835164308547974 0.01408210676163435
0.14699941873550415 0.07537359744310379 0.015787508338689804
0.1685367077589035 0.077104441821575165 0.016858087852597237
0.19100752472877502 0.078751467168331146 0.018211033195257187
0.21448947489261627 0.080566421151161194 0.019897766411304474
0.23915712535381317 0.08275458961725235 0.02117592841386795
0.2643028199672699 0.085034377872943878 0.022338878363370895
0.29008215665817261 0.087715029716491699 0.024402378126978874
0.31735056638717651 0.090371653437614441 0.02647305466234684
0.34591484069824219 0.092825837433338165 0.029272843152284622
0.37742868065834045 0.095221586525440216 0.030863478779792786
0.41188168525695801 0.098134458065032959 0.03381313756108284
0.4488656222820282 0.10166754573583603 0.037076652050018311
0.48876538872718811 0.1054200753569603 0.039386071264743805
0.52896100282669067 0.10919447988271713 0.043089244514703751
0.56745737791061401 0.11346863210201263 0.046336717903614044
0.60549306869506836 0.11795253306627274 0.049852553755044937
0.64279657602310181 0.12309310585260391 0.054795648902654648
0.68040376901626587 0.12853504717350006 0.05917932465672493
0.71838885545730591 0.13445623219013214 0.063875086605548859
0.75614100694656372 0.14055794477462769 0.069032564759254456
0.79286062717437744 0.14730902016162872 0.074418164789676666
0.8299441933631897 0.15463715791702271 0.080497875809669495
0.86435562372207642 0.16279248893260956 0.087239921092987061
0.89689451456069946 0.17185673117637634 0.093794286251068115
0.92888247966766357 0.18210314214229584 0.10224155336618423
0.95936155319213867 0.19320005178451538 0.11092319339513779
0.050442375242710114 0.085212051868438721 0.0133817158639431
0.058810513466596603 0.086035773158073425 0.013690248131752014
0.068134315311908722 0.086836628615856171 0.014342309907078743
0.079641439020633698 0.087632983922958374 0.014690931886434555
0.092881366610527039 0.088902741670608521 0.015592066571116447
0.11003567278385162 0.090141735970973969 0.016521936282515526
0.13058401644229889 0.091423004865646362 0.017692379653453827
0.15052621066570282 0.093232691287994385 0.018712043762207031
0.17204195261001587 0.094582408666610718 0.020566569641232491
0.19428938627243042 0.096268400549888611 0.021737661212682724
0.21778611838817596 0.09825412929058075 0.023541731759905815
0.24261476099491119 0.10046175867319107 0.025256363674998283
0.26736932992935181 0.10248090326786041 0.02649235725402832
0.29313227534294128 0.10505052655935287 0.028675079345703125
0.3204292356967926 0.10764703154563904 0.031154491007328033
0.34896782040596008 0.11010646820068359 0.033783689141273499
0.3806617259979248 0.11241631209850311 0.035530652850866318
0.41528657078742981 0.11522778123617172 0.038343261927366257
0.45228743553161621 0.11886963248252869 0.041954241693019867
0.49224317073822021 0.12236835062503815 0.044827736914157867
0.53205358982086182 0.12618768215179443 0.048282667994499207
0.57038772106170654 0.13036540150642395 0.052072383463382721
0.60839718580245972 0.13479039072990417 0.055099077522754669
0.64528894424438477 0.13980470597743988 0.06000349298119545
0.68269574642181396 0.14498154819011688 0.064977772533893585
0.72067379951477051 0.15079617500305176 0.069201402366161346
0.75800108909606934 0.15692909061908722 0.074702352285385132
0.79550457000732422 0.16324381530284882 0.079846508800983429
0.83041340112686157 0.17059072852134705 0.086028061807155609
0.86440777778625488 0.17880748212337494 0.092768155038356781
0.89870423078536987 0.18748092651367188 0.09932970255613327
0.92946189641952515 0.19754636287689209 0.10754852741956711
0.96056461334228516 0.20824074745178223 0.11573989689350128
0.06403832882642746 0.10522815585136414 0.016579227522015572
0.071255162358283997 0.10607890784740448 0.017235307022929192
0.079303033649921417 0.10685038566589355 0.017824670299887657
0.089313685894012451 0.10754428803920746 0.018388047814369202
0.10019198060035706 0.10834961384534836 0.018682297319173813
0.11491590738296509 0.10973537713289261 0.019444901496171951
0.134940505027771 0.11107815802097321 0.020712455734610558
0.15428709983825684 0.1121881976723671 0.022018067538738251
0.17589035630226135 0.11395896226167679 0.023436602205038071
0.19792480766773224 0.11548899859189987 0.025261560454964638
0.22137534618377686 0.11726319789886475 0.027237789705395699
0.2460443526506424 0.11937921494245529 0.029067888855934143
0.27078372240066528 0.12144854664802551 0.030461177229881287
0.29653355479240417 0.12369583547115326 0.032302387058734894
0.3236936628818512 0.12665534019470215 0.034824002534151077
0.35247749090194702 0.12860138714313507 0.037665203213691711
0.38438835740089417 0.13099123537540436 0.039764869958162308
0.41904875636100769 0.13394080102443695 0.042613063007593155
0.45621201395988464 0.13748680055141449 0.046385917812585831
0.49595022201538086 0.14089033007621765 0.049009516835212708
0.53563004732131958 0.14467965066432953 0.052414540201425552
0.57377004623413086 0.14871898293495178 0.056198351085186005
0.61131197214126587 0.1530933678150177 0.05951058492064476
0.64817905426025391 0.15755374729633331 0.06418803334236145
0.68540936708450317 0.16309906542301178 0.069138951599597931
0.72336506843566895 0.16870537400245667 0.073450684547424316
0.76068747043609619 0.1744825690984726 0.078942209482192993
0.79702550172805786 0.18046872317790985 0.084196485579013824
0.8334164023399353 0.18780843913555145 0.090357914566993713
0.86746037006378174 0.19564527273178101 0.096632339060306549
0.89935201406478882 0.20416456460952759 0.10320660471916199
0.93127387762069702 0.21388684213161469 0.11055878549814224
0.96163976192474365 0.22447162866592407 0.11870430409908295
0.077529452741146088 0.12458465993404388 0.019805986434221268
0.083801805973052979 0.12514758110046387 0.02023739367723465
0.09072006493806839 0.1257086843252182 0.020979274064302444
0.099085964262485504 0.1264907568693161 0.021772656589746475
0.10963741689920425 0.1275167316198349 0.022314993664622307
0.12304285168647766 0.12860116362571716 0.023196209222078323
0.13934533298015594 0.12970434129238129 0.024278758093714714
0.15873493254184723 0.13120336830615997 0.025503251701593399
0.18005812168121338 0.13255955278873444 0.027308095246553421
0.20212824642658234 0.13408127427101135 0.028997555375099182
0.22535647451877594 0.13581334054470062 0.030578272417187691
0.25009304285049438 0.13772578537464142 0.032784774899482727
0.27469745278358459 0.13986565172672272 0.034191392362117767
0.30020532011985779 0.14211061596870422 0.036191962659358978
0.32742172479629517 0.14446909725666046 0.038668613880872726
0.35635989904403687 0.146961510181427 0.041480083018541336
0.38844978809356689 0.14914268255233765 0.044074960052967072
0.42335975170135498 0.15197207033634186 0.046786978840827942
0.46076935529708862 0.15532276034355164 0.050091564655303955
0.50036990642547607 0.15873050689697266 0.053193762898445129
0.53950607776641846 0.16253359615802765 0.056322354823350906
0.57724404335021973 0.16631968319416046 0.06021968275308609
0.61466771364212036 0.17059056460857391 0.063874013721942902
0.65129184722900391 0.17501974105834961 0.068044744431972504
0.68855637311935425 0.18034031987190247 0.072970487177371979
0.72631156444549561 0.18568050861358643 0.077479258179664612
0.76325106620788574 0.19143156707286835 0.08277525007724762
0.79989069700241089 0.19723546504974365 0.087636575102806091
0.8347211480140686 0.20449581742286682 0.093387328088283539
0.86840546131134033 0.2119777649641037 0.099400795996189117
0.90209615230560303 0.22052593529224396 0.10573145002126694
0.93295204639434814 0.22979524731636047 0.11326487362384796
0.96336632966995239 0.24047358334064484 0.12167287617921829
0.091252386569976807 0.14481513202190399 0.023075954988598824
0.096239775419235229 0.14530226588249207 0.023296631872653961
0.10210521519184113 0.14575965702533722 0.024039575830101967
0.1103096678853035 0.14650750160217285 0.024909431114792824
0.12061487883329391 0.14736175537109375 0.026038283482193947
0.13318857550621033 0.14852789044380188 0.026724373921751976
0.14641693234443665 0.14961396157741547 0.027896838262677193
0.16401040554046631 0.15084534883499146 0.029500760138034821
0.18474580347537994 0.15234553813934326 0.030883662402629852
0.20705680549144745 0.15383517742156982 0.032726503908634186
0.2299618124961853 0.15536446869373322 0.033945083618164062
0.25437682867050171 0.15721012651920319 0.036029480397701263
0.27905270457267761 0.15912257134914398 0.037913307547569275
0.30458423495292664 0.16145403683185577 0.040242947638034821
0.33179453015327454 0.16381515562534332 0.042581040412187576
0.36080753803253174 0.16589705646038055 0.044912006705999374
0.39313837885856628 0.16840687394142151 0.047752227634191513
0.42823097109794617 0.17108197510242462 0.050594694912433624
0.46593058109283447 0.1740521639585495 0.05351639911532402
0.50546503067016602 0.17747679352760315 0.05681697279214859
0.54384422302246094 0.18131308257579803 0.06015767902135849
0.58120071887969971 0.18493890762329102 0.063692674040794373
0.61853682994842529 0.18899780511856079 0.067540273070335388
0.65497380495071411 0.19327698647975922 0.071230374276638031
0.69197946786880493 0.19854742288589478 0.075641050934791565
0.72964006662368774 0.20351587235927582 0.080243736505508423
0.7663993239402771 0.20896902680397034 0.084747336804866791
0.80310952663421631 0.21496124565601349 0.089435815811157227
0.83819448947906494 0.22214579582214355 0.095351450145244598
0.8719637393951416 0.22939379513263702 0.10152444243431091
0.90362536907196045 0.23792612552642822 0.10838030278682709
0.93485844135284424 0.24697522819042206 0.11612702906131744
0.96482169628143311 0.25775545835494995 0.12494874745607376
0.10406023263931274 0.16565884649753571 0.026193456724286079
0.10877151042222977 0.16596312820911407 0.026690490543842316
0.11456938832998276 0.16657610237598419 0.027021013200283051
0.12257596850395203 0.16730174422264099 0.027866551652550697
0.13273155689239502 0.16812042891979218 0.029104376211762428
0.14356063306331635 0.16901637613773346 0.030158244073390961
0.15593415498733521 0.17009986937046051 0.03096562996506691
0.17068807780742645 0.17124864459037781 0.032659091055393219
0.19010671973228455 0.17266730964183807 0.034173119813203812
0.21188242733478546 0.1742132157087326 0.035782385617494583
0.23499418795108795 0.17566953599452972 0.037514753639698029
0.25894558429718018 0.17730098962783813 0.038664545863866806
0.28354758024215698 0.17925262451171875 0.041186314076185226
0.30920615792274475 0.18141384422779083 0.043140016496181488
0.33671823143959045 0.18354684114456177 0.045999925583600998
0.36601355671882629 0.18565727770328522 0.048285912722349167
0.39816966652870178 0.18807105720043182 0.050337839871644974
0.43366348743438721 0.19074220955371857 0.053470291197299957
0.47159230709075928 0.19356119632720947 0.056736927479505539
0.51087313890457153 0.19679148495197296 0.05912863090634346
0.54888147115707397 0.20062515139579773 0.062683932483196259
0.58572709560394287 0.20409402251243591 0.065463706851005554
0.62298661470413208 0.20801013708114624 0.069226056337356567
0.65921753644943237 0.21214614808559418 0.07282140851020813
0.69578462839126587 0.2173248678445816 0.076746203005313873
0.73350459337234497 0.22214561700820923 0.081673495471477509
0.76989662647247314 0.22751152515411377 0.086369283497333527
0.80598205327987671 0.23348984122276306 0.091473907232284546
0.84112495183944702 0.24044699966907501 0.097584903240203857
0.87386971712112427 0.24770283699035645 0.10395689308643341
0.90644943714141846 0.25602498650550842 0.11105459183454514
0.93707805871963501 0.26539966464042664 0.11892341822385788
0.96696627140045166 0.27602264285087585 0.12764917314052582
0.11715719103813171 0.18715380132198334 0.029035659506917
0.12192008644342422 0.18742804229259491 0.029592657461762428
0.12759077548980713 0.18793843686580658 0.029972581192851067
0.13540592789649963 0.18854434788227081 0.030491489917039871
0.14395268261432648 0.18921872973442078 0.0312972292304039
0.15394413471221924 0.19014471769332886 0.032715104520320892
0.16639962792396545 0.19116422533988953 0.033948887139558792
0.1793808788061142 0.1922084242105484 0.034417953342199326
0.19649846851825714 0.19338409602642059 0.036163948476314545
0.21735471487045288 0.19493934512138367 0.037941079586744308
0.23996064066886902 0.19653221964836121 0.038779914379119873
0.26410940289497375 0.19813103973865509 0.041352607309818268
0.28842911124229431 0.19992947578430176 0.042422547936439514
0.31421428918838501 0.20176753401756287 0.045322764664888382
0.34191647171974182 0.20368438959121704 0.046927265822887421
0.37154877185821533 0.20574373006820679 0.04979909211397171
0.40435922145843506 0.20829740166664124 0.051630444824695587
0.4399566650390625 0.21087636053562164 0.054065197706222534
0.47786283493041992 0.21361179649829865 0.057419098913669586
0.51674264669418335 0.2167106419801712 0.060200959444046021
0.55438578128814697 0.22035491466522217 0.063280336558818817
0.59082448482513428 0.22385220229625702 0.066484071314334869
0.62749254703521729 0.22768247127532959 0.070357590913772583
0.66389018297195435 0.2318064421415329 0.074246644973754883
0.70020002126693726 0.23680859804153442 0.078860335052013397
0.73764586448669434 0.2416272908449173 0.0836319699883461
0.77376669645309448 0.24702437222003937 0.088223665952682495
0.809520423412323 0.2530779242515564 0.093765795230865479
0.84411859512329102 0.25985029339790344 0.099610134959220886
0.87676018476486206 0.26713702082633972 0.10604174435138702
0.90897554159164429 0.27553892135620117 0.11321733146905899
0.93971604108810425 0.28497815132141113 0.12057716399431229
0.96923148632049561 0.2954522967338562 0.12800125777721405
0.12436173111200333 0.20933915674686432 0.030050890520215034
0.12872651219367981 0.20980219542980194 0.03057362325489521
0.13409420847892761 0.21014074981212616 0.031107669696211815
0.14001068472862244 0.21066810190677643 0.031755223870277405
0.14836615324020386 0.21139281988143921 0.032672986388206482
0.15869906544685364 0.21211208403110504 0.033629443496465683
0.17044676840305328 0.21293118596076965 0.034654062241315842
0.18402689695358276 0.21404705941677094 0.035877663642168045
0.20207145810127258 0.21517080068588257 0.036981672048568726
0.22400707006454468 0.2165008932352066 0.038176883012056351
0.24597850441932678 0.21803410351276398 0.039611868560314178
0.26995456218719482 0.21965904533863068 0.041748914867639542
0.29393285512924194 0.22142486274242401 0.043659038841724396
0.31982704997062683 0.22318063676357269 0.045833323150873184
0.34782639145851135 0.22490915656089783 0.048039656132459641
0.37789404392242432 0.22698430716991425 0.050266005098819733
0.41062960028648376 0.22952081263065338 0.053224649280309677
0.44694316387176514 0.23215200006961823 0.05568927526473999
0.48477783799171448 0.23490023612976074 0.058304708451032639
0.52331990003585815 0.23807074129581451 0.061772529035806656
0.56033259630203247 0.24125988781452179 0.065035969018936157
0.59632855653762817 0.24491532146930695 0.06821470707654953
0.63279032707214355 0.24871082603931427 0.072087801992893219
0.66880208253860474 0.25274860858917236 0.075765445828437805
0.7052605152130127 0.25762945413589478 0.080434799194335938
0.74216437339782715 0.26251572370529175 0.085445784032344818
