Textures/69.cube
# Created by: G'MIC (https://gmic.eu)
TITLE "Kodak_Elite_Color_200.cube"
# LUT size
LUT_3D_SIZE 5
# Data domain
DOMAIN_MIN 0.0 0.0 0.0
DOMAIN_MAX 1.0 1.0 1.0
# LUT data points
0.0047160177491605282 0.0040412242524325848 0.0046278638765215874
0.15856243669986725 0.0087972097098827362 0.011368562467396259
0.36816829442977905 0.019913339987397194 0.022968543693423271
0.67334270477294922 0.046984750777482986 0.047711052000522614
0.95569700002670288 0.11678314954042435 0.099316298961639404
0.091252386569976807 0.14481513202190399 0.023075954988598824
0.18474580347537994 0.15234553813934326 0.030883662402629852
0.39313837885856628 0.16840687394142151 0.047752227634191513
0.69197946786880493 0.19854742288589478 0.075641050934791565
0.96482169628143311 0.25775545835494995 0.12494874745607376
0.12071716785430908 0.3427700400352478 0.024136882275342941
0.23121096193790436 0.34764018654823303 0.028710154816508293
0.45227307081222534 0.36016827821731567 0.041034433990716934
0.73458737134933472 0.38415244221687317 0.066737838089466095
0.98700916767120361 0.43184658885002136 0.11368437856435776
0.2281431257724762 0.55612742900848389 0
0.33134987950325012 0.55612748861312866 0
0.55564266443252563 0.55840277671813965 0
0.80551975965499878 0.57027506828308105 0.0027797077782452106
1 0.59908491373062134 0.029989061877131462
0.45551511645317078 0.71681755781173706 0
0.52326565980911255 0.71486920118331909 0
0.68652445077896118 0.71486926078796387 0
0.89192783832550049 0.71118175983428955 0
1 0.7123790979385376 0
0.0096736839041113853 0.031136238947510719 0.17319096624851227
0.17080831527709961 0.041280593723058701 0.1881822943687439
0.38176605105400085 0.058813020586967468 0.20629744231700897
0.68364733457565308 0.091527402400970459 0.23252151906490326
0.95735341310501099 0.16027230024337769 0.27684506773948669
0.10238091647624969 0.17951980233192444 0.17769581079483032
0.18884126842021942 0.18731729686260223 0.18756686151027679
0.40160128474235535 0.20479975640773773 0.20600469410419464
0.69828027486801147 0.23506055772304535 0.23304782807826996
0.96454083919525146 0.29424196481704712 0.27863171696662903
0.11300993710756302 0.37719288468360901 0.16036127507686615
0.22399421036243439 0.38223278522491455 0.16661515831947327
0.45588472485542297 0.396229088306427 0.18281503021717072
0.73548305034637451 0.42110469937324524 0.21185974776744843
0.9828803539276123 0.46942836046218872 0.2619377076625824
0.21480922400951385 0.58674526214599609 0.065774694085121155
0.3262212872505188 0.58889788389205933 0.070710867643356323
0.55042558908462524 0.5956418514251709 0.085329294204711914
0.7987942099571228 0.60967528820037842 0.1107737198472023
0.9999847412109375 0.64048731327056885 0.1669507771730423
0.48164120316505432 0.71879076957702637 0
0.54570162296295166 0.71879076957702637 0
0.70376867055892944 0.71486926078796387 0
0.90220701694488525 0.71486926078796387 0
1 0.71486926078796387 0
0.018794696778059006 0.078259505331516266 0.36437973380088806
0.18211187422275543 0.087792791426181793 0.38110879063606262
0.39728733897209167 0.10442168265581131 0.40139442682266235
0.69333332777023315 0.13772732019424438 0.42923688888549805
0.95647436380386353 0.20699106156826019 0.47236385941505432
0.094930805265903473 0.22742202877998352 0.40104353427886963
0.18972373008728027 0.23610346019268036 0.41240102052688599
0.41385722160339355 0.2537614107131958 0.43336063623428345
0.70471560955047607 0.28543898463249207 0.46179479360580444
0.95997333526611328 0.34573322534561157 0.50358259677886963
0.1009824201464653 0.43789133429527283 0.43103468418121338
0.20366451144218445 0.44341924786567688 0.43930667638778687
0.45799237489700317 0.45787167549133301 0.45784306526184082
0.73251825571060181 0.48354953527450562 0.48526555299758911
0.97097212076187134 0.53257393836975098 0.52704703807830811
0.14304172992706299 0.667369544506073 0.40102532505989075
0.29094511270523071 0.66996967792510986 0.40802305936813354
0.52906548976898193 0.67704081535339355 0.42726054787635803
0.7780182957649231 0.69112545251846313 0.45833957195281982
0.99160856008529663 0.71996665000915527 0.50876963138580322
0.50260329246520996 0.75228935480117798 0.045729398727416992
0.56231069564819336 0.75348401069641113 0.049395158886909485
0.71137207746505737 0.75688469409942627 0.060570534318685532
0.89445143938064575 0.76484602689743042 0.088937327265739441
1 0.78689664602279663 0.17595402896404266
0.041318118572235107 0.14529560506343842 0.6153031587600708
0.20105673372745514 0.14758631587028503 0.63010489940643311
0.42340752482414246 0.15730485320091248 0.64616167545318604
0.70743942260742188 0.18309234082698822 0.66570281982421875
0.95542639493942261 0.24804688990116119 0.69436788558959961
0.10986358672380447 0.275787353515625 0.6703370213508606
0.20811308920383453 0.2831452488899231 0.67871564626693726
0.44034242630004883 0.29900318384170532 0.69263607263565063
0.71672827005386353 0.32901740074157715 0.71020084619522095
0.95630282163619995 0.38794878125190735 0.73510187864303589
0.063185133039951324 0.49284616112709045 0.7154233455657959
0.2168351411819458 0.49753028154373169 0.72045814990997314
0.475687175989151 0.51077032089233398 0.73125237226486206
0.73786991834640503 0.53517520427703857 0.74653565883636475
0.96247434616088867 0.58219373226165771 0.76890397071838379
0.12112362682819366 0.74581640958786011 0.73643779754638672
0.2819879949092865 0.74767917394638062 0.74035203456878662
0.52259564399719238 0.75323945283889771 0.74859189987182617
0.7646249532699585 0.76427900791168213 0.76417475938796997
0.97176206111907959 0.78828954696655273 0.78779619932174683
0.42423388361930847 0.89200383424758911 0.62641781568527222
0.49483942985534668 0.89442867040634155 0.63116651773452759
0.65284305810928345 0.89570778608322144 0.64442932605743408
0.83553731441497803 0.90255719423294067 0.66766613721847534
0.99961501359939575 0.91511553525924683 0.71104657649993896
0.086668111383914948 0.20819973945617676 0.82646238803863525
0.24666109681129456 0.20697739720344543 0.83439528942108154
0.47246608138084412 0.20446479320526123 0.84258633852005005
0.73427861928939819 0.20330505073070526 0.85218381881713867
0.96146959066390991 0.25548335909843445 0.86588019132614136
0.16801512241363525 0.28320029377937317 0.87040716409683228
0.28352022171020508 0.28832808136940002 0.87497442960739136
0.49998587369918823 0.30032113194465637 0.88189214468002319
0.74833130836486816 0.32736474275588989 0.89015215635299683
0.96387183666229248 0.38748949766159058 0.90182614326477051
0.23459108173847198 0.49840369820594788 0.91162985563278198
0.33971434831619263 0.50171583890914917 0.9137885570526123
0.5439532995223999 0.51257675886154175 0.91871613264083862
0.77232468128204346 0.53592729568481445 0.92522823810577393
0.9701266884803772 0.58713853359222412 0.93437409400939941
0.31006225943565369 0.77659124135971069 0.94494831562042236
0.40243732929229736 0.77859050035476685 0.9462093710899353
0.59047120809555054 0.78282994031906128 0.94987517595291138
0.79079502820968628 0.79285353422164917 0.95496642589569092
0.97210890054702759 0.81591367721557617 0.9627687931060791
0.49311533570289612 0.97942203283309937 0.96335917711257935
0.54893332719802856 0.97960424423217773 0.96466124057769775
0.67547780275344849 0.9805455207824707 0.96939516067504883
0.83082646131515503 0.98251944780349731 0.97657090425491333
0.98872470855712891 0.98854923248291016 0.98749220371246338
