Textures/7.cube
# Created by: G'MIC (https://gmic.eu)
TITLE "ColorNegative.cube"
# LUT size
LUT_3D_SIZE 33
# Data domain
DOMAIN_MIN 0.0 0.0 0.0
DOMAIN_MAX 1.0 1.0 1.0
# LUT data points
0.97437870502471924 0.86045581102371216 0.76178544759750366
0.93238168954849243 0.8622363805770874 0.7622140645980835
0.88970500230789185 0.86473542451858521 0.76279246807098389
0.84285646677017212 0.86654037237167358 0.76450759172439575
0.79596561193466187 0.86870330572128296 0.76602387428283691
0.7496907114982605 0.87052226066589355 0.76629477739334106
0.70409423112869263 0.87197750806808472 0.76715445518493652
0.66006535291671753 0.87250560522079468 0.76902449131011963
0.61563944816589355 0.87299418449401855 0.77087962627410889
0.57178646326065063 0.8744359016418457 0.77255409955978394
0.52798235416412354 0.87577319145202637 0.77439045906066895
0.48354220390319824 0.87641793489456177 0.77502900362014771
0.44133296608924866 0.8764350414276123 0.77529025077819824
0.40424329042434692 0.8764350414276123 0.77659022808074951
0.36779850721359253 0.8764350414276123 0.77839154005050659
0.33047381043434143 0.8764350414276123 0.77917361259460449
0.29297390580177307 0.8764350414276123 0.77917361259460449
0.25892564654350281 0.8764350414276123 0.77929532527923584
0.22441965341567993 0.8764350414276123 0.77954649925231934
0.18310531973838806 0.8764350414276123 0.78014403581619263
0.13726510107517242 0.87649321556091309 0.7801358699798584
0.086863420903682709 0.87671595811843872 0.7805858850479126
0.028930101543664932 0.87671595811843872 0.78249669075012207
0.00095147278625518084 0.87671595811843872 0.78321284055709839
0 0.87671595811843872 0.78330105543136597
0 0.87671595811843872 0.78330105543136597
0 0.87671595811843872 0.78330105543136597
0 0.87671595811843872 0.78330105543136597
0 0.87671595811843872 0.78330105543136597
0 0.87671595811843872 0.78330105543136597
0 0.87671595811843872 0.78330105543136597
0 0.87671595811843872 0.78330105543136597
0 0.87671595811843872 0.78330105543136597
0.97617632150650024 0.79950296878814697 0.76726627349853516
0.93423187732696533 0.80127990245819092 0.76900482177734375
0.8925851583480835 0.80357557535171509 0.77000969648361206
0.84927624464035034 0.80588430166244507 0.77285462617874146
0.80396038293838501 0.80786478519439697 0.77475422620773315
0.7592349648475647 0.80982023477554321 0.77635574340820312
0.71396315097808838 0.81167244911193848 0.77702277898788452
0.66999995708465576 0.81336677074432373 0.77883291244506836
0.62558358907699585 0.81387549638748169 0.78069078922271729
0.58284026384353638 0.81409311294555664 0.78134709596633911
0.53958863019943237 0.81534218788146973 0.78267955780029297
0.49542093276977539 0.81715768575668335 0.7844964861869812
0.4532933235168457 0.81777870655059814 0.78515291213989258
0.41670587658882141 0.81780052185058594 0.78522264957427979
0.38103044033050537 0.81780046224594116 0.78634881973266602
0.34620609879493713 0.81780052185058594 0.78710848093032837
0.30996733903884888 0.81780052185058594 0.78710848093032837
0.27883994579315186 0.81780046224594116 0.78710848093032837
0.24558830261230469 0.81780052185058594 0.78727817535400391
0.21006609499454498 0.81780046224594116 0.78789675235748291
0.17009797692298889 0.81792688369750977 0.78787380456924438
0.12875135242938995 0.8187553882598877 0.78695172071456909
0.078824594616889954 0.8199346661567688 0.78696578741073608
0.027309773489832878 0.8199346661567688 0.78734338283538818
0.00090381479822099209 0.8199346661567688 0.78734338283538818
0 0.8199346661567688 0.78734338283538818
0 0.8199346661567688 0.78734338283538818
0 0.8199346661567688 0.78734338283538818
0 0.8199346661567688 0.78734338283538818
0 0.8199346661567688 0.78734338283538818
0 0.8199346661567688 0.78734338283538818
0 0.8199346661567688 0.78734338283538818
0 0.8199346661567688 0.78734338283538818
0.97896075248718262 0.7377583384513855 0.77090036869049072
0.93681764602661133 0.74012815952301025 0.77339130640029907
0.89481127262115479 0.74240660667419434 0.77544397115707397
0.85264074802398682 0.74468165636062622 0.7786262035369873
0.81042611598968506 0.74640923738479614 0.78202587366104126
0.76651453971862793 0.74824637174606323 0.78368991613388062
0.72256124019622803 0.74992769956588745 0.78586500883102417
0.67908763885498047 0.75168395042419434 0.78746980428695679
0.63491469621658325 0.75355249643325806 0.7896111011505127
0.59240412712097168 0.75428444147109985 0.79032152891159058
0.55021572113037109 0.75470370054244995 0.79051083326339722
0.50637686252593994 0.75664043426513672 0.79169481992721558
0.46412906050682068 0.75813508033752441 0.7937469482421875
0.42801696062088013 0.75850760936737061 0.79404956102371216
0.39343485236167908 0.75859886407852173 0.79409569501876831
0.35992065072059631 0.75893706083297729 0.79438120126724243
0.32568085193634033 0.7589682936668396 0.7944069504737854
0.29483610391616821 0.75922024250030518 0.7944069504737854
0.26418218016624451 0.75922417640686035 0.79441863298416138
0.23184400796890259 0.75945472717285156 0.79469096660614014
0.19728352129459381 0.75935643911361694 0.79471397399902344
0.16039270162582397 0.75966095924377441 0.79360711574554443
0.11961285769939423 0.76161855459213257 0.79175961017608643
0.074188217520713806 0.76206326484680176 0.79159194231033325
0.02324182353913784 0.76209133863449097 0.79159188270568848
0.00070297095226123929 0.76209133863449097 0.79159188270568848
0 0.76209133863449097 0.79159188270568848
0 0.76209133863449097 0.79159188270568848
0 0.76209133863449097 0.79159188270568848
0 0.76209133863449097 0.79159194231033325
0 0.76209133863449097 0.79159188270568848
0 0.76209133863449097 0.79159194231033325
0 0.76209133863449097 0.79159194231033325
0.98257744312286377 0.67312800884246826 0.77340275049209595
0.9407423734664917 0.67655456066131592 0.77699041366577148
0.89872795343399048 0.67920058965682983 0.77940642833709717
0.8574059009552002 0.68156760931015015 0.78283202648162842
0.81588578224182129 0.68312400579452515 0.78643059730529785
0.77230781316757202 0.68395155668258667 0.78879815340042114
0.72866362333297729 0.68510448932647705 0.79069262742996216
0.68563258647918701 0.68664872646331787 0.79262816905975342
0.64142405986785889 0.68884384632110596 0.79433161020278931
0.59923571348190308 0.69112122058868408 0.79494154453277588
0.55728715658187866 0.69198083877563477 0.79519897699356079
0.51429992914199829 0.69373995065689087 0.79605996608734131
0.47240284085273743 0.69535893201828003 0.79673206806182861
0.43657279014587402 0.6966051459312439 0.79673206806182861
0.40212726593017578 0.69726389646530151 0.79673206806182861
0.37059372663497925 0.69842702150344849 0.79673206806182861
0.33786091208457947 0.69931483268737793 0.79673206806182861
0.3079933226108551 0.69995135068893433 0.79673206806182861
0.27836334705352783 0.7000356912612915 0.79673206806182861
0.24730926752090454 0.7008894681930542 0.79673206806182861
0.2151648998260498 0.70150220394134521 0.79673206806182861
0.18379285931587219 0.70106881856918335 0.79673206806182861
0.14896851778030396 0.70190805196762085 0.79602199792861938
0.10967453569173813 0.7033037543296814 0.79570913314819336
0.064949296414852142 0.70392173528671265 0.79570913314819336
0.021568818017840385 0.70392173528671265 0.79570913314819336
0.00087317940779030323 0.70392173528671265 0.79570913314819336
0 0.70392173528671265 0.79570913314819336
0 0.70392173528671265 0.79570913314819336
0 0.70392173528671265 0.79570913314819336
0 0.70392173528671265 0.79570913314819336
0 0.70392173528671265 0.79570913314819336
0 0.70392173528671265 0.79570913314819336
0.98538577556610107 0.6096498966217041 0.77536481618881226
0.94411879777908325 0.61324381828308105 0.77924567461013794
0.90229004621505737 0.61685103178024292 0.78282672166824341
0.86129188537597656 0.61908948421478271 0.78664243221282959
0.82084625959396362 0.62118935585021973 0.79000794887542725
0.77748596668243408 0.62213730812072754 0.79235720634460449
0.73391991853713989 0.62225282192230225 0.79452168941497803
0.69109427928924561 0.62348926067352295 0.79639297723770142
0.64709317684173584 0.62559968233108521 0.79843002557754517
0.60502052307128906 0.62780255079269409 0.7987779974937439
0.56292039155960083 0.62964475154876709 0.79904818534851074
0.5202210545539856 0.63159656524658203 0.7995455265045166
0.47966626286506653 0.63356125354766846 0.7995455265045166
0.44430264830589294 0.63526028394699097 0.7995455265045166
0.40978157520294189 0.63708186149597168 0.7995455265045166
0.37833383679389954 0.63861948251724243 0.7995455265045166
0.34781739115715027 0.64044010639190674 0.7995455265045166
0.31897786259651184 0.64130079746246338 0.7995455265045166
0.29045236110687256 0.64145076274871826 0.7995455265045166
0.2601797878742218 0.6426425576210022 0.7995455265045166
0.22993220388889313 0.64429986476898193 0.7995455265045166
0.20092096924781799 0.64502894878387451 0.7995455265045166
0.17182119190692902 0.64512133598327637 0.79948115348815918
0.13757140934467316 0.64575707912445068 0.79933947324752808
0.099458709359169006 0.64725714921951294 0.79933947324752808
0.061278097331523895 0.64787572622299194 0.79933947324752808
0.020106643438339233 0.64800554513931274 0.79933947324752808
0.0005650813109241426 0.64895021915435791 0.79933947324752808
0 0.64896678924560547 0.79933947324752808
0 0.64896678924560547 0.79933947324752808
0 0.64897972345352173 0.79933947324752808
0 0.64945363998413086 0.79933947324752808
0 0.64950978755950928 0.79933947324752808
0.98606568574905396 0.54908502101898193 0.77736645936965942
0.94710260629653931 0.55174827575683594 0.78115928173065186
0.90570604801177979 0.55512100458145142 0.78529441356658936
0.8641168475151062 0.55739670991897583 0.7902219295501709
0.82328391075134277 0.55968981981277466 0.79365068674087524
0.78107655048370361 0.56185358762741089 0.7956395149230957
0.73806363344192505 0.56232839822769165 0.79811745882034302
0.69533908367156982 0.56358009576797485 0.7999301552772522
0.65146267414093018 0.56559258699417114 0.80065751075744629
0.61031502485275269 0.56746280193328857 0.80187106132507324
0.56869798898696899 0.56937211751937866 0.80286765098571777
0.52599638700485229 0.57132893800735474 0.80336487293243408
0.48565953969955444 0.57339686155319214 0.80338197946548462
0.45137965679168701 0.57635378837585449 0.80338197946548462
0.41747266054153442 0.5788465142250061 0.80338197946548462
0.38597863912582397 0.58072364330291748 0.80338197946548462
0.35569453239440918 0.58263963460922241 0.80338197946548462
0.32811003923416138 0.5844113826751709 0.80338197946548462
0.30016010999679565 0.58509993553161621 0.80338197946548462
0.27203744649887085 0.58620506525039673 0.80338197946548462
0.24292406439781189 0.58811855316162109 0.80338197946548462
0.21627186238765717 0.58985394239425659 0.80338197946548462
0.18769769370555878 0.59055685997009277 0.80336487293243408
0.15821979939937592 0.59065043926239014 0.80248141288757324
0.12484512478113174 0.59190106391906738 0.80145204067230225
0.09317818284034729 0.59302049875259399 0.80137860774993896
0.057569105178117752 0.59405994415283203 0.80133301019668579
0.019049545750021935 0.59440737962722778 0.80074304342269897
0.00056508125271648169 0.59448713064193726 0.80065351724624634
0 0.59448713064193726 0.80065351724624634
0 0.59448707103729248 0.80065351724624634
0 0.59505379199981689 0.80065351724624634
0 0.59755754470825195 0.80065351724624634
0.98631221055984497 0.49169424176216125 0.77937835454940796
0.94848436117172241 0.49395313858985901 0.78305792808532715
0.90895992517471313 0.49642950296401978 0.78693735599517822
0.8670191764831543 0.49861669540405273 0.79244166612625122
0.82539445161819458 0.50099223852157593 0.79696720838546753
0.78318673372268677 0.50312089920043945 0.79937392473220825
0.74135041236877441 0.50479727983474731 0.80119562149047852
0.69885379076004028 0.50618946552276611 0.80300050973892212
0.65525937080383301 0.50822103023529053 0.80323022603988647
0.61468267440795898 0.50999057292938232 0.80450886487960815
0.57420271635055542 0.51207453012466431 0.80535423755645752
0.53178280591964722 0.51380038261413574 0.80661946535110474
0.49112805724143982 0.51597648859024048 0.80667257308959961
0.45683425664901733 0.51899021863937378 0.80693775415420532
0.42403760552406311 0.52260321378707886 0.80693775415420532
0.39291080832481384 0.52503079175949097 0.80693775415420532
0.3627057671546936 0.52699345350265503 0.80693775415420532
0.33542904257774353 0.52919256687164307 0.80693775415420532
0.30847576260566711 0.53093719482421875 0.80693775415420532
0.28113529086112976 0.53238940238952637 0.80693775415420532
0.25405248999595642 0.53453958034515381 0.80690765380859375
0.22830094397068024 0.53610384464263916 0.80662888288497925
0.20127278566360474 0.53842920064926147 0.80660229921340942
0.17339883744716644 0.53916186094284058 0.80568140745162964
0.14483076333999634 0.53920632600784302 0.8041081428527832
0.11678911745548248 0.53975403308868408 0.80382627248764038
0.087876170873641968 0.5418209433555603 0.80375611782073975
0.054079852998256683 0.54306244850158691 0.80316221714019775
0.016804538667201996 0.5431138277053833 0.80301612615585327
0.00056508381385356188 0.54321211576461792 0.80301612615585327
0 0.54321211576461792 0.80301612615585327
0 0.54352104663848877 0.80301612615585327
0 0.54523420333862305 0.80301612615585327
0.98659884929656982 0.44006147980690002 0.78242450952529907
0.94925409555435181 0.44364604353904724 0.78509342670440674
0.90987581014633179 0.44575682282447815 0.78873234987258911
0.86840993165969849 0.44821009039878845 0.79323315620422363
0.8272240161895752 0.45040705800056458 0.79777717590332031
0.78522032499313354 0.45277413725852966 0.80063217878341675
0.7434200644493103 0.45432370901107788 0.80224061012268066
0.70196658372879028 0.45590010285377502 0.80457526445388794
0.65883684158325195 0.45779049396514893 0.80457526445388794
0.61940467357635498 0.45975640416145325 0.80457526445388794
0.57960331439971924 0.46158289909362793 0.80630874633789062
0.53764539957046509 0.46356889605522156 0.8075982928276062
0.49670234322547913 0.46549856662750244 0.80774801969528198
0.4612317681312561 0.46766206622123718 0.80849683284759521
0.42823359370231628 0.47100821137428284 0.80849683284759521
0.39741846919059753 0.47459211945533752 0.80849683284759521
0.3671002984046936 0.47715809941291809 0.80849683284759521
0.34054401516914368 0.48015201091766357 0.80849683284759521
0.3143673837184906 0.48266869783401489 0.80849683284759521
0.28729569911956787 0.48439115285873413 0.80849683284759521
0.26063966751098633 0.48647955060005188 0.80849683284759521
0.23640504479408264 0.48817020654678345 0.80812782049179077
0.21085512638092041 0.49034106731414795 0.8075982928276062
0.18520729243755341 0.49215498566627502 0.80740827322006226
0.15835376083850861 0.49298387765884399 0.80584019422531128
0.13353921473026276 0.49373194575309753 0.80526119470596313
0.1076524630188942 0.49565416574478149 0.80526119470596313
0.078334353864192963 0.49679833650588989 0.80526119470596313
0.0447491854429245 0.49688500165939331 0.80522608757019043
0.013846445828676224 0.49769634008407593 0.80466580390930176
0.00046295707579702139 0.4982026219367981 0.80457526445388794
0 0.4982026219367981 0.80457526445388794
0 0.49919494986534119 0.80457526445388794
0.98660159111022949 0.38997668027877808 0.78592109680175781
0.94952678680419922 0.39393249154090881 0.78816187381744385
0.91014778614044189 0.39736360311508179 0.79070144891738892
0.86870956420898438 0.39967131614685059 0.79451262950897217
0.8288310170173645 0.40201935172080994 0.79835927486419678
0.78719907999038696 0.40456312894821167 0.80065172910690308
0.74564427137374878 0.40619120001792908 0.80262207984924316
0.70433640480041504 0.40807130932807922 0.80457526445388794
0.66258937120437622 0.40989479422569275 0.80588173866271973
0.62371367216110229 0.4118715226650238 0.80650550127029419
0.58492285013198853 0.41369709372520447 0.80712097883224487
0.54303520917892456 0.41566774249076843 0.80786037445068359
0.50236129760742188 0.41753044724464417 0.80796647071838379
0.46693488955497742 0.41960793733596802 0.80855071544647217
0.43269053101539612 0.42160165309906006 0.81001502275466919
0.40131565928459167 0.42460981011390686 0.81042701005935669
0.37123003602027893 0.42826446890830994 0.81042701005935669
0.34457579255104065 0.43170914053916931 0.81042701005935669
0.31963396072387695 0.43542319536209106 0.81042701005935669
0.29317700862884521 0.43806362152099609 0.81042701005935669
0.26643043756484985 0.43977451324462891 0.81039690971374512
0.24238383769989014 0.4418797492980957 0.80941015481948853
0.21904617547988892 0.44357740879058838 0.80816996097564697
0.19423002004623413 0.4459385871887207 0.80786037445068359
0.1700248122215271 0.44762161374092102 0.80774372816085815
0.14642053842544556 0.44913411140441895 0.80761700868606567
0.12326724827289581 0.45111000537872314 0.80761700868606567
0.097356721758842468 0.45192715525627136 0.80761700868606567
0.068334765732288361 0.45201921463012695 0.80756545066833496
0.039643023163080215 0.45274695754051208 0.80686342716217041
0.011638782918453217 0.4549291729927063 0.80676758289337158
0.00028767104959115386 0.4550652801990509 0.80676758289337158
0 0.45510271191596985 0.80676758289337158
0.98660159111022949 0.34598702192306519 0.78831952810287476
0.95083713531494141 0.35107424855232239 0.78988766670227051
0.91125226020812988 0.35487928986549377 0.79263532161712646
0.86904656887054443 0.3571954071521759 0.79645758867263794
0.82924520969390869 0.35964614152908325 0.80007600784301758
0.7889026403427124 0.36308535933494568 0.80215650796890259
0.74757713079452515 0.3654085099697113 0.80450886487960815
0.70746332406997681 0.36835357546806335 0.80457526445388794
0.66608905792236328 0.3706204891204834 0.80650550127029419
0.62755995988845825 0.37249323725700378 0.8075982928276062
0.5889136791229248 0.37458083033561707 0.80780422687530518
0.54796499013900757 0.37633749842643738 0.80849683284759521
0.50783878564834595 0.37839788198471069 0.80855005979537964
0.47364795207977295 0.38011780381202698 0.80925208330154419
0.43958145380020142 0.38181719183921814 0.8111264705657959
0.40710955858230591 0.38239502906799316 0.81151962280273438
0.3763313889503479 0.38531401753425598 0.81151962280273438
0.34886911511421204 0.38921186327934265 0.81151962280273438
0.32364106178283691 0.3929753303527832 0.81151962280273438
0.29826256632804871 0.39682489633560181 0.81151962280273438
0.27220571041107178 0.39925915002822876 0.81151962280273438
0.24812905490398407 0.40123125910758972 0.81124067306518555
0.22497448325157166 0.4031054675579071 0.80953449010848999
0.20197446644306183 0.40583255887031555 0.80910623073577881
0.17742545902729034 0.40842851996421814 0.80903172492980957
0.15531729161739349 0.41032147407531738 0.80853331089019775
0.13339109718799591 0.41247975826263428 0.80849683284759521
0.11131527274847031 0.41413062810897827 0.80849683284759521
0.085457578301429749 0.41544106602668762 0.80849683284759521
0.057434674352407455 0.41544106602668762 0.80849683284759521
0.02875819057226181 0.41613548994064331 0.80849683284759521
0.0083146775141358376 0.41810831427574158 0.80849683284759521
0.00030128736398182809 0.41928800940513611 0.80849683284759521
0.98660159111022949 0.30327436327934265 0.78978568315505981
0.95196068286895752 0.30897852778434753 0.7921791672706604
0.91258156299591064 0.31405949592590332 0.79448604583740234
0.86960810422897339 0.31650716066360474 0.79825353622436523
0.82924520969390869 0.31913471221923828 0.80145525932312012
0.78946304321289062 0.32315713167190552 0.80449146032333374
0.74913161993026733 0.32645171880722046 0.8051953911781311
0.70946717262268066 0.32989519834518433 0.80630874633789062
0.66918754577636719 0.33347225189208984 0.80712097883224487
0.63073247671127319 0.33521252870559692 0.80780422687530518
0.59226930141448975 0.33779284358024597 0.80796289443969727
0.55172604322433472 0.33907359838485718 0.80854368209838867
0.51284909248352051 0.34152945876121521 0.81024372577667236
0.47910568118095398 0.34295654296875 0.811165452003479
0.44641155004501343 0.34499156475067139 0.81139671802520752
0.41403824090957642 0.34549629688262939 0.81151962280273438
0.38235142827033997 0.34603607654571533 0.81151962280273438
0.35444211959838867 0.34876975417137146 0.81151962280273438
0.32796746492385864 0.35235679149627686 0.81156247854232788
0.30182757973670959 0.35607457160949707 0.81172555685043335
0.27695286273956299 0.3598325252532959 0.81169557571411133
0.25336962938308716 0.36244773864746094 0.81151962280273438
0.23006537556648254 0.36410033702850342 0.81132698059082031
0.20766913890838623 0.36735102534294128 0.81116384267807007
0.18403872847557068 0.37084093689918518 0.81110656261444092
0.16291876137256622 0.37399575114250183 0.81033581495285034
0.14190280437469482 0.37473103404045105 0.8102380633354187
0.12084868550300598 0.37782368063926697 0.8102380633354187
0.099099628627300262 0.37821677327156067 0.8102380633354187
0.073548190295696259 0.3798082172870636 0.8102380633354187
0.044984057545661926 0.38012823462486267 0.8102380633354187
0.022290250286459923 0.38187643885612488 0.8102380633354187
0.0055777886882424355 0.38202622532844543 0.8102380633354187
0.98660159111022949 0.26386323571205139 0.7906574010848999
0.95196068286895752 0.26964497566223145 0.79359835386276245
0.91258156299591064 0.2754063606262207 0.79622560739517212
0.86960810422897339 0.28016266226768494 0.79908698797225952
0.82924520969390869 0.28327703475952148 0.80173957347869873
0.78946620225906372 0.28745287656784058 0.80456167459487915
0.74936866760253906 0.29120153188705444 0.80585187673568726
0.71052497625350952 0.29449743032455444 0.8075982928276062
0.6707950234413147 0.29829949140548706 0.80786037445068359
0.6322752833366394 0.30167484283447266 0.80849683284759521
0.59403997659683228 0.304156094789505 0.80854368209838867
0.55476558208465576 0.30569851398468018 0.80924618244171143
0.5164218544960022 0.30804947018623352 0.81105166673660278
0.48327529430389404 0.30960878729820251 0.81151962280273438
0.4505772590637207 0.31191563606262207 0.81151962280273438
0.41977503895759583 0.31232133507728577 0.81151962280273438
0.38809522986412048 0.31333714723587036 0.81151962280273438
0.36031737923622131 0.31443163752555847 0.81151962280273438
0.33343097567558289 0.31663066148757935 0.81170684099197388
0.30509057641029358 0.31957882642745972 0.81241840124130249
0.27915540337562561 0.32254582643508911 0.81241840124130249
0.25695976614952087 0.32638239860534668 0.8119463324546814
0.23414835333824158 0.32857209444046021 0.81151962280273438
0.211812824010849 0.33233195543289185 0.81151962280273438
0.1889379620552063 0.33595797419548035 0.81151962280273438
0.16862280666828156 0.33951133489608765 0.81151962280273438
0.14836704730987549 0.34215003252029419 0.81151962280273438
0.12786358594894409 0.34347757697105408 0.81151962280273438
0.10728475451469421 0.3460938036441803 0.81151962280273438
0.084982670843601227 0.34738558530807495 0.81151962280273438
0.058685742318630219 0.34837943315505981 0.81151962280273438
0.031428791582584381 0.34861090779304504 0.81151962280273438
0.009308692067861557 0.34984675049781799 0.81151962280273438
0.98660159111022949 0.22653745114803314 0.79101282358169556
0.95196068286895752 0.23256736993789673 0.79460179805755615
0.91258156299591064 0.23856082558631897 0.79766637086868286
0.86960822343826294 0.24455046653747559 0.80058908462524414
0.82924520969390869 0.24960896372795105 0.80173957347869873
0.7894662618637085 0.25395733118057251 0.80456167459487915
0.74936866760253906 0.25780966877937317 0.80585187673568726
0.71096479892730713 0.26134231686592102 0.8075982928276062
0.67246031761169434 0.26520451903343201 0.80786037445068359
0.63421398401260376 0.26898759603500366 0.80849683284759521
0.59603023529052734 0.27224019169807434 0.80989444255828857
0.55712592601776123 0.27478286623954773 0.81105166673660278
0.52002370357513428 0.27631828188896179 0.81137406826019287
0.48704779148101807 0.27857685089111328 0.81151962280273438
0.45436000823974609 0.28002393245697021 0.81151962280273438
