Textures/7.cube
# Created by: G'MIC (https://gmic.eu)
TITLE "ColorNegative.cube"
# LUT size
LUT_3D_SIZE 5
# Data domain
DOMAIN_MIN 0.0 0.0 0.0
DOMAIN_MAX 1.0 1.0 1.0
# LUT data points
0.97437870502471924 0.86045581102371216 0.76178544759750366
0.61563944816589355 0.87299418449401855 0.77087962627410889
0.29297390580177307 0.8764350414276123 0.77917361259460449
0 0.87671595811843872 0.78330105543136597
0 0.87671595811843872 0.78330105543136597
0.98660159111022949 0.38997668027877808 0.78592109680175781
0.66258937120437622 0.40989479422569275 0.80588173866271973
0.37123003602027893 0.42826446890830994 0.81042701005935669
0.1700248122215271 0.44762161374092102 0.80774372816085815
0 0.45510271191596985 0.80676758289337158
0.98660159111022949 0.086823210120201111 0.79443925619125366
0.67323774099349976 0.16537931561470032 0.80786037445068359
0.40755787491798401 0.19180968403816223 0.81151962280273438
0.20391644537448883 0.20275315642356873 0.81526803970336914
0.050310462713241577 0.22646026313304901 0.81210088729858398
0.98660159111022949 0 0.79705023765563965
0.67703402042388916 0.0044119027443230152 0.80786037445068359
0.41607442498207092 0.07811129093170166 0.81151962280273438
0.22705605626106262 0.097898036241531372 0.8136436939239502
0.072579637169837952 0.10980661958456039 0.81388711929321289
0.98660159111022949 0 0.79829460382461548
0.67761456966400146 0 0.80786037445068359
0.41977119445800781 0.001543924561701715 0.81151962280273438
0.23488566279411316 0.032792266458272934 0.8136436939239502
0.084157258272171021 0.044362630695104599 0.81544125080108643
0.9744608998298645 0.86050999164581299 0.12518675625324249
0.63076353073120117 0.87260621786117554 0.1890312135219574
0.30510702729225159 0.87671595811843872 0.21320760250091553
0 0.87671595811843872 0.25501951575279236
0 0.87671595811843872 0.2761777937412262
0.98660159111022949 0.40185698866844177 0.27125492691993713
0.67278909683227539 0.43622729182243347 0.31838893890380859
0.40153080224990845 0.45854645967483521 0.33350154757499695
0.17439745366573334 0.45904833078384399 0.3488004207611084
0 0.45898705720901489 0.35365256667137146
0.98660159111022949 0.090582169592380524 0.30657365918159485
0.67761456966400146 0.17602492868900299 0.34124419093132019
0.42313632369041443 0.20704787969589233 0.36448636651039124
0.21660840511322021 0.21534651517868042 0.37271231412887573
0.053434815257787704 0.23050318658351898 0.36977267265319824
0.98660159111022949 0 0.32189068198204041
0.67761456966400146 0.0055539458990097046 0.35265505313873291
0.42352956533432007 0.079397790133953094 0.36872461438179016
0.23168323934078217 0.098648235201835632 0.37271231412887573
0.07336600124835968 0.11267802119255066 0.37376213073730469
0.98660159111022949 0 0.32662197947502136
0.67761456966400146 0 0.35337552428245544
0.42352956533432007 0.0015439246781170368 0.36872464418411255
0.23842607438564301 0.032810986042022705 0.37271231412887573
0.084725558757781982 0.047516614198684692 0.37271228432655334
0.97402286529541016 0.86123561859130859 0
0.63528668880462646 0.86943536996841431 0
0.33483758568763733 0.87322360277175903 0
0.0048334659077227116 0.8765333890914917 0
0 0.87671595811843872 0
0.98660159111022949 0.41713503003120422 0
0.6694028377532959 0.44051751494407654 0.0041916593909263611
0.40480226278305054 0.45509156584739685 0.046021714806556702
0.18997438251972198 0.45898705720901489 0.071218147873878479
0 0.45898705720901489 0.10420763492584229
0.98660159111022949 0.11604630947113037 0
0.67761456966400146 0.18739181756973267 0.070938237011432648
0.41971859335899353 0.2151205837726593 0.12830205261707306
0.23444756865501404 0.23348666727542877 0.14486512541770935
0.057562336325645447 0.23418954014778137 0.15579794347286224
0.98660159111022949 0 0.0018978453008458018
0.67761456966400146 0.0055539454333484173 0.10109438747167587
0.42352956533432007 0.083037592470645905 0.1433933824300766
0.23880736529827118 0.1100831925868988 0.16274841129779816
0.084358155727386475 0.12131337821483612 0.17058822512626648
0.98660159111022949 0 0.0063359411433339119
0.67761456966400146 0 0.11413227766752243
0.42352956533432007 0.0015540645690634847 0.15145161747932434
0.23880736529827118 0.036637313663959503 0.16666655242443085
0.09164661169052124 0.052705008536577225 0.17075164616107941
0.97402298450469971 0.86123561859130859 0
0.63846832513809204 0.86934053897857666 0
0.34211087226867676 0.87279421091079712 0
0.016999207437038422 0.87549036741256714 0
0 0.87671595811843872 0
0.98660159111022949 0.42130142450332642 0
0.66886764764785767 0.44377484917640686 0
0.40474703907966614 0.45499897003173828 0
0.19792488217353821 0.4556528627872467 0
0 0.45898705720901489 0
0.98660159111022949 0.1347392350435257 0
0.67647063732147217 0.19572563469409943 0
0.4195379912853241 0.21871773898601532 0.00093281589215621352
0.23120409250259399 0.23345780372619629 0.030999647453427315
0.05909445509314537 0.23349688947200775 0.043497413396835327
0.98660159111022949 0 0
0.67761456966400146 0.017447790130972862 0
0.4201597273349762 0.090876281261444092 0.023271398618817329
0.23880736529827118 0.11406934261322021 0.062096972018480301
0.088404513895511627 0.12190064787864685 0.074417270720005035
0.98660159111022949 0 0
0.67761456966400146 0 0
0.42352956533432007 0.0015813647769391537 0.035441562533378601
0.23880736529827118 0.039943266659975052 0.069648593664169312
0.09536222368478775 0.059174332767724991 0.082516424357891083
0.97402286529541016 0.86123561859130859 0
0.63846838474273682 0.86934059858322144 0
0.34211087226867676 0.87279421091079712 0
0.020235871896147728 0.87549036741256714 0
0 0.87671595811843872 0
0.98660159111022949 0.42388710379600525 0
0.66886764764785767 0.44390001893043518 0
0.40474703907966614 0.45499897003173828 0
0.20116378366947174 0.45514699816703796 0
0.00099411827977746725 0.45898705720901489 0
0.98660159111022949 0.13899950683116913 0
0.67647063732147217 0.19935669004917145 0
0.4195328950881958 0.22173193097114563 0
0.23116664588451385 0.23002457618713379 0
0.065812297165393829 0.23349688947200775 0.0023007688578218222
0.98660159111022949 0 0
0.67761456966400146 0.028557559475302696 0
0.41977116465568542 0.094809100031852722 0
0.23880736529827118 0.11424445360898972 0.017384819686412811
0.088528178632259369 0.12190065532922745 0.037033639848232269
0.98660159111022949 0 0
0.67761456966400146 0 0
0.42296785116195679 0.0029176212847232819 0
0.23880736529827118 0.040438644587993622 0.025672389194369316
0.092973999679088593 0.059281613677740097 0.046437181532382965
