Textures/70.cube
# Created by: G'MIC (https://gmic.eu)
TITLE "Kodak_Elite_Color_400.cube"
# LUT size
LUT_3D_SIZE 5
# Data domain
DOMAIN_MIN 0.0 0.0 0.0
DOMAIN_MAX 1.0 1.0 1.0
# LUT data points
0.0047609531320631504 0.0043564452789723873 0.0036765958648175001
0.16254967451095581 0 0.0046774121001362801
0.37653994560241699 0 0.0042924704030156136
0.65722602605819702 0 0.00082045054296031594
0.91894781589508057 0.003922000527381897 0.003922000527381897
0.12603166699409485 0.18129755556583405 0.044259190559387207
0.22776779532432556 0.16102463006973267 0.046078406274318695
0.43398120999336243 0.10598431527614594 0.045160584151744843
0.691142737865448 0.011151204816997051 0.032866045832633972
0.93428272008895874 0.003121514106169343 0.0040208133868873119
0.22512431442737579 0.42743930220603943 0.097809009253978729
0.32403981685638428 0.41735029220581055 0.097275026142597198
0.51852738857269287 0.38479143381118774 0.093518935143947601
0.75469839572906494 0.30314391851425171 0.078106492757797241
0.97415244579315186 0.089986972510814667 0.034673493355512619
0.42252236604690552 0.70802348852157593 0.10177532583475113
0.48550862073898315 0.70462745428085327 0.10175661742687225
0.63351160287857056 0.68956291675567627 0.098801955580711365
0.81335651874542236 0.6554635763168335 0.088131695985794067
0.99975496530532837 0.54724198579788208 0.04614141583442688
0.70061075687408447 0.95915049314498901 0.0044088689610362053
0.72546863555908203 0.95915049314498901 0.00097281072521582246
0.79158306121826172 0.95702624320983887 0
0.89683961868286133 0.95068609714508057 0
1 0.92369633913040161 0
2.8796519472962245e-05 0.020254582166671753 0.15109100937843323
0.12636519968509674 0.0048401607200503349 0.15218819677829742
0.35356959700584412 0 0.14913886785507202
0.64723759889602661 0 0.12736952304840088
0.91972875595092773 0 0.070791557431221008
0.08916037529706955 0.20820967853069305 0.18745413422584534
0.19099979102611542 0.18937106430530548 0.18963439762592316
0.41392642259597778 0.13807909190654755 0.1912904679775238
0.68283724784851074 0.029092103242874146 0.17917174100875854
0.9322131872177124 0 0.12211886793375015
0.16867858171463013 0.44665220379829407 0.2202359139919281
0.28520330786705017 0.43755427002906799 0.22198076546192169
0.49794468283653259 0.40636661648750305 0.22267940640449524
0.7440871000289917 0.32874420285224915 0.21461157500743866
0.97114825248718262 0.11771314591169357 0.17546714842319489
0.39177632331848145 0.7168768048286438 0.24912941455841064
0.45998454093933105 0.71316909790039062 0.24866075813770294
0.61655324697494507 0.70064705610275269 0.24471171200275421
0.80220139026641846 0.66770380735397339 0.22957439720630646
0.99901747703552246 0.56300133466720581 0.18053817749023438
0.68948137760162354 0.96307188272476196 0.25144004821777344
0.71453851461410522 0.96307188272476196 0.24919578433036804
0.78212219476699829 0.9603114128112793 0.23829272389411926
0.8891790509223938 0.95459014177322388 0.20464895665645599
1 0.92877429723739624 0.052093543112277985
0 0.053285907953977585 0.32476961612701416
0.077398777008056641 0.024094557389616966 0.32983094453811646
0.32188209891319275 0.0024464302696287632 0.33426773548126221
0.62983196973800659 0 0.32511484622955322
0.91218942403793335 0 0.28239217400550842
0.034692611545324326 0.24908252060413361 0.37778544425964355
0.12669089436531067 0.23208864033222198 0.38346847891807556
0.37234950065612793 0.18670383095741272 0.39036965370178223
0.66262894868850708 0.073567137122154236 0.39028695225715637
0.92321556806564331 0 0.35879120230674744
0.040060564875602722 0.48241308331489563 0.43657040596008301
0.17092639207839966 0.47422036528587341 0.43994015455245972
0.44577905535697937 0.44559299945831299 0.4457269012928009
0.71649909019470215 0.37656551599502563 0.44675979018211365
0.96064019203186035 0.17744158208370209 0.42792335152626038
0.30061662197113037 0.73466736078262329 0.49347850680351257
0.38898369669914246 0.73182439804077148 0.49513339996337891
0.57066839933395386 0.72075879573822021 0.49715235829353333
0.77460920810699463 0.69172722101211548 0.49385300278663635
0.99249690771102905 0.5959169864654541 0.46849504113197327
0.66220319271087646 0.9701848030090332 0.52524173259735107
0.68892067670822144 0.96936154365539551 0.52489113807678223
0.76021164655685425 0.96699351072311401 0.5235368013381958
0.87213188409805298 0.96279668807983398 0.51225477457046509
1 0.93885332345962524 0.45872542262077332
0 0.12841573357582092 0.54048329591751099
0.0096826879307627678 0.09138932079076767 0.54928445816040039
0.25759223103523254 0.038446173071861267 0.56089866161346436
0.59254634380340576 0 0.56721854209899902
0.89691156148910522 0 0.54959732294082642
0 0.31761804223060608 0.5999864935874939
0.016530590131878853 0.30220252275466919 0.60673224925994873
0.27640044689178467 0.25981780886650085 0.61850887537002563
0.61957132816314697 0.16320817172527313 0.62857961654663086
0.90529245138168335 0 0.62443357706069946
0 0.53485572338104248 0.65732377767562866
0 0.52837520837783813 0.66176223754882812
0.33468723297119141 0.50424432754516602 0.67113882303237915
0.66439265012741089 0.44451242685317993 0.68051862716674805
0.94133192300796509 0.26632162928581238 0.68170028924942017
0.04393623024225235 0.76103109121322632 0.71179699897766113
0.21332249045372009 0.75866997241973877 0.71471619606018066
0.48223727941513062 0.75002408027648926 0.72065836191177368
0.72677254676818848 0.72644108533859253 0.72659093141555786
0.97147047519683838 0.64432787895202637 0.72447431087493896
0.61174410581588745 0.97874629497528076 0.75603377819061279
0.64235281944274902 0.97874629497528076 0.7574620246887207
0.72272855043411255 0.97850292921066284 0.75997525453567505
0.8449103832244873 0.97484588623046875 0.76049119234085083
0.99970239400863647 0.95504957437515259 0.74634647369384766
0 0.23962034285068512 0.74033331871032715
0 0.20736873149871826 0.74729418754577637
0.123270183801651 0.15956974029541016 0.76068031787872314
0.52634882926940918 0.048389267176389694 0.77737283706665039
0.87275373935699463 0 0.78345811367034912
0 0.41373887658119202 0.78710430860519409
0 0.40156733989715576 0.79183286428451538
0.018058581277728081 0.37121021747589111 0.80545663833618164
0.52788090705871582 0.29208067059516907 0.82289177179336548
0.88014340400695801 0.067669287323951721 0.83806556463241577
0 0.60851842164993286 0.83411335945129395
0 0.60443753004074097 0.83874404430389404
0.0058894390240311623 0.58895820379257202 0.85084521770477295
0.5468636155128479 0.54643106460571289 0.86656785011291504
0.90102767944335938 0.40915244817733765 0.88162434101104736
0 0.80115115642547607 0.890167236328125
0 0.80017012357711792 0.89385592937469482
0.17148898541927338 0.79569506645202637 0.90307623147964478
0.61487138271331787 0.78076094388961792 0.91562432050704956
0.92344492673873901 0.7219310998916626 0.92753434181213379
0.44008320569992065 0.98865920305252075 0.95610791444778442
0.49196985363960266 0.98914587497711182 0.95817679166793823
0.61219888925552368 0.98948204517364502 0.96406471729278564
0.7722131609916687 0.99103802442550659 0.97351908683776855
0.98365139961242676 0.98361551761627197 0.9831993579864502
