Textures/70.cube
# Created by: G'MIC (https://gmic.eu)
TITLE "Kodak_Elite_Color_400.cube"
# LUT size
LUT_3D_SIZE 33
# Data domain
DOMAIN_MIN 0.0 0.0 0.0
DOMAIN_MAX 1.0 1.0 1.0
# LUT data points
0.0047609531320631504 0.0043564452789723873 0.0036765958648175001
0.018123222514986992 0.0029740890022367239 0.0036765958648175001
0.034328825771808624 0.0021961594466120005 0.0037280765827745199
0.054087288677692413 0.0014346009120345116 0.0040104696527123451
0.074251189827919006 0.00088806933490559459 0.0041633895598351955
0.094966426491737366 0.00040836440166458488 0.0043595954775810242
0.11534137278795242 0.00020824282546527684 0.004672306589782238
0.13882550597190857 4.8088768380694091e-05 0.0046774121001362801
0.16254967451095581 0 0.0046774121001362801
0.1868499219417572 0 0.0047226515598595142
0.21086743474006653 0 0.004893861711025238
0.23585480451583862 0 0.0049582119099795818
0.2604205310344696 0 0.0048295110464096069
0.28606677055358887 0 0.004733571782708168
0.31406217813491821 0 0.0046774121001362801
0.34392443299293518 0 0.0044960486702620983
0.37653994560241699 0 0.0042924704030156136
0.4109032154083252 0 0.0041633895598351955
0.44506615400314331 0 0.0041633895598351955
0.48019623756408691 0 0.0038708681240677834
0.51521861553192139 0 0.003217141842469573
0.55023056268692017 0 0.0026051329914480448
0.58634746074676514 0 0.0017521317349746823
0.62178748846054077 0 0.0014611448859795928
0.65722602605819702 0 0.00082045054296031594
0.69231182336807251 0 0.00056791550014168024
0.72636628150939941 0 0.00036350285517983139
0.7599562406539917 0.0019610002636909485 0.0037776629906147718
0.79326558113098145 0.0016341668087989092 0.0039220014587044716
0.82545959949493408 0 0.003922000527381897
0.85730016231536865 0 0.0039220014587044716
0.88822263479232788 0.0025560099165886641 0.003922000527381897
0.91894781589508057 0.003922000527381897 0.003922000527381897
0.012736854143440723 0.019121352583169937 0.0063772136345505714
0.027402827516198158 0.0161697156727314 0.0064458539709448814
0.045986570417881012 0.014037704095244408 0.0064458539709448814
0.066259898245334625 0.011881830170750618 0.0065496210008859634
0.08696446567773819 0.0099627282470464706 0.0066424477845430374
0.10735069960355759 0.0082700084894895554 0.006651807576417923
0.12823876738548279 0.0068879155442118645 0.0066905240528285503
0.15210239589214325 0.0049927690997719765 0.0068648448213934898
0.17520210146903992 0.0034620014484971762 0.006999017670750618
0.19885756075382233 0.0021951319649815559 0.0070744422264397144
0.22184179723262787 0.0012156586162745953 0.0074482192285358906
0.24581068754196167 0.00050425820518285036 0.0074653839692473412
0.27009916305541992 0.00011093042849097401 0.0075121959671378136
0.29544037580490112 0 0.0075402827933430672
0.32318702340126038 0 0.0074809882789850235
0.35311087965965271 0 0.0071521676145493984
0.38538861274719238 0 0.0070367511361837387
0.41900193691253662 0 0.0068796016275882721
0.45233863592147827 0 0.0066362069919705391
0.48703452944755554 0 0.006413870956748724
0.52155178785324097 0 0.0057537578977644444
0.55618190765380859 0 0.0050546810962259769
0.59184491634368896 0 0.004338875412940979
0.62692469358444214 0 0.0034385318867862225
0.66187208890914917 0 0.0025047904346138239
0.69653415679931641 0 0.001624711905606091
0.73041099309921265 0 0.0012256253976374865
0.76388561725616455 0.0019610002636909485 0.0038096511270850897
0.79573589563369751 0.001634166925214231 0.0039220014587044716
0.8284604549407959 0 0.003922000527381897
0.85957211256027222 0 0.0039220014587044716
0.89016866683959961 0.003268333850428462 0.003922000527381897
0.92039132118225098 0.003922000527381897 0.003922000527381897
0.022903302684426308 0.037345543503761292 0.0079606650397181511
0.036271397024393082 0.034050427377223969 0.0080421948805451393
0.054000746458768845 0.031162813305854797 0.0081709278747439384
0.074320904910564423 0.02807924896478653 0.008394007571041584
0.095044374465942383 0.02524247020483017 0.008609686978161335
0.11539682000875473 0.0225797388702631 0.0089623229578137398
0.13667431473731995 0.019959108904004097 0.0094178915023803711
0.16034670174121857 0.017037725076079369 0.009617985226213932
0.18325921893119812 0.014506995677947998 0.0096835494041442871
0.20629456639289856 0.011768420226871967 0.0097139738500118256
0.22899909317493439 0.0094039821997284889 0.0097290780395269394
0.25281742215156555 0.0073458049446344376 0.0097290780395269394
0.27691629528999329 0.0054124575108289719 0.010033308528363705
0.30221465229988098 0.003805206622928381 0.01042182557284832
0.32975137233734131 0.0024626078084111214 0.01042182557284832
0.35936710238456726 0.00064586394000798464 0.01011604443192482
0.39126139879226685 7.6956212069489993e-06 0.0097235459834337234
0.42411205172538757 0 0.0096817389130592346
0.45710292458534241 0 0.0095055783167481422
0.49143081903457642 0 0.0086959041655063629
0.52584266662597656 0 0.007632784079760313
0.56035518646240234 0 0.0067030182108283043
0.59581071138381958 0 0.0061083822511136532
0.63040351867675781 0 0.0051993229426443577
0.66511070728302002 0 0.0043509113602340221
0.69979751110076904 0 0.003500927472487092
0.73329824209213257 0 0.0025844834744930267
0.76544654369354248 0.0019610007293522358 0.0038676687981933355
0.79882049560546875 0.00079154956620186567 0.0039220014587044716
0.82982361316680908 0 0.0039220014587044716
0.86116033792495728 0 0.0039220014587044716
0.89167356491088867 0.003268333850428462 0.0039220014587044716
0.92166930437088013 0.0038217445835471153 0.0039220014587044716
0.036429200321435928 0.059579145163297653 0.011909434571862221
0.048316404223442078 0.056445185095071793 0.011909434571862221
0.063058450818061829 0.053404193371534348 0.011909434571862221
0.082891941070556641 0.050128638744354248 0.011909434571862221
0.10353124141693115 0.046751394867897034 0.01208966039121151
0.12351975589990616 0.04369189590215683 0.012435648590326309
0.14520521461963654 0.040185470134019852 0.012733227573335171
0.16858965158462524 0.03622886911034584 0.013133130967617035
0.19084168970584869 0.03232511505484581 0.013314525596797466
0.21340771019458771 0.028380259871482849 0.013448544777929783
0.23601441085338593 0.024560136720538139 0.013707117177546024
0.25967943668365479 0.020944997668266296 0.013612736947834492
0.28369110822677612 0.017441287636756897 0.013565545901656151
0.30898520350456238 0.014149378053843975 0.013664215803146362
0.33668825030326843 0.011036918498575687 0.013771466910839081
0.36607852578163147 0.0071078124456107616 0.013732856139540672
0.39769178628921509 0.0031652930192649364 0.013565545901656151
0.42989271879196167 0.0012029203353449702 0.013565545901656151
0.46222880482673645 0.00017324011423625052 0.013414853252470493
0.4963536262512207 0 0.012359503656625748
0.53034830093383789 0 0.01152134221047163
0.56467926502227783 0 0.010085531510412693
0.59957820177078247 0 0.0087126251310110092
0.63418692350387573 0 0.0075044031254947186
0.66857558488845825 0 0.0061505110934376717
0.70256549119949341 0 0.0050756661221385002
0.73549282550811768 0 0.0040273764170706272
0.76852214336395264 0.0021927200723439455 0.0042275753803551197
0.80038332939147949 0.00073537504067644477 0.0039502223953604698
0.83222752809524536 0 0.003922000527381897
0.86305350065231323 0 0.0039220014587044716
0.89321130514144897 0.0032683336175978184 0.003922000527381897
0.92326301336288452 0.0030953777022659779 0.003922000527381897
0.052249494940042496 0.082249559462070465 0.016344934701919556
0.062375374138355255 0.079506821930408478 0.016344934701919556
0.074140653014183044 0.076647408306598663 0.016349224373698235
0.091780707240104675 0.0733489990234375 0.016550855711102486
0.11188372224569321 0.069990493357181549 0.016683880239725113
0.13144278526306152 0.066693142056465149 0.017078440636396408
0.15382616221904755 0.062923409044742584 0.017729645594954491
0.1761920154094696 0.058754205703735352 0.017985066398978233
0.19820058345794678 0.054540775716304779 0.018243279308080673
0.22034305334091187 0.049882259219884872 0.018407873809337616
0.24256548285484314 0.04503239318728447 0.019008548930287361
0.26615840196609497 0.040439266711473465 0.01892702654004097
0.29021459817886353 0.035510603338479996 0.018300624564290047
0.31573843955993652 0.03068302758038044 0.018592344596982002
0.34341084957122803 0.025207364931702614 0.018768638372421265
0.3727230429649353 0.01901216059923172 0.018952386453747749
0.40416049957275391 0.01318718958646059 0.018180469051003456
0.43602719902992249 0.0087331440299749374 0.018299836665391922
0.46796974539756775 0.0049899942241609097 0.018298633396625519
0.50135922431945801 0.0012223211815580726 0.017187619581818581
0.53504031896591187 1.0213541827397421e-05 0.016291098669171333
0.56891733407974243 0 0.014817117713391781
0.60381090641021729 0 0.012911409139633179
0.63782757520675659 0 0.0116707943379879
0.67196154594421387 0 0.0098128523677587509
0.70560646057128906 0 0.0080252932384610176
0.73853576183319092 0 0.006414452102035284
0.77110141515731812 0.0026106950826942921 0.0055251019075512886
0.80297476053237915 0.00022182539396453649 0.0042978562414646149
0.83411312103271484 0 0.0039361831732094288
0.8650556206703186 6.3515464717056602e-05 0.0039220014587044716
0.8951079249382019 0.0034377083647996187 0.0039220014587044716
0.92487215995788574 0.0038490521255880594 0.0039220014587044716
0.068899691104888916 0.10524606704711914 0.022872377187013626
0.077585183084011078 0.10298615694046021 0.022872377187013626
0.087797679007053375 0.10042567551136017 0.022872377187013626
0.10192975401878357 0.097339950501918793 0.022872377187013626
0.11963782459497452 0.094145298004150391 0.022872377187013626
0.13989105820655823 0.090491347014904022 0.022942371666431427
0.16240750253200531 0.086566329002380371 0.023529240861535072
0.18377982079982758 0.082482181489467621 0.023746609687805176
0.20525340735912323 0.077835112810134888 0.024143889546394348
0.22695620357990265 0.07296464592218399 0.024457905441522598
0.24910920858383179 0.067842639982700348 0.024854244664311409
0.27270722389221191 0.062788046896457672 0.024879986420273781
0.29680067300796509 0.057198375463485718 0.024187210947275162
0.32258132100105286 0.051479130983352661 0.024461427703499794
0.35039213299751282 0.044840287417173386 0.024690791964530945
0.37951615452766418 0.036915067583322525 0.024649055674672127
0.41070771217346191 0.028817309066653252 0.023797774687409401
0.44223737716674805 0.021904265508055687 0.023653680458664894
0.47406458854675293 0.015444391407072544 0.02370087057352066
0.5072634220123291 0.0087926154956221581 0.022706897929310799
0.54025989770889282 0.0035900587681680918 0.021503657102584839
0.57343751192092896 0.0006100429454818368 0.020608846098184586
0.60797357559204102 0 0.018467530608177185
0.64171171188354492 0 0.016942892223596573
0.67548435926437378 0 0.014927571639418602
0.70890563726425171 0 0.01218726858496666
0.74180924892425537 0 0.010134798474609852
0.77363783121109009 0.0027868787292391062 0.0078740185126662254
0.80573129653930664 0 0.0057555618695914745
0.83663016557693481 0 0.0043577030301094055
0.86733722686767578 0.00024512503296136856 0.0039269644767045975
0.89714324474334717 0.003922000527381897 0.003922000527381897
0.92669737339019775 0.003922000527381897 0.003922000527381897
0.087231479585170746 0.1313767284154892 0.029520310461521149
0.09512241929769516 0.12936230003833771 0.02957179956138134
0.10418476164340973 0.12722846865653992 0.02957179956138134
0.11507825553417206 0.12454718351364136 0.029571805149316788
0.12911827862262726 0.12146496027708054 0.029932253062725067
0.14909771084785461 0.11819234490394592 0.030218528583645821
0.1712927371263504 0.11401644349098206 0.030290290713310242
0.19157855212688446 0.10980664193630219 0.030483236536383629
0.21298791468143463 0.10505315661430359 0.030986178666353226
0.23416425287723541 0.10016132146120071 0.031099306419491768
0.25643345713615417 0.094644464552402496 0.031779598444700241
0.28004634380340576 0.088811025023460388 0.032028432935476303
0.30438536405563354 0.08302672952413559 0.031275231391191483
0.33029597997665405 0.07669597864151001 0.031082531437277794
0.35824161767959595 0.069343291223049164 0.031286165118217468
0.38732761144638062 0.061089184135198593 0.031353261321783066
0.41813334822654724 0.052057914435863495 0.030661046504974365
0.44941967725753784 0.043385107070207596 0.030395589768886566
0.48111262917518616 0.034004140645265579 0.029913101345300674
0.51394140720367432 0.024165565147995949 0.028539480641484261
0.54696959257125854 0.015413847751915455 0.027696110308170319
0.58002567291259766 0.0082961926236748695 0.02641710452735424
0.61375325918197632 0.0031607025302946568 0.024275675415992737
0.6465381383895874 0.00044013981823809445 0.022775296121835709
0.67981469631195068 0 0.020605575293302536
0.71307265758514404 0 0.017654011026024818
0.74526125192642212 0 0.015187637880444527
0.77704429626464844 0.0013774451799690723 0.011987622827291489
0.80860376358032227 0 0.0088389236479997635
0.839427649974823 0 0.0061543816700577736
0.86982405185699463 0.00024512509116902947 0.00435302359983325
0.89947527647018433 0.0039220014587044716 0.0039288080297410488
0.92905843257904053 0.0039220014587044716 0.0039220014587044716
0.10624700039625168 0.15599516034126282 0.037114512175321579
0.11316786706447601 0.15447297692298889 0.037188619375228882
0.1206853985786438 0.1528073251247406 0.03738011047244072
0.12986649572849274 0.15063460171222687 0.037581793963909149
0.14166168868541718 0.14799009263515472 0.037534590810537338
0.15944604575634003 0.14450091123580933 0.037581793963909149
0.17969077825546265 0.1406395435333252 0.037581793963909149
0.19942104816436768 0.1370009183883667 0.037889156490564346
0.22021110355854034 0.13256724178791046 0.038201596587896347
0.24138951301574707 0.12744805216789246 0.038609184324741364
0.26364246010780334 0.12177514284849167 0.038669239729642868
0.28734558820724487 0.11607391387224197 0.038967259228229523
0.31214639544487 0.10972446948289871 0.038757406175136566
0.33825016021728516 0.10289699584245682 0.038484755903482437
0.36632099747657776 0.095454663038253784 0.038596294820308685
0.3952869176864624 0.086336970329284668 0.038235899060964584
0.42572984099388123 0.077348038554191589 0.037790864706039429
0.45676887035369873 0.067406609654426575 0.037492938339710236
0.48841112852096558 0.056974917650222778 0.036166086792945862
0.52089828252792358 0.04557466134428978 0.035145889967679977
0.55372488498687744 0.034037329256534576 0.033571500331163406
0.58656477928161621 0.023160748183727264 0.032349787652492523
0.61993849277496338 0.014034838415682316 0.030491216108202934
0.65258359909057617 0.006905626505613327 0.028612455353140831
0.684795081615448 0.0014389668358489871 0.026875764131546021
0.71747744083404541 0 0.023760244250297546
0.74915152788162231 0 0.020683951675891876
0.78065931797027588 0.00013302431034389883 0.017121763899922371
0.81189179420471191 0 0.013333316892385483
0.84243661165237427 0 0.0095573952421545982
0.87262082099914551 0.0005154647515155375 0.0059715034440159798
0.90221232175827026 0.003922000527381897 0.0041831587441265583
0.93152248859405518 0.0039063966833055019 0.003922000527381897
0.12603166699409485 0.18129755556583405 0.044259190559387207
0.13147863745689392 0.18017885088920593 0.04426230862736702
0.13784046471118927 0.17872212827205658 0.044581364840269089
0.14659953117370605 0.1768958568572998 0.045357942581176758
0.15772594511508942 0.17454095184803009 0.045921199023723602
0.17143137753009796 0.1714986264705658 0.04600350558757782
0.18808342516422272 0.16847410798072815 0.04600350558757782
0.20768824219703674 0.16489067673683167 0.046070598065853119
0.22776779532432556 0.16102463006973267 0.046078406274318695
0.24909405410289764 0.15627521276473999 0.046078406274318695
0.27140897512435913 0.15106065571308136 0.046078398823738098
0.29539415240287781 0.14531184732913971 0.046078406274318695
0.32043516635894775 0.13902513682842255 0.046078398823738098
0.34694865345954895 0.13219572603702545 0.046078391373157501
0.37491831183433533 0.12438938021659851 0.046053439378738403
0.40399816632270813 0.11570461839437485 0.045770633965730667
0.43398120999336243 0.10598431527614594 0.045160584151744843
0.46485868096351624 0.095472231507301331 0.044567447155714035
0.49651497602462769 0.083774231374263763 0.043639075011014938
0.52885276079177856 0.072016946971416473 0.042233329266309738
0.56121236085891724 0.059471752494573593 0.040680471807718277
0.59370172023773193 0.046438772231340408 0.038963198661804199
0.62704360485076904 0.03377193957567215 0.036745458841323853
0.65907853841781616 0.021790977567434311 0.035080805420875549
0.691142737865448 0.011151204816997051 0.032866045832633972
0.72289848327636719 0.0035272680688649416 0.030211891978979111
0.75378453731536865 0.00067756866337731481 0.02730880118906498
0.78488767147064209 4.0641389205120504e-05 0.022906266152858734
0.81579834222793579 0 0.018665878102183342
0.84574413299560547 0 0.014459040015935898
0.87577426433563232 0.0010694077936932445 0.0097492514178156853
0.90519237518310547 0.0039220014587044716 0.0057908352464437485
0.93428272008895874 0.003121514106169343 0.0040208133868873119
0.13890434801578522 0.20688194036483765 0.051300939172506332
0.1445271372795105 0.20581479370594025 0.051824383437633514
0.15133458375930786 0.20462886989116669 0.05205608531832695
0.16060979664325714 0.20297007262706757 0.052322909235954285
0.1717408299446106 0.20083749294281006 0.052431751042604446
0.18321214616298676 0.1985325962305069 0.053191203624010086
0.19805245101451874 0.19567500054836273 0.053410019725561142
0.21658837795257568 0.19242562353610992 0.053883548825979233
0.23635761439800262 0.18898425996303558 0.054134242236614227
0.25750911235809326 0.18511073291301727 0.054219495505094528
0.2798902690410614 0.18037435412406921 0.054219495505094528
0.30407688021659851 0.17498445510864258 0.054172296077013016
0.32943928241729736 0.16936402022838593 0.054219495505094528
0.35605534911155701 0.16277100145816803 0.054219495505094528
0.38417711853981018 0.15528003871440887 0.054066292941570282
0.41292434930801392 0.14696820080280304 0.052944663912057877
0.44272717833518982 0.13751392066478729 0.052524197846651077
0.47350290417671204 0.12684133648872375 0.052137050777673721
0.5049324631690979 0.11471378803253174 0.050663534551858902
0.53729653358459473 0.10208893567323685 0.049147464334964752
0.56930959224700928 0.088882595300674438 0.047934617847204208
0.60164618492126465 0.074919983744621277 0.045812617987394333
0.63458931446075439 0.060630239546298981 0.043604545295238495
0.66641438007354736 0.045855183154344559 0.041316773742437363
0.69789117574691772 0.030742233619093895 0.039144229143857956
0.72945642471313477 0.017226571217179298 0.036388564854860306
0.75955098867416382 0.00840010866522789 0.033618483692407608
0.78972631692886353 0.0024322487879544497 0.029437204822897911
0.8201555609703064 0 0.024744631722569466
0.84988164901733398 0 0.019817275926470757
0.87924844026565552 0.0011739546898752451 0.014320181682705879
0.90849262475967407 0.003922000527381897 0.0091875391080975533
0.93741840124130249 0.0018216990865767002 0.0051719746552407742
0.1443350613117218 0.2331097424030304 0.059212855994701385
0.15032239258289337 0.23221367597579956 0.059457428753376007
0.15766598284244537 0.23108816146850586 0.059487465769052505
0.16691978275775909 0.22929935157299042 0.059546757489442825
0.17733253538608551 0.22758199274539948 0.059648159891366959
0.19059672951698303 0.22545529901981354 0.060109235346317291
0.20780211687088013 0.22287441790103912 0.060124054551124573
0.22594250738620758 0.22009788453578949 0.060191132128238678
0.24610868096351624 0.21680226922035217 0.060065325349569321
0.26695173978805542 0.2131417840719223 0.060226224362850189
0.28940123319625854 0.20906931161880493 0.060608025640249252
0.31381770968437195 0.20421242713928223 0.06079448014497757
0.33904623985290527 0.19900432229042053 0.061300832778215408
0.36588755249977112 0.19286136329174042 0.061322282999753952
0.3938148021697998 0.18600377440452576 0.060793977230787277
0.42232412099838257 0.17840924859046936 0.060421645641326904
0.4518808126449585 0.1697058379650116 0.059983644634485245
0.48254340887069702 0.15968523919582367 0.058914050459861755
0.51383215188980103 0.14824838936328888 0.05765940248966217
0.54594504833221436 0.13558873534202576 0.056329581886529922
0.57803362607955933 0.12181337177753448 0.054631233215332031
0.61012578010559082 0.10719967633485794 0.052868135273456573
0.64251381158828735 0.091786816716194153 0.050546225160360336
0.67409539222717285 0.07600710541009903 0.048004947602748871
0.70526379346847534 0.05929197371006012 0.045564614236354828
0.73626893758773804 0.041818615049123764 0.042668245732784271
0.76599156856536865 0.026317153126001358 0.039665784686803818
0.7957313060760498 0.012010974809527397 0.035635873675346375
0.82535099983215332 0.0024968956131488085 0.031147236004471779
0.85414260625839233 0 0.025571919977664948
0.88329088687896729 0.0014442943502217531 0.019514709711074829
0.9121168851852417 0.003922000527381897 0.013542723841965199
0.94103014469146729 0.00076647673267871141 0.0080046467483043671
0.15080840885639191 0.2610776424407959 0.067722015082836151
0.15680138766765594 0.2599756121635437 0.06785072386264801
0.16384045779705048 0.25889402627944946 0.067927941679954529
0.17347453534603119 0.2577672004699707 0.067996598780155182
0.18584053218364716 0.25604051351547241 0.068133912980556488
0.20148879289627075 0.25397402048110962 0.068189702928066254
0.21827775239944458 0.2515123188495636 0.068339891731739044
0.23650354146957397 0.24884824454784393 0.06824977695941925
0.2565205991268158 0.24566438794136047 0.067932233214378357
0.27789759635925293 0.24197348952293396 0.067833557724952698
0.30044558644294739 0.23816736042499542 0.067927941679954529
0.32480612397193909 0.23385880887508392 0.067921705543994904
0.34983524680137634 0.22908981144428253 0.067823424935340881
0.37643086910247803 0.22340315580368042 0.067482121288776398
0.40422827005386353 0.21684356033802032 0.066891580820083618
0.43238204717636108 0.20988421142101288 0.066599383950233459
0.46196618676185608 0.20163089036941528 0.066467687487602234
0.49243044853210449 0.19268523156642914 0.065721519291400909
0.52331769466400146 0.18274030089378357 0.064497917890548706
0.55519288778305054 0.17103005945682526 0.063279271125793457
0.58720946311950684 0.15795107185840607 0.061525017023086548
0.6189645528793335 0.14362584054470062 0.05962386354804039
0.65121376514434814 0.12767067551612854 0.057515241205692291
0.68230372667312622 0.11087030172348022 0.054886728525161743
0.71297663450241089 0.092711441218852997 0.052443880587816238
0.74372833967208862 0.073446333408355713 0.049350116401910782
0.77308589220046997 0.055363968014717102 0.045626237988471985
0.80248492956161499 0.034427504986524582 0.041459497064352036
0.83143222332000732 0.015706708654761314 0.037168744951486588
0.85947048664093018 0.00376299605704844 0.032245971262454987
0.88779401779174805 0.0019949034322053194 0.025512624531984329
0.91625142097473145 0.0035372904967516661 0.018660739064216614
0.94484949111938477 0.0001497986086178571 0.011943582445383072
0.1606992781162262 0.29058215022087097 0.074104636907577515
0.16681984066963196 0.28985390067100525 0.074262231588363647
0.17437601089477539 0.2888430655002594 0.07432933896780014
0.18488021194934845 0.28763401508331299 0.074598081409931183
0.19773605465888977 0.28623524308204651 0.075071223080158234
0.21242840588092804 0.28402385115623474 0.075096949934959412
0.22900432348251343 0.28205591440200806 0.075096949934959412
0.24749329686164856 0.27911621332168579 0.075387142598628998
0.26759934425354004 0.27592355012893677 0.07559194415807724
0.28932538628578186 0.27223131060600281 0.075688034296035767
0.31213295459747314 0.26848357915878296 0.075919054448604584
0.33649724721908569 0.26416715979576111 0.075695961713790894
0.36146166920661926 0.25948864221572876 0.075176678597927094
0.38738557696342468 0.25412964820861816 0.074704185128211975
