Textures/71.cube
# Created by: G'MIC (https://gmic.eu)
TITLE "Kodak_Elite_ExtraColor_100.cube"
# LUT size
LUT_3D_SIZE 33
# Data domain
DOMAIN_MIN 0.0 0.0 0.0
DOMAIN_MAX 1.0 1.0 1.0
# LUT data points
0.0096644805744290352 0.0095857493579387665 0.0077376202680170536
0.032484833151102066 0.0081632267683744431 0.006856253370642662
0.054941289126873016 0.0073999138548970222 0.0059512271545827389
0.076749786734580994 0.006601402536034584 0.005389554426074028
0.097227424383163452 0.0045919744297862053 0.0050841327756643295
0.11609809100627899 0.0038633379153907299 0.0044636544771492481
0.1351592093706131 0.0036765625700354576 0.0041629155166447163
0.15689542889595032 0.0025046360678970814 0.0032866247929632664
0.17975550889968872 0.0015523751499131322 0.0028051920235157013
0.20391833782196045 0.0014314594445750117 0.002271994948387146
0.22839516401290894 0.0003868373460136354 0.0018312436295673251
0.25342699885368347 0.00032683333847671747 0.0012075747363269329
0.27870732545852661 0.00032683333847671747 0.00076575879938900471
0.30543136596679688 9.5326395239681005e-05 0.00046024785842746496
0.3339514434337616 0 0.00021760522213298827
0.36478996276855469 0 4.2414576455485076e-05
0.39864513278007507 0 0
0.43471869826316833 0 0
0.47238853573799133 0 0
0.50988584756851196 0 0
0.54385083913803101 0 0
0.57454413175582886 0 0
0.60304147005081177 0 0
0.62921977043151855 0 0
0.6546662449836731 0 0
0.67966294288635254 0 0
0.70459997653961182 0 0
0.72951394319534302 0 0
0.75402432680130005 0 0
0.77781611680984497 0 0
0.80093789100646973 0 0
0.82302099466323853 0 0
0.84360206127166748 0 0
0.02316194586455822 0.03756515309214592 0.012655926868319511
0.044858507812023163 0.034798350185155869 0.011368286795914173
0.066949352622032166 0.032635360956192017 0.010394482873380184
0.088487543165683746 0.030100522562861443 0.0095731448382139206
0.10839788615703583 0.027657104656100273 0.0087603265419602394
0.12665562331676483 0.025383135303854942 0.0081447791308164597
0.14544972777366638 0.022867379710078239 0.0076658613979816437
0.16681660711765289 0.020472262054681778 0.0069959629327058792
0.1891232430934906 0.017743971198797226 0.0060557476244866848
0.21271699666976929 0.015881748870015144 0.0050720558501780033
0.236859530210495 0.012797873467206955 0.0040774103254079819
0.2619062066078186 0.011778388172388077 0.003236524760723114
0.2864321768283844 0.0088174333795905113 0.0025849035009741783
0.31148433685302734 0.0076223253272473812 0.0018725877162069082
0.33839192986488342 0.0050406386144459248 0.0010699895210564137
0.36717718839645386 0.0027926822658628225 0.0005016339709982276
0.39878180623054504 0.00085839646635577083 0.00013249235053081065
0.43329745531082153 0.00012256254558451474 1.0213543646386825e-05
0.46969589591026306 0 0
0.50656014680862427 0 0
0.54092234373092651 0 0
0.5722927451133728 0 0
0.60097068548202515 0 0
0.62738490104675293 0 0
0.65294724702835083 0 0
0.67800933122634888 0 0
0.70287054777145386 0 0
0.72809189558029175 0 0
0.75269049406051636 0 0
0.77637565135955811 0 0
0.80015850067138672 0 0
0.82229626178741455 0 0
0.8424915075302124 0 0
0.038837559521198273 0.06442725658416748 0.017434790730476379
0.055918045341968536 0.061752688139677048 0.016011796891689301
0.074224844574928284 0.059426743537187576 0.014923702925443649
0.094752423465251923 0.056938938796520233 0.013887517154216766
0.11468372493982315 0.054304596036672592 0.013012995012104511
0.13261689245700836 0.052036665380001068 0.011899393983185291
0.151743084192276 0.049393258988857269 0.011027699336409569
0.17344985902309418 0.046217989176511765 0.010220850817859173
0.19566830992698669 0.04285796731710434 0.0090924259275197983
0.21988594532012939 0.039459075778722763 0.0079290475696325302
0.2442086935043335 0.036334201693534851 0.0071774409152567387
0.26944810152053833 0.033326242119073868 0.00603504478931427
0.29423773288726807 0.029387647286057472 0.0049031935632228851
0.31966450810432434 0.025846343487501144 0.0037107882089912891
0.34705469012260437 0.021461518481373787 0.0028641808312386274
0.37586680054664612 0.016742907464504242 0.0019443714991211891
0.40732118487358093 0.011827895417809486 0.0010327970376238227
0.4407101571559906 0.0086780739948153496 0.00047407860984094441
0.47543147206306458 0.004904809407889843 0.00011798768537119031
0.50976419448852539 0.001788605353794992 1.4185476970851596e-07
0.54167920351028442 0.00021959116565994918 0
0.57155406475067139 0 0
0.60002678632736206 0 0
0.62644219398498535 0 0
0.651844322681427 0 0
0.67720574140548706 0 0
0.70208495855331421 0 0
0.72724050283432007 0 0
0.75180304050445557 0 0
0.7758745551109314 0 0
0.79966390132904053 0 0
0.82189565896987915 0 0
0.84212881326675415 0 0
0.055970299988985062 0.088702954351902008 0.023789230734109879
0.069528661668300629 0.086927004158496857 0.022339368239045143
0.082995042204856873 0.085112035274505615 0.021089466288685799
0.1010376513004303 0.082917168736457825 0.019735442474484444
0.12014316767454147 0.080759570002555847 0.018721705302596092
0.13783113658428192 0.078492514789104462 0.018005214631557465
0.15735095739364624 0.076005011796951294 0.016865506768226624
0.17903319001197815 0.072984807193279266 0.015672860667109489
0.20138616859912872 0.069897353649139404 0.014233794994652271
0.22569467127323151 0.066922537982463837 0.01277567632496357
0.25030922889709473 0.063678167760372162 0.011235880665481091
0.27593210339546204 0.060509886592626572 0.0095708202570676804
0.30101034045219421 0.056626182049512863 0.0080178249627351761
0.32680082321166992 0.05235917866230011 0.0070863142609596252
0.35421377420425415 0.047201495617628098 0.0055676908232271671
0.38357457518577576 0.040814477950334549 0.0041950331069529057
0.41536146402359009 0.034416936337947845 0.0028775855898857117
0.44933974742889404 0.028752740472555161 0.001988705713301897
0.484376460313797 0.021828101947903633 0.00097872002515941858
0.51909220218658447 0.015167788602411747 0.00020515745563898236
0.54966109991073608 0.0090835224837064743 5.6741905609669629e-06
0.57716238498687744 0.0043571339920163155 0
0.60211366415023804 0.0012136615114286542 0
0.62610542774200439 0.00015320314560085535 0
0.65118247270584106 0 0
0.67677497863769531 0 0
0.70131188631057739 0 0
0.72656911611557007 0 0
0.75122147798538208 0 0
0.77554506063461304 0 0
0.79943490028381348 0 0
0.82181370258331299 0 0
0.84180271625518799 0 0
0.072798512876033783 0.11059016734361649 0.032094012945890427
0.08347514271736145 0.10965394973754883 0.030706612393260002
0.094557918608188629 0.10803355276584625 0.029410660266876221
0.10809521377086639 0.10578202456235886 0.027943911030888557
0.12511192262172699 0.10407332330942154 0.026412768289446831
0.14252911508083344 0.10202020406723022 0.025075269863009453
0.1626848578453064 0.099748134613037109 0.023773998022079468
0.18382687866687775 0.097158521413803101 0.022876357659697533
0.20656175911426544 0.094102285802364349 0.021004978567361832
0.23087845742702484 0.091311626136302948 0.019176559522747993
0.25586825609207153 0.08824901282787323 0.017592735588550568
0.28144878149032593 0.085279658436775208 0.015651848167181015
0.30687254667282104 0.081834442913532257 0.013404178433120251
0.33288177847862244 0.077746711671352386 0.011587442830204964
0.36070787906646729 0.072700545191764832 0.0096115162596106529
0.39010477066040039 0.066952645778656006 0.0078887399286031723
0.42242470383644104 0.060738410800695419 0.0057509881444275379
0.45677193999290466 0.05415010079741478 0.0042586633935570717
0.49204090237617493 0.046412061899900436 0.0027329719159752131
0.5270235538482666 0.037834279239177704 0.0012460042489692569
0.55813956260681152 0.029170079156756401 0.00030956257251091301
0.58601397275924683 0.020504806190729141 1.9150395019096322e-05
0.61076116561889648 0.012942565605044365 0
0.63265395164489746 0.0067182215861976147 0
0.65373963117599487 0.0018707260023802519 0
0.67630606889724731 0 0
0.7008703351020813 0 0
0.72627425193786621 0 0
0.75082367658615112 0 0
0.77513504028320312 0 0
0.7993006706237793 0 0
0.82181370258331299 0 0
0.84207731485366821 0 0
0.088756471872329712 0.13204175233840942 0.041554588824510574
0.097377628087997437 0.13041426241397858 0.040528364479541779
0.10675585269927979 0.12920482456684113 0.039269372820854187
0.11773913353681564 0.12756800651550293 0.037832852452993393
0.13071282207965851 0.12573529779911041 0.036336667835712433
0.1476091742515564 0.12402298301458359 0.034673526883125305
0.16819411516189575 0.12159828841686249 0.033031076192855835
0.18895891308784485 0.11926266551017761 0.031617548316717148
0.21179138123989105 0.11678746342658997 0.0299653559923172
0.2360663115978241 0.11391688883304596 0.027708172798156738
0.26107600331306458 0.11088698357343674 0.025650693103671074
0.28712549805641174 0.10769329220056534 0.023324450477957726
0.31249269843101501 0.10477112233638763 0.02036668173968792
0.33885657787322998 0.10074982047080994 0.018191520124673843
0.36698320508003235 0.096000194549560547 0.015921918675303459
0.39652013778686523 0.090672776103019714 0.013344586826860905
0.42891919612884521 0.084919735789299011 0.010570314712822437
0.46360042691230774 0.079052664339542389 0.0082256169989705086
0.49936872720718384 0.072083994746208191 0.0058844899758696556
0.53429937362670898 0.063803710043430328 0.0033679946791380644
0.5658721923828125 0.054326865822076797 0.0017287895316258073
0.59362447261810303 0.044709067791700363 0.00050936476327478886
0.61903822422027588 0.034480549395084381 2.3406038963003084e-05
0.64134806394577026 0.024149458855390549 0
0.66221290826797485 0.014102417044341564 0
0.68237870931625366 0.0061374399811029434 0
0.70257818698883057 0.0012083434266969562 0
0.72572487592697144 6.8090284912614152e-06 0
0.7506909966468811 0 0
0.77501022815704346 0 0
0.79921054840087891 0 0
0.82174193859100342 0 0
0.84264367818832397 0 0
0.10553719848394394 0.15546169877052307 0.051643535494804382
0.11266355216503143 0.15458884835243225 0.050882548093795776
0.12059029191732407 0.15304167568683624 0.049743194133043289
0.12982858717441559 0.15185530483722687 0.048428986221551895
0.14013290405273438 0.1503046452999115 0.047007013112306595
0.15438118577003479 0.14844416081905365 0.045180395245552063
0.17443452775478363 0.1460498571395874 0.043150961399078369
0.19482836127281189 0.14379800856113434 0.041561201214790344
0.21800945699214935 0.14101813733577728 0.039534121751785278
0.24227398633956909 0.13852116465568542 0.037179984152317047
0.26741930842399597 0.13564033806324005 0.034984499216079712
0.29328903555870056 0.13236995041370392 0.032326705753803253
0.31904760003089905 0.12939472496509552 0.029045281931757927
0.3456362783908844 0.12546464800834656 0.026098908856511116
0.37383276224136353 0.1210460439324379 0.023124054074287415
0.40356582403182983 0.11613896489143372 0.020406631752848625
0.43633198738098145 0.11089655756950378 0.016872867941856384
0.47146525979042053 0.10479580610990524 0.013478366658091545
0.50733238458633423 0.098355844616889954 0.010408825241029263
0.54238665103912354 0.091197818517684937 0.0072146570309996605
0.57407224178314209 0.082504533231258392 0.0044114761985838413
0.60208892822265625 0.073633261024951935 0.0023956703953444958
0.62768787145614624 0.063255801796913147 0.00079101521987468004
0.65054136514663696 0.051989756524562836 0.00010660386033123359
0.67194724082946777 0.039263937622308731 0
0.69260460138320923 0.025858461856842041 0
0.71207624673843384 0.014245772734284401 0
0.73114633560180664 0.0049191936850547791 0
0.75135892629623413 0.00093749474035575986 0
0.77490955591201782 3.5109056625515223e-05 0
0.7991676926612854 0 0
0.82185900211334229 0 0
0.84301692247390747 0 0
0.12229515612125397 0.17938865721225739 0.061386991292238235
0.12818433344364166 0.17859490215778351 0.060404010117053986
0.13461534678936005 0.17706841230392456 0.059896528720855713
0.14234450459480286 0.17626632750034332 0.058775473386049271
0.15224365890026093 0.17456810176372528 0.0573139488697052
0.16486494243144989 0.17261512577533722 0.055599071085453033
0.18104173243045807 0.17043907940387726 0.05363691970705986
0.20129093527793884 0.16826519370079041 0.051906324923038483
0.22475053369998932 0.16569338738918304 0.04990633949637413
0.24902863800525665 0.16318762302398682 0.047417107969522476
0.27420133352279663 0.15993158519268036 0.044645115733146667
0.30021059513092041 0.15650694072246552 0.04184810072183609
0.32599037885665894 0.15344636142253876 0.038542144000530243
0.35256791114807129 0.14953456819057465 0.035346169024705887
0.38110128045082092 0.14518487453460693 0.031972683966159821
0.41121390461921692 0.14029984176158905 0.028301576152443886
0.44396203756332397 0.13529868423938751 0.024141322821378708
0.47946733236312866 0.12916290760040283 0.019931215792894363
0.51553189754486084 0.12315569818019867 0.015929905697703362
0.55035215616226196 0.11666159331798553 0.012060929089784622
0.58208048343658447 0.10816307365894318 0.0086375921964645386
0.61016315221786499 0.10000964999198914 0.0058221630752086639
0.63601845502853394 0.090611457824707031 0.0030365446582436562
0.65912944078445435 0.079821333289146423 0.0013039906043559313
0.68075990676879883 0.068028390407562256 0.00019969603454228491
0.70181465148925781 0.05414876714348793 0
0.72199743986129761 0.039708305150270462 0
0.74150043725967407 0.024704191833734512 0
0.75943750143051147 0.012276476249098778 0
0.77759671211242676 0.0037704831920564175 0
0.799111008644104 0.00016448058886453509 0
0.82212936878204346 0 0
0.84351462125778198 0 0
0.13283415138721466 0.20665380358695984 0.070060327649116516
0.13797418773174286 0.20587478578090668 0.0692853182554245
0.14413681626319885 0.20537862181663513 0.068763434886932373
0.15239943563938141 0.20346829295158386 0.068074971437454224
0.16304750740528107 0.20215879380702972 0.066950425505638123
0.17564727365970612 0.20019374787807465 0.065442599356174469
0.18956425786018372 0.19823133945465088 0.063921302556991577
0.20916634798049927 0.19580890238285065 0.062219403684139252
0.23221401870250702 0.19354939460754395 0.060192830860614777
0.25680845975875854 0.19064930081367493 0.057880319654941559
0.28210127353668213 0.18740920722484589 0.054868802428245544
0.30800917744636536 0.18416984379291534 0.051984380930662155
0.33388522267341614 0.18035015463829041 0.04909573495388031
0.3608095645904541 0.17636936902999878 0.04571407288312912
0.38933289051055908 0.17185476422309875 0.041780516505241394
0.41974669694900513 0.16734753549098969 0.037257611751556396
0.45284387469291687 0.16175617277622223 0.032811772078275681
0.48852705955505371 0.15597768127918243 0.028049532324075699
0.52465236186981201 0.15004931390285492 0.022897252812981606
0.55940455198287964 0.14294146001338959 0.018282443284988403
0.59071248769760132 0.13516035676002502 0.014089132659137249
0.61885654926300049 0.12744411826133728 0.01023089699447155
0.64475047588348389 0.11780686676502228 0.0069829630665481091
0.66795128583908081 0.10832995176315308 0.0040304344147443771
0.68990778923034668 0.097395442426204681 0.0018528479849919677
0.71133333444595337 0.084561377763748169 0.00036800673115067184
0.73198783397674561 0.07075858861207962 2.5533854568493553e-06
0.7518044114112854 0.054606746882200241 0
0.77074176073074341 0.037581730633974075 0
0.78821778297424316 0.02029036171734333 0
0.80455482006072998 0.0060521150007843971 0
0.8230135440826416 0.00034384554601274431 0
0.84376901388168335 0 0
0.13206245005130768 0.23658384382724762 0.07849777489900589
0.13761943578720093 0.235748291015625 0.078239545226097107
0.14429549872875214 0.23504278063774109 0.077371686697006226
0.15361092984676361 0.23412571847438812 0.076527565717697144
0.16514012217521667 0.23210597038269043 0.075440041720867157
0.17813512682914734 0.23088459670543671 0.074288688600063324
0.1957019567489624 0.22856190800666809 0.072705075144767761
0.21739113330841064 0.2267862856388092 0.070924267172813416
0.24072776734828949 0.22379472851753235 0.068984977900981903
0.26542040705680847 0.22143256664276123 0.066755466163158417
0.29072675108909607 0.21842291951179504 0.063794076442718506
0.31658139824867249 0.21472589671611786 0.060932602733373642
0.34275531768798828 0.21078656613826752 0.057976234704256058
0.36984914541244507 0.20642854273319244 0.054893258959054947
0.39880102872848511 0.20200592279434204 0.051333308219909668
0.4294981062412262 0.19727982580661774 0.046822808682918549
0.46309950947761536 0.1915418803691864 0.041963621973991394
0.49878713488578796 0.18540860712528229 0.036813981831073761
0.53467875719070435 0.17905043065547943 0.031251665204763412
0.56941044330596924 0.17187173664569855 0.025595387443900108
0.60041415691375732 0.16396375000476837 0.020695624873042107
0.62827807664871216 0.15546698868274689 0.015928810462355614
0.6540064811706543 0.14653971791267395 0.011785482987761497
0.67735028266906738 0.13742505013942719 0.0080918623134493828
0.69945794343948364 0.12721097469329834 0.0049950461834669113
0.72112733125686646 0.11493957787752151 0.0021136442665010691
0.74203723669052124 0.10230027139186859 0.00037708543823100626
0.76222538948059082 0.08788473904132843 1.9859664917021291e-06
0.7817273736000061 0.070751696825027466 0
0.79993981122970581 0.051263939589262009 0
0.8167412281036377 0.028538592159748077 0
0.83080291748046875 0.010367410257458687 0
0.84516447782516479 0.0010612217010930181 0
0.13208973407745361 0.26885578036308289 0.088297829031944275
0.13709168136119843 0.26796358823776245 0.087921403348445892
0.1441008448600769 0.266410231590271 0.087319150567054749
0.15442882478237152 0.26509127020835876 0.08645167201757431
0.16716648638248444 0.26491674780845642 0.085423417389392853
0.18369056284427643 0.26229071617126465 0.084331341087818146
0.20411480963230133 0.26111119985580444 0.082837000489234924
0.22595731914043427 0.25862935185432434 0.080755792558193207
0.25006651878356934 0.25706902146339417 0.078463539481163025
0.27482685446739197 0.2536236047744751 0.076241567730903625
0.3000464141368866 0.25132909417152405 0.073814243078231812
0.32606691122055054 0.248120978474617 0.070864416658878326
0.3521668016910553 0.24404855072498322 0.067921876907348633
0.37983191013336182 0.23964136838912964 0.064291477203369141
0.40923517942428589 0.23537580668926239 0.060302488505840302
0.44030082225799561 0.23064030706882477 0.055979140102863312
0.47428187727928162 0.22449599206447601 0.050912871956825256
0.51034361124038696 0.21845923364162445 0.045302394777536392
0.54602420330047607 0.21192468702793121 0.039526060223579407
0.58039134740829468 0.20400328934192657 0.033622238785028458
0.61129045486450195 0.19542486965656281 0.028086509555578232
0.63877689838409424 0.18692809343338013 0.022697648033499718
0.66414964199066162 0.17811228334903717 0.017840899527072906
0.68724346160888672 0.16832448542118073 0.013230642303824425
0.70946294069290161 0.1577635258436203 0.0091629205271601677
0.73120367527008057 0.14606843888759613 0.0056214611977338791
0.75215613842010498 0.1338166743516922 0.0025406088680028915
0.77285337448120117 0.12049631029367447 0.00045560204307548702
0.79280835390090942 0.10473854094743729 0
0.81167471408843994 0.086276352405548096 0
0.82899278402328491 0.064255297183990479 0
0.84378093481063843 0.039251402020454407 0
0.85485738515853882 0.015095078386366367 0
0.13209055364131927 0.29984936118125916 0.095700778067111969
0.13915880024433136 0.29967343807220459 0.095169484615325928
0.14725393056869507 0.29967343807220459 0.094812981784343719
0.15905319154262543 0.29947206377983093 0.094226762652397156
0.1742413192987442 0.29684454202651978 0.093637354671955109
0.19272741675376892 0.2957514226436615 0.09241504967212677
0.21320085227489471 0.29496607184410095 0.091052211821079254
0.23533126711845398 0.29190242290496826 0.089297525584697723
0.25992020964622498 0.29072067141532898 0.087169498205184937
0.28499498963356018 0.28790849447250366 0.084796912968158722
0.31003883481025696 0.28528305888175964 0.082640662789344788
0.3361249566078186 0.28273776173591614 0.080145865678787231
0.36228403449058533 0.27943158149719238 0.077546238899230957
0.39015752077102661 0.27542221546173096 0.074125953018665314
0.42033118009567261 0.270912766456604 0.070022746920585632
0.4522654116153717 0.26626530289649963 0.065783411264419556
0.486795574426651 0.26074960827827454 0.061006572097539902
0.52299708127975464 0.25466978549957275 0.055251438170671463
0.55895316600799561 0.24801157414913177 0.049065139144659042
0.59290969371795654 0.24002258479595184 0.043053612112998962
0.62326490879058838 0.23195125162601471 0.036656733602285385
0.65062761306762695 0.2228667289018631 0.030507983639836311
0.67582672834396362 0.21356497704982758 0.024615911766886711
0.69856911897659302 0.20341359078884125 0.019324516877532005
0.72069454193115234 0.19199217855930328 0.014673910103738308
0.7423129677772522 0.17995606362819672 0.010053340345621109
0.7632719874382019 0.16755853593349457 0.0059727751649916172
0.78394711017608643 0.15283232927322388 0.0025191155727952719
0.80419468879699707 0.13928778469562531 0.00023370572307612747
0.82342350482940674 0.12232706695795059 0
0.84137940406799316 0.10147139430046082 0
0.85679179430007935 0.078285716474056244 0
0.86904454231262207 0.050088498741388321 0
0.13766217231750488 0.33365997672080994 0.10330308973789215
0.14532311260700226 0.33365997672080994 0.10261621326208115
0.15454696118831635 0.33365997672080994 0.10220666974782944
0.16743132472038269 0.33215752243995667 0.10161769390106201
0.18329858779907227 0.32973864674568176 0.10084971040487289
0.2014855295419693 0.32973864674568176 0.099665865302085876
0.22213871777057648 0.32891935110092163 0.098419353365898132
0.24520216882228851 0.32585370540618896 0.096715442836284637
0.26939952373504639 0.32506802678108215 0.09480062872171402
0.29447314143180847 0.3219543993473053 0.092508517205715179
0.31974086165428162 0.31989169120788574 0.090207189321517944
0.34598323702812195 0.31746974587440491 0.087450087070465088
0.37268903851509094 0.31414750218391418 0.084439434111118317
0.40084591507911682 0.31067651510238647 0.081173688173294067
0.43161234259605408 0.30688202381134033 0.077500596642494202
0.46425303816795349 0.30226963758468628 0.073457799851894379
0.49946340918540955 0.29700541496276855 0.068682603538036346
0.53631925582885742 0.29147183895111084 0.063350707292556763
0.57200008630752563 0.2850010097026825 0.057915415614843369
0.60574871301651001 0.27791431546211243 0.052320711314678192
0.63599705696105957 0.27000674605369568 0.045960988849401474
0.66320115327835083 0.26147955656051636 0.039776001125574112
0.68814283609390259 0.25190582871437073 0.033712320029735565
0.7110094428062439 0.24213823676109314 0.027075530961155891
0.73310887813568115 0.23045679926872253 0.021022144705057144
0.7546197772026062 0.21768233180046082 0.015119993127882481
0.77537977695465088 0.204433873295784 0.010097766295075417
0.79609495401382446 0.1898772269487381 0.0055738729424774647
0.81624847650527954 0.17401957511901855 0.0019456952577456832
0.83522504568099976 0.15702611207962036 6.6529893956612796e-05
0.85345834493637085 0.13827359676361084 0
0.8693961501121521 0.11641676723957062 0
0.88252723217010498 0.091105297207832336 0
0.14905750751495361 0.3683447539806366 0.10886014252901077
0.15638019144535065 0.36790317296981812 0.10833790153264999
0.16536867618560791 0.3678562343120575 0.10807891935110092
0.17775751650333405 0.36770346760749817 0.1074209064245224
0.19277219474315643 0.36646458506584167 0.10660949349403381
0.21082578599452972 0.36505672335624695 0.10550904273986816
0.23225288093090057 0.36399030685424805 0.10424009710550308
0.25492134690284729 0.36272969841957092 0.10276623070240021
0.27950716018676758 0.36057072877883911 0.10083390027284622
0.30437490344047546 0.35868740081787109 0.099040217697620392
0.32976019382476807 0.35637965798377991 0.096660919487476349
0.35631588101387024 0.35364744067192078 0.094311147928237915
0.38344705104827881 0.35087835788726807 0.09144747257232666
0.41225996613502502 0.34761700034141541 0.088482677936553955
0.44387027621269226 0.3438243567943573 0.085065461695194244
0.47716447710990906 0.33935439586639404 0.081060394644737244
