Textures/71.cube
# Created by: G'MIC (https://gmic.eu)
TITLE "Kodak_Elite_ExtraColor_100.cube"
# LUT size
LUT_3D_SIZE 5
# Data domain
DOMAIN_MIN 0.0 0.0 0.0
DOMAIN_MAX 1.0 1.0 1.0
# LUT data points
0.0096644805744290352 0.0095857493579387665 0.0077376202680170536
0.17975550889968872 0.0015523751499131322 0.0028051920235157013
0.39864513278007507 0 0
0.6546662449836731 0 0
0.84360206127166748 0 0
0.13283415138721466 0.20665380358695984 0.070060327649116516
0.23221401870250702 0.19354939460754395 0.060192830860614777
0.45284387469291687 0.16175617277622223 0.032811772078275681
0.68990778923034668 0.097395442426204681 0.0018528479849919677
0.84376901388168335 0 0
0.17163510620594025 0.49705895781517029 0.1200096607208252
0.31031540036201477 0.49046069383621216 0.11273672431707382
0.55838710069656372 0.46719777584075928 0.090219214558601379
0.78950780630111694 0.4138604998588562 0.048197556287050247
0.94598942995071411 0.28594833612442017 0
0.29358485341072083 0.81879079341888428 0.047282770276069641
0.42288333177566528 0.81879085302352905 0.044121745973825455
0.68566840887069702 0.81292241811752319 0.032340511679649353
0.89911347627639771 0.79658931493759155 0.022193392738699913
1 0.7412680983543396 0.019672354683279991
0.5202828049659729 1 0
0.62103211879730225 1 0
0.81253725290298462 1 0
0.99737030267715454 1 0
1 1 0
0.00061464938335120678 0.013544130139052868 0.16497167944908142
0.14099261164665222 0.003680108580738306 0.14632295072078705
0.36513462662696838 0 0.11984127014875412
0.62834525108337402 0 0.082600168883800507
0.82386684417724609 0 0.028602452948689461
0.1031094491481781 0.21129554510116577 0.20714323222637177
0.19857816398143768 0.19778761267662048 0.1979256272315979
0.43055981397628784 0.16493040323257446 0.17246712744235992
0.67313438653945923 0.098267920315265656 0.12441126257181168
0.82159769535064697 0 0.042266089469194412
0.090713813900947571 0.5020938515663147 0.24834389984607697
0.26904523372650146 0.49576485157012939 0.24079854786396027
0.53494882583618164 0.47207671403884888 0.21623954176902771
0.77278327941894531 0.4178253710269928 0.17405131459236145
0.92982608079910278 0.28813010454177856 0.10444724559783936
0.22475467622280121 0.81227481365203857 0.2228674441576004
0.37777352333068848 0.81094753742218018 0.21484814584255219
0.65716373920440674 0.80701512098312378 0.18863809108734131
0.87706416845321655 0.79061990976333618 0.14452739059925079
1 0.74055618047714233 0.084529422223567963
0.50450587272644043 1 0
0.60872095823287964 1 0
0.80892521142959595 1 0
0.99765121936798096 1 0
1 1 0
0 0.015250688418745995 0.34589743614196777
0.098208479583263397 0.0064283795654773712 0.33305209875106812
0.32899168133735657 0 0.3103119432926178
0.59298157691955566 0 0.27728322148323059
0.79114061594009399 0 0.23328095674514771
0.050405636429786682 0.21777656674385071 0.41515785455703735
0.14990603923797607 0.20453338325023651 0.40935507416725159
0.38868597149848938 0.16935352981090546 0.38978728652000427
0.64105141162872314 0.098613537847995758 0.35140994191169739
0.78561580181121826 0 0.28016775846481323
0.0018228190019726753 0.50694447755813599 0.49884122610092163
0.15053850412368774 0.50059759616851807 0.49448162317276001
0.47751358151435852 0.47741058468818665 0.4773576557636261
0.7334478497505188 0.42229774594306946 0.44525930285453796
0.89541769027709961 0.2907899022102356 0.38176694512367249
0.0042146747000515461 0.79539948701858521 0.54502367973327637
0.24243219196796417 0.79485654830932617 0.54000771045684814
0.58419245481491089 0.78974419832229614 0.52502179145812988
0.82374322414398193 0.77395462989807129 0.50098401308059692
0.99931913614273071 0.72464698553085327 0.44684508442878723
0.34803962707519531 1 0.37439745664596558
0.48714402318000793 1 0.36780592799186707
0.73357117176055908 1 0.34859633445739746
0.9510611891746521 1 0.31245961785316467
1 1 0.20374895632266998
0 0.02381431870162487 0.57448762655258179
0.028652656823396683 0.011616487987339497 0.5668025016784668
0.27513456344604492 0.00073749519651755691 0.54788661003112793
0.542225182056427 0 0.51611316204071045
0.74395602941513062 0 0.49161970615386963
0.0062322760932147503 0.23507741093635559 0.65131360292434692
0.071797557175159454 0.22319033741950989 0.64626336097717285
0.32602483034133911 0.19031605124473572 0.62892317771911621
0.6029127836227417 0.11439498513936996 0.59675818681716919
0.75459671020507812 8.3658742369152606e-05 0.54577505588531494
0 0.52423340082168579 0.73430687189102173
0.00048781343502923846 0.51881211996078491 0.73050355911254883
0.39445239305496216 0.49828803539276123 0.71516001224517822
0.69143152236938477 0.44571048021316528 0.68926173448562622
0.86392855644226074 0.31104645133018494 0.64514362812042236
0 0.78759169578552246 0.79993993043899536
0.0010033652652055025 0.78645128011703491 0.79594951868057251
0.48547032475471497 0.78295034170150757 0.7837640643119812
0.76766175031661987 0.76775497198104858 0.76750457286834717
0.96333843469619751 0.71784132719039917 0.73941725492477417
0 0.99686819314956665 0.79571765661239624
0.12064849585294724 0.99784177541732788 0.79186195135116577
0.58063101768493652 0.99893087148666382 0.78042066097259521
0.84403038024902344 0.99951666593551636 0.76690411567687988
1 0.99815112352371216 0.7359771728515625
0 0.062334384769201279 0.74631422758102417
0 0.039770256727933884 0.74161642789840698
0.21786068379878998 0.015226101502776146 0.72484511137008667
0.51234763860702515 0 0.69294077157974243
0.70831328630447388 0 0.66730910539627075
0 0.28216531872749329 0.82552844285964966
0.012646122835576534 0.27192497253417969 0.82189643383026123
0.23877659440040588 0.24365146458148956 0.80605792999267578
0.57418495416641235 0.17610809206962585 0.77657181024551392
0.74530547857284546 0.015754276886582375 0.73286110162734985
0 0.5627097487449646 0.91061925888061523
0 0.55917036533355713 0.90668332576751709
0.23994630575180054 0.54500371217727661 0.89217239618301392
0.64661997556686401 0.50446045398712158 0.86818915605545044
0.85014355182647705 0.37613111734390259 0.83199328184127808
0 0.79842042922973633 0.97748535871505737
0 0.79774641990661621 0.97382861375808716
0.26864525675773621 0.79565262794494629 0.9609876275062561
0.701701819896698 0.78460586071014404 0.94392842054367065
0.93408983945846558 0.73997783660888672 0.92397111654281616
0 0.97884625196456909 1
0 0.98153603076934814 1
0.23419922590255737 0.98545759916305542 1
0.73598062992095947 0.98985731601715088 0.99668318033218384
0.9881899356842041 0.98897939920425415 0.98817926645278931
