Textures/72.cube
# Created by: G'MIC (https://gmic.eu)
TITLE "Kodak_Kodachrome_25.cube"
# LUT size
LUT_3D_SIZE 5
# Data domain
DOMAIN_MIN 0.0 0.0 0.0
DOMAIN_MAX 1.0 1.0 1.0
# LUT data points
0.0018703156383708119 0.0023868002463132143 0.0016835062997415662
0.10507528483867645 0.0034995279274880886 0.0016616472275927663
0.41546359658241272 0 0
1 0.0019235080108046532 0
1 0.28394991159439087 0.14672169089317322
0.10051026940345764 0.23401057720184326 0.10849661380052567
0.24917934834957123 0.24211058020591736 0.099745720624923706
0.62147617340087891 0.26799330115318298 0.085412092506885529
0.86378663778305054 0.37311440706253052 0.13727977871894836
1 0.48622468113899231 0.22665426135063171
0.44454357028007507 0.59910130500793457 0.28422531485557556
0.50840747356414795 0.59910130500793457 0.2779071033000946
0.64787071943283081 0.60197269916534424 0.26475882530212402
0.81209957599639893 0.61534243822097778 0.25308257341384888
0.99844765663146973 0.64408224821090698 0.24728533625602722
0.67214053869247437 0.79726827144622803 0.37916684150695801
0.69380968809127808 0.79746717214584351 0.37794879078865051
0.7567639946937561 0.7993464469909668 0.37267163395881653
0.86423337459564209 0.80326801538467407 0.36310070753097534
1 0.81603902578353882 0.35077968239784241
0.87451010942459106 0.9843142032623291 0.47058805823326111
0.88627505302429199 0.9843142032623291 0.47058805823326111
0.91854584217071533 0.9843142032623291 0.46666702628135681
0.97708171606063843 0.98544418811798096 0.46274504065513611
1 0.99208205938339233 0.45179373025894165
0 0.00032683333847671747 0.17818588018417358
0.042066972702741623 0.0012256253976374865 0.1876617819070816
0.34610778093338013 0 0.1614447683095932
0.9990888237953186 5.9862701164092869e-05 0.090528689324855804
1 0.27201494574546814 0.32131430506706238
0.0643276646733284 0.21472060680389404 0.23348663747310638
0.20237477123737335 0.22087232768535614 0.23545686900615692
0.59060728549957275 0.24074958264827728 0.23841041326522827
0.83078259229660034 0.35538962483406067 0.32600170373916626
0.99439716339111328 0.47573426365852356 0.42706406116485596
0.43311604857444763 0.5975608229637146 0.30284968018531799
0.49834910035133362 0.59681206941604614 0.30047607421875
0.63952624797821045 0.59909266233444214 0.30096167325973511
0.80068367719650269 0.61177593469619751 0.31814122200012207
0.98528486490249634 0.63895869255065918 0.39092209935188293
0.67170947790145874 0.79754889011383057 0.38006547093391418
0.69350516796112061 0.79821872711181641 0.37813925743103027
0.75690996646881104 0.79985594749450684 0.37332689762115479
0.86615520715713501 0.80445253849029541 0.36357122659683228
1 0.81741571426391602 0.35077965259552002
0.87843126058578491 0.98823493719100952 0.47451004385948181
0.89015698432922363 0.98823493719100952 0.47058805823326111
0.92243003845214844 0.98823493719100952 0.47054719924926758
0.98022890090942383 0.9893413782119751 0.46274504065513611
1 0.99597764015197754 0.4549020528793335
0 0 0.31056544184684753
0.0080336686223745346 0 0.30422848463058472
0.27267932891845703 0 0.27505496144294739
0.9966704249382019 0 0.16725744307041168
1 0.24987131357192993 0.38718286156654358
0.0065364548936486244 0.17143590748310089 0.42603856325149536
0.13559029996395111 0.17742469906806946 0.41794309020042419
0.54340922832489014 0.18459524214267731 0.38861924409866333
0.81853842735290527 0.31731313467025757 0.446656733751297
0.98625403642654419 0.45904052257537842 0.52684533596038818
0.30323037505149841 0.57727563381195068 0.6009361743927002
0.38847488164901733 0.57645964622497559 0.59841519594192505
0.55525952577590942 0.57891225814819336 0.59513521194458008
0.73274385929107666 0.59302264451980591 0.59955531358718872
0.94062262773513794 0.62476640939712524 0.6151546835899353
0.63880139589309692 0.79292976856231689 0.47631168365478516
0.659778892993927 0.79292976856231689 0.48584216833114624
0.717704176902771 0.7937735915184021 0.51279503107070923
0.8175165057182312 0.795784592628479 0.56150698661804199
0.9854806661605835 0.80656212568283081 0.62524574995040894
0.88599413633346558 0.99501603841781616 0.47467344999313354
0.89481234550476074 0.99591463804244995 0.47451004385948181
0.92675143480300903 0.99607807397842407 0.47254905104637146
0.98415035009384155 0.99607807397842407 0.46666702628135681
1 1 0.458168625831604
0 0 0.39647018909454346
0 0 0.38532045483589172
0.15284767746925354 0 0.36241051554679871
0.97414422035217285 0 0.21400167047977448
1 0.1764017790555954 0.41890144348144531
0 0.078437656164169312 0.47946292161941528
0.040776107460260391 0.088454827666282654 0.47686368227005005
0.42528951168060303 0.10754241794347763 0.45482578873634338
0.85029977560043335 0.21833373606204987 0.4787747859954834
0.99162441492080688 0.42150908708572388 0.59108656644821167
0.14251884818077087 0.54941105842590332 0.71611976623535156
0.28478693962097168 0.54741907119750977 0.71047002077102661
0.50237685441970825 0.54969280958175659 0.70022082328796387
0.70359712839126587 0.56681150197982788 0.69953685998916626
0.92399871349334717 0.60534906387329102 0.70973008871078491
0.52114468812942505 0.77264958620071411 0.80026888847351074
0.54831522703170776 0.77285557985305786 0.80043280124664307
0.62195700407028198 0.77390140295028687 0.80111086368560791
0.74590182304382324 0.77787429094314575 0.80130964517593384
0.9467475414276123 0.79213541746139526 0.80449950695037842
0.87037903070449829 0.9990195631980896 0.54150325059890747
0.87900340557098389 0.9990195631980896 0.54818391799926758
0.90404427051544189 0.9990195631980896 0.5720980167388916
0.9495081901550293 0.99903827905654907 0.61744111776351929
1 1 0.71372371912002563
0 0 0.45036232471466064
0 0 0.45230782032012939
0.072872407734394073 0 0.40794029831886292
0.86875355243682861 0 0.26055276393890381
1 0.06840786337852478 0.38860806822776794
0 0.021078251302242279 0.50710779428482056
0 0.022484257817268372 0.50388407707214355
0.33473753929138184 0.013133199885487556 0.46107023954391479
0.91575771570205688 0.061871964484453201 0.43458941578865051
0.99997967481613159 0.36828535795211792 0.60555559396743774
0 0.51160126924514771 0.77034997940063477
0.11843167990446091 0.50679975748062134 0.75813931226730347
0.45364081859588623 0.50744324922561646 0.74110162258148193
0.68854683637619019 0.52968913316726685 0.73747950792312622
0.91789877414703369 0.57932168245315552 0.75042390823364258
0.45755216479301453 0.75416672229766846 0.88112747669219971
0.48977068066596985 0.75416672229766846 0.87998366355895996
0.57370471954345703 0.75416672229766846 0.87990552186965942
0.70911282300949097 0.75782608985900879 0.87606209516525269
0.92927384376525879 0.7726445198059082 0.87214052677154541
0.73333311080932617 0.9843142032623291 0.96862709522247314
0.74624186754226685 0.9843142032623291 0.97254908084869385
0.77949351072311401 0.98823493719100952 0.97647106647491455
0.84093141555786133 0.98823493719100952 0.9843142032623291
0.98055565357208252 0.99607807397842407 0.99607807397842407
