Textures/72.cube
# Created by: G'MIC (https://gmic.eu)
TITLE "Kodak_Kodachrome_25.cube"
# LUT size
LUT_3D_SIZE 33
# Data domain
DOMAIN_MIN 0.0 0.0 0.0
DOMAIN_MAX 1.0 1.0 1.0
# LUT data points
0.0018703156383708119 0.0023868002463132143 0.0016835062997415662
0.0085978591814637184 0.0026270577218383551 0.0016366941854357719
0.017261680215597153 0.0027085680048912764 0.0016086071263998747
0.028960090130567551 0.0028630082961171865 0.0016086070099845529
0.04309067502617836 0.0031773613300174475 0.0016086071263998747
0.057529713958501816 0.0033903096336871386 0.0016491671558469534
0.07170896977186203 0.0034995279274880886 0.0017583676381036639
0.088166721165180206 0.0034995279274880886 0.0017427672864869237
0.10507528483867645 0.0034995279274880886 0.0016616472275927663
0.12370877712965012 0.0035295658744871616 0.0016086070099845529
0.14430978894233704 0.0037055010907351971 0.0015914469258859754
0.16905048489570618 0.0035170826595276594 0.0014546110760420561
0.19758115708827972 0.0029940486419945955 0.00099624611902981997
0.23415292799472809 0.0023948298767209053 0.00028647569706663489
0.28370749950408936 0.0017081755213439465 0
0.34494465589523315 0.00010951188596663997 0
0.41546359658241272 0 0
0.48823621869087219 0 0
0.56004458665847778 0 0
0.64112484455108643 0 0
0.7352604866027832 0 0
0.83573853969573975 0 0
0.92847448587417603 2.9647644623764791e-05 0
0.99110740423202515 0.00037591191357932985 0
1 0.0019235080108046532 0
1 0.0075537143275141716 0
1 0.018396051600575447 0
1 0.042048186063766479 0.00068670843029394746
1 0.079715795814990997 0.0079623628407716751
1 0.12811128795146942 0.029230140149593353
1 0.18662692606449127 0.065470241010189056
1 0.23788855969905853 0.10745149105787277
1 0.28394991159439087 0.14672169089317322
0.0073699848726391792 0.012741594575345516 0.004819091409444809
0.014768057502806187 0.013337339274585247 0.0047242646105587482
0.02519870363175869 0.013638618402183056 0.0047538927756249905
0.039068125188350677 0.014016587287187576 0.0046641691587865353
0.054572135210037231 0.014592685736715794 0.0046212584711611271
0.06958567351102829 0.015080221928656101 0.0046462081372737885
0.085290335118770599 0.01552840881049633 0.0046025002375245094
0.10330469161272049 0.015888815745711327 0.0045751999132335186
0.12206840515136719 0.015888815745711327 0.0041063525713980198
0.14377512037754059 0.015858778730034828 0.0037883264012634754
0.16896945238113403 0.015391097404062748 0.0030982247553765774
0.20193900167942047 0.014356456696987152 0.0024020976852625608
0.24274325370788574 0.012270419858396053 0.0015033766394481063
0.29542586207389832 0.0098846908658742905 0.00017451682651881129
0.35758289694786072 0.0063816942274570465 0
0.41954529285430908 0.003720361040905118 0
0.47897836565971375 0.0027171929832547903 0
0.54034262895584106 0.0019093194277957082 0
0.6086621880531311 0.0023524321150034666 0
0.69344371557235718 0.0025293489452451468 0
0.78577977418899536 0.0037284125573933125 0
0.86934173107147217 0.0045385477133095264 0
0.93873375654220581 0.0083052925765514374 0
0.99042421579360962 0.01423534844070673 0
1 0.025391342118382454 0
1 0.047001313418149948 0
1 0.079347491264343262 0.00076365453423932195
1 0.12414371967315674 0.0096275554969906807
1 0.1745704710483551 0.03518277034163475
1 0.22012852132320404 0.06896393746137619
1 0.26269868016242981 0.10435047745704651
1 0.29994061589241028 0.13606563210487366
1 0.33508840203285217 0.16595752537250519
0.01474022027105093 0.027039580047130585 0.0084486957639455795
0.022164981812238693 0.027838274836540222 0.008272804319858551
0.032016720622777939 0.028645951300859451 0.0081780310720205307
0.046453565359115601 0.029217030853033066 0.0081916805356740952
0.062123455107212067 0.029912909492850304 0.0080625899136066437
0.07812558114528656 0.030410224571824074 0.0079744458198547363
0.095180720090866089 0.031049657613039017 0.0078859170898795128
0.11520273238420486 0.03105093352496624 0.0075056068599224091
0.13666243851184845 0.031048944219946861 0.0069512925110757351
0.16250675916671753 0.030588123947381973 0.0059948363341391087
0.19481875002384186 0.029207276180386543 0.0049413745291531086
0.2370828241109848 0.026510681957006454 0.0029731094837188721
0.287788987159729 0.023149929940700531 0.0015018162084743381
0.34390699863433838 0.019256852567195892 0.00012965526548214257
0.39846271276473999 0.016089392825961113 0
0.44884410500526428 0.016027960926294327 0
0.50084221363067627 0.017153093591332436 0
0.55891716480255127 0.020057091489434242 0
0.63060855865478516 0.022896887734532356 0
0.71821200847625732 0.024373447522521019 0
0.80486702919006348 0.025260407477617264 0
0.87872207164764404 0.028777573257684708 0
0.93986594676971436 0.037219926714897156 0
0.98646128177642822 0.050401460379362106 0
0.99993878602981567 0.070944763720035553 9.8943692137254402e-06
1 0.10262641310691833 0.0014356911415234208
1 0.14205408096313477 0.010338104330003262
1 0.18609955906867981 0.032391820102930069
1 0.22810165584087372 0.063196919858455658
1 0.26491409540176392 0.094323098659515381
1 0.29969847202301025 0.12276388704776764
1 0.33184632658958435 0.15000374615192413
1 0.36184769868850708 0.17688725888729095
0.02467750757932663 0.04762045294046402 0.013825984671711922
0.032705530524253845 0.048253126442432404 0.013650048524141312
0.041957564651966095 0.049025785177946091 0.013592667877674103
0.054772086441516876 0.049888193607330322 0.013577453792095184
0.070783928036689758 0.050851013511419296 0.013401931151747704
0.087678231298923492 0.051538266241550446 0.013114470057189465
0.10717812180519104 0.052120942622423172 0.01275017112493515
0.13004621863365173 0.052182082086801529 0.011919667944312096
0.15679579973220825 0.051797706633806229 0.010888760909438133
0.18961147964000702 0.050481867045164108 0.0092949299141764641
0.23107241094112396 0.04799216240644455 0.007072188425809145
0.27987378835678101 0.045233208686113358 0.0044987169094383717
0.32957935333251953 0.043614070862531662 0.0026830569840967655
0.37532147765159607 0.042743925005197525 0.0019849576056003571
0.41822123527526855 0.044948071241378784 0.0018301040399819613
0.46093001961708069 0.050043635070323944 0.0022000225726515055
0.51062643527984619 0.056117821484804153 0.0020507464651018381
0.57483738660812378 0.060402322560548782 0.0011514161014929414
0.65629857778549194 0.060568958520889282 0.00013930136628914624
0.74449580907821655 0.059662826359272003 0
0.82149797677993774 0.060699518769979477 0
0.88469964265823364 0.067566804587841034 0
0.93579584360122681 0.080441348254680634 1.844111829996109e-05
0.9734039306640625 0.09999905526638031 0.00066563347354531288
0.99430388212203979 0.1281207948923111 0.0044972975738346577
0.99863505363464355 0.1643424779176712 0.016544794663786888
0.9998553991317749 0.20240755379199982 0.037290457636117935
1 0.23880134522914886 0.063275307416915894
1 0.27254724502563477 0.089909687638282776
1 0.3026670515537262 0.11413217335939407
1 0.33190673589706421 0.13860884308815002
1 0.35931912064552307 0.16255667805671692
1 0.38591599464416504 0.18727745115756989
0.036965008825063705 0.069947443902492523 0.021278725937008858
0.044919025152921677 0.070957280695438385 0.021493272855877876
0.054007336497306824 0.071909509599208832 0.021575944498181343
0.065373659133911133 0.072936840355396271 0.021360641345381737
0.079543031752109528 0.073986358940601349 0.021180449053645134
0.097717493772506714 0.075089350342750549 0.020917566493153572
0.12173203378915787 0.07569141685962677 0.019911997020244598
0.14955578744411469 0.07589384913444519 0.018934737890958786
0.18268868327140808 0.075466141104698181 0.016956334933638573
0.22234848141670227 0.074516676366329193 0.014425068162381649
0.26540279388427734 0.074135974049568176 0.012372463010251522
0.30835166573524475 0.075758755207061768 0.010976246558129787
0.34657970070838928 0.079053193330764771 0.010436104610562325
0.38336673378944397 0.083605624735355377 0.010819073766469955
0.42173117399215698 0.089385487139225006 0.01147750485688448
0.46602454781532288 0.094543881714344025 0.011756469495594501
0.52564328908920288 0.096908167004585266 0.0094304177910089493
0.60261404514312744 0.095769956707954407 0.005765784066170454
0.68718361854553223 0.093144781887531281 0.0022556583862751722
0.7666250467300415 0.093441024422645569 0.00071587011916562915
0.83145809173583984 0.097711957991123199 0.00050326524069532752
0.88283801078796387 0.10885699838399887 0.0011589938076213002
0.92180120944976807 0.12835653126239777 0.0040755234658718109
0.9475853443145752 0.1546301543712616 0.011817975901067257
0.96538859605789185 0.18602553009986877 0.025880157947540283
0.97865301370620728 0.219827800989151 0.046411775052547455
0.98950839042663574 0.25111648440361023 0.069178231060504913
0.99768388271331787 0.28035598993301392 0.090535804629325867
1 0.30802550911903381 0.11044058203697205
1 0.33342358469963074 0.13116145133972168
1 0.35881653428077698 0.1520267128944397
1 0.38311654329299927 0.17408612370491028
1 0.40675276517868042 0.19794875383377075
0.049309302121400833 0.099246926605701447 0.035558860749006271
0.056950829923152924 0.10047540068626404 0.0357484370470047
0.065774969756603241 0.10213140398263931 0.035938024520874023
0.077398940920829773 0.10370056331157684 0.035940017551183701
0.090819582343101501 0.10547444969415665 0.035673193633556366
0.10983582586050034 0.10728631168603897 0.03536660224199295
0.13939750194549561 0.10876365005970001 0.034257899969816208
0.17178565263748169 0.10982760041952133 0.032611142843961716
0.20822574198246002 0.11088006943464279 0.030938992276787758
0.24482026696205139 0.11253897100687027 0.029376551508903503
0.28043442964553833 0.11543001234531403 0.029043413698673248
0.31513291597366333 0.11984687298536301 0.029291555285453796
0.34943291544914246 0.12456882745027542 0.02964678592979908
0.3870832622051239 0.12846989929676056 0.02945154532790184
0.43159478902816772 0.13116750121116638 0.028029456734657288
0.48662304878234863 0.13156850636005402 0.024763485416769981
0.55784636735916138 0.12968878448009491 0.018240567296743393
0.63831782341003418 0.12669062614440918 0.012128503061830997
0.71410274505615234 0.12641936540603638 0.0083107231184840202
0.77854794263839722 0.13168729841709137 0.0074910661205649376
0.82930028438568115 0.142398402094841 0.0093550803139805794
0.86728030443191528 0.16050057113170624 0.015035631135106087
0.89487427473068237 0.18561156094074249 0.025773119181394577
0.91417795419692993 0.21339172124862671 0.041955664753913879
0.93214398622512817 0.24095901846885681 0.060358103364706039
0.94922590255737305 0.26818367838859558 0.079066723585128784
0.96560710668563843 0.29337248206138611 0.096201851963996887
0.98185497522354126 0.31717589497566223 0.11235111206769943
0.99561905860900879 0.3400762677192688 0.12918481230735779
0.99989783763885498 0.36211171746253967 0.14575499296188354
1 0.38417363166809082 0.16381274163722992
1 0.40566650032997131 0.18428820371627808
1 0.4265630841255188 0.20792809128761292
0.059498943388462067 0.14374405145645142 0.06120859831571579
0.068091139197349548 0.14529810845851898 0.061555352061986923
0.078521974384784698 0.14700421690940857 0.061494555324316025
0.091652728617191315 0.14873579144477844 0.061489082872867584
0.10844940692186356 0.1503179520368576 0.061059262603521347
0.13043200969696045 0.15187449753284454 0.05999152734875679
0.1577887088060379 0.15339918434619904 0.05833565816283226
0.18905936181545258 0.15495164692401886 0.056893445551395416
0.22239775955677032 0.15670281648635864 0.055537473410367966
0.25406590104103088 0.1591746062040329 0.054788827896118164
0.28688403964042664 0.16180314123630524 0.054270807653665543
0.32194054126739502 0.16462969779968262 0.053724750876426697
0.36024180054664612 0.16670624911785126 0.052189268171787262
0.40449097752571106 0.1676139235496521 0.049231875687837601
0.45926353335380554 0.16732755303382874 0.044598288834095001
0.52427172660827637 0.16496805846691132 0.037516225129365921
0.59768503904342651 0.16312544047832489 0.02945844829082489
0.66808575391769409 0.16394370794296265 0.024476185441017151
0.72681552171707153 0.17053443193435669 0.024018019437789917
0.77408319711685181 0.18345379829406738 0.028178881853818893
0.81072288751602173 0.2009454220533371 0.03612377867102623
0.83887010812759399 0.22264203429222107 0.048349302262067795
0.86207693815231323 0.2467477023601532 0.063226781785488129
0.88308113813400269 0.26973980665206909 0.078368499875068665
0.90373694896697998 0.29118773341178894 0.092558130621910095
0.92389261722564697 0.31246060132980347 0.10557796806097031
0.94309353828430176 0.33243328332901001 0.11897701025009155
0.96289479732513428 0.35179406404495239 0.13188289105892181
0.9804500937461853 0.37123912572860718 0.1447950005531311
0.99516540765762329 0.39013379812240601 0.15877307951450348
0.99993455410003662 0.40937647223472595 0.17424409091472626
1 0.42840155959129333 0.1931917816400528
1 0.44739606976509094 0.21545477211475372
0.081717737019062042 0.19236534833908081 0.089499965310096741
0.091793045401573181 0.19256387650966644 0.088565468788146973
0.10317372530698776 0.19298870861530304 0.087201878428459167
0.11831745505332947 0.19352318346500397 0.086124427616596222
0.13668303191661835 0.19400309026241302 0.084021426737308502
0.15812948346138 0.19512389600276947 0.082493357360363007
0.17928110063076019 0.19588577747344971 0.080605633556842804
0.20459039509296417 0.1971919983625412 0.079581454396247864
0.2347598522901535 0.19888623058795929 0.078198537230491638
0.26662206649780273 0.20025311410427094 0.076605565845966339
0.30051663517951965 0.20179535448551178 0.074895173311233521
0.33969098329544067 0.20319809019565582 0.073050133883953094
0.38448056578636169 0.20376840233802795 0.069983668625354767
0.43751928210258484 0.20324216783046722 0.065410926938056946
0.49853265285491943 0.20276816189289093 0.059372790157794952
0.56140214204788208 0.20341657102108002 0.053990729153156281
0.62221091985702515 0.20675255358219147 0.050524421036243439
0.67512220144271851 0.21470719575881958 0.051103603094816208
0.71799242496490479 0.22809791564941406 0.056679703295230865
0.75332158803939819 0.24473844468593597 0.065265119075775146
0.78335458040237427 0.26260459423065186 0.075302474200725555
0.80993592739105225 0.28091785311698914 0.085982941091060638
0.83518433570861816 0.29949048161506653 0.096336819231510162
0.85870176553726196 0.3171539306640625 0.10675939172506332
0.88175302743911743 0.33418077230453491 0.11736135929822922
0.90409857034683228 0.35017937421798706 0.127333864569664
0.92513197660446167 0.36683008074760437 0.13737145066261292
0.94583898782730103 0.38335958123207092 0.14758449792861938
0.96535205841064453 0.39958572387695312 0.15871234238147736
0.98391580581665039 0.41629895567893982 0.16991135478019714
0.99719715118408203 0.43300798535346985 0.1841314285993576
1 0.4498744010925293 0.20138640701770782
1 0.46640762686729431 0.22187580168247223
0.10051026940345764 0.23401057720184326 0.10849661380052567
0.10836909711360931 0.23423375189304352 0.1078912615776062
0.11882711201906204 0.23446309566497803 0.10661577433347702
0.13219393789768219 0.23511990904808044 0.10555233061313629
0.1491004079580307 0.23616437613964081 0.10480400919914246
0.16767282783985138 0.23709547519683838 0.10308434069156647
0.19038581848144531 0.23861010372638702 0.10223126411437988
0.21855409443378448 0.24004463851451874 0.10091125220060349
0.24917934834957123 0.24211058020591736 0.099745720624923706
0.2834339439868927 0.24374796450138092 0.098366953432559967
0.32221177220344543 0.24551954865455627 0.096269398927688599
0.3680841326713562 0.24663189053535461 0.093318939208984375
0.41861873865127563 0.24731713533401489 0.08977489173412323
0.47262251377105713 0.24929040670394897 0.086284242570400238
0.52692997455596924 0.2529749870300293 0.083936803042888641
0.57659411430358887 0.25884664058685303 0.083246424794197083
0.62147617340087891 0.26799330115318298 0.085412092506885529
0.66196715831756592 0.27909925580024719 0.089959576725959778
0.69755953550338745 0.29182001948356628 0.095396310091018677
0.72976922988891602 0.30585974454879761 0.10198692977428436
0.75955981016159058 0.31916072964668274 0.10902515798807144
0.78727191686630249 0.33288171887397766 0.11569055169820786
0.81453609466552734 0.34643656015396118 0.12309150397777557
0.83977466821670532 0.35981038212776184 0.12996834516525269
0.86378663778305054 0.37311440706253052 0.13727977871894836
0.88746160268783569 0.3864988386631012 0.14536920189857483
0.90953898429870605 0.40019604563713074 0.15341165661811829
0.9308815598487854 0.41378596425056458 0.16151732206344604
0.95161056518554688 0.42782953381538391 0.17051544785499573
0.97138828039169312 0.44198352098464966 0.1810174286365509
0.99029093980789185 0.45682606101036072 0.19394713640213013
0.99976259469985962 0.47132650017738342 0.20885889232158661
1 0.48622468113899231 0.22665426135063171
0.10672085732221603 0.2822011411190033 0.13405479490756989
0.11170777678489685 0.28279280662536621 0.1337844580411911
0.11857260763645172 0.28347790241241455 0.13353405892848969
0.12812484800815582 0.28466504812240601 0.13310311734676361
0.14296022057533264 0.2868921160697937 0.13300634920597076
0.16479407250881195 0.28843531012535095 0.13300634920597076
0.193189337849617 0.29110938310623169 0.13231436908245087
0.22472448647022247 0.29354935884475708 0.12971797585487366
0.2605416476726532 0.29619124531745911 0.129123255610466
0.30163562297821045 0.29867053031921387 0.12700431048870087
0.34643813967704773 0.30107748508453369 0.12459876388311386
0.39470604062080383 0.30328312516212463 0.12153462320566177
0.44261562824249268 0.30642250180244446 0.11871011555194855
0.48894611001014709 0.31032672524452209 0.11695174127817154
0.53226470947265625 0.31586134433746338 0.11665699630975723
0.57234334945678711 0.32271674275398254 0.1174883097410202
0.61037790775299072 0.33109000325202942 0.11971217393875122
0.64684754610061646 0.34002116322517395 0.12290888279676437
0.68106406927108765 0.34872785210609436 0.12629780173301697
0.71317589282989502 0.35845723748207092 0.13022485375404358
0.74313360452651978 0.36818557977676392 0.13431380689144135
0.77136021852493286 0.37805226445198059 0.13852247595787048
0.79903298616409302 0.38834699988365173 0.14356034994125366
0.82473111152648926 0.39868411421775818 0.14875517785549164
0.84945380687713623 0.40932253003120422 0.15422318875789642
0.8736150860786438 0.42014443874359131 0.16033843159675598
0.89612632989883423 0.43141335248947144 0.16660340130329132
0.91813838481903076 0.44309830665588379 0.17344129085540771
0.93940776586532593 0.45508274435997009 0.18203307688236237
0.96006232500076294 0.46741458773612976 0.19217634201049805
0.98119187355041504 0.47998863458633423 0.20332770049571991
0.99777734279632568 0.49295270442962646 0.21578225493431091
1 0.50588798522949219 0.23049071431159973
0.052200678735971451 0.34730243682861328 0.16989563405513763
0.056928902864456177 0.34815162420272827 0.16981410980224609
0.067036747932434082 0.34932246804237366 0.16968970000743866
0.085960902273654938 0.35012799501419067 0.16966630518436432
0.1170535534620285 0.35255306959152222 0.16809625923633575
0.15388031303882599 0.35368141531944275 0.1670021116733551
0.19325387477874756 0.3556857705116272 0.16616716980934143
0.23494525253772736 0.35689952969551086 0.16355159878730774
0.28004100918769836 0.35910311341285706 0.16134953498840332
0.32563987374305725 0.36040002107620239 0.15783429145812988
0.37029987573623657 0.36230581998825073 0.15473836660385132
0.41476470232009888 0.36394467949867249 0.15184739232063293
0.4555509090423584 0.36693719029426575 0.14950060844421387
0.49467229843139648 0.36997538805007935 0.14724345505237579
0.53307563066482544 0.37374332547187805 0.14591503143310547
0.56953889131546021 0.378459632396698 0.14498975872993469
0.60455584526062012 0.38403499126434326 0.14538408815860748
0.63936018943786621 0.39007079601287842 0.14655531942844391
0.67210888862609863 0.3964870274066925 0.14848889410495758
0.70329552888870239 0.40308567881584167 0.15071433782577515
0.73278123140335083 0.41050660610198975 0.15314272046089172
0.76072561740875244 0.41814178228378296 0.15626026690006256
0.78779143095016479 0.4259297251701355 0.15958650410175323
0.8136870265007019 0.43451219797134399 0.16292518377304077
0.83818662166595459 0.44269675016403198 0.16770456731319427
0.86233854293823242 0.45152130722999573 0.17288072407245636
0.88507711887359619 0.46106061339378357 0.17860366404056549
0.90720254182815552 0.47093766927719116 0.18543320894241333
0.92904078960418701 0.48113492131233215 0.1933533251285553
0.95047533512115479 0.49176418781280518 0.20196899771690369
0.97260981798171997 0.50240159034729004 0.21174848079681396
0.99329417943954468 0.51384836435317993 0.22190661728382111
1 0.5252838134765625 0.23390960693359375
0.064462520182132721 0.4150540828704834 0.20438912510871887
0.07985871285200119 0.41493397951126099 0.20400333404541016
0.098717577755451202 0.4149511456489563 0.20317007601261139
0.12629050016403198 0.41474595665931702 0.20147272944450378
0.16145387291908264 0.41454586386680603 0.19902688264846802
0.19990602135658264 0.414070725440979 0.19658496975898743
0.23935945332050323 0.41385731101036072 0.19350786507129669
0.28124040365219116 0.4139559268951416 0.19005164504051208
0.32169410586357117 0.41437241435050964 0.18661506474018097
0.36147096753120422 0.41478830575942993 0.18304930627346039
0.39893603324890137 0.41528135538101196 0.17980222404003143
0.4355156421661377 0.4164368212223053 0.17689590156078339
0.46983999013900757 0.41839832067489624 0.17429986596107483
0.50463742017745972 0.4203832745552063 0.17216944694519043
0.53844368457794189 0.42259612679481506 0.16992141306400299
0.57180726528167725 0.42581212520599365 0.16795071959495544
0.60466998815536499 0.4296228289604187 0.16694808006286621
0.63792544603347778 0.43383336067199707 0.16653108596801758
0.66827452182769775 0.43856421113014221 0.16599591076374054
0.69850319623947144 0.44352898001670837 0.16613940894603729
0.72692543268203735 0.4489075243473053 0.167464479804039
0.7538604736328125 0.4545644223690033 0.16967484354972839
0.78036904335021973 0.46106985211372375 0.17249105870723724
0.80542826652526855 0.4676164984703064 0.17563953995704651
0.82960498332977295 0.47465398907661438 0.17984738945960999
0.85324943065643311 0.48205584287643433 0.18496629595756531
0.87585020065307617 0.48977431654930115 0.1905103325843811
0.89804637432098389 0.49828439950942993 0.19671204686164856
0.92044860124588013 0.50686603784561157 0.20336946845054626
0.94248199462890625 0.51577466726303101 0.21048848330974579
0.96554815769195557 0.52521288394927979 0.21890079975128174
0.98810017108917236 0.53484117984771729 0.22774247825145721
0.99974185228347778 0.54448318481445312 0.23765867948532104
0.16883063316345215 0.46048912405967712 0.22430242598056793
0.18333320319652557 0.4601498544216156 0.22369280457496643
0.20031534135341644 0.46013069152832031 0.22350107133388519
0.22207444906234741 0.46000272035598755 0.22016902267932892
0.24693502485752106 0.45954528450965881 0.21964989602565765
0.27424436807632446 0.45918607711791992 0.2161359041929245
0.30464291572570801 0.45863816142082214 0.21426694095134735
0.33523964881896973 0.4583335816860199 0.21140260994434357
0.36659765243530273 0.4583335816860199 0.20832930505275726
0.39671817421913147 0.45848798751831055 0.20553357899188995
0.42754930257797241 0.45925167202949524 0.20261973142623901
0.45805284380912781 0.46015256643295288 0.19964028894901276
0.48768815398216248 0.46110740303993225 0.19734305143356323
0.51753741502761841 0.46242645382881165 0.19471436738967896
0.5480383038520813 0.46447783708572388 0.19220785796642303
0.57836371660232544 0.46631702780723572 0.1902356743812561
0.60897272825241089 0.46925723552703857 0.18820825219154358
0.63905727863311768 0.47236734628677368 0.18659262359142303
0.66787093877792358 0.475798100233078 0.18561908602714539
0.69666057825088501 0.4795987606048584 0.18443533778190613
0.72359418869018555 0.48402836918830872 0.18382689356803894
0.75002795457839966 0.48842877149581909 0.18411684036254883
