Textures/73.cube
# Created by: G'MIC (https://gmic.eu)
TITLE "Kodak_Kodachrome_64.cube"
# LUT size
LUT_3D_SIZE 5
# Data domain
DOMAIN_MIN 0.0 0.0 0.0
DOMAIN_MAX 1.0 1.0 1.0
# LUT data points
0.0032288806978613138 0.0030728494748473167 0.0022451414261013269
0.18588683009147644 0.011350522749125957 0.0014291527913883328
0.55162316560745239 0.052781447768211365 0.00029055401682853699
0.80416399240493774 0.088808022439479828 0
0.99134337902069092 0.12367585301399231 0
0.10640352964401245 0.21428832411766052 0.09366685152053833
0.26109397411346436 0.22733893990516663 0.088908515870571136
0.60332071781158447 0.25324723124504089 0.074890121817588806
0.83281141519546509 0.23855774104595184 0.048939049243927002
0.99619036912918091 0.2039182037115097 0.017563624307513237
0.18964725732803345 0.55404353141784668 0.25735300779342651
0.4245108962059021 0.57380795478820801 0.25159308314323425
0.67841547727584839 0.59708976745605469 0.23921860754489899
0.90046674013137817 0.60971313714981079 0.21410979330539703
1 0.6003233790397644 0.1671006977558136
0.44732549786567688 0.77096879482269287 0.46828880906105042
0.53408133983612061 0.77903008460998535 0.46676966547966003
0.71012884378433228 0.79635268449783325 0.45992463827133179
0.90621447563171387 0.81563377380371094 0.44437903165817261
1 0.82992583513259888 0.40746700763702393
0.59756040573120117 0.96913003921508789 0.64500278234481812
0.64733737707138062 0.97417312860488892 0.64420276880264282
0.76765239238739014 0.98767006397247314 0.64145642518997192
0.93754667043685913 0.99886125326156616 0.63477516174316406
1 1 0.6172521710395813
0 0 0.094919979572296143
0.15115819871425629 0.0024963859468698502 0.092330425977706909
0.51498442888259888 0.027179006487131119 0.082534126937389374
0.76410990953445435 0.059184033423662186 0.062401622533798218
0.95611053705215454 0.096556760370731354 0.037081338465213776
0.067904114723205566 0.18957528471946716 0.22689566016197205
0.2173025906085968 0.2031722366809845 0.22339785099029541
0.55542236566543579 0.22752925753593445 0.21025040745735168
0.78221327066421509 0.2113635241985321 0.18298204243183136
0.95201033353805542 0.17366386950016022 0.14005306363105774
0.067717313766479492 0.52267849445343018 0.41760966181755066
0.36133155226707458 0.54160463809967041 0.41467121243476868
0.61260521411895752 0.56335228681564331 0.40752667188644409
0.8326416015625 0.57439142465591431 0.3908277153968811
1 0.56398588418960571 0.35453757643699646
0.4105052649974823 0.75420022010803223 0.5549236536026001
0.49888196587562561 0.76205277442932129 0.5533977746963501
0.67410135269165039 0.77864515781402588 0.54916507005691528
0.86785978078842163 0.7962573766708374 0.54117155075073242
1 0.80589604377746582 0.5215686559677124
0.57673370838165283 0.96021401882171631 0.69898390769958496
0.62579810619354248 0.96539688110351562 0.69828546047210693
0.74578636884689331 0.97879374027252197 0.69664061069488525
0.91359466314315796 0.99439918994903564 0.6914936900138855
1 0.99990475177764893 0.67745786905288696
0 0 0.31239473819732666
0.055161856114864349 0 0.31217822432518005
0.4181877076625824 5.1067709136987105e-05 0.30732965469360352
0.65921074151992798 0.0039832224138081074 0.29755675792694092
0.84836095571517944 0.024058578535914421 0.28143396973609924
0.0063000568188726902 0.14546093344688416 0.43183115124702454
0.14877040684223175 0.15974216163158417 0.4297146201133728
0.47125664353370667 0.17991054058074951 0.42119395732879639
0.68844336271286011 0.15844501554965973 0.40339452028274536
0.84867751598358154 0.10851875692605972 0.37412181496620178
0.040908131748437881 0.4964795708656311 0.56692838668823242
0.30955517292022705 0.51338750123977661 0.56477242708206177
0.55358195304870605 0.53269505500793457 0.56089329719543457
0.76795005798339844 0.54132825136184692 0.55293834209442139
0.93963426351547241 0.52593952417373657 0.53333330154418945
0.36389791965484619 0.73195010423660278 0.67396813631057739
0.45322582125663757 0.73930978775024414 0.67324841022491455
0.6267884373664856 0.75484591722488403 0.67101430892944336
0.81848293542861938 0.77122855186462402 0.66587543487548828
0.99023008346557617 0.77854543924331665 0.6541905403137207
0.54264509677886963 0.94738560914993286 0.78919261693954468
0.59159398078918457 0.95149648189544678 0.7888832688331604
0.71103590726852417 0.96452838182449341 0.78816372156143188
0.876545250415802 0.98318105936050415 0.78514134883880615
1 0.99598318338394165 0.77569621801376343
0 0 0.47189551591873169
0.01497536338865757 0 0.46922242641448975
0.35514393448829651 0 0.46537888050079346
0.58646780252456665 0 0.45918476581573486
0.7697950005531311 0 0.45410376787185669
0.00013277605467010289 0.12419705837965012 0.57257282733917236
0.13606318831443787 0.14089997112751007 0.57098525762557983
0.42402574419975281 0.15287548303604126 0.56375795602798462
0.63192212581634521 0.12780290842056274 0.54836028814315796
0.78469687700271606 0.067282833158969879 0.52344775199890137
0.082568041980266571 0.47851777076721191 0.69220799207687378
0.27681586146354675 0.49226713180541992 0.69137376546859741
0.51101016998291016 0.50953584909439087 0.68900644779205322
0.71913427114486694 0.51703065633773804 0.68291133642196655
0.88685005903244019 0.49901977181434631 0.67004537582397461
0.32974526286125183 0.71191054582595825 0.78790003061294556
0.41765508055686951 0.71872937679290771 0.78790003061294556
0.58587706089019775 0.73316651582717896 0.78688174486160278
0.7740970253944397 0.74803280830383301 0.78436654806137085
0.94266223907470703 0.7535063624382019 0.77660852670669556
0.50988608598709106 0.93322509527206421 0.89080727100372314
0.55809390544891357 0.93772435188293457 0.89086741209030151
0.67509597539901733 0.95002484321594238 0.89121931791305542
0.83766567707061768 0.96846622228622437 0.89047497510910034
1 0.98500150442123413 0.88533002138137817
0 0 0.56053924560546875
0.012694127857685089 0 0.55784308910369873
0.32532501220703125 0 0.55457675457000732
0.54866719245910645 0 0.5501975417137146
0.72908502817153931 0 0.54665035009384155
7.6601572800427675e-05 0.1150718480348587 0.66001337766647339
0.14798642694950104 0.1333911120891571 0.65727132558822632
0.4005889892578125 0.13778422772884369 0.6495063304901123
0.6000443696975708 0.11053402721881866 0.63707804679870605
0.74730402231216431 0.041013028472661972 0.61307191848754883
0.10805238038301468 0.46980714797973633 0.7745097279548645
0.26698330044746399 0.47877871990203857 0.7745097279548645
0.48737418651580811 0.49411758780479431 0.77320444583892822
0.68961745500564575 0.50191974639892578 0.76888954639434814
0.85294103622436523 0.48129111528396606 0.75776147842407227
0.31941893696784973 0.69897717237472534 0.86748367547988892
0.4037480354309082 0.70477938652038574 0.86748367547988892
0.56270575523376465 0.71822071075439453 0.86838245391845703
0.74549978971481323 0.73194444179534912 0.86747854948043823
0.90964037179946899 0.73570239543914795 0.86331725120544434
0.49623516201972961 0.92352956533432007 0.97066980600357056
0.54150325059890747 0.92722618579864502 0.97250491380691528
0.6527743935585022 0.93856042623519897 0.9748348593711853
0.80788755416870117 0.95551985502243042 0.97941195964813232
0.98815381526947021 0.97328418493270874 0.98390507698059082
