Textures/73.cube
# Created by: G'MIC (https://gmic.eu)
TITLE "Kodak_Kodachrome_64.cube"
# LUT size
LUT_3D_SIZE 33
# Data domain
DOMAIN_MIN 0.0 0.0 0.0
DOMAIN_MAX 1.0 1.0 1.0
# LUT data points
0.0032288806978613138 0.0030728494748473167 0.0022451414261013269
0.014183887280523777 0.0035354199353605509 0.0021515409462153912
0.028888219967484474 0.0039432253688573837 0.0020953810308128595
0.04807678610086441 0.00461973762139678 0.0018637026660144329
0.06907644122838974 0.0057017733342945576 0.0016834873240441084
0.090532392263412476 0.0065727322362363338 0.0014860962983220816
0.11613421887159348 0.0071987197734415531 0.0014775142772123218
0.14900903403759003 0.0088913487270474434 0.0014775140443816781
0.18588683009147644 0.011350522749125957 0.0014291527913883328
0.2236836701631546 0.014226269908249378 0.0012528543593361974
0.2633134126663208 0.018305666744709015 0.0011241211323067546
0.31239944696426392 0.023648148402571678 0.00097198196453973651
0.37166514992713928 0.029960913583636284 0.00094872369663789868
0.42807278037071228 0.036657135933637619 0.00089755066437646747
0.47442147135734558 0.042813029140233994 0.00071303296135738492
0.51424849033355713 0.047894936054944992 0.00053280655993148685
0.55162316560745239 0.052781447768211365 0.00029055401682853699
0.58742690086364746 0.057087302207946777 0.00012398106628097594
0.62142342329025269 0.061341583728790283 2.7236113965045661e-05
0.65471553802490234 0.064729705452919006 6.8090284912614152e-06
0.68624371290206909 0.069327317178249359 0
0.71656733751296997 0.074002280831336975 0
0.7466728687286377 0.079053014516830444 0
0.775287926197052 0.084093481302261353 0
0.80416399240493774 0.088808022439479828 0
0.83293384313583374 0.094075970351696014 0
0.86100655794143677 0.099031634628772736 0
0.88970834016799927 0.10448481142520905 0
0.91823643445968628 0.1100459098815918 0
0.94673264026641846 0.11505290120840073 0
0.9758802056312561 0.12054087966680527 0
0.99134337902069092 0.12367585301399231 0
0.99134337902069092 0.12367585301399231 0
0.0089628081768751144 0.015520972199738026 0.0071096820756793022
0.020023755729198456 0.016841785982251167 0.0069977506063878536
0.035980142652988434 0.017753319814801216 0.0067855413071811199
0.055853109806776047 0.018965447321534157 0.0066096056252717972
0.076802782714366913 0.020629899576306343 0.0063865142874419689
0.098229490220546722 0.022000789642333984 0.0063585052266716957
0.12455051392316818 0.024475555866956711 0.006192406639456749
0.15746721625328064 0.027564359828829765 0.0060387174598872662
0.19430240988731384 0.031291268765926361 0.005360802635550499
0.23150710761547089 0.035661343485116959 0.0050066243857145309
0.27114477753639221 0.041338436305522919 0.0049297874793410301
0.32032868266105652 0.04821048304438591 0.004387994296848774
0.37947157025337219 0.055071376264095306 0.0038624543230980635
0.43477803468704224 0.062352314591407776 0.0037299604155123234
0.47983253002166748 0.067709736526012421 0.0034987765830010176
0.51902377605438232 0.071979522705078125 0.0029156685341149569
0.55590426921844482 0.075723938643932343 0.0024717797059565783
0.59112608432769775 0.078910306096076965 0.0019405160564929247
0.62483638525009155 0.081994310021400452 0.001584335695952177
0.65733575820922852 0.083681449294090271 0.0011399451177567244
0.6880418062210083 0.085832707583904266 0.00068331439979374409
0.71733242273330688 0.086951635777950287 0.00033690503914840519
0.74641573429107666 0.08793465793132782 0.00012312993931118399
0.77396392822265625 0.0892973393201828 3.2910305890254676e-05
0.80164086818695068 0.090879172086715698 0
0.82985770702362061 0.093079857528209686 0
0.85770046710968018 0.097363792359828949 0
0.88645851612091064 0.10228726267814636 0
0.9150499701499939 0.10808452963829041 0
0.94390285015106201 0.1133103147149086 0
0.97334533929824829 0.11870941519737244 0
0.98883605003356934 0.12178498506546021 0
0.98883605003356934 0.12178497016429901 0
0.016711264848709106 0.032101333141326904 0.012359862215816975
0.027206258848309517 0.033648990094661713 0.012091103009879589
0.041552197188138962 0.034722831100225449 0.012030257843434811
0.061246003955602646 0.036213286221027374 0.011848893016576767
0.08192029595375061 0.038249045610427856 0.011730718426406384
0.10353165119886398 0.040161740034818649 0.011720504611730576
0.13086454570293427 0.043136920779943466 0.011598746292293072
0.16389080882072449 0.046784218400716782 0.011014562100172043
0.20046932995319366 0.051104757934808731 0.010513062588870525
0.23771114647388458 0.055739719420671463 0.010238469578325748
0.2775309681892395 0.061432115733623505 0.0098051130771636963
0.32735875248908997 0.068204738199710846 0.008966551162302494
0.38662531971931458 0.075151734054088593 0.0085285389795899391
0.44046932458877563 0.082293741405010223 0.0081604830920696259
0.48503085970878601 0.0874042809009552 0.0076763168908655643
0.52376687526702881 0.091635480523109436 0.0068774567916989326
0.56033903360366821 0.095349043607711792 0.0060982168652117252
0.59552901983261108 0.098348163068294525 0.0052183731459081173
0.62895971536636353 0.1012408658862114 0.0042857760563492775
0.66143560409545898 0.10317924618721008 0.0035273211542516947
0.69198083877563477 0.10514584928750992 0.0028664490673691034
0.72121691703796387 0.10588255524635315 0.0024510563816875219
0.75009536743164062 0.10726390779018402 0.0018659459892660379
0.77745163440704346 0.10813255608081818 0.0013527263654395938
0.80474191904067993 0.10742539167404175 0.00062823935877531767
0.83183950185775757 0.10649479925632477 0.0002443802950438112
0.85833477973937988 0.10560087114572525 1.7235353880096227e-05
0.88530611991882324 0.10550960153341293 0
0.91312772035598755 0.10758271068334579 0
0.94162911176681519 0.11197729408740997 0
0.97099179029464722 0.1172768697142601 0
0.9865538477897644 0.12017474323511124 0
0.98655372858047485 0.12017474323511124 0
0.027368692681193352 0.05372750386595726 0.020443854853510857
0.037945102900266647 0.054743822664022446 0.020225796848535538
0.050350245088338852 0.05609314888715744 0.019800588488578796
0.067299656569957733 0.057507093995809555 0.019509211182594299
0.087590157985687256 0.059392284601926804 0.019291188567876816
0.10928304493427277 0.061384223401546478 0.018996322527527809
0.1379559338092804 0.064346633851528168 0.018632788211107254
0.17118261754512787 0.06773645430803299 0.018106866627931595
0.2076956182718277 0.072022199630737305 0.017643975093960762
0.24457550048828125 0.076366923749446869 0.017031306400895119
0.28462842106819153 0.081770680844783783 0.016413440927863121
0.33545997738838196 0.088574595749378204 0.01588648185133934
0.39455333352088928 0.095494113862514496 0.014733633026480675
0.44717028737068176 0.10233791172504425 0.014472990296781063
0.49061024188995361 0.10691127926111221 0.013348103500902653
0.52881616353988647 0.11104811728000641 0.012264396995306015
0.56501579284667969 0.11447305232286453 0.011344989761710167
0.60001873970031738 0.11749400198459625 0.010381854139268398
0.63307112455368042 0.12004613876342773 0.0091940993443131447
0.66545319557189941 0.12185715883970261 0.0083040148019790649
0.69599127769470215 0.12360829859972 0.0071285250596702099
0.7248992919921875 0.12502679228782654 0.0063940286636352539
0.75357139110565186 0.12575721740722656 0.0053864386864006519
0.78101629018783569 0.126206174492836 0.0042320271022617817
0.80821210145950317 0.12585005164146423 0.0031624501571059227
0.83522886037826538 0.12560580670833588 0.0022633674088865519
0.86171966791152954 0.12415874749422073 0.0013809531228616834
0.88829690217971802 0.12222593277692795 0.00062465749215334654
0.91475999355316162 0.11997362226247787 0.00010000761540140957
0.94128537178039551 0.11720941960811615 0
0.96911507844924927 0.11725905537605286 0
0.98456752300262451 0.11912628263235092 0
0.98456752300262451 0.11912626773118973 0
0.041353847831487656 0.077047228813171387 0.030745554715394974
0.051008403301239014 0.077767051756381989 0.03047991544008255
0.061867326498031616 0.078733302652835846 0.029902569949626923
0.07593429833650589 0.080098666250705719 0.029395071789622307
0.093672275543212891 0.081558831036090851 0.029036648571491241
0.1161729171872139 0.083482831716537476 0.028900712728500366
0.14623148739337921 0.086397834122180939 0.028390321880578995
0.17919020354747772 0.089671581983566284 0.02811531163752079
0.21574234962463379 0.093571491539478302 0.027200330048799515
0.252279132604599 0.097670786082744598 0.026318373158574104
0.29308101534843445 0.10287079215049744 0.025505471974611282
0.34510746598243713 0.10931694507598877 0.024498678743839264
0.4034753143787384 0.11602623015642166 0.023093478754162788
0.45423290133476257 0.12218650430440903 0.022565124556422234
0.49660018086433411 0.12645518779754639 0.02123120054602623
0.53410583734512329 0.13020472228527069 0.019804313778877258
0.57006889581680298 0.13354654610157013 0.018769217655062675
0.60457718372344971 0.13611483573913574 0.017315495759248734
0.63755619525909424 0.13835117220878601 0.015762500464916229
0.66952842473983765 0.13986803591251373 0.01449901144951582
0.69969701766967773 0.1418754905462265 0.013039852492511272
0.72866350412368774 0.1426125168800354 0.011843902990221977
0.75715792179107666 0.14331384003162384 0.01063248049467802
0.78453904390335083 0.14342540502548218 0.0089991651475429535
0.81146347522735596 0.1432073712348938 0.0076080318540334702
0.83853411674499512 0.14282430708408356 0.0061013307422399521
0.8648332953453064 0.14170090854167938 0.0045972871594130993
0.89147698879241943 0.13950102031230927 0.0031362869776785374
0.91799080371856689 0.1374451220035553 0.0018955635605379939
0.94411087036132812 0.13408961892127991 0.00082275760360062122
0.97072446346282959 0.12968143820762634 5.1599672588054091e-05
0.98487222194671631 0.12693527340888977 0
0.98487228155136108 0.12693527340888977 0
0.057753637433052063 0.10336056351661682 0.043845459818840027
0.066244147717952728 0.10400772094726562 0.043792415410280228
0.076018013060092926 0.10488764196634293 0.043487757444381714
0.088398024439811707 0.10606951266527176 0.04328455775976181
0.10283630341291428 0.10697837918996811 0.042777098715305328
0.12498407065868378 0.10876002162694931 0.041580233722925186
0.15620489418506622 0.11161390691995621 0.040601685643196106
0.18916137516498566 0.11469321697950363 0.040267981588840485
0.22493624687194824 0.11798928678035736 0.039441823959350586
0.26145440340042114 0.12156706303358078 0.038693733513355255
0.30296403169631958 0.12615332007408142 0.037532143294811249
0.35662266612052917 0.13242711126804352 0.036034747958183289
0.41392666101455688 0.1388317197561264 0.034744910895824432
0.46264693140983582 0.14410385489463806 0.033534280955791473
0.50344735383987427 0.14780411124229431 0.032003205269575119
0.54036271572113037 0.15116550028324127 0.029950305819511414
0.57574820518493652 0.15365615487098694 0.028393067419528961
0.60974299907684326 0.15594872832298279 0.026909885928034782
0.64253908395767212 0.15768150985240936 0.024866875261068344
0.67404341697692871 0.1588459312915802 0.022967131808400154
0.7038922905921936 0.16021943092346191 0.021124053746461868
0.73274010419845581 0.16078345477581024 0.019349075853824615
0.76091408729553223 0.16120705008506775 0.017749521881341934
0.7880549430847168 0.16060209274291992 0.015779826790094376
0.8149527907371521 0.16036194562911987 0.013730305247008801
0.84186118841171265 0.15976276993751526 0.011632859706878662
0.86798524856567383 0.1584734320640564 0.009629114530980587
0.89455986022949219 0.15613670647144318 0.0076081734150648117
0.92097264528274536 0.15423862636089325 0.005664273165166378
0.94723474979400635 0.15093889832496643 0.0038300086744129658
0.97377645969390869 0.14649385213851929 0.0019471244886517525
0.98758494853973389 0.1431746780872345 0.0009685843251645565
0.98758494853973389 0.1431746780872345 0.0009685843251645565
0.077749967575073242 0.13946549594402313 0.06078440323472023
0.085045397281646729 0.13979776203632355 0.060606930404901505
0.093962721526622772 0.14004823565483093 0.059969186782836914
0.10493812710046768 0.14039097726345062 0.059885717928409576
0.11877194792032242 0.14175091683864594 0.059485513716936111
0.13892398774623871 0.14373475313186646 0.058288663625717163
0.16782346367835999 0.14630913734436035 0.056947633624076843
0.20097579061985016 0.14863972365856171 0.056654918938875198
0.23607857525348663 0.1517026275396347 0.055829927325248718
0.27296498417854309 0.15482120215892792 0.054599180817604065
0.31599107384681702 0.15851281583309174 0.053071122616529465
0.37114953994750977 0.16439360380172729 0.052001152187585831
0.42696279287338257 0.17004261910915375 0.049582529813051224
0.47324228286743164 0.17462138831615448 0.048489902168512344
0.51253622770309448 0.17684000730514526 0.046652361750602722
0.54856294393539429 0.17949585616588593 0.044535033404827118
0.58349442481994629 0.18111757934093475 0.042136777192354202
0.61700445413589478 0.18239264190196991 0.040224358439445496
0.64912110567092896 0.1831587553024292 0.037758301943540573
0.68014222383499146 0.18355691432952881 0.035153154283761978
0.70958882570266724 0.18383823335170746 0.032889902591705322
0.73811548948287964 0.18378673493862152 0.030302375555038452
0.76595610380172729 0.1832582950592041 0.027985069900751114
0.79278308153152466 0.18221220374107361 0.025201696902513504
0.81947773694992065 0.18142299354076385 0.022659763693809509
0.84613096714019775 0.18032795190811157 0.019865695387125015
0.87214118242263794 0.17828410863876343 0.017071783542633057
0.89868098497390747 0.17606990039348602 0.014327147975564003
0.92492413520812988 0.17342366278171539 0.011480565182864666
0.95099520683288574 0.17006494104862213 0.008784029632806778
0.97763007879257202 0.16565762460231781 0.006119393277913332
0.99151527881622314 0.16276542842388153 0.0049736839719116688
0.99151527881622314 0.16276542842388153 0.0049736839719116688
0.0985603928565979 0.17563512921333313 0.07719152420759201
0.10499668121337891 0.17603421211242676 0.076892763376235962
0.1128089427947998 0.17655494809150696 0.076879099011421204
0.12320268154144287 0.17750120162963867 0.076879099011421204
0.13776269555091858 0.1789754331111908 0.076431713998317719
0.15791584551334381 0.18063642084598541 0.075495690107345581
0.18177387118339539 0.18325769901275635 0.074360847473144531
0.21350480616092682 0.18587929010391235 0.073370985686779022
0.2480623722076416 0.18839055299758911 0.072631038725376129
0.28579896688461304 0.19141413271427155 0.071226783096790314
0.33031317591667175 0.19541668891906738 0.06967645138502121
0.38767215609550476 0.20077092945575714 0.068099260330200195
0.44062706828117371 0.20596447587013245 0.065623782575130463
0.48512044548988342 0.2098909467458725 0.064011551439762115
0.52317613363265991 0.21206744015216827 0.061759337782859802
0.5583946704864502 0.21405532956123352 0.059762276709079742
0.59266316890716553 0.21452483534812927 0.057136993855237961
0.62594103813171387 0.21462781727313995 0.054602611809968948
0.6573796272277832 0.21452352404594421 0.051979649811983109
0.68786436319351196 0.21380923688411713 0.049123808741569519
0.71691066026687622 0.21323542296886444 0.046325065195560455
0.74482542276382446 0.21159893274307251 0.043183740228414536
0.77234655618667603 0.2098269909620285 0.040225066244602203
0.7987791895866394 0.20734576880931854 0.036967888474464417
0.82493352890014648 0.2055848240852356 0.033457502722740173
0.8512381911277771 0.20327451825141907 0.029973622411489487
0.87701272964477539 0.20003817975521088 0.026368776336312294
0.90307283401489258 0.19700340926647186 0.022913210093975067
0.92927324771881104 0.19373753666877747 0.019147641956806183
0.95520615577697754 0.18977852165699005 0.015624066814780235
0.98119819164276123 0.18491105735301971 0.011943306773900986
0.99450898170471191 0.18175560235977173 0.010357174091041088
0.99450898170471191 0.18175560235977173 0.010357174091041088
0.10640352964401245 0.21428832411766052 0.09366685152053833
0.11241602152585983 0.21461600065231323 0.093633808195590973
0.12004683911800385 0.21512041985988617 0.093359723687171936
0.13182033598423004 0.21642585098743439 0.093001671135425568
0.14827175438404083 0.21795618534088135 0.092397511005401611
0.16850873827934265 0.21976244449615479 0.091551460325717926
0.1939050704240799 0.22212441265583038 0.090429939329624176
0.22625084221363068 0.22477580606937408 0.089780822396278381
0.26109397411346436 0.22733893990516663 0.088908515870571136
0.30005460977554321 0.23043385148048401 0.08741353452205658
0.3476940393447876 0.23467506468296051 0.086032390594482422
0.40555435419082642 0.24019226431846619 0.084548674523830414
0.4560692310333252 0.24499523639678955 0.082566745579242706
0.49768814444541931 0.24856337904930115 0.081281311810016632
0.53481107950210571 0.25106841325759888 0.079199425876140594
0.56949841976165771 0.2526167631149292 0.077364936470985413
0.60332071781158447 0.25324723124504089 0.074890121817588806
0.63619565963745117 0.25340056419372559 0.072520226240158081
0.66743749380111694 0.2532462477684021 0.069878511130809784
0.697517991065979 0.25248560309410095 0.067143373191356659
0.72625219821929932 0.25056993961334229 0.063963629305362701
0.75376325845718384 0.2488759309053421 0.06079724058508873
0.78104496002197266 0.24595931172370911 0.057325452566146851
0.80701041221618652 0.24232862889766693 0.053516250103712082
0.83281141519546509 0.23855774104595184 0.048939049243927002
0.85860872268676758 0.23431403934955597 0.044663373380899429
0.8839409351348877 0.22909480333328247 0.039754755795001984
0.90929365158081055 0.22402568161487579 0.035099923610687256
0.9348752498626709 0.2192106693983078 0.030027572065591812
0.96035009622573853 0.2135126143693924 0.024970592930912971
0.98566800355911255 0.20737017691135406 0.020003983750939369
0.99619036912918091 0.2039182037115097 0.017563624307513237
0.99619036912918091 0.2039182037115097 0.017563624307513237
0.10610045492649078 0.25856438279151917 0.11183086782693863
0.11121271550655365 0.25875166058540344 0.11163296550512314
0.11848217248916626 0.25925242900848389 0.11133167147636414
0.13109692931175232 0.260984867811203 0.11103834956884384
0.14957933127880096 0.26232126355171204 0.11051532626152039
0.174419105052948 0.26369956135749817 0.10998875647783279
0.20614151656627655 0.26627296209335327 0.10931472480297089
0.23907293379306793 0.26802340149879456 0.10843458026647568
0.27522480487823486 0.27083343267440796 0.10747992247343063
0.31656628847122192 0.27399232983589172 0.10646975040435791
0.36708036065101624 0.2779490053653717 0.10461267083883286
0.42341345548629761 0.28340965509414673 0.10274199396371841
0.47089463472366333 0.28725507855415344 0.10090017318725586
0.51041388511657715 0.29022079706192017 0.099026970565319061
0.54665464162826538 0.29200419783592224 0.097046539187431335
0.58070123195648193 0.29315301775932312 0.094929300248622894
0.6140819787979126 0.29382312297821045 0.092628493905067444
0.64657151699066162 0.29398185014724731 0.090232878923416138
0.67767852544784546 0.29343271255493164 0.087350919842720032
0.7075035572052002 0.29261451959609985 0.084837175905704498
0.73608911037445068 0.29125282168388367 0.081690497696399689
0.76350003480911255 0.28933456540107727 0.078799501061439514
0.79057294130325317 0.28718942403793335 0.075354628264904022
0.81659090518951416 0.28371554613113403 0.071709297597408295
0.84244978427886963 0.27953016757965088 0.067480914294719696
0.86799359321594238 0.27458676695823669 0.062915824353694916
0.89304423332214355 0.26822322607040405 0.057692606002092361
0.91796880960464478 0.26127517223358154 0.052696648985147476
0.94294130802154541 0.25351768732070923 0.046411432325839996
0.96781915426254272 0.24487623572349548 0.039408888667821884
0.99116867780685425 0.23584720492362976 0.032687976956367493
0.99964606761932373 0.23134541511535645 0.028810963034629822
0.99964606761932373 0.23134541511535645 0.028810959309339523
0.089072659611701965 0.31512194871902466 0.13251195847988129
0.096154861152172089 0.31599247455596924 0.13206580281257629
0.10793820023536682 0.31662902235984802 0.13191679120063782
0.12713709473609924 0.31726530194282532 0.13165932893753052
0.15348696708679199 0.31858369708061218 0.13114055991172791
0.18501867353916168 0.32025212049484253 0.13059286773204803
0.21847979724407196 0.32187733054161072 0.12989076972007751
0.25221124291419983 0.32383117079734802 0.12884446978569031
0.29038742184638977 0.32621040940284729 0.12768428027629852
0.33509933948516846 0.32952350378036499 0.12629106640815735
0.38830745220184326 0.33366939425468445 0.12446087598800659
0.44200867414474487 0.33779916167259216 0.12240501493215561
0.48655423521995544 0.34021374583244324 0.12065444141626358
0.52449101209640503 0.34173387289047241 0.1186712235212326
0.55952656269073486 0.34264659881591797 0.11672155559062958
0.59328913688659668 0.34250935912132263 0.11447826027870178
0.62609577178955078 0.3423818051815033 0.1120186448097229
0.65809613466262817 0.3416270911693573 0.10950090736150742
0.68864291906356812 0.34054073691368103 0.10675544291734695
0.71821302175521851 0.3381335437297821 0.1036205068230629
0.74626719951629639 0.33658966422080994 0.10041771829128265
0.77346992492675781 0.33367195725440979 0.097088776528835297
0.8004310131072998 0.33076104521751404 0.093552298843860626
0.82645666599273682 0.32685816287994385 0.089756041765213013
0.85211247205734253 0.3225732147693634 0.085622720420360565
0.8778107762336731 0.31804299354553223 0.081419557332992554
0.90297240018844604 0.31199055910110474 0.076331734657287598
0.92807835340499878 0.30528521537780762 0.071002572774887085
0.95311963558197021 0.29688802361488342 0.064700379967689514
0.97750121355056763 0.28692474961280823 0.057727787643671036
0.99672418832778931 0.27501726150512695 0.049670539796352386
1 0.26814088225364685 0.044757600873708725
1 0.26814082264900208 0.044757597148418427
0.078219614923000336 0.37236064672470093 0.15273185074329376
0.094239808619022369 0.3727889358997345 0.15263786911964417
0.11409447342157364 0.37303096055984497 0.15239641070365906
0.13824626803398132 0.3744320273399353 0.15227632224559784
0.16551592946052551 0.37657579779624939 0.15192055702209473
0.19650895893573761 0.37731075286865234 0.15139982104301453
0.22925080358982086 0.38004341721534729 0.1505616307258606
0.2653084397315979 0.38183468580245972 0.14952252805233002
0.3064233660697937 0.38502773642539978 0.14835883677005768
0.35601827502250671 0.38911876082420349 0.14691072702407837
0.41021931171417236 0.3940158486366272 0.14500215649604797
0.46042382717132568 0.39804345369338989 0.14313581585884094
0.50169414281845093 0.40052148699760437 0.14130058884620667
0.5384829044342041 0.40249571204185486 0.13926698267459869
0.57316756248474121 0.40305200219154358 0.1372205913066864
0.60658568143844604 0.40331175923347473 0.13541072607040405
0.63946843147277832 0.40308046340942383 0.1331036388874054
0.67105931043624878 0.40229618549346924 0.13063977658748627
0.70123428106307983 0.4004770815372467 0.12774299085140228
0.73046231269836426 0.39784345030784607 0.12475813925266266
0.75848180055618286 0.39477625489234924 0.12146128714084625
0.78545796871185303 0.39085140824317932 0.11814437806606293
0.8121829628944397 0.38611492514610291 0.11418814212083817
0.83762603998184204 0.38028007745742798 0.11016283929347992
0.86321979761123657 0.37431299686431885 0.10571931302547455
0.8885493278503418 0.36806458234786987 0.10143263638019562
0.91343408823013306 0.36054953932762146 0.096052013337612152
0.9386020302772522 0.35265389084815979 0.090480268001556396
0.96372097730636597 0.34400331974029541 0.084596514701843262
0.98806917667388916 0.33422607183456421 0.077350437641143799
0.99978369474411011 0.32244172692298889 0.069475464522838593
1 0.31503939628601074 0.064820088446140289
1 0.31503939628601074 0.064820088446140289
0.10887053608894348 0.41557753086090088 0.17034310102462769
0.12010578811168671 0.41645637154579163 0.17030875384807587
0.13398221135139465 0.41752222180366516 0.16993972659111023
0.15400941669940948 0.41862714290618896 0.16959729790687561
0.17901122570037842 0.4202207624912262 0.16944441199302673
