Textures/74.cube
# Created by: G'MIC (https://gmic.eu)
TITLE "Kodak_Kodachrome_64_Generic.cube"
# LUT size
LUT_3D_SIZE 5
# Data domain
DOMAIN_MIN 0.0 0.0 0.0
DOMAIN_MAX 1.0 1.0 1.0
# LUT data points
0.0028864142950624228 0.0024511667434126139 0.0024340066593140364
0.17339473962783813 0.0036765625700354576 0.0029507584404200315
0.52605694532394409 0.0088236471638083458 0.0059607625007629395
0.89030170440673828 0.016824264079332352 0.0080353403463959694
1 0.023451071232557297 0.010180089622735977
0.052593864500522614 0.15867719054222107 0.019805144518613815
0.16763332486152649 0.16341908276081085 0.021983839571475983
0.52653014659881592 0.17517811059951782 0.027366496622562408
0.88167756795883179 0.18815609812736511 0.03362567350268364
1 0.1969771683216095 0.038703460246324539
0 0.48823553323745728 0.065313607454299927
0.057467661798000336 0.49221301078796387 0.067221701145172119
0.50889760255813599 0.50182998180389404 0.070976071059703827
0.84870147705078125 0.51177316904067993 0.075996540486812592
1 0.51960772275924683 0.07856566458940506
0 0.78693771362304688 0.05771399661898613
0.00015128419909160584 0.78956413269042969 0.057284977287054062
0.4832136332988739 0.79660773277282715 0.058452773839235306
0.80537766218185425 0.80467730760574341 0.055591773241758347
0.99607807397842407 0.8099672794342041 0.054973490536212921
0 0.99477106332778931 0.038148988038301468
0.15043917298316956 0.99669688940048218 0.041378956288099289
0.52988475561141968 0.99722230434417725 0.049957774579524994
0.78509116172790527 0.99844765663146973 0.058677107095718384
0.99877446889877319 1 0.066901683807373047
0.0034995279274880886 0.0024511667434126139 0.14905975759029388
0.17369119822978973 0.0033497295808047056 0.15241101384162903
0.52594965696334839 0.0066994591616094112 0.15960277616977692
0.89050757884979248 0.015244179405272007 0.16675464808940887
1 0.020914936438202858 0.17200596630573273
0.052181970328092575 0.15585653483867645 0.16611768305301666
0.16954319179058075 0.15999147295951843 0.16828837990760803
0.52706640958786011 0.17280955612659454 0.17465861141681671
0.88190668821334839 0.18551477789878845 0.18156856298446655
1 0.19395430386066437 0.1861536055803299
0 0.48591339588165283 0.18560366332530975
0.063984721899032593 0.4900645911693573 0.18906015157699585
0.51009523868560791 0.49895799160003662 0.19308264553546906
0.84930318593978882 0.50965988636016846 0.19943234324455261
1 0.51572394371032715 0.20374275743961334
0 0.78439545631408691 0.20801857113838196
0.00015830602205824107 0.78725910186767578 0.20968757569789886
0.48543447256088257 0.79409092664718628 0.21352384984493256
0.80665004253387451 0.80202245712280273 0.21873708069324493
0.99632316827774048 0.80782812833786011 0.22207410633563995
0 0.99208301305770874 0.25598791241645813
0.15991286933422089 0.99477106332778931 0.25693210959434509
0.53076785802841187 0.99689549207687378 0.26043453812599182
0.78617072105407715 0.9983668327331543 0.26467353105545044
0.99967330694198608 0.99967330694198608 0.26962500810623169
0.004857311025261879 0.00032683333847671747 0.46237587928771973
0.17418284714221954 0.0023529897443950176 0.46548348665237427
0.52635174989700317 0.005083128809928894 0.47194099426269531
0.89129245281219482 0.00988776795566082 0.47886243462562561
1 0.015768084675073624 0.48335367441177368
0.052965223789215088 0.14985081553459167 0.47836142778396606
0.17091561853885651 0.15384747087955475 0.48055762052536011
0.52849096059799194 0.16560624539852142 0.48661613464355469
0.8828473687171936 0.17806883156299591 0.49297568202018738
1 0.18614847958087921 0.49739935994148254
0 0.47899147868156433 0.50607991218566895
0.077979274094104767 0.48348462581634521 0.50827664136886597
0.51302927732467651 0.49248912930488586 0.51317572593688965
0.85132086277008057 0.50319170951843262 0.5185997486114502
1 0.50984126329421997 0.52251154184341431
0 0.77879101037979126 0.53464746475219727
0.00052192102884873748 0.78143906593322754 0.53600525856018066
0.4901999831199646 0.78821957111358643 0.53975367546081543
0.80939549207687378 0.79634499549865723 0.54397618770599365
0.9990195631980896 0.80208683013916016 0.54693955183029175
0 0.98692804574966431 0.56426149606704712
0.17935597896575928 0.99065744876861572 0.56518828868865967
0.53417748212814331 0.99477106332778931 0.56812554597854614
0.78728377819061279 0.99689549207687378 0.57136696577072144
0.99967330694198608 0.99844765663146973 0.57433271408081055
0.0044668447226285934 0 0.73920965194702148
0.17508134245872498 0.0003268334548920393 0.74236369132995605
0.52689623832702637 0.0030135486740618944 0.74846756458282471
0.89170575141906738 0.0066994596272706985 0.75503438711166382
1 0.01120983250439167 0.75973761081695557
0.053312789648771286 0.14209271967411041 0.75370538234710693
0.17351981997489929 0.14677497744560242 0.75550425052642822
0.52938002347946167 0.15847472846508026 0.76152706146240234
0.88337749242782593 0.17174077033996582 0.76788544654846191
1 0.18021680414676666 0.77219510078430176
0 0.47308629751205444 0.77846348285675049
0.093131236732006073 0.47778657078742981 0.78060263395309448
0.51579594612121582 0.48658153414726257 0.78536152839660645
0.85259026288986206 0.49720093607902527 0.7907833456993103
1 0.50392144918441772 0.79426926374435425
0 0.77315521240234375 0.80235868692398071
0.0044109500013291836 0.77567148208618164 0.80388504266738892
0.49453756213188171 0.78276807069778442 0.80756145715713501
0.81170940399169922 0.7908133864402771 0.81183207035064697
1 0.79646146297454834 0.81474679708480835
0 0.98300659656524658 0.82279425859451294
0.19622930884361267 0.98301011323928833 0.82426595687866211
0.53939515352249146 0.98924511671066284 0.82656717300415039
0.78928744792938232 0.99477106332778931 0.82956939935684204
0.99997967481613159 0.99689549207687378 0.83259123563766479
0.0039574354887008667 0 0.9069017767906189
0.17539492249488831 9.532640251563862e-05 0.90980410575866699
0.52737605571746826 0.0021192494314163923 0.91609293222427368
0.8917618989944458 0.0063233422115445137 0.92230600118637085
1 0.0088236471638083458 0.92671573162078857
0.053661126643419266 0.13815349340438843 0.92148715257644653
0.17520923912525177 0.14233723282814026 0.92248803377151489
0.53000229597091675 0.15428934991359711 0.92933374643325806
0.88384562730789185 0.16740886867046356 0.93464547395706177
1 0.17524529993534088 0.93929725885391235
0 0.46952629089355469 0.94526141881942749
0.10251569002866745 0.47413197159767151 0.94801419973373413
0.51760280132293701 0.4826405942440033 0.95282196998596191
0.85398125648498535 0.49347078800201416 0.95786887407302856
1 0.50000011920928955 0.96094739437103271
0 0.76985275745391846 0.97050637006759644
0.0092048989608883858 0.77195161581039429 0.97230398654937744
0.49765792489051819 0.77926033735275269 0.97618848085403442
0.81364548206329346 0.78739815950393677 0.98026436567306519
1 0.79338264465332031 0.98317021131515503
0 0.97908514738082886 0.99215704202651978
0.2067912220954895 0.97955334186553955 0.99215704202651978
0.54247695207595825 0.98683953285217285 0.99575132131576538
0.79151350259780884 0.99084973335266113 0.99877446889877319
1 0.9956699013710022 1
