Textures/74.cube
# Created by: G'MIC (https://gmic.eu)
TITLE "Kodak_Kodachrome_64_Generic.cube"
# LUT size
LUT_3D_SIZE 33
# Data domain
DOMAIN_MIN 0.0 0.0 0.0
DOMAIN_MAX 1.0 1.0 1.0
# LUT data points
0.0028864142950624228 0.0024511667434126139 0.0024340066593140364
0.014768960885703564 0.0024511667434126139 0.0024511667434126139
0.031269337981939316 0.0024511669762432575 0.0024511672090739012
0.052737493067979813 0.0026570875197649002 0.0024511667434126139
0.074715748429298401 0.0032974693458527327 0.0025166876148432493
0.096776336431503296 0.0033497295808047056 0.0026761975605040789
0.11927232891321182 0.003385618794709444 0.0028520883060991764
0.14547246694564819 0.003628473961725831 0.0029378882609307766
0.17339473962783813 0.0036765625700354576 0.0029507584404200315
0.20547327399253845 0.0039964453317224979 0.0031438088044524193
0.24218687415122986 0.0052875084802508354 0.003304103622213006
0.28623193502426147 0.0065262983553111553 0.0034752709325402975
0.33681750297546387 0.0066994591616094112 0.0037662857212126255
0.39028117060661316 0.0066994600929319859 0.0040787416510283947
0.43878349661827087 0.0072404686361551285 0.0050226692110300064
0.48194101452827454 0.0088108796626329422 0.0056475424207746983
0.52605694532394409 0.0088236471638083458 0.0059607625007629395
0.57301861047744751 0.0090303486213088036 0.0060023926198482513
0.62277442216873169 0.01025407575070858 0.0062438840977847576
0.67158550024032593 0.01181473582983017 0.0065438472665846348
0.71859818696975708 0.012118993327021599 0.0066058584488928318
0.76305949687957764 0.015039884485304356 0.006750951986759901
0.80726796388626099 0.015568742528557777 0.0069908485747873783
0.84971737861633301 0.015794219449162483 0.0073577454313635826
0.89030170440673828 0.016824264079332352 0.0080353403463959694
0.9305264949798584 0.017015159130096436 0.0085934782400727272
0.96774595975875854 0.01899956539273262 0.0092354686930775642
0.99652445316314697 0.020678183063864708 0.0094102071598172188
1 0.02054794505238533 0.0095428153872489929
1 0.021163256838917732 0.0095911873504519463
1 0.022791165858507156 0.0099751390516757965
1 0.023567326366901398 0.010180089622735977
1 0.023451071232557297 0.010180089622735977
0.0043404381722211838 0.012488808482885361 0.0028068481478840113
0.013494097627699375 0.013358059339225292 0.0028883581981062889
0.028820140287280083 0.013398771174252033 0.0030127689242362976
0.049059398472309113 0.013488861732184887 0.0031757892575114965
0.07129281759262085 0.014107793569564819 0.0033333492465317249
0.09293287992477417 0.014361700974404812 0.003349729347974062
0.11601116508245468 0.015086119994521141 0.0033815046772360802
0.14228872954845428 0.015914810821413994 0.003419805783778429
0.17035883665084839 0.016404850408434868 0.0034931446425616741
0.20359481871128082 0.016994496807456017 0.0037318861577659845
0.239510178565979 0.018221214413642883 0.0040946798399090767
0.28407898545265198 0.020010301843285561 0.0046111894771456718
0.33502015471458435 0.021779583767056465 0.0051693213172256947
0.38890072703361511 0.022536285221576691 0.005593298003077507
0.43570786714553833 0.023722408339381218 0.0061579751782119274
0.47943222522735596 0.02455558069050312 0.0065067270770668983
0.52330476045608521 0.026240253821015358 0.0066143670119345188
0.57107847929000854 0.027614397928118706 0.0066796038299798965
0.62029021978378296 0.029617594555020332 0.0066994586959481239
0.66925221681594849 0.031536020338535309 0.0067774783819913864
0.71581733226776123 0.031945187598466873 0.0072186514735221863
0.76047128438949585 0.035318054258823395 0.0086064143106341362
0.80455285310745239 0.035568416118621826 0.0092560611665248871
0.84692949056625366 0.037587828934192657 0.0094972569495439529
0.88761007785797119 0.039536885917186737 0.010056918486952782
0.92742049694061279 0.040713716298341751 0.010168096050620079
0.96538007259368896 0.042828179895877838 0.010356903076171875
0.99523246288299561 0.043444186449050903 0.010684099979698658
1 0.044805645942687988 0.011238696053624153
1 0.046830236911773682 0.011962227523326874
1 0.047439061105251312 0.012513605877757072
1 0.048867672681808472 0.012745105661451817
1 0.049111571162939072 0.012745105661451817
0.0075956536456942558 0.025173014029860497 0.0034329984337091446
0.015718614682555199 0.025397198274731636 0.0035788961686193943
0.027561921626329422 0.026001200079917908 0.0036920250859111547
0.047286186367273331 0.027683041989803314 0.0037310351617634296
0.069280795753002167 0.028941642493009567 0.0039202324114739895
0.090813703835010529 0.029003273695707321 0.0041324417106807232
0.11443708091974258 0.029003273695707321 0.0046022851020097733
0.14122790098190308 0.029089853167533875 0.0047867214307188988
0.16952447593212128 0.030058126896619797 0.0049532526172697544
0.20270350575447083 0.032720565795898438 0.0051330565474927425
0.23937913775444031 0.032929252833127975 0.0054193334653973579
0.28374201059341431 0.035952098667621613 0.0057157794944941998
0.3347189724445343 0.036945972591638565 0.0061315866187214851
0.38888883590698242 0.038234483450651169 0.006473892368376255
0.43545764684677124 0.040705271065235138 0.006642946507781744
0.478758305311203 0.040847711265087128 0.0069315638393163681
0.52231162786483765 0.043387040495872498 0.0073227817192673683
0.5709044337272644 0.044785536825656891 0.0076118758879601955
0.61844408512115479 0.047601040452718735 0.0081541193649172783
0.66848444938659668 0.048708956688642502 0.0091495439410209656
0.71500229835510254 0.050751619040966034 0.0099132582545280457
0.75908583402633667 0.053309191018342972 0.010382509790360928
0.80342262983322144 0.055405709892511368 0.010564827360212803
0.84551340341567993 0.056346382945775986 0.010611600242555141
0.88647043704986572 0.0582241490483284 0.0110958656296134
0.92630565166473389 0.060343623161315918 0.01172306016087532
0.96390426158905029 0.060511413961648941 0.01251874677836895
0.9944649338722229 0.063416950404644012 0.012907716445624828
1 0.064217612147331238 0.013089954853057861
1 0.064352504909038544 0.01321868784725666
1 0.066788829863071442 0.013411818072199821
1 0.068201586604118347 0.013686166144907475
1 0.068219035863876343 0.013856616802513599
0.011732420884072781 0.043610230088233948 0.0050807958468794823
0.020023033022880554 0.044343560934066772 0.00511511554941535
0.030703827738761902 0.045213364064693451 0.0052867168560624123
0.046513427048921585 0.046091079711914062 0.0052867168560624123
0.067313626408576965 0.046241797506809235 0.0054251826368272305
0.0887179896235466 0.046417586505413055 0.005576123483479023
0.11303653568029404 0.047277599573135376 0.0057735145092010498
0.13937908411026001 0.048336964100599289 0.0059580318629741669
0.16925045847892761 0.049734868109226227 0.0059794881381094456
0.20128011703491211 0.050212111324071884 0.006206803023815155
0.23937913775444031 0.051686186343431473 0.0065612071193754673
0.28454703092575073 0.054236471652984619 0.0066470098681747913
0.33597502112388611 0.056696970015764236 0.0071170413866639137
0.38888886570930481 0.057975031435489655 0.0077288388274610043
0.43545764684677124 0.058647461235523224 0.0090644294396042824
0.478758305311203 0.061382975429296494 0.010147259570658207
0.5217319130897522 0.062133286148309708 0.010427311062812805
0.57058835029602051 0.064401984214782715 0.010561422444880009
0.6181374192237854 0.066085055470466614 0.01062100101262331
0.66781032085418701 0.068311117589473724 0.010648301802575588
0.71472775936126709 0.069756023585796356 0.010904061608016491
0.7587897777557373 0.072356529533863068 0.011477261781692505
0.80196076631546021 0.07369280606508255 0.012475022114813328
0.8444443941116333 0.074296087026596069 0.013136210851371288
0.88518190383911133 0.077177941799163818 0.01354164257645607
0.92506980895996094 0.077807068824768066 0.013859540224075317
0.96191781759262085 0.079792886972427368 0.014504443854093552
0.99315601587295532 0.081536024808883667 0.014867151156067848
1 0.081818781793117523 0.015491992235183716
1 0.083940066397190094 0.015951080247759819
1 0.085448369383811951 0.016444062814116478
1 0.085492685437202454 0.016892068088054657
1 0.085551179945468903 0.016966167837381363
0.017796831205487251 0.063235417008399963 0.0070565352216362953
0.025507135316729546 0.063235417008399963 0.0070705758407711983
0.036057725548744202 0.063281051814556122 0.0070190825499594212
0.050171852111816406 0.064074218273162842 0.0068646026775240898
0.066983327269554138 0.065534837543964386 0.0069512021727859974
0.08670903742313385 0.066847085952758789 0.0072492226026952267
0.1120913103222847 0.067156963050365448 0.007507020141929388
0.13814103603363037 0.067156963050365448 0.008014497347176075
0.16919943690299988 0.067426465451717377 0.0083955852314829826
0.20153252780437469 0.069633722305297852 0.0086129419505596161
0.24074602127075195 0.071056298911571503 0.0091240806505084038
0.28674137592315674 0.07329113781452179 0.0094131017103791237
0.33779609203338623 0.074999965727329254 0.0099416794255375862
0.3891560435295105 0.07554151862859726 0.010381997562944889
0.43598532676696777 0.078727453947067261 0.010893308557569981
0.478758305311203 0.078921608626842499 0.011199415661394596
0.52231240272521973 0.081238888204097748 0.011519653722643852
0.57090485095977783 0.082843191921710968 0.012261781841516495
0.61856967210769653 0.085344523191452026 0.012650454416871071
0.66781026124954224 0.08676484227180481 0.013468004763126373
0.71432280540466309 0.088101498782634735 0.014175264164805412
0.75855821371078491 0.090664297342300415 0.014446540735661983
0.80196076631546021 0.09167955070734024 0.015453268773853779
0.84440571069717407 0.094425290822982788 0.016182655468583107
0.88439548015594482 0.094717174768447876 0.016701433807611465
0.92418807744979858 0.097588039934635162 0.017423812299966812
0.96167272329330444 0.098529420793056488 0.017739985138177872
0.99272876977920532 0.098706513643264771 0.018021633848547935
1 0.10112748295068741 0.018511414527893066
1 0.10245096683502197 0.018925055861473083
1 0.10248489677906036 0.019435679540038109
1 0.10464337468147278 0.020103465765714645
1 0.10563885420560837 0.020547375082969666
0.02495567686855793 0.083251386880874634 0.0096357828006148338
0.033350523561239243 0.083491586148738861 0.0096389027312397957
0.042698096483945847 0.084087535738945007 0.0096389027312397957
0.055819414556026459 0.084628403186798096 0.0096389027312397957
0.06940024346113205 0.085250735282897949 0.00978050846606493
0.087166398763656616 0.085448876023292542 0.0097982399165630341
0.11203227192163467 0.086221843957901001 0.010069095529615879
0.13758186995983124 0.086691915988922119 0.01042557880282402
0.16939565539360046 0.087829515337944031 0.010699000209569931
0.20343029499053955 0.08903387188911438 0.011188505217432976
0.24252475798130035 0.090168491005897522 0.011603912338614464
0.28937214612960815 0.092466272413730621 0.011864080093801022
0.34106230735778809 0.094389654695987701 0.012232991866767406
0.39153653383255005 0.096024133265018463 0.013111324980854988
0.43696755170822144 0.097076937556266785 0.014265581034123898
0.47886011004447937 0.098733887076377869 0.015060899779200554
0.52373546361923218 0.1004454717040062 0.015185725875198841
0.57107847929000854 0.10226190090179443 0.015747928991913795
0.62011146545410156 0.10437614470720291 0.016258832067251205
0.66867178678512573 0.10569421947002411 0.016752880066633224
0.71478748321533203 0.10764925181865692 0.017765069380402565
0.75882381200790405 0.10952536016702652 0.018215170130133629
0.80196076631546021 0.11168064922094345 0.018744006752967834
0.84357428550720215 0.11233089119195938 0.019755419343709946
0.88386774063110352 0.1142742708325386 0.020076829940080643
0.92307305335998535 0.11596917361021042 0.020934581756591797
0.96103096008300781 0.11700178682804108 0.021576227620244026
0.99269145727157593 0.11899233609437943 0.022019119933247566
1 0.11979337781667709 0.022454356774687767
1 0.1209222748875618 0.022767798975110054
1 0.12215949594974518 0.023363038897514343
1 0.12359549850225449 0.024031607434153557
1 0.12369287759065628 0.024346387013792992
0.033503714948892593 0.10641071200370789 0.012412410229444504
0.040747586637735367 0.10675789415836334 0.012506790459156036
0.050229664891958237 0.10678516328334808 0.012506792321801186
0.06133594736456871 0.10734221339225769 0.012595734558999538
0.074380405247211456 0.10767965018749237 0.0126191396266222
0.090723887085914612 0.10844621062278748 0.012621693313121796
0.11111045628786087 0.10906846076250076 0.012720211409032345
0.13644303381443024 0.1095007061958313 0.01321832463145256
0.1694444864988327 0.11072123795747757 0.013580507598817348
0.20417174696922302 0.11161018908023834 0.014143818989396095
0.2446150928735733 0.11296798288822174 0.014760890044271946
0.29228118062019348 0.11510429531335831 0.015206719748675823
0.3438231348991394 0.11683084815740585 0.015782857313752174
0.39342153072357178 0.11847823858261108 0.016554150730371475
0.43807217478752136 0.1197521984577179 0.017461145296692848
0.48038697242736816 0.12089844793081284 0.018222514539957047
0.52467328310012817 0.12272137403488159 0.018346549943089485
0.57210654020309448 0.12455687671899796 0.018956953659653664
0.62122821807861328 0.1266859769821167 0.019703708589076996
0.66871941089630127 0.12826521694660187 0.020010035485029221
0.71478748321533203 0.12978184223175049 0.021201657131314278
0.75882381200790405 0.13168422877788544 0.021855015307664871
0.80196076631546021 0.13340157270431519 0.022657694295048714
0.8428797721862793 0.13482363522052765 0.023703489452600479
0.88341504335403442 0.13617053627967834 0.02399330772459507
0.92251461744308472 0.13822741806507111 0.024889297783374786
0.9592355489730835 0.13912941515445709 0.025477124378085136
0.99180960655212402 0.14043666422367096 0.026364864781498909
1 0.14159746468067169 0.026917574927210808
1 0.14307761192321777 0.02738368883728981
1 0.14423546195030212 0.027696110308170319
1 0.14495092630386353 0.028397828340530396
1 0.14509807527065277 0.02859480120241642
0.042805351316928864 0.13053861260414124 0.015789804980158806
0.049872953444719315 0.13080033659934998 0.015931377187371254
0.057686310261487961 0.13131240010261536 0.015982870012521744
0.067615054547786713 0.13155537843704224 0.016211468726396561
0.08058793842792511 0.13211427628993988 0.016230974346399307
0.097496315836906433 0.13276822865009308 0.016387755051255226
0.11506320536136627 0.13364604115486145 0.016526214778423309
0.13694001734256744 0.13383597135543823 0.016766879707574844
0.16888274252414703 0.13479775190353394 0.017378184944391251
0.20506517589092255 0.13593548536300659 0.017696263268589973
0.246895432472229 0.1372847855091095 0.018291078507900238
0.29591169953346252 0.13890659809112549 0.018999012187123299
0.34771576523780823 0.14093999564647675 0.019444828853011131
0.39563259482383728 0.14184089004993439 0.020190013572573662
0.4396938681602478 0.14371930062770844 0.021274518221616745
0.48065751791000366 0.14519679546356201 0.02219465933740139
0.52549022436141968 0.1465606689453125 0.022502828389406204
0.57452768087387085 0.14881026744842529 0.023248249664902687
0.62215173244476318 0.15033872425556183 0.023955292999744415
0.66886639595031738 0.15216520428657532 0.024489015340805054
0.71478748321533203 0.15344621241092682 0.025507455691695213
0.75882387161254883 0.15542140603065491 0.026266168802976608
0.80156761407852173 0.15715950727462769 0.027179190889000893
0.84236115217208862 0.15860895812511444 0.028157856315374374
0.88291460275650024 0.15994898974895477 0.02853778749704361
0.92174708843231201 0.16154362261295319 0.029515646398067474
0.95784330368041992 0.16289906203746796 0.030243895947933197
0.99086141586303711 0.16439729928970337 0.03115815669298172
1 0.165170818567276 0.031831014901399612
1 0.16679693758487701 0.031979609280824661
1 0.16791258752346039 0.03258851170539856
1 0.16890726983547211 0.033332761377096176
1 0.16895407438278198 0.034022800624370575
0.052593864500522614 0.15867719054222107 0.019805144518613815
0.058088671416044235 0.15902906656265259 0.019805144518613815
0.064751900732517242 0.15956270694732666 0.019809436053037643
0.075152166187763214 0.16033123433589935 0.020096104592084885
0.087858475744724274 0.1615128368139267 0.020601555705070496
0.10339219868183136 0.16168317198753357 0.020753119140863419
0.12039930373430252 0.16198427975177765 0.020966494455933571
0.14174662530422211 0.16258174180984497 0.021375285461544991
0.16763332486152649 0.16341908276081085 0.021983839571475983
0.20512953400611877 0.16525080800056458 0.022296406328678131
0.24867884814739227 0.16601642966270447 0.022708304226398468
0.29920503497123718 0.16756190359592438 0.023563889786601067
0.35046300292015076 0.16962912678718567 0.024365093559026718
0.39695867896080017 0.17047311365604401 0.025267839431762695
0.44019600749015808 0.17243011295795441 0.025937216356396675
0.48187720775604248 0.17371067404747009 0.026685765013098717
0.52653014659881592 0.17517811059951782 0.027366496622562408
0.57500004768371582 0.17744244635105133 0.028203235939145088
0.62314152717590332 0.17849439382553101 0.028852151706814766
0.67045348882675171 0.18044422566890717 0.029817890375852585
0.71448957920074463 0.18203993141651154 0.030870530754327774
0.75828802585601807 0.18334530293941498 0.031779289245605469
0.80038821697235107 0.18553562462329865 0.032273292541503906
0.84152543544769287 0.18677146732807159 0.033043671399354935
0.88167756795883179 0.18815609812736511 0.03362567350268364
0.92009806632995605 0.18984553217887878 0.03469264879822731
0.95726972818374634 0.19106781482696533 0.035143516957759857
0.98895174264907837 0.192427858710289 0.036151695996522903
1 0.19346824288368225 0.036771003156900406
1 0.19467325508594513 0.037104479968547821
1 0.19579049944877625 0.037802305072546005
1 0.19683767855167389 0.03850073367357254
1 0.1969771683216095 0.038703460246324539
0.054755982011556625 0.19330097734928131 0.024577826261520386
0.060441192239522934 0.19341683387756348 0.024612152948975563
0.067752882838249207 0.19408759474754333 0.024783799424767494
0.078036479651927948 0.19445811212062836 0.024915542453527451
0.09095020592212677 0.19568553566932678 0.025218077003955841
0.10581225901842117 0.19583550095558167 0.025528354570269585
0.12359072268009186 0.19632342457771301 0.026051437482237816
0.14457893371582031 0.19674655795097351 0.02620275691151619
0.17023546993732452 0.19782310724258423 0.026967315003275871
0.20392072200775146 0.19952799379825592 0.027571123093366623
0.25007206201553345 0.20037190616130829 0.027897210791707039
0.30230125784873962 0.20185457170009613 0.028625790029764175
0.35264661908149719 0.20368218421936035 0.029528390616178513
0.39697736501693726 0.20438829064369202 0.030306968837976456
0.43986883759498596 0.20615287125110626 0.030879994854331017
0.4812312126159668 0.20771358907222748 0.031288366764783859
0.52642232179641724 0.20913441479206085 0.032138310372829437
0.57500004768371582 0.21143488585948944 0.032946478575468063
0.62302911281585693 0.21222579479217529 0.033811282366514206
0.66914659738540649 0.21422833204269409 0.034945406019687653
0.71374744176864624 0.21573486924171448 0.035892408341169357
0.75643718242645264 0.21700824797153473 0.036449521780014038
0.79942315816879272 0.21932928264141083 0.037490162998437881
0.83984911441802979 0.22041492164134979 0.038071341812610626
0.87968277931213379 0.22171211242675781 0.039114136248826981
0.91804718971252441 0.22342322766780853 0.039766009896993637
0.95412224531173706 0.22444908320903778 0.040422480553388596
0.98718684911727905 0.22595906257629395 0.041088715195655823
1 0.22720342874526978 0.041956547647714615
1 0.22800642251968384 0.042614784091711044
1 0.22869834303855896 0.043231736868619919
1 0.23067601025104523 0.044130157679319382
1 0.23104581236839294 0.044549994170665741
0.045777019113302231 0.23429639637470245 0.03000585176050663
0.050909712910652161 0.23464818298816681 0.030263291671872139
0.057227984070777893 0.23509590327739716 0.030417747795581818
0.065412677824497223 0.23540522158145905 0.030516939237713814
0.074760608375072479 0.2360200434923172 0.030856924131512642
0.088361985981464386 0.23607735335826874 0.031369477510452271
0.10785496979951859 0.23697470128536224 0.031624592840671539
0.1294899582862854 0.2373405247926712 0.031761873513460159
0.15832144021987915 0.23865868151187897 0.03226466104388237
0.19806477427482605 0.23981691896915436 0.033079113811254501
0.24710139632225037 0.24102893471717834 0.033747706562280655
0.30106547474861145 0.24277855455875397 0.034701306372880936
0.35028755664825439 0.24392256140708923 0.035792283713817596
0.39504799246788025 0.24490007758140564 0.03635784238576889
0.43687525391578674 0.24667306244373322 0.037228085100650787
0.47900167107582092 0.24812260270118713 0.037919990718364716
0.52491283416748047 0.24980692565441132 0.038757823407649994
0.57393282651901245 0.25157546997070312 0.03960651159286499
0.62093222141265869 0.25281983613967896 0.040622599422931671
0.66726458072662354 0.25429770350456238 0.041558478027582169
0.71129506826400757 0.25610765814781189 0.042469803243875504
0.75392812490463257 0.25746345520019531 0.043365772813558578
0.79624176025390625 0.2593330442905426 0.044150128960609436
0.83678001165390015 0.26063627004623413 0.045028936117887497
0.87623399496078491 0.26169714331626892 0.045972995460033417
0.91432797908782959 0.26355573534965515 0.04674040898680687
0.95054811239242554 0.26470574736595154 0.047310609370470047
0.98418259620666504 0.26579338312149048 0.048048272728919983
0.99983155727386475 0.26727882027626038 0.048627078533172607
1 0.26831746101379395 0.04918234795331955
1 0.26900956034660339 0.049917742609977722
1 0.27003961801528931 0.05033237487077713
1 0.27042511105537415 0.050614386796951294
0.040856476873159409 0.28161785006523132 0.037199463695287704
0.044352058321237564 0.28161785006523132 0.037435412406921387
0.049063645303249359 0.2818237841129303 0.037472855299711227
0.055292915552854538 0.28250083327293396 0.037911273539066315
0.065655618906021118 0.28251641988754272 0.038062609732151031
0.079042382538318634 0.28295174241065979 0.038259580731391907
0.094600610435009003 0.28382155299186707 0.038958564400672913
0.1133243516087532 0.2846757173538208 0.03929712250828743
0.13900458812713623 0.28556334972381592 0.039326377213001251
0.18616726994514465 0.28656938672065735 0.039795685559511185
0.24173599481582642 0.2882133424282074 0.040691878646612167
0.29664552211761475 0.28972446918487549 0.041362769901752472
0.34465545415878296 0.29102286696434021 0.042146794497966766
0.38890910148620605 0.29232895374298096 0.042578566819429398
0.43165159225463867 0.29341751337051392 0.043358784168958664
0.47459930181503296 0.29485836625099182 0.044343475252389908
0.5216185450553894 0.29664784669876099 0.045132163912057877
0.57045727968215942 0.29803484678268433 0.045929413288831711
0.61764639616012573 0.29981338977813721 0.046770971268415451
0.66356039047241211 0.30104795098304749 0.048040285706520081
0.70719641447067261 0.30259034037590027 0.048798944801092148
0.74968016147613525 0.30459249019622803 0.049935214221477509
0.79173004627227783 0.30589762330055237 0.050438780337572098
0.83210098743438721 0.30726033449172974 0.051397420465946198
0.87156707048416138 0.30860063433647156 0.052303217351436615
0.90950608253479004 0.30996802449226379 0.053117696195840836
0.9447406530380249 0.31147095561027527 0.053758163005113602
0.97884845733642578 0.31238195300102234 0.054381132125854492
0.99926465749740601 0.31362167000770569 0.054879643023014069
1 0.31474107503890991 0.055398233234882355
1 0.31572616100311279 0.056144960224628448
1 0.31629198789596558 0.056370038539171219
1 0.31663095951080322 0.056575216352939606
0.019732661545276642 0.32434603571891785 0.043181486427783966
0.022253235802054405 0.32439601421356201 0.043310217559337616
0.024124801158905029 0.32525497674942017 0.043533354997634888
0.028579099103808403 0.32589846849441528 0.043593432754278183
0.035345707088708878 0.32589846849441528 0.043708097189664841
0.044426318258047104 0.3265421986579895 0.044176939874887466
0.056465089321136475 0.32724562287330627 0.044781271368265152
