Textures/75.cube
# Created by: G'MIC (https://gmic.eu)
TITLE "Kodak_Kodachrome_200.cube"
# LUT size
LUT_3D_SIZE 33
# Data domain
DOMAIN_MIN 0.0 0.0 0.0
DOMAIN_MAX 1.0 1.0 1.0
# LUT data points
0.0033185242209583521 0.0036618099547922611 0.0022723772563040257
0.01467408798635006 0.0035104507114738226 0.0022723772563040257
0.029420224949717522 0.0034979679621756077 0.0022723774891346693
0.0481613390147686 0.0034417933784425259 0.0025547752156853676
0.068341873586177826 0.0033590917009860277 0.0032022721134126186
0.088363632559776306 0.0033497295808047056 0.0033551915548741817
0.11129917949438095 0.0033497295808047056 0.0033957618288695812
0.13963393867015839 0.0033497295808047056 0.0034456818830221891
0.17161887884140015 0.0033497295808047056 0.0040718573145568371
0.20653462409973145 0.0033497295808047056 0.0045893006026744843
0.24373389780521393 0.0033668940886855125 0.005082705058157444
0.2842879593372345 0.0035548508167266846 0.005901846569031477
0.3258344829082489 0.0042560040019452572 0.006176716648042202
0.36977773904800415 0.0031734660733491182 0.0066861356608569622
0.41360440850257874 0.0024511667434126139 0.007542712613940239
0.45530882477760315 0.0025927375536412001 0.0084761399775743484
0.49638497829437256 0.0024394637439399958 0.0093299392610788345
0.53564959764480591 0.0018098417203873396 0.0095616141334176064
0.57215392589569092 0.0015523751499131322 0.0097375055775046349
0.6068386435508728 0.0015523751499131322 0.0093771163374185562
0.63871443271636963 0.0014236037386581302 0.0091235637664794922
0.66847455501556396 0.0012256251648068428 0.0092916432768106461
0.69704276323318481 0.00088038609828799963 0.0096267154440283775
0.72377210855484009 0.00032683333847671747 0.0094964494928717613
0.74923205375671387 0.0010106797562912107 0.010104245506227016
0.77439397573471069 0.0012256251648068428 0.010564872063696384
0.79894626140594482 0.00043918238952755928 0.010866208001971245
0.82383716106414795 3.0782484827795997e-05 0.011727551929652691
0.84855586290359497 0 0.011765001341700554
0.87320303916931152 0 0.012017154134809971
0.89869236946105957 0 0.012130361050367355
0.91697567701339722 0 0.012881114147603512
0.91774916648864746 0 0.012915433384478092
0.0085704894736409187 0.016395768150687218 0.0081114200875163078
0.019256649538874626 0.01613088883459568 0.008205825462937355
0.034943714737892151 0.016109047457575798 0.0082760388031601906
0.054569900035858154 0.016010740771889687 0.0085081281140446663
0.0751146599650383 0.015866011381149292 0.0088607687503099442
0.095759347081184387 0.015849629417061806 0.0092744138091802597
0.1200302392244339 0.015849629417061806 0.0098969517275691032
0.14935971796512604 0.015849629417061806 0.01019687857478857
0.18186618387699127 0.015849629417061806 0.010656217113137245
0.21708172559738159 0.015849629417061806 0.011587986722588539
0.25414711236953735 0.015879666432738304 0.012273812666535378
0.29436904191970825 0.016208590939640999 0.0130812032148242
0.33606919646263123 0.016369950026273727 0.013980412855744362
0.37921857833862305 0.015101169236004353 0.014939045533537865
0.42210519313812256 0.014263014309108257 0.01580367423593998
0.4627842903137207 0.014244683086872101 0.017033902928233147
0.5029943585395813 0.013284076005220413 0.017367422580718994
0.5415235161781311 0.012538599781692028 0.01730150543153286
0.57745367288589478 0.012104776687920094 0.017170432955026627
0.61168986558914185 0.011295241303741932 0.016972260549664497
0.64298921823501587 0.010722401551902294 0.016561144962906837
0.67233264446258545 0.0099468277767300606 0.016531948000192642
0.70073020458221436 0.0093899285420775414 0.016093214973807335
0.72717243432998657 0.0080974642187356949 0.015607208944857121
0.75244063138961792 0.0089905671775341034 0.014728864654898643
0.77757292985916138 0.0086793322116136551 0.013883440755307674
0.80201929807662964 0.0069482247345149517 0.013913560658693314
0.82659345865249634 0.0048428783193230629 0.014300254173576832
0.85110980272293091 0.0036680556368082762 0.015114187262952328
0.875590980052948 0.0031047502998262644 0.015555455349385738
0.90078407526016235 0.0028283447027206421 0.016163766384124756
0.9195249080657959 0.0016897738678380847 0.016339667141437531
0.92055797576904297 0.0015524585032835603 0.016339667141437531
0.015371441841125488 0.034570354968309402 0.013814151287078857
0.025393908843398094 0.034317184239625931 0.014131658710539341
0.039124235510826111 0.034166991710662842 0.014646498486399651
0.058524560183286667 0.033905234187841415 0.014995996840298176
0.079405583441257477 0.033874034881591797 0.015197570435702801
0.10027482360601425 0.033671621233224869 0.015678729861974716
0.12607498466968536 0.033345580101013184 0.01640813797712326
0.15599039196968079 0.033026702702045441 0.016888108104467392
0.18906290829181671 0.032880101352930069 0.017728643491864204
0.22402143478393555 0.032452553510665894 0.018568668514490128
0.2609688937664032 0.032915987074375153 0.019508207216858864
0.30133134126663208 0.032981138676404953 0.020528405904769897
0.34294623136520386 0.032890636473894119 0.021667761728167534
0.38559156656265259 0.031019799411296844 0.022613460198044777
0.4276435375213623 0.02970287948846817 0.023947622627019882
0.46779400110244751 0.029342709109187126 0.024736745283007622
0.50758481025695801 0.029004830867052078 0.025255562737584114
0.54546988010406494 0.028692023828625679 0.025273893028497696
0.58108031749725342 0.026505360379815102 0.024989128112792969
0.61473202705383301 0.025193428620696068 0.024637270718812943
0.64591473340988159 0.025084853172302246 0.024153962731361389
0.67509835958480835 0.024588281288743019 0.02318388968706131
0.703105628490448 0.02161015197634697 0.022138543426990509
0.72949075698852539 0.021189292892813683 0.02130538783967495
0.75467300415039062 0.021263003349304199 0.02066817507147789
0.77956998348236084 0.020628849044442177 0.019344625994563103
0.80415219068527222 0.017766349017620087 0.018222970888018608
0.82871061563491821 0.015276818536221981 0.017867393791675568
0.85324984788894653 0.013898287899792194 0.018349504098296165
0.87773394584655762 0.012167044915258884 0.019269255921244621
0.90286993980407715 0.011204672046005726 0.019542042165994644
0.92096149921417236 0.0093935569748282433 0.019676076248288155
0.9216882586479187 0.0092781176790595055 0.019689692184329033
0.024828163906931877 0.056811235845088959 0.02247210219502449
0.035108473151922226 0.056491769850254059 0.022641794756054878
0.046898424625396729 0.056386861950159073 0.022869965061545372
0.063258275389671326 0.056147363036870956 0.023169916123151779
0.083712860941886902 0.055829819291830063 0.023640049621462822
0.10535299032926559 0.05560668557882309 0.024289468303322792
0.13263252377510071 0.055430743843317032 0.025306379422545433
0.16298657655715942 0.055345181375741959 0.026117073372006416
0.19646783173084259 0.054712057113647461 0.027020299807190895
0.23152582347393036 0.053820818662643433 0.028071064502000809
0.26870900392532349 0.054086837917566299 0.029389886185526848
0.30892160534858704 0.054697256535291672 0.030384017154574394
0.35026192665100098 0.053660307079553604 0.031789463013410568
0.39237448573112488 0.052230887115001678 0.0330004021525383
0.43353793025016785 0.051513496786355972 0.034338727593421936
0.47306174039840698 0.051107533276081085 0.035110689699649811
0.51231890916824341 0.049548693001270294 0.035745702683925629
0.54958194494247437 0.048529215157032013 0.035859599709510803
0.5846482515335083 0.047755051404237747 0.035350166261196136
0.61789774894714355 0.046491816639900208 0.034876886755228043
0.64881628751754761 0.045010548084974289 0.034011438488960266
0.67770785093307495 0.043708920478820801 0.033182922750711441
0.70544964075088501 0.041812270879745483 0.031953569501638412
0.73166263103485107 0.040025830268859863 0.030377309769392014
0.75673955678939819 0.039605759084224701 0.028704172000288963
0.7817884087562561 0.038153029978275299 0.026539916172623634
0.80617469549179077 0.034958243370056152 0.024585090577602386
0.83092361688613892 0.031570352613925934 0.022839374840259552
0.85538679361343384 0.029736137017607689 0.021543469280004501
0.87973809242248535 0.026826757937669754 0.021817108616232872
0.90488797426223755 0.024898845702409744 0.022581866011023521
0.92378288507461548 0.022712359204888344 0.023392856121063232
0.92490977048873901 0.022712357342243195 0.023529002442955971
0.036968450993299484 0.08046327531337738 0.033513709902763367
0.046491686254739761 0.080306477844715118 0.033899426460266113
0.057396728545427322 0.080095082521438599 0.034177914261817932
0.071100607514381409 0.079715937376022339 0.03450438380241394
0.088199853897094727 0.079359777271747589 0.034919306635856628
0.11106599867343903 0.079166673123836517 0.035777319222688675
0.139853835105896 0.079157315194606781 0.036488555371761322
0.17053002119064331 0.078497007489204407 0.037546023726463318
0.2044784277677536 0.077698439359664917 0.038908321410417557
0.23922529816627502 0.077393077313899994 0.039874088019132614
0.27635577321052551 0.077251896262168884 0.041225351393222809
0.31671929359436035 0.077376306056976318 0.042471799999475479
0.35796919465065002 0.07644161581993103 0.043843735009431839
0.39919725060462952 0.07530193030834198 0.045109376311302185
0.43958768248558044 0.074429444968700409 0.046671181917190552
0.47859916090965271 0.073395416140556335 0.047356810420751572
0.51706993579864502 0.072542957961559296 0.047600176185369492
0.55395489931106567 0.071366310119628906 0.04767194390296936
0.58846485614776611 0.069945432245731354 0.047380976378917694
0.62139290571212769 0.068649508059024811 0.046835877001285553
0.65193933248519897 0.067078627645969391 0.045790061354637146
0.68033760786056519 0.065579324960708618 0.044648699462413788
0.70804494619369507 0.063830763101577759 0.043573461472988129
0.73391777276992798 0.06215377151966095 0.041576381772756577
0.75888663530349731 0.061032287776470184 0.039476919919252396
0.78370803594589233 0.058821618556976318 0.036536417901515961
0.80823105573654175 0.055495169013738632 0.03347025066614151
0.83277231454849243 0.052296429872512817 0.030222345143556595
0.85726451873779297 0.049378599971532822 0.027527878060936928
0.8819042444229126 0.047053251415491104 0.025745728984475136
0.90696316957473755 0.043451886624097824 0.026003157719969749
0.92499071359634399 0.039790205657482147 0.026576893404126167
0.92571991682052612 0.039705961942672729 0.026679875329136848
0.051142182201147079 0.10694444924592972 0.04750567302107811
0.059461973607540131 0.10691480338573456 0.047667939215898514
0.069449841976165771 0.10657783597707748 0.04775063693523407
0.082028143107891083 0.10632044076919556 0.047812275588512421
0.096342086791992188 0.10604587197303772 0.048010837286710739
0.11768773943185806 0.10601700842380524 0.049113832414150238
0.14768941700458527 0.10549414157867432 0.050856973975896835
0.17846602201461792 0.10466606169939041 0.051376961171627045
0.21229590475559235 0.10369099676609039 0.051979187875986099
0.24737069010734558 0.10318581759929657 0.053976781666278839
0.28472721576690674 0.10302276164293289 0.055090662091970444
0.32519644498825073 0.1030227392911911 0.055741667747497559
0.36582088470458984 0.10250434279441833 0.057740245014429092
0.40659171342849731 0.10099314153194427 0.058899544179439545
0.44614633917808533 0.099817506968975067 0.059854812920093536
0.48458480834960938 0.098983265459537506 0.06013762578368187
0.52238833904266357 0.097642078995704651 0.060428202152252197
0.55846166610717773 0.096384897828102112 0.060937672853469849
0.59243005514144897 0.095283061265945435 0.060177024453878403
0.62503087520599365 0.092952892184257507 0.059366855770349503
0.65524518489837646 0.09133785218000412 0.05875517800450325
0.68323308229446411 0.089594312012195587 0.057619452476501465
0.71048617362976074 0.087742194533348083 0.056064240634441376
0.73624289035797119 0.085305735468864441 0.054249372333288193
0.76099562644958496 0.084118321537971497 0.051816318184137344
0.78580689430236816 0.081576459109783173 0.048930630087852478
0.81001889705657959 0.078104160726070404 0.045384887605905533
0.83474230766296387 0.074812322854995728 0.041263561695814133
0.85937666893005371 0.071587637066841125 0.036948397755622864
0.88400614261627197 0.068363308906555176 0.032868225127458572
0.90923893451690674 0.064652189612388611 0.0307640191167593
0.92806345224380493 0.060937244445085526 0.030474171042442322
0.92909377813339233 0.060709446668624878 0.030474171042442322
0.066687077283859253 0.14019598066806793 0.063807286322116852
0.074410609900951385 0.14019598066806793 0.063912585377693176
0.083701767027378082 0.14019598066806793 0.064125962555408478
0.095159702003002167 0.14019598066806793 0.064409121870994568
0.10960503667593002 0.14019598066806793 0.064704790711402893
0.12860836088657379 0.14019598066806793 0.065596297383308411
0.15515272319316864 0.14017429947853088 0.066789723932743073
0.18633061647415161 0.13952717185020447 0.067674987018108368
0.22038379311561584 0.13698609173297882 0.068324826657772064
0.25589120388031006 0.13629336655139923 0.069615483283996582
0.29348793625831604 0.13627462089061737 0.071212418377399445
0.33401423692703247 0.13627462089061737 0.072050534188747406
0.37452781200408936 0.13627462089061737 0.073061630129814148
0.41424158215522766 0.13507100939750671 0.074568845331668854
0.45296382904052734 0.13235278427600861 0.075447060167789459
0.49077931046485901 0.13235278427600861 0.07574819028377533
0.5279165506362915 0.13128213584423065 0.075683847069740295
0.56347280740737915 0.12843143939971924 0.075833991169929504
0.59694403409957886 0.12843143939971924 0.075397185981273651
0.6290900707244873 0.12477155774831772 0.074531324207782745
0.65883523225784302 0.12349708378314972 0.073464937508106232
0.68654000759124756 0.12063658982515335 0.071874216198921204
0.71367794275283813 0.1198049932718277 0.070768922567367554
0.73906552791595459 0.11666663736104965 0.06852315366268158
0.76355588436126709 0.11472287029027939 0.066199831664562225
0.78832924365997314 0.11162344366312027 0.062985092401504517
0.81245791912078857 0.10741422325372696 0.059517528861761093
0.83682435750961304 0.10400182753801346 0.055287990719079971
0.86153417825698853 0.10043966025114059 0.05044175311923027
0.88611185550689697 0.096468463540077209 0.044930115342140198
0.91150647401809692 0.092047646641731262 0.039720553904771805
0.92997807264328003 0.08737453818321228 0.037298630923032761
0.93087559938430786 0.087134309113025665 0.037191964685916901
0.083536192774772644 0.17589886486530304 0.080500334501266479
0.090556629002094269 0.17589886486530304 0.080770663917064667
0.098838254809379578 0.17589730024337769 0.080800697207450867
0.10998713970184326 0.17573381960391998 0.080820202827453613
0.12428651005029678 0.17519316077232361 0.081332370638847351
0.14424051344394684 0.17500004172325134 0.082391783595085144
0.16613215208053589 0.17487061023712158 0.083198688924312592
0.19419591128826141 0.1742577850818634 0.084208212792873383
0.2280866801738739 0.17384345829486847 0.084850259125232697
0.26430639624595642 0.17273013293743134 0.086075052618980408
0.30256080627441406 0.17199401557445526 0.087240941822528839
0.34309563040733337 0.17142577469348907 0.088549517095088959
0.38312751054763794 0.17073933780193329 0.089140854775905609
0.42190349102020264 0.17014564573764801 0.090589456260204315
0.46000480651855469 0.16858194768428802 0.09146609902381897
0.49698767066001892 0.16741099953651428 0.091600283980369568
0.53365945816040039 0.16649976372718811 0.091469220817089081
0.56900262832641602 0.1644260436296463 0.091448940336704254
0.60152477025985718 0.16318969428539276 0.091012395918369293
0.63323104381561279 0.16069525480270386 0.089928761124610901
0.66249072551727295 0.15844087302684784 0.088577814400196075
0.6899116039276123 0.15650109946727753 0.087394744157791138
0.71638369560241699 0.15478865802288055 0.085747793316841125
0.74168407917022705 0.15170134603977203 0.083739116787910461
0.76646655797958374 0.14898744225502014 0.081026285886764526
0.79081630706787109 0.14588519930839539 0.078137427568435669
0.81485629081726074 0.14156411588191986 0.074275188148021698
0.83932650089263916 0.13796114921569824 0.070100992918014526
0.86389404535293579 0.13377286493778229 0.065347589552402496
0.88838678598403931 0.12909685075283051 0.05952896922826767
0.91374552249908447 0.12367492169141769 0.05274881049990654
0.93246173858642578 0.11941713839769363 0.048255059868097305
0.93333297967910767 0.11928096413612366 0.048108968883752823
0.085661642253398895 0.21439053118228912 0.096446134150028229
0.092687100172042847 0.21410304307937622 0.096527650952339172
0.10179147869348526 0.21373829245567322 0.096963755786418915
0.11483462154865265 0.21372543275356293 0.097307778894901276
0.13228893280029297 0.21372543275356293 0.097761727869510651
0.15226170420646667 0.21372543275356293 0.098589979112148285
0.17376531660556793 0.21366879343986511 0.099500849843025208
0.20174819231033325 0.21298053860664368 0.10059817880392075
0.23618832230567932 0.21219055354595184 0.10140410810709
0.27317416667938232 0.21127359569072723 0.10230207443237305
0.3118145763874054 0.21071863174438477 0.10336846113204956
0.35233578085899353 0.20980393886566162 0.10486408323049545
0.39152717590332031 0.20944437384605408 0.10559844225645065
0.42960405349731445 0.20848749577999115 0.10668885707855225
0.46711373329162598 0.20722629129886627 0.1071741059422493
0.50343894958496094 0.2062307745218277 0.10771821439266205
0.53924864530563354 0.20553338527679443 0.10783950239419937
0.57361114025115967 0.20332762598991394 0.10748928785324097
0.60611569881439209 0.2020411342382431 0.10674155503511429
0.63702446222305298 0.19977712631225586 0.10579709708690643
0.66603845357894897 0.19771347939968109 0.10476440191268921
0.69311171770095825 0.19579535722732544 0.10352757573127747
0.71953451633453369 0.1941465437412262 0.1017230823636055
0.74461871385574341 0.19098721444606781 0.099678561091423035
0.76891189813613892 0.187965989112854 0.096907444298267365
0.79350519180297852 0.18499773740768433 0.094129361212253571
0.81733614206314087 0.18138694763183594 0.09050314873456955
0.84183067083358765 0.17762485146522522 0.086552001535892487
0.86620646715164185 0.17329405248165131 0.081607319414615631
0.89100295305252075 0.16858205199241638 0.076083973050117493
0.91634654998779297 0.16271664202213287 0.069413140416145325
0.93517160415649414 0.15813739597797394 0.063959077000617981
0.93627446889877319 0.15784290432929993 0.063662640750408173
0.087302394211292267 0.25539231300354004 0.11371799558401108
0.092890344560146332 0.25539231300354004 0.11391536891460419
0.10073930025100708 0.25539231300354004 0.11416308581829071
0.11201666295528412 0.25539231300354004 0.11462219804525375
0.12898567318916321 0.25465303659439087 0.11527642607688904
0.14832916855812073 0.25372660160064697 0.11602781713008881
0.17463649809360504 0.2535947859287262 0.11677908897399902
0.20789085328578949 0.25359475612640381 0.11762803792953491
0.24410527944564819 0.25359475612640381 0.11848242580890656
0.28191843628883362 0.25353467464447021 0.11939281970262527
0.32083171606063843 0.25170755386352539 0.12032350152730942
0.36118048429489136 0.25147050619125366 0.1214442253112793
0.39956557750701904 0.2503301203250885 0.1220586746931076
0.43690252304077148 0.24967332184314728 0.12307062745094299
0.4739498496055603 0.24904440343379974 0.12329450994729996
0.5092320442199707 0.24774092435836792 0.12351567298173904
0.54443275928497314 0.24695086479187012 0.12379185855388641
0.5784226655960083 0.24514678120613098 0.12273000925779343
0.6104399561882019 0.2434966117143631 0.12176577746868134
0.64082366228103638 0.24139730632305145 0.12127799540758133
0.66935193538665771 0.23955704271793365 0.11981842666864395
0.69602060317993164 0.23796021938323975 0.11820539087057114
0.72207605838775635 0.23570123314857483 0.11672093719244003
0.74700874090194702 0.23309917747974396 0.11460462212562561
0.7714417576789856 0.22998379170894623 0.1119694784283638
0.7957339882850647 0.22713616490364075 0.1091407984495163
0.81971907615661621 0.22380885481834412 0.10559887439012527
0.84373307228088379 0.21987819671630859 0.10172697901725769
0.86855506896972656 0.21578934788703918 0.09711475670337677
0.89310914278030396 0.21077015995979309 0.091819144785404205
0.91858327388763428 0.20537073910236359 0.085732854902744293
0.93707793951034546 0.20081031322479248 0.080585680902004242
0.93782681226730347 0.20049028098583221 0.080334335565567017
0.080406375229358673 0.29787582159042358 0.13210779428482056
0.087438158690929413 0.29787585139274597 0.13228373229503632
0.096717409789562225 0.29787585139274597 0.1327228844165802
0.10832812637090683 0.29787582159042358 0.13307082653045654
0.12178817391395569 0.29787582159042358 0.13387434184551239
0.14520679414272308 0.29761525988578796 0.13466340303421021
0.17943905293941498 0.29697707295417786 0.13496141135692596
0.21470397710800171 0.29677268862724304 0.13575069606304169
0.25248813629150391 0.29607850313186646 0.13675050437450409
0.29098668694496155 0.29607847332954407 0.13763828575611115
0.32992005348205566 0.29581320285797119 0.13870197534561157
0.36926960945129395 0.29531198740005493 0.13905297219753265
0.40688347816467285 0.29470312595367432 0.14017987251281738
0.44372174143791199 0.29331764578819275 0.14063502848148346
0.47956368327140808 0.29259717464447021 0.14084959030151367
0.51504439115524292 0.29193946719169617 0.14084959030151367
0.54959684610366821 0.29099571704864502 0.14073488116264343
0.58277410268783569 0.28895279765129089 0.14003172516822815
0.61421382427215576 0.28752323985099792 0.13874684274196625
0.64404910802841187 0.28602486848831177 0.13817107677459717
0.67200642824172974 0.28405562043190002 0.13686588406562805
0.69860434532165527 0.28226441144943237 0.13530269265174866
0.72436445951461792 0.28027135133743286 0.13364808261394501
0.74903112649917603 0.27776435017585754 0.13149906694889069
0.77335911989212036 0.27468639612197876 0.12860384583473206
0.79757970571517944 0.27201634645462036 0.12559120357036591
0.82142609357833862 0.26867863535881042 0.12194467335939407
0.84592187404632568 0.26491692662239075 0.11795995384454727
0.87039607763290405 0.2607060968875885 0.11317560076713562
0.89506250619888306 0.2556195855140686 0.10783151537179947
0.92064791917800903 0.25046709179878235 0.10176271945238113
0.94001871347427368 0.24587424099445343 0.096285589039325714
0.94117611646652222 0.24566997587680817 0.096000216901302338
0.054944869130849838 0.34133973717689514 0.15150631964206696
0.060555137693881989 0.34133973717689514 0.15150631964206696
0.068414464592933655 0.34133973717689514 0.15171673893928528
0.082755036652088165 0.34133973717689514 0.15205471217632294
0.11211580783128738 0.34133964776992798 0.15269170701503754
0.14904947578907013 0.34133967757225037 0.15343864262104034
0.18544763326644897 0.34133964776992798 0.15406037867069244
0.22306592762470245 0.34104692935943604 0.15489667654037476
0.2616366446018219 0.34084048867225647 0.15543654561042786
0.30061152577400208 0.3394300639629364 0.15586291253566742
0.33893236517906189 0.33923274278640747 0.15669709444046021
0.377360999584198 0.33921554684638977 0.1575993150472641
0.4137207567691803 0.33921554684638977 0.15796396136283875
0.44978377223014832 0.33794257044792175 0.15796823799610138
0.48585051298141479 0.33741840720176697 0.1581699401140213
0.51985287666320801 0.33638086915016174 0.1581699401140213
0.5539705753326416 0.33529427647590637 0.15748307108879089
0.58682101964950562 0.33416849374771118 0.15604579448699951
0.61741787195205688 0.33271026611328125 0.15562844276428223
0.64653784036636353 0.33132293820381165 0.15424595773220062
0.67427539825439453 0.32979965209960938 0.15309669077396393
0.70058929920196533 0.32803088426589966 0.15137767791748047
0.72641825675964355 0.32640254497528076 0.1491723358631134
0.75046658515930176 0.32370811700820923 0.14709733426570892
0.77503597736358643 0.32133865356445312 0.14427965879440308
0.7989267110824585 0.31905806064605713 0.14130216836929321
0.8230290412902832 0.31572714447975159 0.1377389132976532
