Textures/75.cube
# Created by: G'MIC (https://gmic.eu)
TITLE "Kodak_Kodachrome_200.cube"
# LUT size
LUT_3D_SIZE 5
# Data domain
DOMAIN_MIN 0.0 0.0 0.0
DOMAIN_MAX 1.0 1.0 1.0
# LUT data points
0.0033185242209583521 0.0036618099547922611 0.0022723772563040257
0.17161887884140015 0.0033497295808047056 0.0040718573145568371
0.49638497829437256 0.0024394637439399958 0.0093299392610788345
0.74923205375671387 0.0010106797562912107 0.010104245506227016
0.91774916648864746 0 0.012915433384478092
0.085661642253398895 0.21439053118228912 0.096446134150028229
0.23618832230567932 0.21219055354595184 0.10140410810709
0.53924864530563354 0.20553338527679443 0.10783950239419937
0.76891189813613892 0.187965989112854 0.096907444298267365
0.93627446889877319 0.15784290432929993 0.063662640750408173
0.13942304253578186 0.52645796537399292 0.26242363452911377
0.33278030157089233 0.52633905410766602 0.26470041275024414
0.57620757818222046 0.52549022436141968 0.26064836978912354
0.77726978063583374 0.52149856090545654 0.23430939018726349
0.94509798288345337 0.50964051485061646 0.1846405565738678
0.41224753856658936 0.73284310102462769 0.46466687321662903
0.48278418183326721 0.73284310102462769 0.46465244889259338
0.62654376029968262 0.73284310102462769 0.46028420329093933
0.78817003965377808 0.73169928789138794 0.43971318006515503
0.95299720764160156 0.72777783870697021 0.3764127790927887
0.58418452739715576 0.93562090396881104 0.65628081560134888
0.61498606204986572 0.93562090396881104 0.65669268369674683
0.69602048397064209 0.9371638298034668 0.65627807378768921
0.82110315561294556 0.93954265117645264 0.6503298282623291
0.98398703336715698 0.93954265117645264 0.62225127220153809
0.0013164404081180692 0.0033497295808047056 0.088070385158061981
0.16070827841758728 0.0024511669762432575 0.092143677175045013
0.49359807372093201 0.0022077441681176424 0.098191574215888977
0.74758332967758179 0.0003268334548920393 0.0846896693110466
0.9215691089630127 0 0.052166704088449478
0.074894562363624573 0.21117217838764191 0.21678292751312256
0.22413228452205658 0.20972616970539093 0.22097118198871613
0.53272521495819092 0.20244412124156952 0.22324992716312408
0.76375019550323486 0.18498510122299194 0.20045827329158783
0.93346917629241943 0.15339745581150055 0.14610564708709717
0.10414120554924011 0.52941161394119263 0.38741162419319153
0.3163495659828186 0.52941161394119263 0.39080581068992615
0.56512653827667236 0.52776443958282471 0.39108929038047791
0.76737552881240845 0.52156853675842285 0.37188470363616943
0.93868464231491089 0.50980377197265625 0.31532874703407288
0.40107870101928711 0.73539197444915771 0.5416792631149292
0.4741060733795166 0.73560225963592529 0.54307383298873901
0.61843955516815186 0.73503071069717407 0.54327356815338135
0.78027808666229248 0.73365575075149536 0.53479564189910889
0.94515597820281982 0.72988331317901611 0.50116938352584839
0.57946640253067017 0.93959879875183105 0.69788950681686401
0.61062687635421753 0.94011807441711426 0.69808351993560791
0.69208419322967529 0.9413987398147583 0.69943195581436157
0.8179284930229187 0.94347816705703735 0.69702982902526855
0.98308855295181274 0.94334495067596436 0.67899322509765625
0 0.0024511667434126139 0.27091881632804871
0.13740554451942444 0.0021562511101365089 0.27899730205535889
0.47878777980804443 0.0010395471472293139 0.289542555809021
0.73365414142608643 7.4899304308928549e-05 0.2784157395362854
0.91213899850845337 0 0.22985780239105225
0.057044006884098053 0.2021172046661377 0.39152628183364868
0.19857685267925262 0.1995885819196701 0.39864471554756165
0.51656478643417358 0.19072188436985016 0.40932318568229675
0.7471616268157959 0.1726512610912323 0.40420672297477722
0.91778486967086792 0.13873550295829773 0.37150225043296814
0.038143344223499298 0.52929240465164185 0.53023421764373779
0.28747886419296265 0.52923727035522461 0.53705036640167236
0.54936635494232178 0.52549022436141968 0.54489582777023315
0.7524878978729248 0.52146708965301514 0.54491555690765381
0.9250832200050354 0.50735658407211304 0.52655231952667236
0.37944912910461426 0.73676460981369019 0.64566069841384888
0.45683875679969788 0.73676460981369019 0.64800828695297241
0.60550457239151001 0.73676460981369019 0.65211576223373413
0.7700955867767334 0.73562020063400269 0.65311956405639648
0.93715453147888184 0.73080062866210938 0.64312881231307983
0.57018232345581055 0.94824689626693726 0.76747846603393555
0.60150468349456787 0.94832181930541992 0.76864790916442871
0.68446022272109985 0.94918322563171387 0.77116149663925171
0.81170541048049927 0.951210618019104 0.77251994609832764
0.98398703336715698 0.95094311237335205 0.76486754417419434
0 0.00017022569954860955 0.4305574893951416
0.10191737115383148 0 0.44107455015182495
0.45761215686798096 0 0.45877006649971008
0.71642225980758667 0 0.46540391445159912
0.89443641901016235 0 0.45812579989433289
0.035815034061670303 0.17465004324913025 0.51929599046707153
0.16791990399360657 0.17137584090232849 0.52715319395065308
0.49832981824874878 0.16158659756183624 0.5412781834602356
0.73311311006546021 0.14136534929275513 0.54640042781829834
0.90559941530227661 0.1074824184179306 0.5379493236541748
0.00023628340568393469 0.52120602130889893 0.63908988237380981
0.24574406445026398 0.52074497938156128 0.64524036645889282
0.53353601694107056 0.51759684085845947 0.65578943490982056
0.74235498905181885 0.51029527187347412 0.66195940971374512
0.91764700412750244 0.49581298232078552 0.65928322076797485
0.34573853015899658 0.73650079965591431 0.73941636085510254
0.43231239914894104 0.73640644550323486 0.74260371923446655
0.58994543552398682 0.73578011989593506 0.74861466884613037
0.75980418920516968 0.73434299230575562 0.75433015823364258
0.93217068910598755 0.72894203662872314 0.75399309396743774
0.55302399396896362 0.95596909523010254 0.85048002004623413
0.58566367626190186 0.95692628622055054 0.85196381807327271
0.67151188850402832 0.95804667472839355 0.85609203577041626
0.80269622802734375 0.96041029691696167 0.86098051071166992
0.986683189868927 0.96062088012695312 0.8610074520111084
0 0 0.52117389440536499
0.064208872616291046 0 0.53148823976516724
0.43594437837600708 0 0.55192005634307861
0.70522880554199219 0 0.5654069185256958
0.88717371225357056 0 0.56805557012557983
0.010879697278141975 0.13137239217758179 0.59640508890151978
0.12619481980800629 0.12746964395046234 0.60429102182388306
0.47614380717277527 0.11598087102174759 0.62068670988082886
0.7201424241065979 0.096434153616428375 0.63055574893951416
0.8961603045463562 0.065522991120815277 0.62965720891952515
0 0.50179719924926758 0.71772199869155884
0.17805176973342896 0.50089859962463379 0.72462910413742065
0.51347535848617554 0.49701476097106934 0.73770409822463989
0.73267978429794312 0.4881572425365448 0.7471081018447876
0.90996754169464111 0.46952629089355469 0.74991834163665771
0.28456568717956543 0.72990208864212036 0.82132339477539062
0.39082580804824829 0.72963994741439819 0.8252827525138855
0.56671255826950073 0.72875821590423584 0.83370977640151978
0.74662303924560547 0.72687911987304688 0.84275436401367188
0.92647051811218262 0.72091501951217651 0.84877443313598633
0.51682674884796143 0.96062088012695312 0.94289207458496094
0.55306023359298706 0.96108907461166382 0.94591528177261353
0.64485627412796021 0.96331727504730225 0.95306557416915894
0.78306615352630615 0.96595698595046997 0.9648284912109375
0.98815381526947021 0.96781051158905029 0.97998368740081787
