Textures/76.cube
# Created by: G'MIC (https://gmic.eu)
TITLE "Kodak_Portra_160_2.cube"
# LUT size
LUT_3D_SIZE 5
# Data domain
DOMAIN_MIN 0.0 0.0 0.0
DOMAIN_MAX 1.0 1.0 1.0
# LUT data points
0.0087742125615477562 0.012035394087433815 0.0099065536633133888
0.19705572724342346 0.011437836103141308 0.0067169857211410999
0.58557677268981934 0 0
0.85191792249679565 0 0
0.99999380111694336 0.15722131729125977 0
0 0.19968093931674957 0.0002108308399328962
0.17763568460941315 0.22092264890670776 0
0.6347963809967041 0.2856687605381012 0
0.85904675722122192 0.29306665062904358 0
0.99999582767486572 0.33680513501167297 0
0 0.49803844094276428 0
0.17706145346164703 0.4809688925743103 0
0.50675106048583984 0.53378087282180786 0
0.82274442911148071 0.58903616666793823 0
1 0.57115733623504639 0
0.26117384433746338 0.70168602466583252 0.051591172814369202
0.33097901940345764 0.69049131870269775 0.01684846356511116
0.50228065252304077 0.69518226385116577 0.0036491968203336
0.72186720371246338 0.7365955114364624 0.049709245562553406
0.98991531133651733 0.79263198375701904 0.0063356789760291576
0.52280735969543457 0.92793631553649902 0.42021763324737549
0.55265349149703979 0.92686688899993896 0.41799008846282959
0.63333559036254883 0.92366951704025269 0.41209414601325989
0.77809286117553711 0.94386708736419678 0.43631330132484436
0.94893485307693481 0.96844995021820068 0.46523872017860413
0 0.023069335147738457 0.22852364182472229
0.22250132262706757 0.010019619949162006 0.23617143929004669
0.61459416151046753 0 0.2503238320350647
0.83910447359085083 0 0.22145684063434601
0.99998295307159424 0.15363530814647675 0.22281175851821899
0 0.26015990972518921 0.2348555326461792
0.24659153819084167 0.26157426834106445 0.24683965742588043
0.61592113971710205 0.25342968106269836 0.23355312645435333
0.84469819068908691 0.27427095174789429 0.21574735641479492
0.99999582767486572 0.33293971419334412 0.20869357883930206
0.11008591204881668 0.54981547594070435 0.26208347082138062
0.26901295781135559 0.52762293815612793 0.24179737269878387
0.53342103958129883 0.54919981956481934 0.24186612665653229
0.83154302835464478 0.58391481637954712 0.19404089450836182
0.99995285272598267 0.56779277324676514 0.14799655973911285
0.32130506634712219 0.71957892179489136 0.29865995049476624
0.37578845024108887 0.70870912075042725 0.28164213895797729
0.51069658994674683 0.69764304161071777 0.2559945285320282
0.72544050216674805 0.74036651849746704 0.30108058452606201
0.99111360311508179 0.79141902923583984 0.29517176747322083
0.52908807992935181 0.93216204643249512 0.48512271046638489
0.55778390169143677 0.93056535720825195 0.48111402988433838
0.63400423526763916 0.92615073919296265 0.46939602494239807
0.77780675888061523 0.94371813535690308 0.48972123861312866
0.94984060525894165 0.96862518787384033 0.52014106512069702
0 0.067547544836997986 0.60147947072982788
0.28421026468276978 0.073319263756275177 0.6073983907699585
0.63177615404129028 0.11828652769327164 0.61836546659469604
0.86553084850311279 0.27502036094665527 0.60344773530960083
1 0.33873558044433594 0.57746678590774536
0 0.30736663937568665 0.59258264303207397
0.31630057096481323 0.32587411999702454 0.60182791948318481
0.62282425165176392 0.37055444717407227 0.61132168769836426
0.84319919347763062 0.43170958757400513 0.6027037501335144
0.9998517632484436 0.42050611972808838 0.57023203372955322
0.1217489168047905 0.6128961443901062 0.58511632680892944
0.35814753174781799 0.60747390985488892 0.58612221479415894
0.5936320424079895 0.59209257364273071 0.58469653129577637
0.80024158954620361 0.5784003734588623 0.56375104188919067
0.99688369035720825 0.57437950372695923 0.54559493064880371
0.42059358954429626 0.77187055349349976 0.56718659400939941
0.47729882597923279 0.76453316211700439 0.57022011280059814
0.56441700458526611 0.72888648509979248 0.53910410404205322
0.74026274681091309 0.75200116634368896 0.55533504486083984
0.99665564298629761 0.78659671545028687 0.55331826210021973
0.5572085976600647 0.94556576013565063 0.62582188844680786
0.57990533113479614 0.94320893287658691 0.61962652206420898
0.64461332559585571 0.93750852346420288 0.60048532485961914
0.77439886331558228 0.94362598657608032 0.59627741575241089
0.95480638742446899 0.97086989879608154 0.63022691011428833
0.27221405506134033 0.22424745559692383 0.81063550710678101
0.41918012499809265 0.24802777171134949 0.81190460920333862
0.6374744176864624 0.32787290215492249 0.813923180103302
0.83400189876556396 0.42294794321060181 0.81534349918365479
1 0.5137287974357605 0.80674201250076294
0.33670234680175781 0.40661287307739258 0.80171650648117065
0.44940760731697083 0.42233094573020935 0.80353069305419922
0.63882595300674438 0.47044607996940613 0.80749070644378662
0.82644301652908325 0.52934783697128296 0.8120686411857605
0.99958550930023193 0.58603787422180176 0.80875140428543091
0.33935758471488953 0.59383696317672729 0.77564620971679688
0.44850277900695801 0.60245609283447266 0.77846807241439819
0.63454967737197876 0.6345716118812561 0.78960955142974854
0.81537562608718872 0.67194557189941406 0.80360192060470581
0.99648141860961914 0.70328187942504883 0.81184256076812744
0.45654314756393433 0.8118746280670166 0.7851378321647644
0.51365041732788086 0.80999541282653809 0.78559768199920654
0.64104890823364258 0.80266577005386353 0.78499925136566162
0.79805231094360352 0.78846484422683716 0.78152561187744141
0.99313074350357056 0.77208548784255981 0.76327055692672729
0.6177600622177124 0.97062307596206665 0.78650379180908203
0.64076411724090576 0.96958953142166138 0.78692728281021118
0.69778114557266235 0.96595591306686401 0.78359532356262207
0.78682166337966919 0.952964186668396 0.75606387853622437
0.9671318531036377 0.9744800329208374 0.77927029132843018
0.53043901920318604 0.50389701128005981 0.98095107078552246
0.57824617624282837 0.51646572351455688 0.97997218370437622
0.6899077296257019 0.55183219909667969 0.9784095287322998
0.83215278387069702 0.60730743408203125 0.97636705636978149
0.98424994945526123 0.64602380990982056 0.97597897052764893
0.55492591857910156 0.58299857378005981 0.97784000635147095
0.59780222177505493 0.59193199872970581 0.9775736927986145
0.70009005069732666 0.61516016721725464 0.9762493371963501
0.83682256937026978 0.65473723411560059 0.97518295049667358
0.98335510492324829 0.68405461311340332 0.97558832168579102
0.57235348224639893 0.69417989253997803 0.97289842367172241
0.61007094383239746 0.69758540391921997 0.97377139329910278
0.71006596088409424 0.71138429641723633 0.97362023591995239
0.844654381275177 0.73783546686172485 0.9743773341178894
0.98482847213745117 0.76295030117034912 0.97658920288085938
0.54478049278259277 0.81656497716903687 0.97109967470169067
0.57986283302307129 0.81408536434173584 0.97145271301269531
0.67538905143737793 0.80728286504745483 0.97219002246856689
0.84642410278320312 0.83411324024200439 0.97640293836593628
0.98966020345687866 0.86980557441711426 0.98077696561813354
0.62797200679779053 0.99660080671310425 0.97727513313293457
0.65836238861083984 0.99605339765548706 0.97780019044876099
0.74007779359817505 0.99425280094146729 0.97904205322265625
0.86115044355392456 0.99058419466018677 0.98143726587295532
0.99098104238510132 0.98860108852386475 0.98694610595703125
