Textures/76.cube
# Created by: G'MIC (https://gmic.eu)
TITLE "Kodak_Portra_160_2.cube"
# LUT size
LUT_3D_SIZE 33
# Data domain
DOMAIN_MIN 0.0 0.0 0.0
DOMAIN_MAX 1.0 1.0 1.0
# LUT data points
0.0087742125615477562 0.012035394087433815 0.0099065536633133888
0.016086075454950333 0.012546263635158539 0.0097769321873784065
0.027106575667858124 0.013188306242227554 0.01001807302236557
0.045553777366876602 0.013318851590156555 0.0096399718895554543
0.067610666155815125 0.014724073931574821 0.0095251156017184258
0.092674143612384796 0.016283387318253517 0.0089805498719215393
0.12326280772686005 0.017322061583399773 0.0089134965091943741
0.15750201046466827 0.015832064673304558 0.0077597247436642647
0.19705572724342346 0.011437836103141308 0.0067169857211410999
0.24009415507316589 0.0049168150871992111 0.0046526221558451653
0.28667950630187988 0.00050898647168651223 0.0029574513901025057
0.33645394444465637 0 0.00097710476256906986
0.38663649559020996 0 0.00019785191398113966
0.4385673999786377 0 0
0.48986655473709106 0 0
0.53882133960723877 0 0
0.58557677268981934 0 0
0.62829959392547607 0 0
0.66839122772216797 0 0
0.70712524652481079 0 0
0.74090898036956787 0 0
0.77186638116836548 0 0
0.80073541402816772 0 0
0.82665795087814331 0 0
0.85191792249679565 0 0
0.87631583213806152 0 0
0.90022039413452148 0 0
0.92359864711761475 0.0053485920652747154 0
0.94671094417572021 0.040588892996311188 0
0.96932876110076904 0.078763760626316071 0
0.99238085746765137 0.10855565965175629 0
0.99997198581695557 0.13310477137565613 0
0.99999380111694336 0.15722131729125977 0
0.0090424008667469025 0.020140595734119415 0.010426742024719715
0.014887368306517601 0.020804515108466148 0.010236017405986786
0.026555601507425308 0.022479573264718056 0.0097958622500300407
0.047316249459981918 0.024298660457134247 0.0087221646681427956
0.070395179092884064 0.027490030974149704 0.0084360213950276375
0.095977343618869781 0.029029162600636482 0.0077496254816651344
0.1264118105173111 0.029913827776908875 0.0071216081269085407
0.16149155795574188 0.029012344777584076 0.0058320942334830761
0.20189180970191956 0.026231514289975166 0.0050131776370108128
0.24501779675483704 0.019947215914726257 0.0030584444757550955
0.29117852449417114 0.010568789206445217 0.0012699946528300643
0.34092041850090027 0.0020622808951884508 0.00030161868198774755
0.39107945561408997 2.1845631636097096e-05 2.8796515834983438e-05
0.4424794614315033 0 0
0.49281075596809387 0 0
0.54143595695495605 0 0
0.58719199895858765 0 0
0.63035184144973755 0 0
0.67015528678894043 0 0
0.70790070295333862 0 0
0.74179327487945557 0 0
0.7726781964302063 0 0
0.80069196224212646 0 0
0.82676225900650024 0 0
0.85220575332641602 0 0
0.876598060131073 3.1204068363877013e-05 0
0.89995491504669189 0.0057936576195061207 0
0.92323064804077148 0.036354325711727142 0
0.94658142328262329 0.073591656982898712 0
0.96939194202423096 0.10170532017946243 0
0.99218988418579102 0.12627668678760529 0
0.99996209144592285 0.14797724783420563 0
0.99999552965164185 0.16971954703330994 0
0.0090961512178182602 0.0316305011510849 0.010884759016335011
0.014824738726019859 0.032335866242647171 0.011098652146756649
0.023889681324362755 0.034541923552751541 0.010846337303519249
0.043127644807100296 0.039222791790962219 0.0091087426990270615
0.069228477776050568 0.043514493852853775 0.0069148261100053787
0.099742799997329712 0.045929711312055588 0.0055057229474186897
0.13267011940479279 0.047896470874547958 0.0046948669478297234
0.16822244226932526 0.048063721507787704 0.0035790801048278809
0.20842719078063965 0.046569842845201492 0.0022785705514252186
0.2516559362411499 0.042325343936681747 0.0011237188009545207
0.29770484566688538 0.035340309143066406 0.00031041324837133288
0.34694540500640869 0.024307282641530037 2.6526839064899832e-05
0.39669972658157349 0.01151818223297596 0
0.44742396473884583 0.002628423273563385 0
0.4973788857460022 0.00012482493184506893 0
0.54522675275802612 0 0
0.59067678451538086 0 0
0.63269633054733276 0 0
0.67303842306137085 0 0
0.71027630567550659 0 0
0.74334138631820679 0 0
0.77322304248809814 0 0
0.80188661813735962 0 0
0.82769578695297241 9.3189417384564877e-05 0
0.85291421413421631 0.0032789744436740875 0
0.87696945667266846 0.017935160547494888 0
0.90072536468505859 0.047753971070051193 0
0.9235614538192749 0.077977903187274933 0
0.94667476415634155 0.10345064848661423 0
0.9692198634147644 0.12535087764263153 0
0.99184435606002808 0.1459861695766449 0
0.99999707937240601 0.1649729311466217 0
0.99999839067459106 0.18470683693885803 0
0.0099054798483848572 0.050776362419128418 0.011436323635280132
0.016772856935858727 0.050982493907213211 0.011463948525488377
0.02582433819770813 0.052650697529315948 0.010808350518345833
0.039376437664031982 0.055457435548305511 0.010094365105032921
0.062277957797050476 0.062109034508466721 0.0078587811440229416
0.095930054783821106 0.068942204117774963 0.0051432736217975616
0.13576042652130127 0.07251044362783432 0.0021754119079560041
0.17656099796295166 0.07404790073633194 0.00097047589952126145
0.2176881730556488 0.073786601424217224 0.00026431091828271747
0.26101228594779968 0.072519645094871521 5.5039647122612223e-05
0.3068997859954834 0.069067977368831635 0
0.35605105757713318 0.062970951199531555 0
0.40537416934967041 0.054190594702959061 0
0.45515322685241699 0.042092528194189072 0
0.50493627786636353 0.027730708941817284 0
0.55190026760101318 0.015536474995315075 0
0.59645313024520874 0.0081812962889671326 0
0.63888031244277954 0.0046771354973316193 0
0.67834746837615967 0.0035898347850888968 0
0.71457302570343018 0.004092290997505188 0
0.74694037437438965 0.0062580648809671402 0
0.7766348123550415 0.010760912671685219 0
0.80446147918701172 0.020069731399416924 0
0.82964664697647095 0.035262547433376312 0
0.8544343113899231 0.056935932487249374 0
0.87880599498748779 0.07948186993598938 0
0.90174490213394165 0.099640585482120514 0
0.92508172988891602 0.11900758743286133 0
0.948150634765625 0.13762898743152618 0
0.9706299901008606 0.15478809177875519 0
0.99310022592544556 0.17188484966754913 0
0.99997860193252563 0.18830610811710358 0
1 0.20564380288124084 0
0.0089075397700071335 0.072112120687961578 0.01088784821331501
0.015596961602568626 0.071942530572414398 0.011104267090559006
0.024350913241505623 0.073116675019264221 0.010790794156491756
0.037819050252437592 0.07590581476688385 0.0098170191049575806
0.056367799639701843 0.079400785267353058 0.008343597874045372
0.085332997143268585 0.08802495151758194 0.0054342704825103283
0.12585067749023438 0.09776683896780014 0.0016375577542930841
0.17148920893669128 0.10295477509498596 7.9686906246934086e-05
0.22182750701904297 0.10518971085548401 0
0.27051126956939697 0.10579095035791397 0
0.31695529818534851 0.10487161576747894 0
0.36569520831108093 0.10233616083860397 0
0.41418269276618958 0.098483018577098846 0
0.46360912919044495 0.093295268714427948 0
0.5126158595085144 0.086558975279331207 0
0.55792152881622314 0.078732244670391083 0
0.60210114717483521 0.071949005126953125 0
0.6442711353302002 0.067348077893257141 0
0.68238729238510132 0.066101059317588806 0
0.71729522943496704 0.068333223462104797 0
0.74885779619216919 0.07369299978017807 0
0.77789890766143799 0.081734031438827515 0
0.80497819185256958 0.091610372066497803 0
0.83043926954269409 0.10241501778364182 0
0.85489577054977417 0.11506287008523941 0
0.87888360023498535 0.12842822074890137 0
0.90203934907913208 0.14216211438179016 0
0.92509335279464722 0.15636177361011505 0
0.94792968034744263 0.17047594487667084 0
0.97052013874053955 0.18452653288841248 0
0.99269402027130127 0.19827519357204437 0
0.99997431039810181 0.21228583157062531 0
1 0.22733582556247711 0
0.0024928839411586523 0.099265530705451965 0.0095878131687641144
0.009272255003452301 0.098591253161430359 0.0096472175791859627
0.019166663289070129 0.098510727286338806 0.009820220060646534
0.03394012525677681 0.10100767761468887 0.0086736781522631645
0.054447818547487259 0.10443801432847977 0.0072083743289113045
0.079171106219291687 0.10925590991973877 0.0050838249735534191
0.11385674774646759 0.11938568949699402 0.0016691472847014666
0.16073867678642273 0.13197140395641327 2.3902526663732715e-05
0.21289592981338501 0.13912704586982727 0
0.26839253306388855 0.14293615520000458 0
0.32414081692695618 0.14400674402713776 0
0.37664443254470825 0.14326602220535278 0
0.42474296689033508 0.14201726019382477 0
0.47315004467964172 0.139858677983284 0
0.52065509557723999 0.13673721253871918 0
0.56570130586624146 0.13386359810829163 0
0.60990142822265625 0.13179130852222443 0
0.65090841054916382 0.1311505138874054 0
0.68711203336715698 0.13160352408885956 0
0.72101682424545288 0.13356608152389526 0
0.75202202796936035 0.13744886219501495 0
0.78041356801986694 0.14246301352977753 0
0.80658972263336182 0.14811150729656219 0
0.83171457052230835 0.15520995855331421 0
0.85622036457061768 0.16366370022296906 0
0.88016384840011597 0.17320749163627625 0
0.90268826484680176 0.18312190473079681 0
0.92574042081832886 0.193926602602005 0
0.9483952522277832 0.20507378876209259 0
0.97060441970825195 0.21602745354175568 0
0.99302953481674194 0.22758574783802032 0
1 0.23932918906211853 0
0.99999141693115234 0.25235047936439514 0
0 0.12968847155570984 0.0068657225929200649
0.001053753774613142 0.12916854023933411 0.0070232972502708435
0.0097939781844615936 0.12813359498977661 0.0072003919631242752
0.026676496490836143 0.12935246527194977 0.0067335269413888454
0.049901511520147324 0.13275036215782166 0.0045385826379060745
0.077266879379749298 0.13744978606700897 0.0030075947288423777
0.10736472904682159 0.14294929802417755 0.0011407018173485994
0.14617663621902466 0.15397854149341583 3.9151913370005786e-05
0.19948230683803558 0.16976043581962585 0
0.25562974810600281 0.17853158712387085 0
0.3149467408657074 0.18432757258415222 0
0.37712970376014709 0.18707875907421112 0
0.4342438280582428 0.18734243512153625 0
0.48434737324714661 0.18662360310554504 0
0.53179508447647095 0.18580359220504761 0
0.57748931646347046 0.18551580607891083 0
0.6198388934135437 0.18512420356273651 0
0.65797579288482666 0.18518897891044617 0
0.69282615184783936 0.18583373725414276 0
0.72559046745300293 0.18760451674461365 0
0.75560986995697021 0.19037061929702759 0
0.78281277418136597 0.1936398446559906 0
0.80893361568450928 0.19763867557048798 0
0.8332977294921875 0.20249593257904053 0
0.85714250802993774 0.20833514630794525 0
0.88077837228775024 0.21540191769599915 0
0.90326464176177979 0.22282883524894714 0
0.92618930339813232 0.23120209574699402 0
0.94892555475234985 0.24026191234588623 0
0.97140783071517944 0.24953758716583252 0
0.99338924884796143 0.25879558920860291 0
1 0.26835766434669495 0
0.99996143579483032 0.28010284900665283 0
0 0.1625235378742218 0.0030934000387787819
0 0.16222858428955078 0.0031819951254874468
0.0013988332357257605 0.16050174832344055 0.0033719474449753761
0.01594201847910881 0.15970431268215179 0.0033629275858402252
0.042750261723995209 0.16333547234535217 0.0020272794645279646
0.073529474437236786 0.16771967709064484 0.00063902593683451414
0.10537660866975784 0.17350459098815918 8.4793689893558621e-05
0.13979144394397736 0.18005910515785217 0
0.18322823941707611 0.19200170040130615 0
0.24173325300216675 0.2105720043182373 0
0.30140435695648193 0.22126734256744385 0
0.36352640390396118 0.22817490994930267 0
0.42638283967971802 0.23282365500926971 0
0.48833250999450684 0.23509365320205688 0
0.5433574914932251 0.23565448820590973 0
0.58721411228179932 0.23510466516017914 0
0.62726509571075439 0.23496675491333008 0
0.66390043497085571 0.23512525856494904 0
0.69738960266113281 0.23531311750411987 0
0.72870141267776489 0.23637378215789795 0
0.75779032707214355 0.2382100373506546 0
0.78465569019317627 0.24013641476631165 0
0.81038248538970947 0.24277342855930328 0
0.83441543579101562 0.24622912704944611 0
0.85770487785339355 0.2507394552230835 0
0.88101804256439209 0.25583010911941528 0
0.90364515781402588 0.26149776577949524 0
0.92655748128890991 0.26810404658317566 0
0.94883048534393311 0.27519190311431885 0
0.97134149074554443 0.28221359848976135 0
0.99324411153793335 0.28991201519966125 0
1 0.29797205328941345 0
0.99995720386505127 0.30735096335411072 0
0 0.19968093931674957 0.0002108308399328962
0 0.19939316809177399 0.0001850849948823452
9.2205596047278959e-07 0.19763021171092987 0.00017337761528324336
0.0046072127297520638 0.19543032348155975 0.00027558751753531396
0.03185630589723587 0.19698470830917358 9.7702468337956816e-05
0.067973345518112183 0.20150855183601379 4.9649170250631869e-06
0.10328810662031174 0.20722003281116486 0
0.13929171860218048 0.21373181045055389 0
0.17763568460941315 0.22092264890670776 0
0.22356463968753815 0.23319904506206512 0
0.28594756126403809 0.25476634502410889 0
0.35077300667762756 0.26844298839569092 0
0.41453880071640015 0.27708607912063599 0
0.47710743546485901 0.28320324420928955 0
0.53762185573577881 0.28587844967842102 0
0.5912356972694397 0.28627035021781921 0
0.6347963809967041 0.2856687605381012 0
0.67028534412384033 0.28517735004425049 0
0.70219308137893677 0.28498020768165588 0
0.73298424482345581 0.28539243340492249 0
0.76071226596832275 0.28604573011398315 0
0.787311851978302 0.28714847564697266 0
0.81184452772140503 0.28785616159439087 0
0.83567643165588379 0.29013687372207642 0
0.85904675722122192 0.29306665062904358 0
0.88191854953765869 0.29666286706924438 0
0.90423578023910522 0.30094307661056519 0
0.92703807353973389 0.30581369996070862 0
0.94942337274551392 0.31093975901603699 0
0.97176718711853027 0.31675904989242554 0
0.99374157190322876 0.32276847958564758 0
1 0.32926470041275024 0
0.99999582767486572 0.33680513501167297 0
0 0.23719346523284912 0
0 0.23737800121307373 0
0 0.23575973510742188 0
0.0001927317789522931 0.2331748902797699 0
0.017500866204500198 0.23173321783542633 0
0.059429377317428589 0.23560033738613129 0
0.099770054221153259 0.24161997437477112 0
0.13760809600353241 0.24825406074523926 0
0.17786522209644318 0.25662460923194885 0
0.220560222864151 0.26559621095657349 0
0.26916810870170593 0.27865868806838989 0
0.33601656556129456 0.30203375220298767 0
0.40100198984146118 0.3170662522315979 0
0.46346420049667358 0.32577416300773621 0
0.52368831634521484 0.33170890808105469 0
0.57837289571762085 0.33440712094306946 0
0.62867075204849243 0.33474138379096985 0
0.67195886373519897 0.33406627178192139 0
0.70634883642196655 0.33316245675086975 0
0.73630714416503906 0.33258217573165894 0
0.76345640420913696 0.33197107911109924 0
0.7886732816696167 0.33141806721687317 0
0.81300616264343262 0.33142027258872986 0
0.83665889501571655 0.33245775103569031 0
0.85942399501800537 0.3339143693447113 0
0.88275259733200073 0.33636718988418579 0
0.90482348203659058 0.33911648392677307 0
0.92704397439956665 0.34260571002960205 0
0.94981062412261963 0.3465808629989624 0
0.97208154201507568 0.35063007473945618 0
0.9940568208694458 0.35550755262374878 0
1 0.36023899912834167 0
1 0.3670143187046051 0
0 0.27611568570137024 0
0 0.27685213088989258 0
0 0.27497720718383789 0
0 0.27282539010047913 0
0.0057442802935838699 0.27051854133605957 0
0.048856493085622787 0.27238133549690247 0
0.095101609826087952 0.27813634276390076 0
0.13645263016223907 0.28525358438491821 0
0.17828173935413361 0.29337260127067566 0
0.22106821835041046 0.30199599266052246 0
0.26606994867324829 0.31141760945320129 0
0.31662577390670776 0.32408079504966736 0
0.38279968500137329 0.34805849194526672 0
0.44795888662338257 0.36386951804161072 0
0.50800240039825439 0.37194600701332092 0
0.56246381998062134 0.37644848227500916 0
0.6129956841468811 0.37920299172401428 0
0.65933632850646973 0.38002127408981323 0
0.70110100507736206 0.37922015786170959 0
0.73707437515258789 0.37826830148696899 0
0.76499730348587036 0.37631279230117798 0
0.78983986377716064 0.37486279010772705 0
0.81370085477828979 0.37322798371315002 0
0.83715081214904785 0.37322565913200378 0
0.85995721817016602 0.37337055802345276 0
0.88271570205688477 0.37470203638076782 0
0.90443998575210571 0.37597537040710449 0
0.92711800336837769 0.3780272901058197 0
0.94962775707244873 0.38071352243423462 0
0.97183465957641602 0.38359951972961426 0
0.99341648817062378 0.3869805634021759 0
1 0.39055883884429932 0
1 0.39561781287193298 0
0 0.31932386755943298 0
0 0.32014158368110657 0
0 0.31827092170715332 0
0 0.31611829996109009 0
0.00066349492408335209 0.31264874339103699 0
0.035109303891658783 0.31078645586967468 0
0.089236177504062653 0.3157762885093689 0
0.133978471159935 0.32182571291923523 0
0.17689166963100433 0.32877200841903687 0
0.2193928062915802 0.33702176809310913 0
0.26363250613212585 0.34570664167404175 0
0.31029015779495239 0.35507076978683472 0
0.36015418171882629 0.36667796969413757 0
0.42490404844284058 0.38986131548881531 0
0.48961132764816284 0.40753373503684998 0
0.54489457607269287 0.41471055150032043 0
0.5962834358215332 0.41959404945373535 0
0.64314484596252441 0.42216765880584717 0
0.68546247482299805 0.42302185297012329 0
0.72568458318710327 0.42306524515151978 0
0.76158887147903442 0.42109236121177673 0
0.79089236259460449 0.41854321956634521 0
0.81533193588256836 0.41600513458251953 0
0.83849430084228516 0.41496589779853821 0
0.86110657453536987 0.4135783314704895 0
0.88366037607192993 0.41355928778648376 0
0.90602201223373413 0.41416549682617188 0
0.92831504344940186 0.4147915244102478 0
0.95044058561325073 0.41632074117660522 0
0.97288823127746582 0.41813978552818298 0
0.99430304765701294 0.42003908753395081 0
0.99995285272598267 0.42264845967292786 0
0.99998295307159424 0.42721089720726013 0
0 0.35859000682830811 0
0 0.36026564240455627 0
0 0.35863590240478516 0
0 0.35581931471824646 0
0 0.35237583518028259 0
0.022947473451495171 0.34869375824928284 0
0.082617655396461487 0.34980496764183044 0
0.13075354695320129 0.35552448034286499 0
0.17532800137996674 0.36264091730117798 0
0.21845108270645142 0.37019315361976624 0
0.26233518123626709 0.37868046760559082 0
0.30823752284049988 0.38784441351890564 0
0.3547731339931488 0.397329181432724 0
0.40389692783355713 0.4078139066696167 0
0.46639713644981384 0.42996671795845032 0
0.52758169174194336 0.44773110747337341 0
0.57902473211288452 0.45436766743659973 0
0.62595677375793457 0.45837581157684326 0
0.66908162832260132 0.46075499057769775 0
0.70964747667312622 0.46157160401344299 0
0.74660658836364746 0.46112531423568726 0
0.78091329336166382 0.45889261364936829 0
0.81236249208450317 0.45560166239738464 0
0.83865398168563843 0.45328286290168762 0
0.86163592338562012 0.45160013437271118 0
0.88395553827285767 0.45013779401779175 0
0.90593546628952026 0.44933426380157471 0
0.92859500646591187 0.44934350252151489 0
0.95085173845291138 0.44975602626800537 0
0.97303366661071777 0.4500468373298645 0
0.99446409940719604 0.45159617066383362 0
0.99991852045059204 0.45299753546714783 0
0.99998760223388672 0.45623135566711426 0
0 0.39771974086761475 0
0 0.39839458465576172 0
0 0.39667186141014099 0
0 0.39420732855796814 0
0 0.39124628901481628 0
0.016389457508921623 0.38694465160369873 0
0.077463619410991669 0.38456496596336365 0
0.12830375134944916 0.38920336961746216 0
0.17379987239837646 0.39518779516220093 0
0.21762837469577789 0.40255764126777649 0
0.26086035370826721 0.41017234325408936 0
0.30559149384498596 0.41841164231300354 0
0.35099497437477112 0.42706778645515442 0
0.39712071418762207 0.43634176254272461 0
0.44485396146774292 0.44610211253166199 0
0.50185519456863403 0.46466207504272461 0
0.56103116273880005 0.48386228084564209 0
0.60907894372940063 0.49021047353744507 0
0.65235894918441772 0.4942290186882019 0
0.6933024525642395 0.4962974488735199 0
0.7309233546257019 0.49688124656677246 0
0.76587808132171631 0.49596118927001953 0
0.79960864782333374 0.49408102035522461 0
0.83152353763580322 0.49170723557472229 0
0.85998785495758057 0.48826819658279419 0
0.88456112146377563 0.48615768551826477 0
0.90662533044815063 0.48439198732376099 0
0.92881232500076294 0.48327401280403137 0
0.95094186067581177 0.48233804106712341 0
0.97338300943374634 0.48244175314903259 0
0.99459034204483032 0.48271423578262329 0
0.99998718500137329 0.48290929198265076 0
0.99999541044235229 0.48475649952888489 0
0 0.43299812078475952 0
0 0.43460944294929504 0
0 0.43343368172645569 0
0 0.43140915036201477 0
0 0.42762324213981628 0
0.015461665578186512 0.42389485239982605 0
0.076914019882678986 0.41946470737457275 0
0.12684118747711182 0.42025229334831238 0
0.17273934185504913 0.42562392354011536 0
0.21657361090183258 0.43197602033615112 0
0.2591896653175354 0.43879121541976929 0
0.30277732014656067 0.44692897796630859 0
0.3459603488445282 0.45466905832290649 0
0.39067414402961731 0.46279054880142212 0
0.43636658787727356 0.47154629230499268 0
0.48154661059379578 0.48105990886688232 0
0.53431683778762817 0.49742382764816284 0
0.59063851833343506 0.51713037490844727 0
0.63571757078170776 0.52432465553283691 0
0.67731398344039917 0.52782726287841797 0
0.71544164419174194 0.52976584434509277 0
0.75097674131393433 0.52986520528793335 0
0.78542250394821167 0.52913898229598999 0
0.81790369749069214 0.52774178981781006 0
0.84922301769256592 0.52536261081695557 0
0.8798404335975647 0.52258086204528809 0
0.90654897689819336 0.519572913646698 0
0.93020308017730713 0.51716339588165283 0
0.95265674591064453 0.51557427644729614 0
0.97466635704040527 0.51479178667068481 0
0.99556654691696167 0.51379787921905518 0
1 0.51397311687469482 0
1 0.51508611440658569 0
0 0.4666181206703186 0
0 0.46806910634040833 0
0 0.46637186408042908 0
0 0.4644562304019928 0
0 0.46165263652801514 0
0.022282917052507401 0.45775166153907776 0
0.083364218473434448 0.45318683981895447 0
0.12882219254970551 0.45013570785522461 0
0.17414045333862305 0.45433121919631958 0
0.21710202097892761 0.46033266186714172 0
0.25902450084686279 0.46653544902801514 0
0.30166202783584595 0.47345051169395447 0
0.34366878867149353 0.48056486248970032 0
0.38640314340591431 0.48835089802742004 0
0.43040689826011658 0.4965437650680542 0
0.47292882204055786 0.50390416383743286 0
0.51608586311340332 0.51257407665252686 0
0.56457030773162842 0.52729719877243042 0
0.61736905574798584 0.54717636108398438 0
0.66083329916000366 0.5544278621673584 0
0.69987750053405762 0.55823910236358643 0
0.73629897832870483 0.55982404947280884 0
0.77115756273269653 0.56022197008132935 0
0.80417811870574951 0.55976980924606323 0
0.83580315113067627 0.55821770429611206 0
0.86720579862594604 0.55631089210510254 0
0.89745056629180908 0.55349081754684448 0
0.92673414945602417 0.55000448226928711 0
0.95280742645263672 0.5469396710395813 0
0.97557944059371948 0.54514914751052856 0
0.99602073431015015 0.54392462968826294 0
0.99994862079620361 0.54290878772735596 0
1 0.54306572675704956 0
0 0.49803844094276428 0
0 0.49921151995658875 0
0 0.49780440330505371 0
0 0.49596363306045532 0
0.0012551551917567849 0.49283984303474426 0
0.042736031115055084 0.48983851075172424 0
0.097303599119186401 0.48568135499954224 0
0.13743342459201813 0.48084127902984619 0
0.17706145346164703 0.4809688925743103 0
0.21927545964717865 0.48641049861907959 0
0.26027542352676392 0.49198934435844421 0
0.30120372772216797 0.49839609861373901 0
0.34178853034973145 0.50456851720809937 0
0.38295027613639832 0.51131969690322876 0
0.42502313852310181 0.51863884925842285 0
0.46590280532836914 0.52607452869415283 0
0.50675106048583984 0.53378087282180786 0
0.54699420928955078 0.5417940616607666 0
0.59078878164291382 0.55455160140991211 0
0.64229339361190796 0.57504570484161377 0
0.68439549207687378 0.58425384759902954 0
0.72101587057113647 0.587024986743927 0
0.75696146488189697 0.58923232555389404 0
0.79006081819534302 0.58961886167526245 0
0.82274442911148071 0.58903616666793823 0
0.85475623607635498 0.58797925710678101 0
0.88560587167739868 0.58598029613494873 0
0.91618788242340088 0.58333718776702881 0
0.94571679830551147 0.57996714115142822 0
0.9743310809135437 0.5765264630317688 0
0.99638527631759644 0.57362920045852661 0
1 0.57206767797470093 0
1 0.57115733623504639 0
0 0.52613711357116699 0
0 0.52721017599105835 0
0 0.5262218713760376 0
