Textures/77.cube
# Created by: G'MIC (https://gmic.eu)
TITLE "Kodak_Portra_160_NC_2.cube"
# LUT size
LUT_3D_SIZE 33
# Data domain
DOMAIN_MIN 0.0 0.0 0.0
DOMAIN_MAX 1.0 1.0 1.0
# LUT data points
0.017357900738716125 0.024443408474326134 0.022728370502591133
0.021164223551750183 0.024815661832690239 0.023002052679657936
0.027368251234292984 0.025975568220019341 0.023236135020852089
0.039479430764913559 0.027228565886616707 0.023162338882684708
0.05736406147480011 0.029943214729428291 0.023230429738759995
0.07900431752204895 0.03381635993719101 0.022796275094151497
0.10360391438007355 0.037962090224027634 0.022543897852301598
0.12993234395980835 0.041889578104019165 0.021539205685257912
0.15958921611309052 0.046480447053909302 0.019893873482942581
0.19257871806621552 0.050582911819219589 0.018453666940331459
0.22975613176822662 0.053956087678670883 0.016381995752453804
0.27132776379585266 0.055919170379638672 0.013378334231674671
0.3146512508392334 0.056613221764564514 0.0099167628213763237
0.36046183109283447 0.056518975645303726 0.0063726939260959625
0.40671449899673462 0.054807759821414948 0.0026204823516309261
0.45194494724273682 0.052962556481361389 0.00050584290875121951
0.49496132135391235 0.051139838993549347 9.3624139481107704e-06
0.53622156381607056 0.049962893128395081 0
0.57669126987457275 0.049785077571868896 0
0.62038201093673706 0.052362419664859772 0
0.65951347351074219 0.055801853537559509 0
0.69537484645843506 0.061695050448179245 0
0.72907412052154541 0.0699300616979599 0
0.76108938455581665 0.079291120171546936 0
0.79235029220581055 0.090093806385993958 0
0.82262396812438965 0.10226297378540039 0
0.85167437791824341 0.11621296405792236 0
0.87959039211273193 0.13039968907833099 0
0.90659224987030029 0.14598505198955536 0
0.9315265417098999 0.16139644384384155 0
0.95624953508377075 0.17820471525192261 0
0.9789118766784668 0.19464690983295441 0
0.99775820970535278 0.21482369303703308 0
0.017601326107978821 0.028664235025644302 0.024392962455749512
0.020650828257203102 0.029756661504507065 0.023941334336996078
0.028937272727489471 0.032161828130483627 0.023381799459457397
0.042379479855298996 0.033933117985725403 0.022936893627047539
0.061196722090244293 0.037905421108007431 0.022896943613886833
0.082459017634391785 0.041946243494749069 0.022109789773821831
0.10635332763195038 0.046763934195041656 0.021485399454832077
0.13264083862304688 0.051384605467319489 0.020379619672894478
0.16312335431575775 0.056258276104927063 0.019173836335539818
0.19664369523525238 0.060066904872655869 0.016841061413288116
0.23387934267520905 0.063406094908714294 0.014891314320266247
0.27564552426338196 0.066376343369483948 0.011746718548238277
0.31895068287849426 0.067976973950862885 0.0083499597385525703
0.36428695917129517 0.068322040140628815 0.0047270916402339935
0.40971368551254272 0.067586794495582581 0.0013878459576517344
0.45406064391136169 0.066771849989891052 0.00015476356202270836
0.49654647707939148 0.066202595829963684 0
0.53741961717605591 0.065907835960388184 0
0.57892453670501709 0.066849380731582642 0
0.6214490532875061 0.06888822466135025 0
0.66067671775817871 0.072562642395496368 0
0.69637852907180786 0.077966533601284027 0
0.72961807250976562 0.084696359932422638 0
0.76142960786819458 0.09288015216588974 0
0.7931976318359375 0.1033223569393158 0
0.82334208488464355 0.11435829848051071 0
0.8516121506690979 0.12655791640281677 0
0.87989217042922974 0.14025947451591492 0
0.9065890908241272 0.15442302823066711 0
0.93164938688278198 0.16930337250232697 0
0.95582520961761475 0.18516573309898376 0
0.97873044013977051 0.20089797675609589 0
0.99756395816802979 0.21988607943058014 0
0.015791220590472221 0.036327201873064041 0.026032771915197372
0.018802095204591751 0.037758376449346542 0.0254196897149086
0.027037709951400757 0.041270587593317032 0.024118678644299507
0.043826784938573837 0.046633683145046234 0.022475132718682289
0.064138598740100861 0.050451423972845078 0.021550854668021202
0.087156519293785095 0.053990673273801804 0.02071748860180378
0.11194952577352524 0.058580853044986725 0.020059393718838692
0.13842104375362396 0.063092619180679321 0.018797341734170914
0.16873528063297272 0.068267516791820526 0.017363809049129486
0.20282454788684845 0.072373539209365845 0.015389145351946354
0.24031290411949158 0.076271198689937592 0.013069496490061283
0.28136613965034485 0.078674629330635071 0.0097179263830184937
0.32467323541641235 0.080775521695613861 0.0061553381383419037
0.36944961547851562 0.082308501005172729 0.0029780545737594366
0.41439151763916016 0.082982048392295837 0.00081643322482705116
0.45806077122688293 0.08308468759059906 6.0288279200904071e-05
0.50010764598846436 0.082956202328205109 0
0.54049068689346313 0.083634436130523682 0
0.58335274457931519 0.084570862352848053 0
0.62482458353042603 0.087420396506786346 0
0.66278231143951416 0.090905100107192993 0
0.6982308030128479 0.095695577561855316 0
0.73164457082748413 0.1019882932305336 0
0.76353734731674194 0.10954378545284271 0
0.79481387138366699 0.11812892556190491 0
0.82443934679031372 0.12845392525196075 0
0.85323530435562134 0.13966269791126251 0
0.88078296184539795 0.15172970294952393 0
0.90714120864868164 0.1652495414018631 0
0.93169540166854858 0.17874009907245636 0
0.95557999610900879 0.19349817931652069 0
0.97857058048248291 0.20882296562194824 0
0.9974513053894043 0.22717005014419556 0
0.011620660312473774 0.051911275833845139 0.027884816750884056
0.015226062387228012 0.053100563585758209 0.027893368154764175
0.022512791678309441 0.056883830577135086 0.025948246940970421
0.038945417851209641 0.063157051801681519 0.023397635668516159
0.065455280244350433 0.071343980729579926 0.019697679206728935
0.091698691248893738 0.075693830847740173 0.018625125288963318
0.11852206289768219 0.077799752354621887 0.017541075125336647
0.14689643681049347 0.080362476408481598 0.016304006800055504
0.1776135116815567 0.084231629967689514 0.01445312611758709
0.21188551187515259 0.088871225714683533 0.012702374719083309
0.24952945113182068 0.092540949583053589 0.01003752090036869
0.29123544692993164 0.095708005130290985 0.0067871976643800735
0.33398699760437012 0.09827355295419693 0.0034636938944458961
0.3783642053604126 0.10040345042943954 0.001046976656652987
0.42357653379440308 0.10184916853904724 0.00011093042849097401
0.46657675504684448 0.10289335250854492 0
0.50835514068603516 0.10403068363666534 0
0.5501219630241394 0.10530102252960205 0
0.59300863742828369 0.10734836012125015 0
0.63319718837738037 0.11003673821687698 0
0.67068958282470703 0.11396028846502304 0
0.70515823364257812 0.11836623400449753 0
0.73758703470230103 0.12350661307573318 0
0.76872467994689941 0.13013379275798798 0
0.79932534694671631 0.13832703232765198 0
0.82910764217376709 0.14763954281806946 0
0.85698437690734863 0.15742018818855286 0
0.88440358638763428 0.16883817315101624 0
0.91086447238922119 0.1813090443611145 0
0.93551754951477051 0.19418850541114807 0
0.95941293239593506 0.20794360339641571 0
0.98191154003143311 0.22268399596214294 0
0.99866956472396851 0.24065977334976196 0
0.0032759157475084066 0.071568310260772705 0.029679007828235626
0.0071384627372026443 0.07228831946849823 0.030019195750355721
0.013777797110378742 0.0752253457903862 0.028830479830503464
0.027452101930975914 0.081107504665851593 0.025516306981444359
0.052454102784395218 0.08749949187040329 0.021421222016215324
0.087134331464767456 0.098171748220920563 0.016271837055683136
0.11947954446077347 0.10384481400251389 0.013546322472393513
0.1502918004989624 0.10525108873844147 0.012116987258195877
0.18513810634613037 0.10637601464986801 0.010512218810617924
0.22143322229385376 0.10906063765287399 0.0084675680845975876
0.25934556126594543 0.11295932531356812 0.0057929321192204952
0.30077794194221497 0.11643212288618088 0.002793984254822135
0.34349405765533447 0.11964792758226395 0.0008003840921446681
0.38713827729225159 0.12227681279182434 0.00011178155546076596
0.43113341927528381 0.12437936663627625 0
0.47310811281204224 0.12597833573818207 0
0.51443904638290405 0.12744784355163574 0
0.55779826641082764 0.12951390445232391 0
0.59871834516525269 0.13214753568172455 0
0.63801252841949463 0.13450291752815247 0
0.67424875497817993 0.13796308636665344 0
0.70782136917114258 0.14168746769428253 0
0.73990541696548462 0.14637582004070282 0
0.77072834968566895 0.15218424797058105 0
0.80118227005004883 0.15939027070999146 0
0.83062708377838135 0.16730108857154846 0
0.8578905463218689 0.17616444826126099 0
0.88546925783157349 0.18648195266723633 0
0.91126948595046997 0.1976417750120163 0
0.93575799465179443 0.20943886041641235 0
0.95889019966125488 0.22182671725749969 0
0.98184812068939209 0.23553666472434998 0
0.99875956773757935 0.25245335698127747 0
6.2416092987405136e-06 0.096699006855487823 0.033452421426773071
0.00019497558241710067 0.097197569906711578 0.033951230347156525
0.0028097184840589762 0.098082266747951508 0.033703934401273727
0.012679143808782101 0.10321813821792603 0.029899679124355316
0.035385660827159882 0.1099143773317337 0.024647044017910957
0.07032497227191925 0.11847948282957077 0.018677175045013428
0.11413070559501648 0.13099579513072968 0.010374806821346283
0.15419609844684601 0.13895641267299652 0.0054525774903595448
0.19086556136608124 0.13978876173496246 0.0040569966658949852
0.2297532856464386 0.13964162766933441 0.0026222914457321167
0.27038079500198364 0.1393638402223587 0.0012185090454295278
0.31238400936126709 0.14163622260093689 0.00035881175426766276
0.35455101728439331 0.14470285177230835 4.1421088099014014e-05
0.39752516150474548 0.14795501530170441 0
0.44044774770736694 0.15016961097717285 0
0.48257148265838623 0.15189720690250397 0
0.52614402770996094 0.15474346280097961 0
0.56833285093307495 0.15722127258777618 0
0.60738402605056763 0.15960809588432312 0
0.64507663249969482 0.16187557578086853 0
0.68057531118392944 0.16504989564418793 0
0.71326863765716553 0.16833657026290894 0
0.74477165937423706 0.17242959141731262 0
0.77507156133651733 0.17737337946891785 0
0.80470287799835205 0.18356341123580933 0
0.83337604999542236 0.19047527015209198 0
0.86108541488647461 0.19860967993736267 0
0.88765811920166016 0.20757213234901428 0
0.91306436061859131 0.21767865121364594 0
0.93688154220581055 0.22791606187820435 0
0.96031779050827026 0.23932915925979614 0
0.98263829946517944 0.25173783302307129 0
0.99896764755249023 0.26744818687438965 0
0 0.12417792528867722 0.039534516632556915
0 0.12514625489711761 0.040517821907997131
0 0.124836266040802 0.040919944643974304
0.00083570735296234488 0.12840868532657623 0.037916075438261032
0.013897236436605453 0.1349012702703476 0.031639792025089264
0.048008866608142853 0.14293651282787323 0.024066593497991562
0.091863252222537994 0.1526297926902771 0.014922117814421654
0.14322230219841003 0.16671663522720337 0.0038655621465295553
0.19387982785701752 0.17794369161128998 0.00014451434253714979
0.23555605113506317 0.17883105576038361 4.5677232265006751e-05
0.2782968282699585 0.1784617006778717 1.9150395019096322e-05
0.32345354557037354 0.17651288211345673 0
0.36742642521858215 0.17545352876186371 0
0.4103352427482605 0.17703111469745636 0
0.45480254292488098 0.18029528856277466 0
0.49874725937843323 0.18357673287391663 0
0.5409243106842041 0.18600150942802429 0
0.58034777641296387 0.18748082220554352 0
0.6180763840675354 0.18959757685661316 0
0.65418010950088501 0.19199863076210022 0
0.68805831670761108 0.19419862329959869 0
0.71978759765625 0.19680899381637573 0
0.7507207989692688 0.2004215270280838 0
0.78003108501434326 0.20456384122371674 0
0.80893385410308838 0.20948463678359985 0
0.83744055032730103 0.21585972607135773 0
0.86420643329620361 0.22273968160152435 0
0.89038050174713135 0.23068688809871674 0
0.9155152440071106 0.23964443802833557 0
0.93968296051025391 0.24920505285263062 0
0.96260803937911987 0.25970959663391113 0
0.98468714952468872 0.27084684371948242 0
0.99945718050003052 0.28633990883827209 0
0 0.15313243865966797 0.047367651015520096
0 0.15453849732875824 0.0481368787586689
0 0.1539398729801178 0.048829976469278336
0 0.15512824058532715 0.04786808043718338
0.00077835621777921915 0.16123127937316895 0.042040523141622543
0.019106663763523102 0.16962072253227234 0.033640995621681213
0.064903028309345245 0.17886707186698914 0.022889411076903343
0.11639678478240967 0.18994979560375214 0.0099034523591399193
0.17726616561412811 0.20623598992824554 0.00075643218588083982
0.238822340965271 0.22107161581516266 0
0.28471526503562927 0.22238472104072571 0
0.33079785108566284 0.22090263664722443 0
0.37763470411300659 0.21897333860397339 0
0.42549881339073181 0.21634003520011902 0
0.47216743230819702 0.21526677906513214 0
0.5129392147064209 0.21628627181053162 0
0.55209290981292725 0.21781522035598755 0
0.59027612209320068 0.21943989396095276 0
0.62589836120605469 0.22065719962120056 0
0.6603962779045105 0.22196914255619049 0
0.69311869144439697 0.22370555996894836 0
0.72453516721725464 0.22604557871818542 0
0.75444310903549194 0.22873717546463013 0
0.78364723920822144 0.23225264251232147 0
0.81204050779342651 0.23649252951145172 0
0.83990699052810669 0.24163152277469635 0
0.8663904070854187 0.24761642515659332 0
0.8924071192741394 0.2546648383140564 0
0.91678184270858765 0.2622428834438324 0
0.94029146432876587 0.27083346247673035 0
0.96316343545913696 0.2798151969909668 0
0.98475390672683716 0.2900785505771637 0
0.99950879812240601 0.30404013395309448 0
0 0.18897126615047455 0.056097403168678284
0 0.19056227803230286 0.057188671082258224
0 0.19008737802505493 0.057820044457912445
0 0.18970565497875214 0.058304160833358765
0 0.19347211718559265 0.054488316178321838
0.00081320706522092223 0.20154084265232086 0.045816220343112946
0.027342155575752258 0.2108536958694458 0.034058231860399246
0.087528251111507416 0.22153066098690033 0.019257355481386185
0.14814846217632294 0.23331700265407562 0.0045026787556707859
0.21602517366409302 0.24995173513889313 2.5250144972233102e-05
0.28832978010177612 0.26945436000823975 0
0.34133058786392212 0.27255821228027344 0
0.39039897918701172 0.27148270606994629 0
0.43783622980117798 0.26845723390579224 0
0.48338580131530762 0.26284497976303101 0
0.5259329080581665 0.256522536277771 0
0.56523948907852173 0.25358065962791443 0
0.60173434019088745 0.25382596254348755 0
0.63634520769119263 0.25458872318267822 0
0.66987276077270508 0.25551968812942505 0
0.70160764455795288 0.25636103749275208 0
0.7320556640625 0.25793102383613586 0
0.76109558343887329 0.25960677862167358 0
0.78932547569274902 0.2624066174030304 0
0.81697863340377808 0.26602739095687866 0
0.84419506788253784 0.27012020349502563 0
0.87014853954315186 0.27536767721176147 0
0.89535260200500488 0.2812201976776123 0
0.91960787773132324 0.2878170907497406 0
0.94274753332138062 0.29518681764602661 0
0.9652056097984314 0.30363431572914124 0
0.98661935329437256 0.31273773312568665 0
0.99959933757781982 0.32517325878143311 0
0 0.22467552125453949 0.065128237009048462
0 0.22757767140865326 0.066665515303611755
0 0.22689653933048248 0.066851288080215454
0 0.22633874416351318 0.068221166729927063
0 0.22699488699436188 0.066856339573860168
0 0.23421765863895416 0.059287227690219879
0.0019413804402574897 0.24397197365760803 0.048203732818365097
0.045619014650583267 0.25519397854804993 0.032603252679109573
0.11959710717201233 0.26877778768539429 0.013093715533614159
0.18867819011211395 0.28346216678619385 0.00078666623448953032
0.2638762891292572 0.30142435431480408 0
0.34651398658752441 0.32326230406761169 0
0.40135988593101501 0.32603415846824646 0
0.4479118287563324 0.32144007086753845 0
0.49237316846847534 0.31572744250297546 0
0.53407055139541626 0.30817976593971252 0
0.57398366928100586 0.29962748289108276 0
0.61143207550048828 0.29232552647590637 0
0.64567804336547852 0.2892625629901886 0
0.67810028791427612 0.28926792740821838 0
0.70875352621078491 0.28931719064712524 0
0.7379642128944397 0.29021638631820679 0
0.76659834384918213 0.29103854298591614 0
0.79447263479232788 0.2932756245136261 0
0.82139438390731812 0.29584953188896179 0
0.84814232587814331 0.29936784505844116 0
0.87318652868270874 0.30324509739875793 0
0.89794254302978516 0.30823701620101929 0
0.92186111211776733 0.3139510452747345 0
0.94472181797027588 0.32033947110176086 0
0.96690535545349121 0.32797744870185852 0
0.98788410425186157 0.33587011694908142 0
0.99985742568969727 0.34818953275680542 0
0 0.26367688179016113 0.07511390745639801
0 0.26724907755851746 0.076932400465011597
0 0.26697739958763123 0.077520199120044708
0 0.26709157228469849 0.078907996416091919
0 0.26750469207763672 0.079871945083141327
0 0.27321457862854004 0.075171791017055511
0 0.2831585705280304 0.064671449363231659
0.0070400666445493698 0.2945900559425354 0.050281994044780731
0.081000961363315582 0.30789342522621155 0.029468247666954994
0.16063192486763 0.32145845890045166 0.0068332734517753124
0.23400045931339264 0.33506408333778381 5.3052084695082158e-05
0.31323325634002686 0.35123616456985474 0
0.39879888296127319 0.37342795729637146 0
0.45523867011070251 0.37554901838302612 0
0.49849224090576172 0.36838352680206299 0
0.5392988920211792 0.35978731513023376 0
0.57834577560424805 0.35117673873901367 0
0.61603868007659912 0.34192085266113281 0
0.6513206958770752 0.33201470971107483 0
0.68469363451004028 0.3247867226600647 0
0.71509319543838501 0.3228156566619873 0
0.74367940425872803 0.32275658845901489 0
0.77120506763458252 0.32274681329727173 0
0.79823499917984009 0.32405048608779907 0
0.82491219043731689 0.32594805955886841 0
0.85050344467163086 0.32846292853355408 0
0.87521570920944214 0.33130192756652832 0
0.899452805519104 0.33525526523590088 0
0.92288172245025635 0.34028410911560059 0
0.9450804591178894 0.3453775942325592 0
0.96687567234039307 0.35132166743278503 0
0.98776155710220337 0.35839104652404785 0
0.99978870153427124 0.36901786923408508 0
0 0.3110593855381012 0.089228212833404541
0 0.31527769565582275 0.091813869774341583
0 0.31519588828086853 0.092348828911781311
0 0.31497460603713989 0.093259245157241821
0 0.31441932916641235 0.094738945364952087
0 0.31564679741859436 0.093912281095981598
0 0.32366859912872314 0.084673695266246796
0 0.33319410681724548 0.071795538067817688
0.027729159221053123 0.34385082125663757 0.0531817227602005
0.12283024936914444 0.35555630922317505 0.027417086064815521
0.20087473094463348 0.36778092384338379 0.0041073248721659184
0.27643305063247681 0.38075482845306396 6.2416092987405136e-06
0.35351386666297913 0.39422991871833801 0
0.43988138437271118 0.41540306806564331 0
0.500812828540802 0.42030408978462219 0
0.54252588748931885 0.41243112087249756 0
0.58249515295028687 0.40402722358703613 0
0.61981374025344849 0.39440211653709412 0
0.65548759698867798 0.38481044769287109 0
0.68998485803604126 0.37489402294158936 0
0.72200745344161987 0.36499899625778198 0
0.75150966644287109 0.35921105742454529 0
0.77855134010314941 0.35775712132453918 0
0.80483216047286987 0.35785037279129028 0
0.83043581247329712 0.35849651694297791 0
0.85584473609924316 0.36056599020957947 0
0.88026314973831177 0.36275038123130798 0
0.90362125635147095 0.3659977912902832 0
0.92642402648925781 0.36948880553245544 0
0.94837075471878052 0.37433624267578125 0
0.97018027305603027 0.37920147180557251 0
0.99032849073410034 0.38551265001296997 0
0.99997663497924805 0.39603546261787415 0
0 0.35204175114631653 0.10393037647008896
0 0.35815650224685669 0.10727404803037643
0 0.35796689987182617 0.1077861562371254
0 0.35732614994049072 0.10883016139268875
0 0.35641011595726013 0.10984409600496292
0 0.35567998886108398 0.11107128113508224
0 0.35987550020217896 0.10555801540613174
0 0.36848372220993042 0.094416268169879913
0.0020634883549064398 0.37862569093704224 0.079418107867240906
0.074198417365550995 0.38952317833900452 0.058541599661111832
0.16768795251846313 0.40084952116012573 0.029512600973248482
0.24520429968833923 0.41243359446525574 0.0038354708813130856
0.31901681423187256 0.42404660582542419 0
0.39482113718986511 0.43562430143356323 0
0.48150926828384399 0.45641052722930908 0
0.54490673542022705 0.46345764398574829 0
0.58502393960952759 0.45470646023750305 0
0.6222195029258728 0.44479990005493164 0
0.65726733207702637 0.43505319952964783 0
0.69123226404190063 0.4249403178691864 0
0.72277683019638062 0.41430351138114929 0
0.75314474105834961 0.40425002574920654 0
0.782184898853302 0.39442849159240723 0
0.80901658535003662 0.39058628678321838 0
0.83431172370910645 0.39048576354980469 0
0.85891085863113403 0.39109635353088379 0
0.88219445943832397 0.39220592379570007 0
0.90569007396697998 0.39461663365364075 0
0.92795848846435547 0.39752554893493652 0
0.94946759939193726 0.40098941326141357 0
0.97076946496963501 0.40527638792991638 0
0.99103850126266479 0.41029959917068481 0
0.99998760223388672 0.41940417885780334 0
0 0.39281758666038513 0.12192116677761078
0 0.39772143959999084 0.12482894957065582
0 0.3972955048084259 0.12560270726680756
0 0.39673811197280884 0.12643559277057648
0 0.39602473378181458 0.12721395492553711
0 0.39521095156669617 0.12868720293045044
0 0.39630728960037231 0.12821982800960541
0 0.40328815579414368 0.11932238191366196
0 0.41191071271896362 0.10664577782154083
0.026019567623734474 0.42175224423408508 0.090998001396656036
0.13054181635379791 0.43153408169746399 0.069124184548854828
0.21298807859420776 0.44207364320755005 0.036291699856519699
0.28648680448532104 0.45282527804374695 0.0059377769939601421
0.35911700129508972 0.46341350674629211 1.8901233488577418e-05
0.43382012844085693 0.47402879595756531 0
0.5164177417755127 0.49228319525718689 0
0.58464604616165161 0.50315707921981812 0
0.62315678596496582 0.49433368444442749 0
0.65808755159378052 0.48417520523071289 0
0.69174998998641968 0.47383213043212891 0
0.7232363224029541 0.46346813440322876 0
0.75334465503692627 0.45285230875015259 0
0.78271180391311646 0.442402184009552 0
0.81085866689682007 0.43265989422798157 0
0.83708876371383667 0.42452150583267212 0
0.8616822361946106 0.42221993207931519 0
0.88505154848098755 0.42273136973381042 0
0.90768873691558838 0.42386004328727722 0
0.92937308549880981 0.42572206258773804 0
0.95086926221847534 0.42850017547607422 0
0.9714123010635376 0.43185156583786011 0
0.99108272790908813 0.43554908037185669 0
0.9999890923500061 0.44348973035812378 0
0 0.42731240391731262 0.13997164368629456
0 0.43357837200164795 0.1441570371389389
0 0.43375158309936523 0.14518794417381287
0 0.43345105648040771 0.14638864994049072
0 0.43227538466453552 0.14677071571350098
0 0.4313863217830658 0.14781232178211212
0 0.43027403950691223 0.14908993244171143
0 0.43414002656936646 0.14461962878704071
0 0.44124433398246765 0.13362208008766174
0.0022958449553698301 0.44979289174079895 0.12068663537502289
0.084908187389373779 0.45900344848632812 0.10434363782405853
0.18018525838851929 0.4689992368221283 0.081661731004714966
0.25435855984687805 0.47917032241821289 0.048612102866172791
0.32563000917434692 0.48943415284156799 0.011588731780648232
0.39741340279579163 0.49967950582504272 0.00016418132872786373
0.46920159459114075 0.50971662998199463 0
0.54968905448913574 0.52667558193206787 0
0.62020999193191528 0.54013276100158691 0
0.65944838523864746 0.53333538770675659 0
0.6928367018699646 0.52281773090362549 0
0.7243608832359314 0.51215922832489014 0
0.75393253564834595 0.50149965286254883 0
0.78311097621917725 0.49112999439239502 0
0.811015784740448 0.48111885786056519 0
0.83797699213027954 0.47148025035858154 0
0.86450541019439697 0.46217688918113708 0
0.88867080211639404 0.45614558458328247 0
0.91112136840820312 0.45517554879188538 0
0.93259042501449585 0.45624515414237976 0
0.95337313413619995 0.45786508917808533 0
0.97371917963027954 0.46040451526641846 0
0.99328368902206421 0.46390843391418457 0
1 0.47131085395812988 0
0 0.46176233887672424 0.16077117621898651
0 0.46778631210327148 0.16525916755199432
0 0.46763575077056885 0.16602601110935211
0 0.46673247218132019 0.16653715074062347
0 0.46621334552764893 0.16762050986289978
0 0.4651704728603363 0.16847303509712219
0 0.4639585018157959 0.16951015591621399
0 0.46438890695571899 0.16911104321479797
