Textures/77.cube
# Created by: G'MIC (https://gmic.eu)
TITLE "Kodak_Portra_160_NC_2.cube"
# LUT size
LUT_3D_SIZE 5
# Data domain
DOMAIN_MIN 0.0 0.0 0.0
DOMAIN_MAX 1.0 1.0 1.0
# LUT data points
0.017357900738716125 0.024443408474326134 0.022728370502591133
0.15958921611309052 0.046480447053909302 0.019893873482942581
0.49496132135391235 0.051139838993549347 9.3624139481107704e-06
0.79235029220581055 0.090093806385993958 0
0.99775820970535278 0.21482369303703308 0
0 0.18897126615047455 0.056097403168678284
0.14814846217632294 0.23331700265407562 0.0045026787556707859
0.56523948907852173 0.25358065962791443 0
0.81697863340377808 0.26602739095687866 0
0.99959933757781982 0.32517325878143311 0
0 0.49567389488220215 0.18333533406257629
0 0.4989987313747406 0.18857590854167938
0.4709588885307312 0.56716489791870117 0.00571047468110919
0.83399152755737305 0.56019115447998047 0
1 0.52194422483444214 0
0 0.72533303499221802 0.3830304741859436
0.12026870250701904 0.72347921133041382 0.38765686750411987
0.38453561067581177 0.74099099636077881 0.36456337571144104
0.7087894082069397 0.7779497504234314 0.26135653257369995
0.99172878265380859 0.7925068736076355 0.16819258034229279
0.58846938610076904 0.91831392049789429 0.70513230562210083
0.60859423875808716 0.91871684789657593 0.70982706546783447
0.66044974327087402 0.92025482654571533 0.72029894590377808
0.74715059995651245 0.9415239691734314 0.69601321220397949
0.90320014953613281 0.96346181631088257 0.64449095726013184
0.0043895412236452103 0.030157612636685371 0.1917581707239151
0.19644635915756226 0.041798446327447891 0.19864869117736816
0.52374225854873657 0 0.18568103015422821
0.78232938051223755 0.13669295608997345 0.2123306542634964
0.98974353075027466 0.25792324542999268 0.22861367464065552
0 0.23009999096393585 0.22150705754756927
0.22315555810928345 0.25566765666007996 0.24612538516521454
0.55646371841430664 0.27220985293388367 0.23815919458866119
0.80458402633666992 0.29234689474105835 0.2240358293056488
0.99533754587173462 0.35512375831604004 0.23757441341876984
0.16491851210594177 0.52625691890716553 0.36340087652206421
0.21282421052455902 0.5273292064666748 0.3432515561580658
0.51058000326156616 0.57087165117263794 0.28931450843811035
0.83090770244598389 0.5504004955291748 0.2351166307926178
0.99912947416305542 0.53726845979690552 0.25134482979774475
0.25815731287002563 0.73310542106628418 0.47769337892532349
0.30111515522003174 0.73295944929122925 0.47204360365867615
0.4461834728717804 0.73997670412063599 0.4629301130771637
0.72225409746170044 0.77804774045944214 0.39367738366127014
0.98835653066635132 0.78955352306365967 0.3418230414390564
0.61123090982437134 0.91965687274932861 0.72716677188873291
0.62904095649719238 0.91981279850006104 0.7302933931350708
0.67604923248291016 0.9205893874168396 0.73948150873184204
0.75686591863632202 0.94040262699127197 0.72295987606048584
0.90639734268188477 0.96307462453842163 0.67930960655212402
0 0.076539017260074615 0.53666228055953979
0.26484054327011108 0.091679386794567108 0.54302442073822021
0.59591466188430786 0.1436886191368103 0.55508226156234741
0.81609326601028442 0.21371649205684662 0.49416139721870422
0.99741643667221069 0.27414184808731079 0.46591511368751526
0 0.2894783616065979 0.55697423219680786
0.28802135586738586 0.30900689959526062 0.56880718469619751
0.60387074947357178 0.35083121061325073 0.57229065895080566
0.81573599576950073 0.36811333894729614 0.52010560035705566
0.99331808090209961 0.37713247537612915 0.48380988836288452
0.16911627352237701 0.56014919281005859 0.55896586179733276
0.34835174679756165 0.56935769319534302 0.5706484317779541
0.59097200632095337 0.58331608772277832 0.58982914686203003
0.79680687189102173 0.56843972206115723 0.55472284555435181
0.97297209501266479 0.57476687431335449 0.53321468830108643
0.49648174643516541 0.75129199028015137 0.6502382755279541
0.54811662435531616 0.75269472599029541 0.65993702411651611
0.58573108911514282 0.74828553199768066 0.6387513279914856
0.75450605154037476 0.77985227108001709 0.61368441581726074
0.97820079326629639 0.77953964471817017 0.58135038614273071
0.68748247623443604 0.92186099290847778 0.79398220777511597
0.6918981671333313 0.92296630144119263 0.79051321744918823
0.71027481555938721 0.92530655860900879 0.78388947248458862
0.77867591381072998 0.93777483701705933 0.78333866596221924
0.91694164276123047 0.96321606636047363 0.75343841314315796
0.16794262826442719 0.2072523832321167 0.79921042919158936
0.36596360802650452 0.23119653761386871 0.80029356479644775
0.63520419597625732 0.30423799157142639 0.79920190572738647
0.84852385520935059 0.38699936866760254 0.79626047611236572
0.97470968961715698 0.46580588817596436 0.74953407049179077
0.24005110561847687 0.36815395951271057 0.7987942099571228
0.39848315715789795 0.38411068916320801 0.80011886358261108
0.64210224151611328 0.43358412384986877 0.80050796270370483
0.84143269062042236 0.49721714854240417 0.79903900623321533
0.96596217155456543 0.54529911279678345 0.76098001003265381
0.19506864249706268 0.57077056169509888 0.78060853481292725
0.37167581915855408 0.57927531003952026 0.78476893901824951
0.62932753562927246 0.61011970043182373 0.79376888275146484
0.82115787267684937 0.65532809495925903 0.80043452978134155
0.95297592878341675 0.66993391513824463 0.77769070863723755
0.47493225336074829 0.76985949277877808 0.78157836198806763
0.53165197372436523 0.77168816328048706 0.78436195850372314
0.65559613704681396 0.77581846714019775 0.79081058502197266
0.80359655618667603 0.78974473476409912 0.80616259574890137
0.9522671103477478 0.77824646234512329 0.78108185529708862
0.72334730625152588 0.93139106035232544 0.86205720901489258
0.73963814973831177 0.93235480785369873 0.86396950483322144
0.78460788726806641 0.93462038040161133 0.86970996856689453
0.82224732637405396 0.93941468000411987 0.86188453435897827
0.93633830547332764 0.96427512168884277 0.8509591817855835
0.5329245924949646 0.47390139102935791 0.95979231595993042
0.59484153985977173 0.49023616313934326 0.95813107490539551
0.73050719499588013 0.53774291276931763 0.9540102481842041
0.87606412172317505 0.6167871356010437 0.94865775108337402
0.99167519807815552 0.66776740550994873 0.94619035720825195
0.55861419439315796 0.55283445119857788 0.95798766613006592
0.61537641286849976 0.5663449764251709 0.95706033706665039
0.73828971385955811 0.60080033540725708 0.95299321413040161
0.87503540515899658 0.65985119342803955 0.94850820302963257
0.98749411106109619 0.70060563087463379 0.94628113508224487
0.55777972936630249 0.66969764232635498 0.95340996980667114
0.60676831007003784 0.67381411790847778 0.95385569334030151
0.72936552762985229 0.69527459144592285 0.95147240161895752
0.86741048097610474 0.73531365394592285 0.9492110013961792
0.98036909103393555 0.76870918273925781 0.94944667816162109
0.55133426189422607 0.80689364671707153 0.94979506731033325
0.58167850971221924 0.80565148591995239 0.95011645555496216
0.66645729541778564 0.80144244432449341 0.95186042785644531
0.84145224094390869 0.822093665599823 0.95540159940719604
0.97506529092788696 0.86186820268630981 0.95834338665008545
0.71381121873855591 0.95544403791427612 0.95792824029922485
0.72966456413269043 0.95589029788970947 0.95844936370849609
0.77783334255218506 0.95702731609344482 0.96018391847610474
0.86020684242248535 0.96008431911468506 0.96364939212799072
0.97103869915008545 0.9687541127204895 0.97185546159744263
