Textures/78.cube
# Created by: G'MIC (https://gmic.eu)
TITLE "Kodak_Portra_160_VC_2.cube"
# LUT size
LUT_3D_SIZE 5
# Data domain
DOMAIN_MIN 0.0 0.0 0.0
DOMAIN_MAX 1.0 1.0 1.0
# LUT data points
0.015235172584652901 0.022576618939638138 0.025866022333502769
0.1556544154882431 0.040396176278591156 0.020537108182907104
0.5340651273727417 0.0072998348623514175 0
0.86360764503479004 0.012903236784040928 0
0.99999380111694336 0.17881967127323151 0
0 0.17426720261573792 0.052564594894647598
0.14121842384338379 0.19985264539718628 0.012817013077437878
0.56657373905181885 0.23522980511188507 0
0.85980510711669922 0.25059622526168823 0
0.99999582767486572 0.30279392004013062 0
0 0.50870239734649658 0.17605264484882355
0.00075614702655002475 0.50765454769134521 0.18745678663253784
0.48259875178337097 0.54215985536575317 0.009707299992442131
0.83075243234634399 0.53131413459777832 0
1 0.4979051947593689 0
0.1573864221572876 0.74724376201629639 0.38001483678817749
0.28403192758560181 0.7433243989944458 0.38788002729415894
0.47420263290405273 0.74897158145904541 0.36333459615707397
0.74220311641693115 0.76609164476394653 0.24821344017982483
0.99805158376693726 0.77451628446578979 0.024143658578395844
0.63662409782409668 0.92989599704742432 0.6901620626449585
0.65828055143356323 0.92934411764144897 0.69568395614624023
0.71486276388168335 0.92880427837371826 0.71009993553161621
0.79373836517333984 0.94407624006271362 0.68027329444885254
0.93176978826522827 0.96052283048629761 0.62014675140380859
0 0.028843272477388382 0.20964992046356201
0.17781978845596313 0.037134047597646713 0.20283755660057068
0.54798740148544312 0 0.18478424847126007
0.86207211017608643 0.061729550361633301 0.22453238070011139
0.99998295307159424 0.24141077697277069 0.22929790616035461
0 0.21867896616458893 0.22819836437702179
0.19682694971561432 0.22872215509414673 0.24102248251438141
0.58267402648925781 0.24882365763187408 0.23589199781417847
0.8605009913444519 0.27116096019744873 0.21616686880588531
0.99999582767486572 0.33751490712165833 0.21438883244991302
0.049674496054649353 0.53704404830932617 0.34249132871627808
0.22599588334560394 0.53329724073410034 0.33730101585388184
0.51367926597595215 0.54776787757873535 0.27776682376861572
0.83421707153320312 0.51889598369598389 0.16416481137275696
0.99995285272598267 0.51036942005157471 0.13896282017230988
0.31557753682136536 0.75415658950805664 0.46933993697166443
0.38729649782180786 0.75061804056167603 0.47517243027687073
0.52432852983474731 0.74886351823806763 0.46758890151977539
0.75293195247650146 0.76726871728897095 0.38276994228363037
0.99722039699554443 0.77283060550689697 0.27252140641212463
0.65395873785018921 0.93175482749938965 0.71478945016860962
0.67440450191497803 0.93111681938171387 0.71952301263809204
0.7270808219909668 0.92976540327072144 0.73230689764022827
0.80161917209625244 0.94333112239837646 0.71133869886398315
0.93354922533035278 0.96027982234954834 0.65879851579666138
0 0.10740751028060913 0.58338558673858643
0.26534023880958557 0.12877310812473297 0.57795161008834839
0.61910569667816162 0.17123542726039886 0.56726008653640747
0.84765017032623291 1.1985498531430494e-05 0.47348648309707642
1 0.17749591171741486 0.45403659343719482
0 0.34753027558326721 0.5940929651260376
0.27961450815200806 0.33489000797271729 0.59917229413986206
0.62117677927017212 0.36141183972358704 0.57718187570571899
0.84905892610549927 0.28070852160453796 0.49346822500228882
1 0.36272737383842468 0.48918774724006653
0.0040579074993729591 0.58174598217010498 0.57004755735397339
0.31085121631622314 0.58099788427352905 0.57332903146743774
0.58149421215057373 0.5628734827041626 0.56485402584075928
0.82629001140594482 0.56426495313644409 0.54650419950485229
0.99992567300796509 0.5886845588684082 0.54291838407516479
0.50052499771118164 0.77057802677154541 0.64374983310699463
0.55893731117248535 0.76834309101104736 0.6514124870300293
0.62872731685638428 0.75855940580368042 0.64057409763336182
0.77738392353057861 0.77104455232620239 0.60189056396484375
0.99554944038391113 0.76414650678634644 0.52281522750854492
0.69828718900680542 0.93731361627578735 0.77822494506835938
0.704814612865448 0.93755912780761719 0.7743261456489563
0.75100386142730713 0.93613308668136597 0.78132915496826172
0.81922322511672974 0.94242435693740845 0.77999943494796753
0.9393048882484436 0.96112734079360962 0.74054485559463501
0.10569676011800766 0.29596784710884094 0.831950843334198
0.3837428092956543 0.32352742552757263 0.8286205530166626
0.67326951026916504 0.39932659268379211 0.81627184152603149
0.86969196796417236 0.45741716027259827 0.80272912979125977
0.99988037347793579 0.410713791847229 0.74483263492584229
0.24202375113964081 0.44378370046615601 0.82899534702301025
0.42879670858383179 0.46150457859039307 0.82671481370925903
0.68368268013000488 0.51210540533065796 0.81648653745651245
0.8605310320854187 0.54940396547317505 0.80354005098342896
0.99786818027496338 0.49684977531433105 0.75224632024765015
0.27682861685752869 0.64699047803878784 0.8060193657875061
0.44129303097724915 0.64902245998382568 0.80711489915847778
0.66378533840179443 0.64748060703277588 0.80727767944335938
0.84169214963912964 0.67810475826263428 0.80356770753860474
0.98990905284881592 0.62712287902832031 0.75833529233932495
0.48837625980377197 0.79891538619995117 0.79856932163238525
0.54654407501220703 0.79766756296157837 0.79887592792510986
0.67183434963226318 0.79261147975921631 0.79869121313095093
0.81339234113693237 0.78325915336608887 0.79565435647964478
0.98121827840805054 0.7919468879699707 0.78872931003570557
0.72017592191696167 0.94868195056915283 0.85862559080123901
0.74067717790603638 0.9487730860710144 0.86091679334640503
0.79571688175201416 0.94866198301315308 0.86723339557647705
0.85282438993453979 0.94797444343566895 0.86641091108322144
0.95170712471008301 0.96335726976394653 0.84654861688613892
0.5677374005317688 0.57381200790405273 0.96965271234512329
0.63294708728790283 0.58986186981201172 0.96747159957885742
0.76725310087203979 0.63328772783279419 0.9617798924446106
0.8988385796546936 0.69790476560592651 0.95321059226989746
0.99778062105178833 0.72059178352355957 0.95028781890869141
0.60006821155548096 0.63695168495178223 0.96768158674240112
0.65594035387039185 0.64847183227539062 0.96628975868225098
0.77446991205215454 0.67914551496505737 0.96097791194915771
0.89838039875030518 0.72883081436157227 0.95360511541366577
0.99488580226898193 0.74679851531982422 0.95087677240371704
0.64525485038757324 0.75270730257034302 0.96359014511108398
0.67848038673400879 0.74958997964859009 0.96404558420181274
0.76861435174942017 0.75244444608688354 0.96230554580688477
0.89267677068710327 0.78640669584274292 0.95641446113586426
0.98849606513977051 0.80411380529403687 0.95375239849090576
0.61609572172164917 0.85749375820159912 0.96222805976867676
0.64580065011978149 0.85716861486434937 0.96264421939849854
0.72692441940307617 0.8552202582359314 0.96361887454986572
0.87110209465026855 0.85722088813781738 0.96381896734237671
0.98149377107620239 0.88444060087203979 0.96117252111434937
0.71542477607727051 0.97135847806930542 0.96496456861495972
0.73500686883926392 0.97109240293502808 0.96535617113113403
0.78996503353118896 0.97027981281280518 0.96640628576278687
0.87697738409042358 0.96968096494674683 0.96820420026779175
0.97588580846786499 0.97098517417907715 0.97239100933074951
