Textures/78.cube
# Created by: G'MIC (https://gmic.eu)
TITLE "Kodak_Portra_160_VC_2.cube"
# LUT size
LUT_3D_SIZE 33
# Data domain
DOMAIN_MIN 0.0 0.0 0.0
DOMAIN_MAX 1.0 1.0 1.0
# LUT data points
0.015235172584652901 0.022576618939638138 0.025866022333502769
0.017156150192022324 0.022907204926013947 0.02611476369202137
0.021339543163776398 0.023110935464501381 0.02612713910639286
0.030079217627644539 0.02390182763338089 0.025919467210769653
0.046662032604217529 0.025660173967480659 0.025685405358672142
0.069051854312419891 0.029076069593429565 0.024854917079210281
0.094598628580570221 0.032693710178136826 0.02394607849419117
0.12338623404502869 0.036581616848707199 0.022530650720000267
0.1556544154882431 0.040396176278591156 0.020537108182907104
0.19256047904491425 0.043618243187665939 0.018203200772404671
0.23437368869781494 0.04551532119512558 0.015208720229566097
0.28113287687301636 0.044811222702264786 0.010926582850515842
0.32994678616523743 0.041876029223203659 0.0060492162592709064
0.38159245252609253 0.036092840135097504 0.0015488042263314128
0.43384954333305359 0.027545072138309479 4.8372472519986331e-05
0.48502379655838013 0.017317146062850952 0
0.5340651273727417 0.0072998348623514175 0
0.58106076717376709 0.001558756222948432 0
0.6288570761680603 7.4897325248457491e-05 0
0.68073117733001709 0 0
0.72587156295776367 0 0
0.76611465215682983 0 0
0.80141305923461914 0.00016851309919729829 0
0.83307093381881714 0.0024031780194491148 0
0.86360764503479004 0.012903236784040928 0
0.89244455099105835 0.032941445708274841 0
0.92003470659255981 0.056498274207115173 0
0.94592148065567017 0.078155554831027985 0
0.97076922655105591 0.099080197513103485 0
0.99270033836364746 0.11829034239053726 0
0.99995285272598267 0.13798873126506805 0
0.99997198581695557 0.15762215852737427 0
0.99999380111694336 0.17881967127323151 0
0.015128174796700478 0.024830235168337822 0.026592249050736427
0.016927586868405342 0.025332827121019363 0.026411667466163635
0.021900547668337822 0.026631008833646774 0.026219310238957405
0.032079469412565231 0.028080940246582031 0.02556876465678215
0.049295004457235336 0.031545825302600861 0.025421308353543282
0.070683389902114868 0.035544499754905701 0.024082917720079422
0.095548287034034729 0.040054116398096085 0.02302253246307373
0.12394468486309052 0.04465850442647934 0.021536113694310188
0.15721212327480316 0.049413874745368958 0.019700426608324051
0.19433674216270447 0.05309440940618515 0.016895292326807976
0.23609288036823273 0.055288359522819519 0.013560785911977291
0.28264033794403076 0.056090254336595535 0.0093951905146241188
0.33165574073791504 0.054736372083425522 0.0045459591783583164
0.38263151049613953 0.050917450338602066 0.00060440372908487916
0.43412727117538452 0.044491268694400787 0
0.48414537310600281 0.036555260419845581 0
0.53241896629333496 0.027252385392785072 0
0.57955986261367798 0.018740031868219376 0
0.62907558679580688 0.010302259586751461 0
0.67966341972351074 0.0057729668915271759 0
0.72524887323379517 0.005245761014521122 0
0.76477742195129395 0.0071864328347146511 0
0.79966551065444946 0.012941920198500156 0
0.83159267902374268 0.023758940398693085 0
0.86251431703567505 0.039896555244922638 0
0.89163696765899658 0.057835977524518967 0
0.91884428262710571 0.075846485793590546 0
0.94484150409698486 0.093856073915958405 0
0.96997594833374023 0.11178538203239441 0
0.99180871248245239 0.1290910392999649 0
0.99999099969863892 0.14753749966621399 0
0.99996209144592285 0.16572795808315277 0
0.99999552965164185 0.18580727279186249 0
0.014267711900174618 0.029336992651224136 0.02756015956401825
0.016265181824564934 0.029836269095540047 0.027379680424928665
0.021182980388402939 0.031951364129781723 0.0267535001039505
0.032066211104393005 0.035126142203807831 0.025664022192358971
0.050485551357269287 0.039857029914855957 0.024261098355054855
0.073792614042758942 0.044790338724851608 0.022933201864361763
0.099529244005680084 0.05014374852180481 0.022060588002204895
0.12763872742652893 0.055157322436571121 0.02009664848446846
0.16072674095630646 0.060271084308624268 0.017818603664636612
0.19747145473957062 0.064442567527294159 0.01517828181385994
0.23937463760375977 0.067786365747451782 0.011950276792049408
0.2854732871055603 0.068907082080841064 0.0072286413051187992
0.33371442556381226 0.06867671012878418 0.0024901772849261761
0.38458213210105896 0.067305944859981537 0.00017487027798779309
0.43517500162124634 0.063699871301651001 0
0.4843616783618927 0.058797761797904968 0
0.53266012668609619 0.052616093307733536 0
0.58013832569122314 0.046115607023239136 0
0.63136190176010132 0.040216248482465744 0
0.6808774471282959 0.036630835384130478 0
0.72481316328048706 0.036377295851707458 0
0.76416164636611938 0.039586156606674194 0
0.79972469806671143 0.047234177589416504 0
0.83193999528884888 0.057083133608102798 0
0.86231374740600586 0.069305986166000366 0
0.89134418964385986 0.082192450761795044 0
0.91856092214584351 0.096657313406467438 0
0.9444090723991394 0.11146582663059235 0
0.96919792890548706 0.12704828381538391 0
0.99136078357696533 0.14217109978199005 0
0.99994003772735596 0.15897011756896973 0
0.99999707937240601 0.17544957995414734 0
0.99999839067459106 0.19491946697235107 0
0.012205833569169044 0.040393806993961334 0.028896253556013107
0.015179173089563847 0.041368961334228516 0.02895377017557621
0.020433774217963219 0.043360341340303421 0.027681833133101463
0.031175553798675537 0.046945501118898392 0.026401631534099579
0.050643723458051682 0.053865384310483932 0.023916337639093399
0.075684554874897003 0.060468010604381561 0.022014359012246132
0.10364312678575516 0.065425664186477661 0.019952598959207535
0.13368538022041321 0.069596827030181885 0.017874365672469139
0.16617849469184875 0.074759863317012787 0.015307501889765263
0.20349098742008209 0.079223006963729858 0.012561297975480556
0.24512837827205658 0.082967683672904968 0.0086291339248418808
0.29117113351821899 0.085764110088348389 0.0040848767384886742
0.33938723802566528 0.086985953152179718 0.00065376382553949952
0.38948866724967957 0.087016820907592773 4.6812069740553852e-06
0.44057899713516235 0.085784144699573517 0
0.48986813426017761 0.083144471049308777 0
0.53803616762161255 0.080204971134662628 0
0.58790051937103271 0.07734283059835434 0
0.64040583372116089 0.0754118412733078 0
0.688190758228302 0.074505701661109924 0
0.73118996620178223 0.076312348246574402 0
0.7692684531211853 0.079849705100059509 0
0.80356240272521973 0.085281305015087128 0
0.8347814679145813 0.091842077672481537 0
0.8651917576789856 0.10067274421453476 0
0.89442390203475952 0.11088817566633224 0
0.9208560585975647 0.12223697453737259 0
0.94701409339904785 0.13493777811527252 0
0.97179460525512695 0.14834994077682495 0
0.99360382556915283 0.16182504594326019 0
0.99999845027923584 0.17607598006725311 0
0.99997860193252563 0.19110631942749023 0
1 0.20927610993385315 0
0.0068855183199048042 0.057140041142702103 0.029617171734571457
0.010770309716463089 0.057726591825485229 0.030088888481259346
0.016964821144938469 0.059386152774095535 0.029455546289682388
0.027462635189294815 0.063160248100757599 0.027529511600732803
0.044499479234218597 0.067715495824813843 0.02488277293741703
0.070939019322395325 0.075889118015766144 0.021398633718490601
0.10055125504732132 0.084014803171157837 0.018558617681264877
0.13233113288879395 0.088767103850841522 0.015514274127781391
0.1686771959066391 0.092871643602848053 0.012020042166113853
0.20757170021533966 0.096683315932750702 0.0087965046986937523
0.24955803155899048 0.10095473378896713 0.0048592537641525269
0.29525235295295715 0.10460296273231506 0.00080359808634966612
0.34290331602096558 0.10718025267124176 2.1845633455086499e-05
0.39248591661453247 0.10903365910053253 0
0.44257098436355591 0.10941231995820999 0
0.49051403999328613 0.10857153683900833 0
0.53944319486618042 0.10803400725126266 0
0.59226012229919434 0.10765989869832993 0
0.64200001955032349 0.10781875997781754 0
0.68846637010574341 0.10862055420875549 0
0.73022961616516113 0.11064043641090393 0
0.76740539073944092 0.11346246302127838 0
0.80140286684036255 0.11757230013608932 0
0.83333402872085571 0.12291768193244934 0
0.86356806755065918 0.12974341213703156 0
0.89269369840621948 0.13774558901786804 0
0.91925919055938721 0.14689518511295319 0
0.94550609588623047 0.15761025249958038 0
0.97016692161560059 0.16870592534542084 0
0.9921916127204895 0.18032865226268768 0
0.99998992681503296 0.1925603449344635 0
0.99997431039810181 0.20651878416538239 0
1 0.22304001450538635 0
0.00055039057042449713 0.082086130976676941 0.031587589532136917
0.0027456048410385847 0.082095637917518616 0.032084211707115173
0.0084543675184249878 0.082204319536685944 0.032272472977638245
0.019408488646149635 0.085390813648700714 0.02972307987511158
0.03723975270986557 0.089696958661079407 0.026722395792603493
0.062748871743679047 0.09506765753030777 0.022838810458779335
0.095939710736274719 0.10445844382047653 0.01736055314540863
0.13172723352909088 0.11359467357397079 0.012312322854995728
0.16941121220588684 0.11862900108098984 0.0082470942288637161
0.21020770072937012 0.12154762446880341 0.004071713425219059
0.25388979911804199 0.12337256222963333 0.00084562023403123021
0.29994878172874451 0.12655384838581085 2.0285231585148722e-05
0.34695866703987122 0.1301836371421814 0
0.39572596549987793 0.13297586143016815 0
0.4449617862701416 0.13486659526824951 0
0.49409434199333191 0.13590359687805176 0
0.5475165843963623 0.13792400062084198 0
0.59851503372192383 0.13925310969352722 0
0.64587962627410889 0.14051030576229095 0
0.69032949209213257 0.14194470643997192 0
0.73148500919342041 0.1444837898015976 0
0.76822227239608765 0.14722071588039398 0
0.80203115940093994 0.1503090113401413 0
0.8329804539680481 0.15451955795288086 0
0.86330300569534302 0.1600944995880127 0
0.89216321706771851 0.16650049388408661 0
0.91924053430557251 0.17427940666675568 0
0.94495338201522827 0.182808518409729 0
0.96963357925415039 0.19229711592197418 0
0.99161350727081299 0.20212602615356445 0
0.9999883770942688 0.21305176615715027 0
1 0.22539378702640533 0
0.99999141693115234 0.24037909507751465 0
0 0.10931847989559174 0.03492698073387146
0 0.11006110906600952 0.036196950823068619
0.00035090820165351033 0.10895683616399765 0.037230987101793289
0.0068741072900593281 0.11097446084022522 0.035373419523239136
0.02440180815756321 0.11490188539028168 0.03070610947906971
0.05215846374630928 0.11989439278841019 0.025488127022981644
0.084642678499221802 0.12594664096832275 0.01971730962395668
0.12344128638505936 0.13569356501102448 0.012088999152183533
0.1669684499502182 0.14662295579910278 0.0042536556720733643
0.20973049104213715 0.15160469710826874 0.00058659556088969111
0.25522536039352417 0.15527009963989258 3.3194017305504531e-05
0.30369102954864502 0.1563141942024231 0
0.35169467329978943 0.15691649913787842 0
0.40060532093048096 0.1597464382648468 0
0.45221841335296631 0.16345688700675964 0
0.5058867335319519 0.1674158126115799 0
0.55718141794204712 0.17007619142532349 0
0.60543650388717651 0.1716674417257309 0
0.65068668127059937 0.17372448742389679 0
0.69388967752456665 0.17574645578861237 0
0.73336964845657349 0.17790487408638 0
0.76899617910385132 0.18011856079101562 0
0.80266267061233521 0.18280215561389923 0
0.83315491676330566 0.18591278791427612 0
0.86290079355239868 0.19030112028121948 0
0.89196807146072388 0.19590587913990021 0
0.91860932111740112 0.2020852267742157 0
0.94449472427368164 0.20930895209312439 0
0.96920889616012573 0.21764320135116577 0
0.99181169271469116 0.22630113363265991 0
0.99999845027923584 0.2357199490070343 0
1 0.24621866643428802 0
0.99996143579483032 0.2603890597820282 0
0 0.13782025873661041 0.042398080229759216
0 0.13906647264957428 0.043793275952339172
0 0.13798806071281433 0.045000884681940079
0.00024894677335396409 0.13764700293540955 0.044823359698057175
0.0080652274191379547 0.1412770003080368 0.040090784430503845
0.034966636449098587 0.14654476940631866 0.033336754888296127
0.070849470794200897 0.15259608626365662 0.025231951847672462
0.109453946352005 0.15950436890125275 0.016291741281747818
0.15583129227161407 0.17085443437099457 0.0052806269377470016
0.20793218910694122 0.18415214121341705 8.5680272604804486e-05
0.25496521592140198 0.18973651528358459 0
0.30432301759719849 0.19288721680641174 0
0.35558488965034485 0.19444012641906738 0
0.40954923629760742 0.19472008943557739 0
0.4636557400226593 0.19606274366378784 0
0.51335924863815308 0.19854392111301422 0
0.56181269884109497 0.20159174501895905 0
0.60776621103286743 0.20371025800704956 0
0.65099668502807617 0.20562177896499634 0
0.69250661134719849 0.20711894333362579 0
0.73137491941452026 0.20932412147521973 0
0.76639991998672485 0.21152819693088531 0
0.79959875345230103 0.21356961131095886 0
0.83075207471847534 0.21624362468719482 0
0.86069512367248535 0.21984396874904633 0
0.88948577642440796 0.22437752783298492 0
0.91652363538742065 0.22938305139541626 0
0.94228065013885498 0.23576299846172333 0
0.96700108051300049 0.24240022897720337 0
0.98952454328536987 0.24984464049339294 0
0.99997103214263916 0.25805610418319702 0
1 0.26794162392616272 0
0.99995720386505127 0.27985239028930664 0
0 0.17426720261573792 0.052564594894647598
0 0.17587713897228241 0.054102513939142227
0 0.17452745139598846 0.054940681904554367
0 0.17325100302696228 0.056718718260526657
8.9932909759227186e-05 0.17514994740486145 0.053130462765693665
0.010779473930597305 0.18021741509437561 0.04617048054933548
0.050814907997846603 0.1861194372177124 0.036842245608568192
0.095324471592903137 0.19249281287193298 0.025764608755707741
0.14121842384338379 0.19985264539718628 0.012817013077437878
0.19394049048423767 0.21115639805793762 0.0019952745642513037
0.25458547472953796 0.22768616676330566 1.7022571228153538e-06
0.30950522422790527 0.23561705648899078 0
0.36381575465202332 0.24061314761638641 0
0.41757979989051819 0.24162410199642181 0
0.47006675601005554 0.23964013159275055 0
0.51918125152587891 0.2361464649438858 0
0.56657373905181885 0.23522980511188507 0
0.61105519533157349 0.23714710772037506 0
0.65297156572341919 0.23887290060520172 0
0.694053053855896 0.24060286581516266 0
0.73181688785552979 0.2425716370344162 0
0.7668265700340271 0.24427622556686401 0
0.79920405149459839 0.24572101235389709 0
0.83001267910003662 0.24781014025211334 0
0.85980510711669922 0.25059622526168823 0
0.88855195045471191 0.25446972250938416 0
0.91547071933746338 0.25882983207702637 0
0.94147491455078125 0.26369258761405945 0
0.96595370769500732 0.26958146691322327 0
0.98874330520629883 0.27600964903831482 0
0.99985051155090332 0.28304550051689148 0
1 0.29109659790992737 0
0.99999582767486572 0.30279392004013062 0
0 0.21068015694618225 0.062204435467720032
0 0.21383194625377655 0.064185388386249542
0 0.21265833079814911 0.065461829304695129
0 0.21112830936908722 0.06724315881729126
0 0.21058283746242523 0.066804051399230957
0.00026106997393071651 0.21480950713157654 0.060332551598548889
0.02050398476421833 0.22102321684360504 0.051272403448820114
0.075214199721813202 0.22873741388320923 0.039529941976070404
0.12905378639698029 0.23868691921234131 0.024431599304080009
0.18315906822681427 0.24919749796390533 0.0077013946138322353
0.2438158392906189 0.26255139708518982 0.00022281018027570099
0.31336307525634766 0.28054270148277283 0
0.36976858973503113 0.28750428557395935 0
0.42309275269508362 0.28946980834007263 0
0.47471189498901367 0.28874108195304871 0
0.52255040407180786 0.28441938757896423 0
0.56834906339645386 0.27816855907440186 0
0.61184555292129517 0.27249136567115784 0
0.65315103530883789 0.2711527943611145 0
0.69288933277130127 0.27265170216560364 0
0.73021209239959717 0.27414757013320923 0
0.76439106464385986 0.27522644400596619 0
0.79731261730194092 0.27649906277656555 0
0.82797414064407349 0.2784084677696228 0
0.8577120304107666 0.28073146939277649 0
0.8866729736328125 0.28390586376190186 0
0.91337782144546509 0.28726357221603394 0
0.93918019533157349 0.29148012399673462 0
0.96391087770462036 0.29664960503578186 0
0.98701244592666626 0.30165627598762512 0
0.99986916780471802 0.30820682644844055 0
1 0.31533855199813843 0
1 0.32600530982017517 0
0 0.25131270289421082 0.073046684265136719
0 0.25598856806755066 0.075714558362960815
0 0.25522670149803162 0.076697409152984619
0 0.25474157929420471 0.078705742955207825
0 0.25398549437522888 0.080856084823608398
0 0.25796976685523987 0.077619768679141998
0.0015846472233533859 0.26523041725158691 0.068756669759750366
0.045397248119115829 0.27344205975532532 0.05731968954205513
0.11384841799736023 0.28296399116516113 0.041397180408239365
0.17293085157871246 0.29206699132919312 0.020866811275482178
0.23116207122802734 0.30150490999221802 0.0030134210828691721
0.29560443758964539 0.31297707557678223 0
0.36845162510871887 0.3310210108757019 0
0.42517352104187012 0.33634889125823975 0
0.47535857558250427 0.33554250001907349 0
0.52172428369522095 0.33134925365447998 0
0.56697523593902588 0.3261243999004364 0
0.61052334308624268 0.31913337111473083 0
0.650989830493927 0.31105607748031616 0
0.68978321552276611 0.30508124828338623 0
0.72648262977600098 0.30458307266235352 0
0.76037663221359253 0.30563768744468689 0
0.79303419589996338 0.30621376633644104 0
0.82430779933929443 0.3078230619430542 0
0.85386663675308228 0.3098703920841217 0
0.88272309303283691 0.31231850385665894 0
0.90941441059112549 0.314862459897995 0
0.93546652793884277 0.31830066442489624 0
0.96017003059387207 0.3223305344581604 0
0.98337632417678833 0.32683324813842773 0
0.99923604726791382 0.33237472176551819 0
1 0.3391755223274231 0
1 0.34817665815353394 0
0 0.30389729142189026 0.088099844753742218
0 0.3093036413192749 0.091125376522541046
0 0.30891016125679016 0.092483781278133392
0 0.30797794461250305 0.094458386301994324
0 0.30680480599403381 0.09649716317653656
0 0.30629897117614746 0.097019791603088379
0 0.31159421801567078 0.089260317385196686
0.012655335478484631 0.3177739679813385 0.0780167356133461
0.08837331086397171 0.32444176077842712 0.063072822988033295
0.15500497817993164 0.33203023672103882 0.043291985988616943
0.2149728387594223 0.33961006999015808 0.017745397984981537
0.27559840679168701 0.34771323204040527 0.0012606903910636902
0.33932748436927795 0.35756480693817139 0
0.41298174858093262 0.37413805723190308 0
0.47111517190933228 0.37992331385612488 0
0.51957458257675171 0.37808710336685181 0
0.56573355197906494 0.37400007247924805 0
0.60883134603500366 0.36794963479042053 0
0.6498449444770813 0.36073926091194153 0
0.68934190273284912 0.35285231471061707 0
0.7257157564163208 0.34362339973449707 0
0.75981432199478149 0.33864960074424744 0
0.79183924198150635 0.33833223581314087 0
0.823292076587677 0.33944791555404663 0
0.85254538059234619 0.34064018726348877 0
0.881702721118927 0.34276971220970154 0
0.90893316268920898 0.34542924165725708 0
0.93469697237014771 0.34791046380996704 0
0.95947778224945068 0.35141777992248535 0
0.98258739709854126 0.35519886016845703 0
0.99930047988891602 0.35955852270126343 0
0.99995285272598267 0.36548933386802673 0
0.99998295307159424 0.37418398261070251 0
0 0.34865596890449524 0.10235688090324402
0 0.35694178938865662 0.10686729103326797
0 0.35604029893875122 0.1081165224313736
0 0.35459977388381958 0.10950914025306702
0 0.35273781418800354 0.11142241209745407
0 0.3508036732673645 0.11376189440488815
0 0.35274651646614075 0.1094241738319397
0.00040850182995200157 0.35817083716392517 0.099236264824867249
0.054445415735244751 0.36500436067581177 0.08645099401473999
0.1359657347202301 0.37184885144233704 0.069519437849521637
0.19977205991744995 0.37929624319076538 0.0465560182929039
0.26115593314170837 0.38672167062759399 0.016535520553588867
0.32202360033988953 0.39398068189620972 0.00093364331405609846
0.38471361994743347 0.40111523866653442 0
0.45853489637374878 0.41680029034614563 0
0.51642704010009766 0.42265847325325012 0
0.5619736909866333 0.41892188787460327 0
0.60541486740112305 0.4137280285358429 0
0.646270751953125 0.40708810091018677 0
0.68508052825927734 0.3995952308177948 0
0.72135704755783081 0.39054012298583984 0
0.75513708591461182 0.38077867031097412 0
0.78742706775665283 0.37182658910751343 0
0.81876325607299805 0.36871227622032166 0
0.84869652986526489 0.36953499913215637 0
0.87750464677810669 0.37089908123016357 0
0.90422934293746948 0.37245091795921326 0
0.93087774515151978 0.37494871020317078 0
0.95545744895935059 0.37785544991493225 0
0.97912144660949707 0.38084748387336731 0
0.9983745813369751 0.38535794615745544 0
0.99991852045059204 0.39065232872962952 0
0.99998760223388672 0.39818340539932251 0
0 0.39411711692810059 0.11964821815490723
0 0.40053123235702515 0.12354761362075806
0 0.39942482113838196 0.12494507431983948
0 0.39843699336051941 0.12633764743804932
0 0.39661124348640442 0.12851832807064056
0 0.39490532875061035 0.13076886534690857
0 0.39433744549751282 0.13128484785556793
0 0.39887520670890808 0.122754767537117
0.023987796157598495 0.40435004234313965 0.11145755648612976
0.11472064256668091 0.4104703962802887 0.097230724990367889
0.18324856460094452 0.41646796464920044 0.078868404030799866
0.24537768959999084 0.42283201217651367 0.052408833056688309
0.30494442582130432 0.4291120171546936 0.01882786862552166
0.36481630802154541 0.43524792790412903 0.00095366907771676779
0.42675560712814331 0.4409882128238678 0
0.49664312601089478 0.45391777157783508 0
0.55702078342437744 0.46167090535163879 0
0.60064071416854858 0.45732691884040833 0
0.64127814769744873 0.4516446590423584 0
0.68016749620437622 0.4444655179977417 0
0.71625453233718872 0.43617677688598633 0
0.75038492679595947 0.42766806483268738 0
0.7833176851272583 0.41776058077812195 0
0.81465935707092285 0.40832561254501343 0
0.84419238567352295 0.40042418241500854 0
0.87299591302871704 0.39889845252037048 0
0.90067547559738159 0.40044930577278137 0
0.92691284418106079 0.40222415328025818 0
0.95173341035842896 0.40398874878883362 0
0.97665280103683472 0.40743038058280945 0
0.99708843231201172 0.41159847378730774 0
0.99998718500137329 0.41569820046424866 0
0.99999541044235229 0.42212507128715515 0
0 0.43193283677101135 0.13616697490215302
0 0.44045722484588623 0.14138786494731903
0 0.44057130813598633 0.14316184818744659
0 0.43965339660644531 0.14467576146125793
0 0.4374941885471344 0.14600805938243866
0 0.43560177087783813 0.14822958409786224
0 0.43353098630905151 0.15075093507766724
0 0.43464255332946777 0.14661107957363129
0.0061711156740784645 0.43893659114837646 0.13573727011680603
0.089987471699714661 0.44405356049537659 0.12347875535488129
0.16552519798278809 0.44969925284385681 0.10836972296237946
0.22877578437328339 0.45558413863182068 0.088616855442523956
0.28721514344215393 0.46132937073707581 0.061701886355876923
0.34555703401565552 0.46696567535400391 0.024610627442598343
0.40512394905090332 0.47264876961708069 0.0017251668032258749
0.46462732553482056 0.47769328951835632 0
0.53334194421768188 0.48953008651733398 0
0.5946890115737915 0.49864083528518677 0
0.63716304302215576 0.49505621194839478 0
0.67613112926483154 0.48887225985527039 0
0.71245044469833374 0.48157608509063721 0
0.74675559997558594 0.47321939468383789 0
0.77991974353790283 0.46406161785125732 0
0.81109398603439331 0.45497295260429382 0
0.84127926826477051 0.44567689299583435 0
0.87090486288070679 0.43646091222763062 0
0.89813715219497681 0.43082112073898315 0
0.92418175935745239 0.43066930770874023 0
0.94971311092376709 0.43241620063781738 0
0.97457975149154663 0.43525925278663635 0
0.99620550870895386 0.43856030702590942 0
1 0.44249629974365234 0
1 0.44842720031738281 0
0 0.47021526098251343 0.15502187609672546
0 0.47878846526145935 0.16091829538345337
0 0.47841134667396545 0.1620841920375824
0 0.47729256749153137 0.16334886848926544
0 0.47571316361427307 0.16488508880138397
0 0.47362217307090759 0.16673050820827484
0 0.47157692909240723 0.16906221210956573
0 0.470145583152771 0.16968168318271637
0.00146240193862468 0.47414165735244751 0.16164839267730713
0.073338687419891357 0.47908729314804077 0.15107262134552002
