Textures/79.cube
# Created by: G'MIC (https://gmic.eu)
TITLE "Kodak_Portra_400_2.cube"
# LUT size
LUT_3D_SIZE 33
# Data domain
DOMAIN_MIN 0.0 0.0 0.0
DOMAIN_MAX 1.0 1.0 1.0
# LUT data points
0.017961727455258369 0.019121337682008743 0.018628336489200592
0.025382881984114647 0.019370958209037781 0.018858721479773521
0.037463095039129257 0.01978611946105957 0.018799902871251106
0.056449078023433685 0.020118433982133865 0.018062975257635117
0.081092968583106995 0.021559961140155792 0.017686406150460243
0.10988570749759674 0.021684309467673302 0.016550157219171524
0.14383912086486816 0.021135509014129639 0.015909396111965179
0.18118821084499359 0.017386138439178467 0.014455871656537056
0.22323587536811829 0.011177139356732368 0.012552728876471519
0.2681267261505127 0.0037950458936393261 0.01053562480956316
0.31584849953651428 0.00027344856061972678 0.0074425465427339077
0.36675620079040527 0 0.0035499180667102337
0.4187508225440979 0 0.00085365952691063285
0.4723975658416748 0 2.6526839064899832e-05
0.52623683214187622 0 0
0.57859683036804199 0 0
0.62891250848770142 0 0
0.67643833160400391 0 0
0.7211340069770813 0 0
0.76534575223922729 0 0
0.80404239892959595 0 0
0.83871829509735107 0 0
0.87026631832122803 0 0
0.89880967140197754 0 0
0.92549705505371094 0 0
0.95156365633010864 0.0026062191464006901 0
0.97589874267578125 0.036706019192934036 0
0.99669629335403442 0.083075635135173798 0
0.99998295307159424 0.11767596006393433 0
0.99998295307159424 0.1451491117477417 0
0.99995285272598267 0.17000077664852142 0
0.99997198581695557 0.19213573634624481 0
0.99999380111694336 0.21344450116157532 0
0.017620261758565903 0.025758584961295128 0.020349776372313499
0.02434646338224411 0.026539908722043037 0.019733898341655731
0.036947201937437057 0.028294343501329422 0.018668081611394882
0.057463381439447403 0.030655980110168457 0.017174020409584045
0.082630358636379242 0.033444106578826904 0.016856299713253975
0.11108776926994324 0.034428816288709641 0.015767358243465424
0.14408433437347412 0.034286592155694962 0.014578745700418949
0.18142874538898468 0.032197926193475723 0.012922344729304314
0.22401489317417145 0.028092503547668457 0.011405748315155506
0.26862522959709167 0.020288219675421715 0.0083721643313765526
0.31616133451461792 0.0096591273322701454 0.0049361814744770527
0.36737218499183655 0.001539591234177351 0.0019289659103378654
0.41935771703720093 0 0.00030622162739746273
0.47200947999954224 0 0
0.52549844980239868 0 0
0.57737410068511963 0 0
0.62726342678070068 0 0
0.67498451471328735 0 0
0.72018140554428101 0 0
0.76362663507461548 0 0
0.80238586664199829 0 0
0.83742481470108032 0 0
0.86858004331588745 0 0
0.8970036506652832 0 0
0.92459189891815186 0.0025316935498267412 0
0.95048761367797852 0.031513221561908722 0
0.97459858655929565 0.075290277600288391 0
0.99597549438476562 0.1095864400267601 0
0.99996143579483032 0.13782630860805511 0
1 0.16205403208732605 0
1 0.1838361918926239 0
0.99996209144592285 0.2039019763469696 0
0.99999552965164185 0.22389300167560577 0
0.017376046627759933 0.035452239215373993 0.022254075855016708
0.023413768038153648 0.035701513290405273 0.022336110472679138
0.034203141927719116 0.038396768271923065 0.020421391353011131
0.055002287030220032 0.043001174926757812 0.018416803330183029
0.081644721329212189 0.047366902232170105 0.016004040837287903
0.11252055317163467 0.050003912299871445 0.014268116094172001
0.14666357636451721 0.051626648753881454 0.012803505174815655
0.18386642634868622 0.051204808056354523 0.010803938843309879
0.2255273163318634 0.049027007073163986 0.0085916928946971893
0.26984995603561401 0.044191081076860428 0.0060095516964793205
0.31740057468414307 0.0365796759724617 0.0032027154229581356
0.36759772896766663 0.024528088048100471 0.00056771835079416633
0.41901823878288269 0.010838335379958153 2.0143375877523795e-05
0.47207963466644287 0.0025515726301819086 0
0.52521520853042603 0.00011663380428217351 0
0.57637548446655273 0 0
0.62618416547775269 0 0
0.67384368181228638 0 0
0.71957606077194214 0 0
0.76244795322418213 0 0
0.80107295513153076 0 0
0.83565205335617065 1.2872225852333941e-05 0
0.86732721328735352 0.0011088303290307522 0
0.89613997936248779 0.012168211862444878 0
0.92322105169296265 0.043537698686122894 0
0.94899404048919678 0.080364450812339783 0
0.97340375185012817 0.11054141074419022 0
0.99510288238525391 0.13623371720314026 0
0.99998295307159424 0.15963757038116455 0
0.99998295307159424 0.18034784495830536 0
0.99995285272598267 0.20016099512577057 0
0.99999707937240601 0.21861657500267029 0
0.99999839067459106 0.23700253665447235 0
0.014945895411074162 0.051756814122200012 0.023875555023550987
0.022692732512950897 0.050435028970241547 0.025000574067234993
0.031953811645507812 0.053313303738832474 0.023508030921220779
0.050328608602285385 0.057805817574262619 0.020687757059931755
0.077475659549236298 0.063780702650547028 0.017394579946994781
0.11034518480300903 0.069793008267879486 0.014228953048586845
0.14700688421726227 0.073212429881095886 0.010858212597668171
0.18640205264091492 0.074808143079280853 0.0078950440511107445
0.227817103266716 0.074905984103679657 0.0050138947553932667
0.27188622951507568 0.073583528399467468 0.0026689043734222651
0.31913089752197266 0.070149429142475128 0.00066543917637318373
0.36938667297363281 0.064309664070606232 1.5604024156345986e-05
0.4204566478729248 0.055393349379301071 0
0.47288516163825989 0.043146245181560516 0
0.52599763870239258 0.028767529875040054 0
0.57685947418212891 0.016907872632145882 0
0.62676084041595459 0.0094115491956472397 0
0.6750798225402832 0.0060290363617241383 0
0.7210310697555542 0.0057341721840202808 0
0.76294898986816406 0.0081180064007639885 0
0.80142414569854736 0.015265301801264286 0
0.8354952335357666 0.029382906854152679 0
0.86672687530517578 0.052646022289991379 0
0.89502108097076416 0.0787929967045784 0
0.92227292060852051 0.10362072288990021 0
0.94821572303771973 0.12668794393539429 0
0.97248238325119019 0.14779765903949738 0
0.99484831094741821 0.16801856458187103 0
1 0.18750461935997009 0
0.99998444318771362 0.20534946024417877 0
0.99999845027923584 0.22257068753242493 0
0.99997860193252563 0.23887923359870911 0
1 0.255572110414505 0
0.0097604785114526749 0.071283936500549316 0.025571834295988083
0.018310487270355225 0.068894222378730774 0.027400219812989235
0.027698470279574394 0.070359773933887482 0.026952821761369705
0.043465364724397659 0.075064077973365784 0.024029478430747986
0.06819046288728714 0.080809339880943298 0.019739504903554916
0.10253100842237473 0.088013447821140289 0.015215227380394936
0.14041996002197266 0.095290802419185638 0.010809816420078278
0.18159478902816772 0.09983351081609726 0.0059174317866563797
0.22709488868713379 0.10282871872186661 0.001713420613668859
0.27300670742988586 0.10390497744083405 0.0002690630208235234
0.31978055834770203 0.10326769202947617 1.2766928193741478e-05
0.36954715847969055 0.10171949863433838 0
0.42023885250091553 0.098482385277748108 0
0.47225779294967651 0.094100937247276306 0
0.52487033605575562 0.088316179811954498 0
0.57521051168441772 0.081327371299266815 0
0.62504321336746216 0.075851328670978546 0
0.67411494255065918 0.07252483069896698 0
0.71909689903259277 0.073888003826141357 0
0.76074337959289551 0.080271363258361816 0
0.79843902587890625 0.090914502739906311 0
0.8323129415512085 0.10425624996423721 0
0.8635132908821106 0.11859731376171112 0
0.89216822385787964 0.13381181657314301 0
0.91933685541152954 0.15049971640110016 0
0.94520109891891479 0.167049840092659 0
0.96963596343994141 0.18347993493080139 0
0.99313616752624512 0.20013481378555298 0
1 0.21587590873241425 0
1 0.23124554753303528 0
1 0.245952308177948 0
0.99997431039810181 0.26002147793769836 0
1 0.27496138215065002 0
0.0017599272541701794 0.095617011189460754 0.027929110452532768
0.0094613190740346909 0.09329475462436676 0.030193468555808067
0.021050520241260529 0.091449260711669922 0.031462252140045166
0.035493634641170502 0.095909342169761658 0.028454111889004707
0.05850866436958313 0.10152614116668701 0.023885671049356461
0.09072500467300415 0.10902737081050873 0.018494058400392532
0.13138537108898163 0.11787109822034836 0.011515449732542038
0.17503678798675537 0.12599943578243256 0.0049495836719870567
0.22094200551509857 0.13194228708744049 0.00065776554401963949
0.26933711767196655 0.13584959506988525 0
0.31886211037635803 0.13745963573455811 0
0.36954745650291443 0.13834930956363678 0
0.4199347198009491 0.13816572725772858 0
0.47133174538612366 0.13742534816265106 0
0.52331691980361938 0.13590823113918304 0
0.57383161783218384 0.1340605765581131 0
0.6247745156288147 0.13387803733348846 0
0.67305892705917358 0.13515014946460724 0
0.71733969449996948 0.13786877691745758 0
0.75804358720779419 0.14329613745212555 0
0.79549616575241089 0.15112796425819397 0
0.82934707403182983 0.16031254827976227 0
0.86041468381881714 0.17067986726760864 0
0.88903790712356567 0.18179722130298615 0
0.91679203510284424 0.19417266547679901 0
0.94261246919631958 0.2072465717792511 0
0.9674985408782959 0.22047996520996094 0
0.990753173828125 0.23375636339187622 0
1 0.24730792641639709 0
0.99998444318771362 0.25999408960342407 0
0.99999845027923584 0.27255207300186157 0
1 0.28483718633651733 0
0.99999141693115234 0.29820758104324341 0
0 0.12326551973819733 0.03095669113099575
0.00089498265879228711 0.12097640335559845 0.033640164881944656
0.010421695187687874 0.11762525886297226 0.03669559583067894
0.025672318413853645 0.11931336671113968 0.035312160849571228
0.047014616429805756 0.12495926767587662 0.030010346323251724
0.078205585479736328 0.13264816999435425 0.023544399067759514
0.11671425402164459 0.14093798398971558 0.015454165637493134
0.16320066154003143 0.1511196494102478 0.0060741705819964409
0.21250320971012115 0.16053102910518646 0.00034867701469920576
0.26158678531646729 0.1675439327955246 0
0.31278091669082642 0.17267444729804993 0
0.36623251438140869 0.17565789818763733 0
0.41871052980422974 0.17740494012832642 0
0.47045263648033142 0.17871586978435516 0
0.52298837900161743 0.17996345460414886 0
0.57509535551071167 0.18207482993602753 0
0.62524676322937012 0.1839832216501236 0
0.67178744077682495 0.1862095445394516 0
0.71505969762802124 0.18990150094032288 0
0.75544017553329468 0.19509974122047424 0
0.79242289066314697 0.2016875296831131 0
0.82556909322738647 0.20885820686817169 0
0.85697656869888306 0.21718336641788483 0
0.88572657108306885 0.2260538637638092 0
0.91282588243484497 0.23585961759090424 0
0.93935465812683105 0.24640311300754547 0
0.96388965845108032 0.25732564926147461 0
0.98782271146774292 0.26857665181159973 0
0.99992454051971436 0.27959546446800232 0
0.99997860193252563 0.29034540057182312 0
1 0.30127999186515808 0
1 0.31156882643699646 0
0.99996143579483032 0.32384616136550903 0
0 0.15334309637546539 0.035249169915914536
0 0.1509564071893692 0.037961434572935104
0.00098542356863617897 0.14765395224094391 0.041137076914310455
0.012607214972376823 0.14542542397975922 0.0432770736515522
0.033577520400285721 0.15077605843544006 0.038515724241733551
0.064683280885219574 0.15793345868587494 0.031469963490962982
0.10209158807992935 0.16634528338909149 0.022266032174229622
0.14572660624980927 0.17607751488685608 0.01148634497076273
0.19862212240695953 0.18773443996906281 0.0016180097591131926
0.25261768698692322 0.19876332581043243 0
0.30411919951438904 0.20624549686908722 0
0.35823953151702881 0.21234375238418579 0
0.41251614689826965 0.21670593321323395 0
0.46811339259147644 0.22015120089054108 0
0.52313405275344849 0.22292560338973999 0
0.57354766130447388 0.22550022602081299 0
0.6223914623260498 0.22843383252620697 0
0.66853922605514526 0.23164252936840057 0
0.71069443225860596 0.23537163436412811 0
0.75043368339538574 0.24043199419975281 0
0.78684145212173462 0.24604469537734985 0
0.82031947374343872 0.25253120064735413 0
0.85155099630355835 0.25946733355522156 0
0.88078111410140991 0.26700648665428162 0
0.90832871198654175 0.27537676692008972 0
0.93458092212677002 0.28423643112182617 0
0.95962381362915039 0.29321223497390747 0
0.98382657766342163 0.30272006988525391 0
0.99943327903747559 0.31208866834640503 0
1 0.3213304877281189 0
1 0.3306199312210083 0
1 0.33969774842262268 0
0.99995720386505127 0.34949633479118347 0
0 0.18767537176609039 0.039556089788675308
0 0.18583467602729797 0.042769569903612137
0 0.18181943893432617 0.046070408076047897
0.00116870051715523 0.17741599678993225 0.050803247839212418
0.015493042767047882 0.1793670654296875 0.04891035333275795
0.047570805996656418 0.18638958036899567 0.041485078632831573
0.08694719523191452 0.19478045403957367 0.03153567761182785
0.13000267744064331 0.20457136631011963 0.019532740116119385
0.179217129945755 0.21498203277587891 0.0059319757856428623
0.23605439066886902 0.22746674716472626 0.00014100036059971899
0.29498454928398132 0.23983238637447357 0
0.35094377398490906 0.24940498173236847 0
0.40664097666740417 0.25716409087181091 0
0.46233978867530823 0.26289111375808716 0
0.5176118016242981 0.26639825105667114 0
0.5701107382774353 0.26930779218673706 0
0.61910408735275269 0.27202734351158142 0
0.66436189413070679 0.27586987614631653 0
0.70606410503387451 0.27956023812294006 0
0.74548208713531494 0.28438600897789001 0
0.78183263540267944 0.28967982530593872 0
0.81549561023712158 0.29579025506973267 0
0.84632295370101929 0.30117067694664001 0
0.87562757730484009 0.3079860508441925 0
0.90341252088546753 0.3146902322769165 0
0.93035322427749634 0.32230213284492493 0
0.95502126216888428 0.32986199855804443 0
0.97964000701904297 0.33776921033859253 0
0.99838417768478394 0.34574288129806519 0
0.99997860193252563 0.35329100489616394 0
0.99990558624267578 0.3610558807849884 0
1 0.36871472001075745 0
0.99999582767486572 0.3772512674331665 0
0 0.22248071432113647 0.045128863304853439
0 0.22122441232204437 0.048550475388765335
0 0.21761277318000793 0.052282147109508514
0 0.21270011365413666 0.057327538728713989
0.0018407506868243217 0.20968917012214661 0.059817448258399963
0.025258991867303848 0.21580708026885986 0.053881388157606125
0.069013640284538269 0.22403094172477722 0.044250804930925369
0.11394453793764114 0.23379030823707581 0.031360629945993423
0.16286106407642365 0.24482747912406921 0.015031668357551098
0.21663443744182587 0.257497638463974 0.0017624637112021446
0.27787137031555176 0.27122059464454651 0
0.34248042106628418 0.28518477082252502 0
0.39902886748313904 0.2950727641582489 0
0.45458739995956421 0.30256772041320801 0
0.50970864295959473 0.3085382878780365 0
0.56192553043365479 0.31221717596054077 0
0.61195522546768188 0.31500419974327087 0
0.65823930501937866 0.31754651665687561 0
0.69996446371078491 0.3208489716053009 0
0.73940032720565796 0.3254331648349762 0
0.77555286884307861 0.33046054840087891 0
0.80874121189117432 0.33562594652175903 0
0.84026175737380981 0.34056618809700012 0
0.86977475881576538 0.34642237424850464 0
0.8974037766456604 0.35225677490234375 0
0.92441797256469727 0.3585803210735321 0
0.94982606172561646 0.36523312330245972 0
0.97475945949554443 0.37191608548164368 0
0.99619799852371216 0.37835970520973206 0
0.99994003772735596 0.38501903414726257 0
0.99999582767486572 0.39164802432060242 0
1 0.39778399467468262 0
1 0.40539279580116272 0
0 0.25879696011543274 0.051409676671028137
0 0.25833782553672791 0.05502830445766449
0 0.25463041663169861 0.058624912053346634
0 0.25026804208755493 0.063908077776432037
0 0.24488067626953125 0.069838337600231171
0.0049720997922122478 0.24739734828472137 0.067531861364841461
0.045189414173364639 0.25601056218147278 0.058786671608686447
0.096270538866519928 0.26564440131187439 0.046711679548025131
0.1464373916387558 0.27685645222663879 0.030057786032557487
0.19925740361213684 0.28879067301750183 0.010273071937263012
0.2564200758934021 0.30130788683891296 0.0004099598154425621
0.32145228981971741 0.31572383642196655 0
0.38802632689476013 0.33041861653327942 0
0.445302814245224 0.33980530500411987 0
0.50002491474151611 0.34725433588027954 0
0.55181187391281128 0.35247859358787537 0
0.60173147916793823 0.35630491375923157 0
0.64853817224502563 0.35926404595375061 0
0.69160717725753784 0.36163300275802612 0
0.73153513669967651 0.36422032117843628 0
0.76747608184814453 0.36839208006858826 0
0.8012460470199585 0.37307599186897278 0
0.83285564184188843 0.37757870554924011 0
0.86267459392547607 0.38308173418045044 0
0.89098316431045532 0.38826027512550354 0
0.91799712181091309 0.39363417029380798 0
0.94357854127883911 0.39907139539718628 0
0.96860527992248535 0.40464705228805542 0
0.99201029539108276 0.41029244661331177 0
1 0.41528922319412231 0
0.99990558624267578 0.42074263095855713 0
1 0.42593255639076233 0
1 0.43209531903266907 0
0 0.29969042539596558 0.060052055865526199
0 0.29927438497543335 0.063760191202163696
0 0.29607048630714417 0.067563444375991821
0 0.29165822267532349 0.072687804698944092
0 0.28595489263534546 0.078724220395088196
3.51060698449146e-05 0.28201484680175781 0.082332119345664978
0.016948360949754715 0.28850477933883667 0.075329996645450592
0.073529332876205444 0.29736700654029846 0.06455259770154953
0.12783145904541016 0.30774909257888794 0.049708545207977295
0.1803470104932785 0.3187565803527832 0.028982477262616158
0.23531396687030792 0.33061522245407104 0.0064232046715915203
0.29596376419067383 0.34358224272727966 4.2129275243496522e-05
0.36107355356216431 0.35785338282585144 0
0.42938724160194397 0.37297213077545166 0
0.48822951316833496 0.38299521803855896 0
0.5399782657623291 0.39021152257919312 0
0.59056907892227173 0.39561271667480469 0
0.63746684789657593 0.39981362223625183 0
0.68091011047363281 0.40281513333320618 0
0.72196179628372192 0.4057239294052124 0
0.75967526435852051 0.40814405679702759 0
0.79393607378005981 0.41100853681564331 0
0.82599949836730957 0.4150162935256958 0
0.85584890842437744 0.4196312427520752 0
0.8843274712562561 0.42392405867576599 0
0.91203212738037109 0.42869830131530762 0
0.93798130750656128 0.43364244699478149 0
0.96331155300140381 0.43819859623908997 0
0.98780953884124756 0.44282656908035278 0
0.99982517957687378 0.44692310690879822 0
1 0.451417475938797 0
0.99995285272598267 0.45543333888053894 0
0.99998295307159424 0.46124294400215149 0
0 0.33759912848472595 0.069138474762439728
0 0.33822458982467651 0.073471054434776306
0 0.33493703603744507 0.076986454427242279
0 0.33058029413223267 0.081842444837093353
0 0.32454395294189453 0.08739490807056427
0 0.31810122728347778 0.093960508704185486
0.0018579213647171855 0.31964635848999023 0.091930687427520752
0.044640500098466873 0.32769522070884705 0.082259900867938995
0.10771045833826065 0.33765468001365662 0.070112690329551697
0.16244110465049744 0.34880048036575317 0.052448239177465439
0.21705740690231323 0.36033666133880615 0.027765369042754173
0.27548101544380188 0.37281110882759094 0.0040034414269030094
0.33645576238632202 0.3860851526260376 7.9438659668085165e-06
0.40192914009094238 0.39955741167068481 0
0.47184455394744873 0.41524696350097656 0
0.52874410152435303 0.42470955848693848 0
0.57880562543869019 0.4312414824962616 0
0.62584716081619263 0.43622347712516785 0
0.6693846583366394 0.44024062156677246 0
0.71027696132659912 0.4434865415096283 0
0.74835002422332764 0.44593381881713867 0
0.78369104862213135 0.44818538427352905 0
0.81720811128616333 0.4498944878578186 0
0.8480951189994812 0.45312434434890747 0
0.87706881761550903 0.45706477761268616 0
0.90495383739471436 0.46099427342414856 0
0.93088126182556152 0.46473512053489685 0
0.95694535970687866 0.46879959106445312 0
0.98185145854949951 0.47254091501235962 0
0.99896776676177979 0.47618621587753296 0
1 0.47969222068786621 0
0.99991852045059204 0.48329022526741028 0
0.99998760223388672 0.48752444982528687 0
0 0.37605142593383789 0.08031134307384491
0 0.37587907910346985 0.083771482110023499
0 0.37283268570899963 0.087040260434150696
0 0.36872988939285278 0.09180944412946701
0 0.36328509449958801 0.097603753209114075
0 0.35650768876075745 0.1040089875459671
0 0.35198879241943359 0.10844460874795914
0.015747400000691414 0.35843703150749207 0.10134708136320114
0.084217622876167297 0.36762472987174988 0.090417370200157166
0.14383131265640259 0.37783658504486084 0.076249063014984131
0.19891366362571716 0.38883623480796814 0.056671008467674255
0.25549301505088806 0.40071150660514832 0.027230501174926758
0.31433576345443726 0.41321775317192078 0.003434664336964488
0.37609478831291199 0.42599979043006897 8.5102004732107162e-07
0.44194543361663818 0.43919876217842102 0
0.50937682390213013 0.45407950878143311 0
0.56685405969619751 0.46387636661529541 0
0.6139225959777832 0.46981480717658997 0
0.65752273797988892 0.47458875179290771 0
0.69844990968704224 0.47851043939590454 0
0.73683124780654907 0.48155432939529419 0
0.77281171083450317 0.48411577939987183 0
0.80734652280807495 0.4859749972820282 0
0.83934110403060913 0.48777905106544495 0
0.86897867918014526 0.48895508050918579 0
0.89733076095581055 0.49194535613059998 0
0.92433804273605347 0.49514812231063843 0
0.95025134086608887 0.49830847978591919 0
0.97540146112442017 0.50150728225708008 0
0.99665087461471558 0.5043489933013916 0
1 0.50731468200683594 0
0.99998718500137329 0.50970524549484253 0
0.99999541044235229 0.51354050636291504 0
0 0.41196855902671814 0.092052556574344635
0 0.41285932064056396 0.095541417598724365
0 0.41004684567451477 0.099069163203239441
0 0.40658068656921387 0.1036704033613205
0 0.40076395869255066 0.10822159051895142
0 0.39441829919815063 0.11414886265993118
0 0.38684827089309692 0.12108060717582703
0.001429402269423008 0.38788694143295288 0.12007301300764084
0.054287616163492203 0.39605671167373657 0.11014852672815323
0.12352016568183899 0.40585917234420776 0.098691202700138092
0.18015608191490173 0.41593542695045471 0.083399251103401184
0.23684859275817871 0.42742404341697693 0.061722863465547562
0.29322105646133423 0.43913471698760986 0.029976166784763336
0.35249239206314087 0.45151671767234802 0.0036967056803405285
0.41486519575119019 0.4639224112033844 0
0.47845178842544556 0.47669076919555664 0
0.54530251026153564 0.49126744270324707 0
0.60133481025695801 0.50050818920135498 0
0.64588439464569092 0.50661242008209229 0
0.68753147125244141 0.51132416725158691 0
0.72625982761383057 0.5150420069694519 0
0.76246440410614014 0.51805573701858521 0
0.79746925830841064 0.52030462026596069 0
0.82960933446884155 0.52178210020065308 0
0.86039161682128906 0.52305048704147339 0
0.89022678136825562 0.52391338348388672 0
0.91764998435974121 0.52523332834243774 0
0.94399183988571167 0.52762353420257568 0
0.9698786735534668 0.53016555309295654 0
0.99366307258605957 0.53261619806289673 0
1 0.53481858968734741 0
1 0.53702551126480103 0
1 0.54026150703430176 0
0 0.44743859767913818 0.10515686869621277
0 0.44826188683509827 0.10877478867769241
0 0.44563040137290955 0.11162438243627548
0 0.44185182452201843 0.11563269793987274
0 0.43711000680923462 0.12039946019649506
0 0.43091201782226562 0.12571562826633453
0 0.4234660267829895 0.13217039406299591
0 0.41794696450233459 0.1366085559129715
0.025664426386356354 0.42421749234199524 0.12980562448501587
0.10285378992557526 0.43324679136276245 0.12031970173120499
0.16331435739994049 0.4430815577507019 0.1078622117638588
0.22023893892765045 0.4537041187286377 0.091399997472763062
0.2754790186882019 0.46470603346824646 0.06890299916267395
0.33263832330703735 0.47623297572135925 0.03599809855222702
0.39260819554328918 0.48842960596084595 0.0053169308230280876
0.45228579640388489 0.49930283427238464 7.6601581895374693e-06
0.51481634378433228 0.51120704412460327 0
0.57892990112304688 0.52533876895904541 0
0.63319849967956543 0.53483259677886963 0
0.67558079957962036 0.53977274894714355 0
0.71517157554626465 0.54453778266906738 0
0.75205540657043457 0.54824817180633545 0
0.78733187913894653 0.55106985569000244 0
0.81986284255981445 0.55313593149185181 0
0.85105085372924805 0.55417007207870483 0
0.88119298219680786 0.55521488189697266 0
0.90919071435928345 0.55543637275695801 0
0.93693500757217407 0.55574172735214233 0
0.96329057216644287 0.55658876895904541 0
0.98833668231964111 0.55890917778015137 0
