Textures/79.cube
# Created by: G'MIC (https://gmic.eu)
TITLE "Kodak_Portra_400_2.cube"
# LUT size
LUT_3D_SIZE 5
# Data domain
DOMAIN_MIN 0.0 0.0 0.0
DOMAIN_MAX 1.0 1.0 1.0
# LUT data points
0.017961727455258369 0.019121337682008743 0.018628336489200592
0.22323587536811829 0.011177139356732368 0.012552728876471519
0.62891250848770142 0 0
0.92549705505371094 0 0
0.99999380111694336 0.21344450116157532 0
0 0.18767537176609039 0.039556089788675308
0.179217129945755 0.21498203277587891 0.0059319757856428623
0.61910408735275269 0.27202734351158142 0
0.90341252088546753 0.3146902322769165 0
0.99999582767486572 0.3772512674331665 0
0 0.48183849453926086 0.11969739943742752
0.0076232003048062325 0.45152485370635986 0.14966060221195221
0.48917672038078308 0.5326007604598999 0.00013326217595022172
0.84184545278549194 0.58368921279907227 0
1 0.58961337804794312 0
0 0.7150876522064209 0.28651434183120728
0.073052726686000824 0.69656741619110107 0.30059203505516052
0.42391195893287659 0.70098960399627686 0.29141697287559509
0.74119198322296143 0.75185346603393555 0.19123396277427673
0.99987781047821045 0.78761965036392212 0
0.50994974374771118 0.93555521965026855 0.62845331430435181
0.55411136150360107 0.93155384063720703 0.64028584957122803
0.65316355228424072 0.92163252830505371 0.6712878942489624
0.77153068780899048 0.94635295867919922 0.65458214282989502
0.94951337575912476 0.97117328643798828 0.61008328199386597
4.6808086153760087e-06 0.022404741495847702 0.23523855209350586
0.29495665431022644 0 0.28471922874450684
0.66986525058746338 0 0.2872655987739563
0.93847131729125977 0 0.24713657796382904
0.99998295307159424 0.19775395095348358 0.22659139335155487
0 0.26071065664291382 0.26265838742256165
0.2529357373714447 0.26877087354660034 0.27088892459869385
0.65233230590820312 0.26701876521110535 0.25511693954467773
0.91419535875320435 0.30075150728225708 0.2269885390996933
0.99999582767486572 0.36925393342971802 0.19643938541412354
0 0.56614983081817627 0.32954725623130798
0.17452113330364227 0.52921152114868164 0.31405866146087646
0.52819269895553589 0.55800455808639526 0.28072959184646606
0.8524671196937561 0.58360433578491211 0.15741020441055298
0.99995285272598267 0.58508402109146118 0.045202393084764481
0 0.74346572160720825 0.39766287803649902
0.2193676233291626 0.72627723217010498 0.40441656112670898
0.4533991813659668 0.7062256932258606 0.40539687871932983
0.74691462516784668 0.75797832012176514 0.35597720742225647
0.99986058473587036 0.78767448663711548 0.25218361616134644
0.51620453596115112 0.94177842140197754 0.65134406089782715
0.56032317876815796 0.93731176853179932 0.66119009256362915
0.65852928161621094 0.92550748586654663 0.68854820728302002
0.77570855617523193 0.94575232267379761 0.68225491046905518
0.95048725605010986 0.97156625986099243 0.64510858058929443
0 0.023503493517637253 0.59537166357040405
0.34578883647918701 0 0.63433390855789185
0.76960325241088867 0 0.69913786649703979
0.95032984018325806 0 0.66560149192810059
1 0.20296534895896912 0.61749124526977539
0 0.27966898679733276 0.56625914573669434
0.28289330005645752 0.28672537207603455 0.61196500062942505
0.73231774568557739 0.32566559314727783 0.6829686164855957
0.92478775978088379 0.34009453654289246 0.65593433380126953
1 0.40692251920700073 0.61301857233047485
0 0.61961281299591064 0.61754059791564941
0.22836056351661682 0.62172508239746094 0.62140923738479614
0.61869561672210693 0.62284713983535767 0.62783700227737427
0.8572993278503418 0.61673867702484131 0.61016404628753662
0.99995285272598267 0.61598217487335205 0.59029245376586914
0.34307479858398438 0.81155413389205933 0.64857673645019531
0.45739233493804932 0.799591064453125 0.64885872602462769
0.55977743864059448 0.75333869457244873 0.6126524806022644
0.76580917835235596 0.77521514892578125 0.60124087333679199
0.99988210201263428 0.78686833381652832 0.54378741979598999
0.55547171831130981 0.95930391550064087 0.72665619850158691
0.57356470823287964 0.95610570907592773 0.72085791826248169
0.66533178091049194 0.94324421882629395 0.73316651582717896
0.78502112627029419 0.94432663917541504 0.74805313348770142
0.95504027605056763 0.97337710857391357 0.72441869974136353
0.2542097270488739 0.10987161844968796 0.82288074493408203
0.45356941223144531 0.093194775283336639 0.83526384830474854
0.75210165977478027 0.13166680932044983 0.86679118871688843
0.97890579700469971 0.28360089659690857 0.89151901006698608
1 0.3651677668094635 0.85105156898498535
0.17844165861606598 0.318359375 0.80728793144226074
0.41408571600914001 0.33157289028167725 0.82061374187469482
0.7204434871673584 0.39277544617652893 0.85462713241577148
0.95173078775405884 0.48462954163551331 0.88391637802124023
1 0.50487464666366577 0.8501434326171875
0 0.55359816551208496 0.73925352096557617
0.22143635153770447 0.56286060810089111 0.75485324859619141
0.62716591358184814 0.61383676528930664 0.81226640939712524
0.90123981237411499 0.69179350137710571 0.86571162939071655
0.99999934434890747 0.6827055811882019 0.84931385517120361
0.26082730293273926 0.81838768720626831 0.81564861536026001
0.40010809898376465 0.81799346208572388 0.81665319204330444
0.61770045757293701 0.81789439916610718 0.81907731294631958
0.83105409145355225 0.82408684492111206 0.82759469747543335
0.99956721067428589 0.81955689191818237 0.81707054376602173
0.54608452320098877 0.99281275272369385 0.84965282678604126
0.59778380393981934 0.98933583498001099 0.85098540782928467
0.71295446157455444 0.97888755798339844 0.85342633724212646
0.80878192186355591 0.95717138051986694 0.84048163890838623
0.96580368280410767 0.97726559638977051 0.83894282579421997
0.54365193843841553 0.40976709127426147 0.99329006671905518
0.61056017875671387 0.4169275164604187 0.99437987804412842
0.75717800855636597 0.44509270787239075 0.99733418226242065
0.93233269453048706 0.511363685131073 0.99979883432388306
0.99995285272598267 0.56823521852493286 0.99995285272598267
0.53315860033035278 0.51696956157684326 0.98776811361312866
0.60019522905349731 0.52431952953338623 0.98954129219055176
0.74589848518371582 0.54785096645355225 0.99360984563827515
0.92066365480422974 0.60064905881881714 0.99858540296554565
1 0.64016401767730713 0.99988913536071777
0.48784747719764709 0.66828185319900513 0.97277992963790894
0.54411429166793823 0.66260600090026855 0.97691011428833008
0.71053427457809448 0.68277639150619507 0.98284608125686646
0.89680790901184082 0.72544032335281372 0.99191534519195557
0.99999141693115234 0.76194411516189575 0.99794143438339233
0.38477638363838196 0.81086999177932739 0.96449500322341919
0.44558665156364441 0.80813682079315186 0.96408361196517944
0.58448153734207153 0.799510657787323 0.96209275722503662
0.84300011396408081 0.82941806316375732 0.98185557126998901
0.99999541044235229 0.88806861639022827 0.99485957622528076
0.48456799983978271 0.99080795049667358 0.98849630355834961
0.537830650806427 0.99092197418212891 0.98855918645858765
0.66529005765914917 0.9898342490196228 0.9886583685874939
0.82634669542312622 0.98916512727737427 0.98897361755371094
0.99106436967849731 0.9909517765045166 0.99099868535995483
