Textures/8.cube
# Created by: G'MIC (https://gmic.eu)
TITLE "CrispWarm.cube"
# LUT size
LUT_3D_SIZE 33
# Data domain
DOMAIN_MIN 0.0 0.0 0.0
DOMAIN_MAX 1.0 1.0 1.0
# LUT data points
0 0 0
0 0 0
0 0 0
0 0 0
0.018300542607903481 0 0
0.060784503817558289 0 0
0.10555548220872879 0 0
0.14803929626941681 0 0
0.19215689599514008 0 0
0.23578429222106934 0 0
0.27916684746742249 0 0
0.32352933287620544 0 0
0.36601337790489197 0 0
0.41053909063339233 0 0
0.45375829935073853 0 0
0.49697732925415039 0 0
0.54117649793624878 0 0
0.58398711681365967 0 0
0.62818628549575806 0 0
0.67156893014907837 0 0
0.71568620204925537 0 0
0.75882381200790405 0 0
0.80228763818740845 0 0
0.846568763256073 0 0
0.88921588659286499 0 0
0.93349671363830566 0 0
0.97679752111434937 0 0
0.99983662366867065 0 0
1 0 0
1 0 0
1 0 0
1 0 0
1 0 0
0 0 0
0 0 0
0 0 0
0 0 0
0.01830054447054863 0 0
0.060784503817558289 0 0
0.10555548220872879 0 0
0.14803929626941681 0 0
0.19215689599514008 0 0
0.23578429222106934 0 0
0.27916684746742249 0 0
0.32352933287620544 0 0
0.36601334810256958 0 0
0.41053915023803711 0 0
0.45375829935073853 0 0
0.49697738885879517 0 0
0.54117649793624878 0 0
0.58398711681365967 0 0
0.62818628549575806 0 0
0.67156898975372314 0 0
0.71568620204925537 0 0
0.75882381200790405 0 0
0.80228763818740845 0 0
0.846568763256073 0 0
0.88921588659286499 0 0
0.93349671363830566 0 0
0.97679752111434937 0 0
0.99983662366867065 0 0
1 0 0
1 0 0
1 0 0
1 0 0
1 0 0
0 0 0
0 0 0
0 0 0
0 0 0
0.01830054447054863 0 0
0.060784511268138885 0 0
0.10555548220872879 0 0
0.14803929626941681 0 0
0.19215689599514008 0 0
0.23578429222106934 0 0
0.27916684746742249 0 0
0.32352933287620544 0 0
0.36601334810256958 0 0
0.41053915023803711 0 0
0.45375829935073853 0 0
0.49697738885879517 0 0
0.54117649793624878 0 0
0.58398711681365967 0 0
0.62818628549575806 0 0
0.67156893014907837 0 0
0.71568620204925537 0 0
0.75882381200790405 0 0
0.80228763818740845 0 0
0.846568763256073 0 0
0.88921588659286499 0 0
0.93349671363830566 0 0
0.97679752111434937 0 0
0.99983662366867065 0 0
1 0 0
1 0 0
1 0 0
1 0 0
1 0 0
0 0 0
0 0 0
0 0 0
0 0 0
0.018300542607903481 0 0
0.060784503817558289 0 0
0.10555548220872879 0 0
0.14803929626941681 0 0
0.19215689599514008 0 0
0.23578429222106934 0 0
0.27916684746742249 0 0
0.32352933287620544 0 0
0.36601337790489197 0 0
0.41053909063339233 0 0
0.45375829935073853 0 0
0.49697732925415039 0 0
0.54117649793624878 0 0
0.58398711681365967 0 0
0.62818628549575806 0 0
0.67156893014907837 0 0
0.71568620204925537 0 0
0.75882381200790405 0 0
0.80228763818740845 0 0
0.846568763256073 0 0
0.88921588659286499 0 0
0.93349671363830566 0 0
0.97679752111434937 0 0
0.99983662366867065 0 0
1 0 0
1 0 0
1 0 0
1 0 0
1 0 0
0 0.015768000856041908 0
0 0.015768000856041908 0
0 0.015768000856041908 0
0 0.015768000856041908 0
0.018300542607903481 0.015768000856041908 0
0.060784503817558289 0.015768000856041908 0
0.10555548220872879 0.015768000856041908 0
0.14803929626941681 0.015768000856041908 0
0.19215689599514008 0.015768000856041908 0
0.23578429222106934 0.015768000856041908 0
0.27916684746742249 0.015768000856041908 0
0.32352933287620544 0.015768000856041908 0
0.36601334810256958 0.015768000856041908 0
0.41053915023803711 0.015768000856041908 0
0.45375829935073853 0.015768000856041908 0
0.49697738885879517 0.015768000856041908 0
0.54117649793624878 0.015768000856041908 0
0.58398711681365967 0.015768000856041908 0
0.62818628549575806 0.015768000856041908 0
0.67156898975372314 0.015768000856041908 0
0.71568620204925537 0.015768000856041908 0
0.75882387161254883 0.015768000856041908 0
0.80228763818740845 0.015768000856041908 0
0.846568763256073 0.015768000856041908 0
0.88921588659286499 0.015768000856041908 0
0.93349671363830566 0.015768000856041908 0
0.97679752111434937 0.015768000856041908 0
0.99983662366867065 0.015768000856041908 0
1 0.015768000856041908 0
1 0.015768000856041908 0
1 0.015768000856041908 0
1 0.015768000856041908 0
1 0.015768000856041908 0
0 0.054003443568944931 0
0 0.054003443568944931 0
0 0.054003443568944931 0
0 0.054003443568944931 0
0.018300542607903481 0.054003443568944931 0
0.060784503817558289 0.054003443568944931 0
0.10555548220872879 0.054003443568944931 0
0.14803929626941681 0.054003443568944931 0
0.19215689599514008 0.054003443568944931 0
0.23578429222106934 0.054003443568944931 0
0.27916684746742249 0.054003443568944931 0
0.32352933287620544 0.054003443568944931 0
0.36601334810256958 0.054003443568944931 0
0.41053915023803711 0.054003443568944931 0
0.45375829935073853 0.054003443568944931 0
0.49697738885879517 0.054003443568944931 0
0.54117649793624878 0.054003443568944931 0
0.58398711681365967 0.054003443568944931 0
0.62818628549575806 0.054003443568944931 0
0.67156893014907837 0.054003443568944931 0
0.71568620204925537 0.054003443568944931 0
0.75882381200790405 0.054003443568944931 0
0.80228763818740845 0.054003443568944931 0
0.846568763256073 0.054003443568944931 0
0.88921588659286499 0.054003443568944931 0
0.93349671363830566 0.054003443568944931 0
0.97679752111434937 0.054003443568944931 0
0.99983662366867065 0.054003443568944931 0
1 0.054003443568944931 0
1 0.054003443568944931 0
1 0.054003443568944931 0
1 0.054003443568944931 0
1 0.054003443568944931 0
0 0.093627564609050751 0
0 0.093627564609050751 0
0 0.093627564609050751 0
0 0.093627564609050751 0
0.018300542607903481 0.093627564609050751 0
0.060784503817558289 0.093627564609050751 0
0.10555548220872879 0.093627564609050751 0
0.14803929626941681 0.093627564609050751 0
0.19215689599514008 0.093627564609050751 0
0.23578429222106934 0.093627564609050751 0
0.27916684746742249 0.093627564609050751 0
0.32352933287620544 0.093627564609050751 0
0.36601337790489197 0.093627564609050751 0
0.41053915023803711 0.093627564609050751 0
0.45375829935073853 0.093627564609050751 0
0.49697732925415039 0.093627564609050751 0
0.54117649793624878 0.093627564609050751 0
0.58398711681365967 0.093627564609050751 0
0.62818628549575806 0.093627564609050751 0
0.67156893014907837 0.093627564609050751 0
0.71568620204925537 0.093627564609050751 0
0.75882381200790405 0.093627564609050751 0
0.80228763818740845 0.093627564609050751 0
0.846568763256073 0.093627564609050751 0
0.88921588659286499 0.093627564609050751 0
0.93349671363830566 0.093627564609050751 0
0.97679752111434937 0.093627564609050751 0
0.99983662366867065 0.093627564609050751 0
1 0.093627564609050751 0
1 0.093627564609050751 0
1 0.093627564609050751 0
1 0.093627564609050751 0
1 0.093627564609050751 0
0 0.13186295330524445 0
0 0.13186295330524445 0
0 0.13186295330524445 0
0 0.13186295330524445 0
0.018300542607903481 0.13186295330524445 0
0.060784503817558289 0.13186293840408325 0
0.10555548220872879 0.13186295330524445 0
0.14803929626941681 0.13186295330524445 0
0.19215689599514008 0.13186293840408325 0
0.23578429222106934 0.13186295330524445 0
0.27916684746742249 0.13186293840408325 0
0.32352933287620544 0.13186295330524445 0
0.36601337790489197 0.13186295330524445 0
0.41053915023803711 0.13186295330524445 0
0.45375829935073853 0.13186295330524445 0
0.49697738885879517 0.13186295330524445 0
0.54117649793624878 0.13186293840408325 0
0.58398711681365967 0.13186295330524445 0
0.62818628549575806 0.13186295330524445 0
0.67156898975372314 0.13186293840408325 0
0.71568620204925537 0.13186295330524445 0
0.75882387161254883 0.13186293840408325 0
0.80228763818740845 0.13186295330524445 0
0.846568763256073 0.13186295330524445 0
0.88921588659286499 0.13186295330524445 0
0.93349671363830566 0.13186295330524445 0
0.97679752111434937 0.13186295330524445 0
0.99983662366867065 0.13186293840408325 0
1 0.13186295330524445 0
1 0.13186295330524445 0
1 0.13186293840408325 0
1 0.13186295330524445 0
1 0.13186293840408325 0
0 0.17148721218109131 0
0 0.17148721218109131 0
0 0.17148721218109131 0
0 0.17148721218109131 0
0.018300542607903481 0.17148721218109131 0
0.060784503817558289 0.17148721218109131 0
0.10555547475814819 0.17148721218109131 0
0.14803929626941681 0.17148721218109131 0
0.19215689599514008 0.17148721218109131 0
0.23578429222106934 0.17148721218109131 0
0.27916684746742249 0.17148721218109131 0
0.32352933287620544 0.17148721218109131 0
0.36601334810256958 0.17148721218109131 0
0.41053915023803711 0.17148721218109131 0
0.45375829935073853 0.17148721218109131 0
0.49697732925415039 0.17148721218109131 0
0.54117649793624878 0.17148721218109131 0
0.58398711681365967 0.17148721218109131 0
0.62818628549575806 0.17148721218109131 0
0.67156893014907837 0.17148721218109131 0
0.71568620204925537 0.17148721218109131 0
0.75882381200790405 0.17148721218109131 0
0.80228763818740845 0.17148721218109131 0
0.846568763256073 0.17148721218109131 0
0.88921588659286499 0.17148721218109131 0
0.93349671363830566 0.17148721218109131 0
0.97679752111434937 0.17148721218109131 0
0.99983662366867065 0.17148721218109131 0
1 0.17148721218109131 0
1 0.17148721218109131 0
1 0.17148721218109131 0
1 0.17148721218109131 0
1 0.17148721218109131 0
0 0.20988576114177704 0
0 0.20988576114177704 0
0 0.20988574624061584 0
0 0.20988576114177704 0
0.018300542607903481 0.20988574624061584 0
0.060784511268138885 0.20988574624061584 0
0.10555547475814819 0.20988576114177704 0
0.14803929626941681 0.20988574624061584 0
0.19215689599514008 0.20988576114177704 0
0.23578429222106934 0.20988576114177704 0
0.27916684746742249 0.20988574624061584 0
0.32352933287620544 0.20988576114177704 0
0.36601337790489197 0.20988576114177704 0
0.41053915023803711 0.20988574624061584 0
0.45375829935073853 0.20988576114177704 0
0.49697738885879517 0.20988574624061584 0
0.54117649793624878 0.20988574624061584 0
0.58398711681365967 0.20988576114177704 0
0.62818628549575806 0.20988574624061584 0
0.67156898975372314 0.20988576114177704 0
0.71568620204925537 0.20988576114177704 0
0.75882387161254883 0.20988574624061584 0
0.80228763818740845 0.20988576114177704 0
0.846568763256073 0.20988576114177704 0
0.88921588659286499 0.20988574624061584 0
0.93349671363830566 0.20988576114177704 0
0.97679752111434937 0.20988574624061584 0
0.99983662366867065 0.20988574624061584 0
1 0.20988576114177704 0
1 0.20988574624061584 0
1 0.20988576114177704 0
1 0.20988576114177704 0
1 0.20988574624061584 0
0 0.24812091886997223 0
0 0.24812091886997223 0
0 0.24812091886997223 0
0 0.24812091886997223 0
0.018300542607903481 0.24812091886997223 0
0.060784503817558289 0.24812091886997223 0
0.10555547475814819 0.24812091886997223 0
0.14803929626941681 0.24812091886997223 0
0.19215689599514008 0.24812091886997223 0
0.23578429222106934 0.24812091886997223 0
0.27916684746742249 0.24812091886997223 0
0.32352933287620544 0.24812091886997223 0
0.36601337790489197 0.24812091886997223 0
0.41053915023803711 0.24812091886997223 0
0.45375829935073853 0.24812091886997223 0
0.49697738885879517 0.24812091886997223 0
0.54117649793624878 0.24812091886997223 0
0.58398711681365967 0.24812091886997223 0
0.62818628549575806 0.24812091886997223 0
0.67156898975372314 0.24812091886997223 0
0.71568620204925537 0.24812091886997223 0
0.75882387161254883 0.24812091886997223 0
0.80228763818740845 0.24812091886997223 0
0.846568763256073 0.24812091886997223 0
0.88921588659286499 0.24812091886997223 0
0.93349671363830566 0.24812091886997223 0
0.97679752111434937 0.24812091886997223 0
0.99983662366867065 0.24812091886997223 0
1 0.24812091886997223 0
1 0.24812091886997223 0
1 0.24812091886997223 0
1 0.24812091886997223 0
1 0.24812091886997223 0
0 0.28823527693748474 0
0 0.28823527693748474 0
0 0.28823527693748474 0
0 0.28823527693748474 0
0.018300542607903481 0.28823527693748474 0
0.060784503817558289 0.28823527693748474 0
0.10555548220872879 0.28823527693748474 0
0.14803929626941681 0.28823527693748474 0
0.19215689599514008 0.28823527693748474 0
0.23578429222106934 0.28823527693748474 0
0.27916684746742249 0.28823527693748474 0
0.32352933287620544 0.28823527693748474 0
0.36601337790489197 0.28823527693748474 0
0.41053909063339233 0.28823527693748474 0
0.45375829935073853 0.28823527693748474 0
0.49697732925415039 0.28823527693748474 0
0.54117649793624878 0.28823527693748474 0
0.58398711681365967 0.28823527693748474 0
0.62818628549575806 0.28823527693748474 0
0.67156893014907837 0.28823527693748474 0
0.71568620204925537 0.28823527693748474 0
0.75882381200790405 0.28823527693748474 0
0.80228763818740845 0.28823527693748474 0
0.846568763256073 0.28823527693748474 0
0.88921588659286499 0.28823527693748474 0
0.93349671363830566 0.28823527693748474 0
0.97679752111434937 0.28823527693748474 0
0.99983662366867065 0.28823527693748474 0
1 0.28823527693748474 0
1 0.28823527693748474 0
1 0.28823527693748474 0
1 0.28823527693748474 0
1 0.28823527693748474 0
0 0.32647046446800232 0
0 0.32647046446800232 0
0 0.32647046446800232 0
0 0.32647046446800232 0
0.01830054447054863 0.32647046446800232 0
0.060784503817558289 0.32647046446800232 0
0.10555548220872879 0.32647046446800232 0
0.14803929626941681 0.32647046446800232 0
0.19215689599514008 0.32647046446800232 0
0.23578429222106934 0.32647046446800232 0
0.27916684746742249 0.32647046446800232 0
0.32352933287620544 0.32647046446800232 0
0.36601334810256958 0.32647046446800232 0
0.41053915023803711 0.32647046446800232 0
0.45375829935073853 0.32647046446800232 0
0.49697738885879517 0.32647046446800232 0
0.54117649793624878 0.32647046446800232 0
0.58398711681365967 0.32647046446800232 0
0.62818628549575806 0.32647046446800232 0
0.67156898975372314 0.32647046446800232 0
0.71568620204925537 0.32647046446800232 0
0.75882381200790405 0.32647046446800232 0
0.80228763818740845 0.32647046446800232 0
0.846568763256073 0.32647046446800232 0
0.88921588659286499 0.32647046446800232 0
0.93349671363830566 0.32647046446800232 0
0.97679752111434937 0.32647046446800232 0
0.99983662366867065 0.32647046446800232 0
1 0.32647046446800232 0
1 0.32647046446800232 0
1 0.32647046446800232 0
1 0.32647046446800232 0
1 0.32647046446800232 0
0 0.36576783657073975 0
0 0.36576783657073975 0
0 0.36576783657073975 0
0 0.36576783657073975 0
0.01830054447054863 0.36576783657073975 0
0.060784511268138885 0.36576783657073975 0
0.10555548220872879 0.36576783657073975 0
0.14803929626941681 0.36576783657073975 0
0.19215689599514008 0.36576783657073975 0
0.23578429222106934 0.36576783657073975 0
0.27916684746742249 0.36576783657073975 0
0.32352933287620544 0.36576783657073975 0
0.36601334810256958 0.36576783657073975 0
0.41053915023803711 0.36576783657073975 0
0.45375829935073853 0.36576783657073975 0
0.49697738885879517 0.36576783657073975 0
0.54117649793624878 0.36576783657073975 0
0.58398711681365967 0.36576783657073975 0
0.62818628549575806 0.36576783657073975 0
0.67156893014907837 0.36576783657073975 0
0.71568620204925537 0.36576783657073975 0
0.75882381200790405 0.36576783657073975 0
0.80228763818740845 0.36576783657073975 0
0.846568763256073 0.36576783657073975 0
0.88921588659286499 0.36576783657073975 0
0.93349671363830566 0.36576783657073975 0
0.97679752111434937 0.36576783657073975 0
0.99983662366867065 0.36576783657073975 0
1 0.36576783657073975 0
1 0.36576783657073975 0
1 0.36576783657073975 0
1 0.36576783657073975 0
1 0.36576783657073975 0
0 0.40449324250221252 0
0 0.40449321269989014 0
0 0.40449321269989014 0
0 0.40449321269989014 0
0.018300542607903481 0.40449324250221252 0
0.060784503817558289 0.40449324250221252 0
0.10555548220872879 0.40449321269989014 0
0.14803929626941681 0.40449324250221252 0
0.19215689599514008 0.40449324250221252 0
0.23578429222106934 0.40449321269989014 0
0.27916684746742249 0.40449321269989014 0
0.32352933287620544 0.40449324250221252 0
0.36601337790489197 0.40449321269989014 0
0.41053909063339233 0.40449321269989014 0
0.45375829935073853 0.40449321269989014 0
0.49697732925415039 0.40449324250221252 0
0.54117649793624878 0.40449324250221252 0
0.58398711681365967 0.40449321269989014 0
0.62818628549575806 0.40449324250221252 0
0.67156893014907837 0.40449324250221252 0
0.71568620204925537 0.40449321269989014 0
0.75882381200790405 0.40449321269989014 0
0.80228763818740845 0.40449324250221252 0
0.846568763256073 0.40449321269989014 0
0.88921588659286499 0.40449321269989014 0
0.93349671363830566 0.40449321269989014 0
0.97679752111434937 0.40449324250221252 0
0.99983662366867065 0.40449324250221252 0
1 0.40449321269989014 0
1 0.40449324250221252 0
1 0.40449324250221252 0
1 0.40449321269989014 0
1 0.40449321269989014 0
0 0.44272878766059875 0
0 0.44272878766059875 0
0 0.44272878766059875 0
0 0.44272878766059875 0
0.018300542607903481 0.44272878766059875 0
0.060784503817558289 0.44272878766059875 0
0.10555548220872879 0.44272878766059875 0
0.14803929626941681 0.44272878766059875 0
0.19215689599514008 0.44272878766059875 0
0.23578429222106934 0.44272878766059875 0
0.27916684746742249 0.44272878766059875 0
0.32352933287620544 0.44272878766059875 0
0.36601334810256958 0.44272878766059875 0
0.41053915023803711 0.44272878766059875 0
0.45375829935073853 0.44272878766059875 0
0.49697738885879517 0.44272878766059875 0
0.54117649793624878 0.44272878766059875 0
0.58398711681365967 0.44272878766059875 0
0.62818628549575806 0.44272878766059875 0
0.67156898975372314 0.44272878766059875 0
0.71568620204925537 0.44272878766059875 0
0.75882387161254883 0.44272878766059875 0
0.80228763818740845 0.44272878766059875 0
0.846568763256073 0.44272878766059875 0
0.88921588659286499 0.44272878766059875 0
0.93349671363830566 0.44272878766059875 0
0.97679752111434937 0.44272878766059875 0
0.99983662366867065 0.44272878766059875 0
1 0.44272878766059875 0
1 0.44272878766059875 0
1 0.44272878766059875 0
1 0.44272878766059875 0
1 0.44272878766059875 0
0 0.4823530912399292 0
0 0.4823530912399292 0
0 0.4823530912399292 0
0 0.4823530912399292 0
0.018300542607903481 0.4823530912399292 0
0.060784503817558289 0.4823530912399292 0
0.10555548220872879 0.4823530912399292 0
0.14803929626941681 0.4823530912399292 0
0.19215689599514008 0.4823530912399292 0
0.23578429222106934 0.4823530912399292 0
0.27916684746742249 0.4823530912399292 0
0.32352933287620544 0.4823530912399292 0
0.36601334810256958 0.4823530912399292 0
0.41053915023803711 0.4823530912399292 0
0.45375829935073853 0.4823530912399292 0
0.49697738885879517 0.4823530912399292 0
0.54117649793624878 0.4823530912399292 0
0.58398711681365967 0.4823530912399292 0
0.62818628549575806 0.4823530912399292 0
0.67156893014907837 0.4823530912399292 0
0.71568620204925537 0.4823530912399292 0
0.75882381200790405 0.4823530912399292 0
0.80228763818740845 0.4823530912399292 0
0.846568763256073 0.4823530912399292 0
0.88921588659286499 0.4823530912399292 0
0.93349671363830566 0.4823530912399292 0
0.97679752111434937 0.4823530912399292 0
0.99983662366867065 0.4823530912399292 0
1 0.4823530912399292 0
1 0.4823530912399292 0
1 0.4823530912399292 0
1 0.4823530912399292 0
1 0.4823530912399292 0
0 0.52107834815979004 0
0 0.52107840776443481 0
0 0.52107840776443481 0
0 0.52107834815979004 0
0.018300542607903481 0.52107840776443481 0
0.060784503817558289 0.52107840776443481 0
0.10555548220872879 0.52107834815979004 0
0.14803929626941681 0.52107840776443481 0
0.19215689599514008 0.52107834815979004 0
0.23578429222106934 0.52107834815979004 0
0.27916684746742249 0.52107834815979004 0
0.32352933287620544 0.52107834815979004 0
0.36601337790489197 0.52107840776443481 0
0.41053915023803711 0.52107840776443481 0
0.45375829935073853 0.52107834815979004 0
0.49697732925415039 0.52107840776443481 0
0.54117649793624878 0.52107840776443481 0
0.58398711681365967 0.52107834815979004 0
0.62818628549575806 0.52107840776443481 0
0.67156893014907837 0.52107834815979004 0
0.71568620204925537 0.52107834815979004 0
0.75882381200790405 0.52107834815979004 0
0.80228763818740845 0.52107834815979004 0
0.846568763256073 0.52107840776443481 0
0.88921588659286499 0.52107840776443481 0
0.93349671363830566 0.52107834815979004 0
0.97679752111434937 0.52107840776443481 0
0.99983662366867065 0.52107840776443481 0
1 0.52107834815979004 0
1 0.52107840776443481 0
1 0.52107834815979004 0
1 0.52107834815979004 0
1 0.52107834815979004 0
0 0.56021255254745483 0
0 0.56021261215209961 0
0 0.56021255254745483 0
0 0.56021255254745483 0
0.018300542607903481 0.56021261215209961 0
0.060784503817558289 0.56021255254745483 0
0.10555548220872879 0.56021255254745483 0
0.14803929626941681 0.56021255254745483 0
0.19215689599514008 0.56021249294281006 0
0.23578429222106934 0.56021261215209961 0
0.27916684746742249 0.56021249294281006 0
0.32352933287620544 0.56021255254745483 0
0.36601337790489197 0.56021261215209961 0
0.41053915023803711 0.56021255254745483 0
0.45375829935073853 0.56021255254745483 0
0.49697738885879517 0.56021261215209961 0
0.54117649793624878 0.56021255254745483 0
0.58398711681365967 0.56021255254745483 0
0.62818628549575806 0.56021255254745483 0
0.67156898975372314 0.56021249294281006 0
0.71568620204925537 0.56021261215209961 0
0.75882387161254883 0.56021249294281006 0
0.80228763818740845 0.56021255254745483 0
0.846568763256073 0.56021261215209961 0
0.88921588659286499 0.56021255254745483 0
0.93349671363830566 0.56021255254745483 0
0.97679752111434937 0.56021261215209961 0
0.99983662366867065 0.56021255254745483 0
1 0.56021255254745483 0
1 0.56021255254745483 0
1 0.56021249294281006 0
1 0.56021261215209961 0
1 0.56021249294281006 0
0 0.59893816709518433 0
0 0.59893816709518433 0
0 0.59893810749053955 0
0 0.59893816709518433 0
0.018300542607903481 0.59893816709518433 0
0.060784503817558289 0.59893810749053955 0
0.10555547475814819 0.59893816709518433 0
0.14803929626941681 0.59893816709518433 0
0.19215689599514008 0.59893810749053955 0
0.23578429222106934 0.59893816709518433 0
0.27916684746742249 0.59893816709518433 0
0.32352933287620544 0.59893816709518433 0
0.36601334810256958 0.59893816709518433 0
0.41053915023803711 0.59893810749053955 0
0.45375829935073853 0.59893816709518433 0
0.49697732925415039 0.59893816709518433 0
0.54117649793624878 0.59893810749053955 0
0.58398711681365967 0.59893816709518433 0
0.62818628549575806 0.59893816709518433 0
0.67156893014907837 0.59893810749053955 0
0.71568620204925537 0.59893816709518433 0
0.75882381200790405 0.59893816709518433 0
0.80228763818740845 0.59893816709518433 0
0.846568763256073 0.59893816709518433 0
0.88921588659286499 0.59893810749053955 0
0.93349671363830566 0.59893816709518433 0
0.97679752111434937 0.59893816709518433 0
0.99983662366867065 0.59893810749053955 0
1 0.59893816709518433 0
1 0.59893816709518433 0
1 0.59893810749053955 0
1 0.59893816709518433 0
1 0.59893816709518433 0
0 0.63733679056167603 0
0 0.63733679056167603 0
0 0.63733679056167603 0
0 0.63733679056167603 0
0.018300542607903481 0.63733679056167603 0
0.060784511268138885 0.63733679056167603 0
0.10555547475814819 0.63733679056167603 0
0.14803929626941681 0.63733679056167603 0
0.19215689599514008 0.63733679056167603 0
0.23578429222106934 0.63733679056167603 0
0.27916684746742249 0.63733679056167603 0
0.32352933287620544 0.63733679056167603 0
0.36601337790489197 0.63733679056167603 0
0.41053915023803711 0.63733679056167603 0
0.45375829935073853 0.63733679056167603 0
0.49697738885879517 0.63733679056167603 0
0.54117649793624878 0.63733679056167603 0
0.58398711681365967 0.63733679056167603 0
0.62818628549575806 0.63733679056167603 0
0.67156898975372314 0.63733679056167603 0
0.71568620204925537 0.63733679056167603 0
0.75882387161254883 0.63733679056167603 0
0.80228763818740845 0.63733679056167603 0
0.846568763256073 0.63733679056167603 0
0.88921588659286499 0.63733679056167603 0
0.93349671363830566 0.63733679056167603 0
0.97679752111434937 0.63733679056167603 0
0.99983662366867065 0.63733679056167603 0
1 0.63733679056167603 0
1 0.63733679056167603 0
1 0.63733679056167603 0
1 0.63733679056167603 0
1 0.63733679056167603 0
0 0.67647075653076172 0
0 0.67647075653076172 0
0 0.67647075653076172 0
0 0.67647075653076172 0
0.018300542607903481 0.67647075653076172 0
0.060784503817558289 0.67647075653076172 0
0.10555547475814819 0.67647075653076172 0
0.14803929626941681 0.67647075653076172 0
0.19215689599514008 0.67647075653076172 0
0.23578429222106934 0.67647075653076172 0
0.27916684746742249 0.67647075653076172 0
0.32352933287620544 0.67647075653076172 0
