Textures/8.cube
# Created by: G'MIC (https://gmic.eu)
TITLE "CrispWarm.cube"
# LUT size
LUT_3D_SIZE 5
# Data domain
DOMAIN_MIN 0.0 0.0 0.0
DOMAIN_MAX 1.0 1.0 1.0
# LUT data points
0 0 0
0.19215689599514008 0 0
0.54117649793624878 0 0
0.88921588659286499 0 0
1 0 0
0 0.17148721218109131 0
0.19215689599514008 0.17148721218109131 0
0.54117649793624878 0.17148721218109131 0
0.88921588659286499 0.17148721218109131 0
1 0.17148721218109131 0
0 0.4823530912399292 0
0.19215689599514008 0.4823530912399292 0
0.54117649793624878 0.4823530912399292 0
0.88921588659286499 0.4823530912399292 0
1 0.4823530912399292 0
0 0.79321897029876709 0
0.19215689599514008 0.79321897029876709 0
0.54117649793624878 0.79321897029876709 0
0.88921588659286499 0.79321897029876709 0
1 0.79321897029876709 0
0 1 0
0.19215689599514008 1 0
0.54117649793624878 1 0
0.88921588659286499 1 0
1 1 0
0 0 0.14983648061752319
0.19215689599514008 0 0.14983648061752319
0.54117649793624878 0 0.14983648061752319
0.88921588659286499 0 0.14983648061752319
1 0 0.14983648061752319
0 0.17148721218109131 0.14983648061752319
0.19215689599514008 0.17148721218109131 0.14983648061752319
0.54117649793624878 0.17148721218109131 0.14983648061752319
0.88921588659286499 0.17148719727993011 0.14983648061752319
1 0.17148721218109131 0.14983648061752319
0 0.4823530912399292 0.14983648061752319
0.19215689599514008 0.4823530912399292 0.14983648061752319
0.54117649793624878 0.4823530912399292 0.14983648061752319
0.88921588659286499 0.4823530912399292 0.14983648061752319
1 0.4823530912399292 0.14983648061752319
0 0.79321897029876709 0.14983648061752319
0.19215689599514008 0.79321897029876709 0.14983648061752319
0.54117649793624878 0.79321897029876709 0.14983648061752319
0.88921588659286499 0.79321897029876709 0.14983648061752319
1 0.79321897029876709 0.14983648061752319
0 1 0.14983648061752319
0.19215689599514008 1 0.14983648061752319
0.54117649793624878 1 0.14983648061752319
0.88921588659286499 1 0.14983648061752319
1 1 0.14983648061752319
0 0 0.42352953553199768
0.19215689599514008 0 0.42352953553199768
0.54117649793624878 0 0.42352953553199768
0.88921588659286499 0 0.42352953553199768
1 0 0.42352953553199768
0 0.17148721218109131 0.42352953553199768
0.19215689599514008 0.17148721218109131 0.42352953553199768
0.54117649793624878 0.17148721218109131 0.42352953553199768
0.88921588659286499 0.17148719727993011 0.42352953553199768
1 0.17148721218109131 0.42352953553199768
0 0.4823530912399292 0.42352953553199768
0.19215689599514008 0.4823530912399292 0.42352953553199768
0.54117649793624878 0.4823530912399292 0.42352953553199768
0.88921588659286499 0.4823530912399292 0.42352953553199768
1 0.4823530912399292 0.42352953553199768
0 0.79321897029876709 0.42352953553199768
0.19215689599514008 0.79321897029876709 0.42352953553199768
0.54117649793624878 0.79321897029876709 0.42352953553199768
0.88921588659286499 0.79321897029876709 0.42352953553199768
1 0.79321897029876709 0.42352953553199768
0 1 0.42352953553199768
0.19215689599514008 1 0.42352953553199768
0.54117649793624878 1 0.42352953553199768
0.88921588659286499 1 0.42352953553199768
1 1 0.42352953553199768
0 0 0.69722247123718262
0.19215689599514008 0 0.69722247123718262
0.54117649793624878 0 0.69722247123718262
0.88921588659286499 0 0.69722247123718262
1 0 0.69722247123718262
0 0.17148721218109131 0.69722247123718262
0.19215689599514008 0.17148721218109131 0.69722247123718262
0.54117649793624878 0.17148721218109131 0.69722247123718262
0.88921588659286499 0.17148718237876892 0.69722247123718262
1 0.17148721218109131 0.69722247123718262
0 0.4823530912399292 0.69722247123718262
0.19215689599514008 0.4823530912399292 0.69722247123718262
0.54117649793624878 0.4823530912399292 0.69722247123718262
0.88921588659286499 0.4823530912399292 0.69722247123718262
1 0.4823530912399292 0.69722247123718262
0 0.79321897029876709 0.69722247123718262
0.19215689599514008 0.79321897029876709 0.69722247123718262
0.54117649793624878 0.79321897029876709 0.69722247123718262
0.88921588659286499 0.79321897029876709 0.69722247123718262
1 0.79321897029876709 0.69722247123718262
0 1 0.69722247123718262
0.19215689599514008 1 0.69722247123718262
0.54117649793624878 1 0.69722247123718262
0.88921588659286499 1 0.69722247123718262
1 1 0.69722247123718262
0 0 0.96699351072311401
0.19215689599514008 0 0.96699351072311401
0.54117649793624878 0 0.96699351072311401
0.88921588659286499 0 0.96699351072311401
1 0 0.96699351072311401
0 0.17148721218109131 0.96699351072311401
0.19215689599514008 0.17148721218109131 0.96699351072311401
0.54117649793624878 0.17148721218109131 0.96699351072311401
0.88921588659286499 0.17148721218109131 0.96699351072311401
1 0.17148721218109131 0.96699351072311401
0 0.4823530912399292 0.96699351072311401
0.19215689599514008 0.4823530912399292 0.96699351072311401
0.54117649793624878 0.4823530912399292 0.96699351072311401
0.88921588659286499 0.4823530912399292 0.96699351072311401
1 0.4823530912399292 0.96699351072311401
0 0.79321897029876709 0.96699351072311401
0.19215689599514008 0.79321897029876709 0.96699351072311401
0.54117649793624878 0.79321897029876709 0.96699351072311401
0.88921588659286499 0.79321897029876709 0.96699351072311401
1 0.79321897029876709 0.96699351072311401
0 1 0.96699351072311401
0.19215689599514008 1 0.96699351072311401
0.54117649793624878 1 0.96699351072311401
0.88921588659286499 1 0.96699351072311401
1 1 0.96699351072311401
