Textures/80.cube
# Created by: G'MIC (https://gmic.eu)
TITLE "Kodak_Portra_400_NC_2.cube"
# LUT size
LUT_3D_SIZE 5
# Data domain
DOMAIN_MIN 0.0 0.0 0.0
DOMAIN_MAX 1.0 1.0 1.0
# LUT data points
0.036940623074769974 0.046247974038124084 0.049088567495346069
0.15279275178909302 0.055940918624401093 0.045992039144039154
0.50042122602462769 0.052388839423656464 0.011492424644529819
0.80100405216217041 0.073081411421298981 0
0.99164152145385742 0.19063152372837067 0.0036985911428928375
0.00025390752125531435 0.18189023435115814 0.070641294121742249
0.17386618256568909 0.21448728442192078 0.02736806683242321
0.62504976987838745 0.27260416746139526 0
0.83538919687271118 0.26779559254646301 0
0.99819481372833252 0.30962911248207092 0
0 0.52232366800308228 0.19630374014377594
0.22259359061717987 0.51969510316848755 0.19854232668876648
0.52983337640762329 0.56649285554885864 0.0079957349225878716
0.83695399761199951 0.56867039203643799 0
1 0.52237087488174438 0
0.38106098771095276 0.73906528949737549 0.42732858657836914
0.42940148711204529 0.73491036891937256 0.42856678366661072
0.53338843584060669 0.7434769868850708 0.39620450139045715
0.72697556018829346 0.76883667707443237 0.27744179964065552
0.97789132595062256 0.78044223785400391 0.16835922002792358
0.69601303339004517 0.90629547834396362 0.71380901336669922
0.71080178022384644 0.90631228685379028 0.71620994806289673
0.75017327070236206 0.90649992227554321 0.72251653671264648
0.80725020170211792 0.92564070224761963 0.69723409414291382
0.92213916778564453 0.95080643892288208 0.64965999126434326
0.0055801542475819588 0.044835802167654037 0.19326011836528778
0.19450651109218597 0.031229374930262566 0.20574966073036194
0.55246549844741821 0 0.205037921667099
0.78393381834030151 0.058463938534259796 0.2243921160697937
0.97541409730911255 0.21656200289726257 0.24521127343177795
0 0.22614607214927673 0.23649755120277405
0.23372140526771545 0.24794439971446991 0.26124799251556396
0.60039496421813965 0.25411123037338257 0.25054776668548584
0.81626600027084351 0.26681306958198547 0.23366478085517883
0.98882460594177246 0.3277687132358551 0.24981890618801117
0.22628776729106903 0.56205838918685913 0.37332004308700562
0.34001860022544861 0.55428659915924072 0.37301743030548096
0.55643540620803833 0.57655638456344604 0.29976511001586914
0.84143966436386108 0.55887365341186523 0.22751472890377045
0.99964815378189087 0.5325237512588501 0.2443801611661911
0.44877392053604126 0.74939632415771484 0.50918793678283691
0.4860871434211731 0.74590069055557251 0.50971436500549316
0.56821614503860474 0.74480360746383667 0.49203154444694519
0.73623621463775635 0.77038848400115967 0.41201302409172058
0.97473514080047607 0.77964162826538086 0.35040849447250366
0.70717275142669678 0.90841507911682129 0.73366355895996094
0.72073787450790405 0.90850037336349487 0.73609966039657593
0.75794875621795654 0.90752178430557251 0.74093168973922729
0.81302952766418457 0.92494630813598633 0.72191548347473145
0.92469328641891479 0.95070815086364746 0.67847025394439697
0 0.054338932037353516 0.54578137397766113
0.26302513480186462 0.028144696727395058 0.5528150200843811
0.62991654872894287 4.2056064557982609e-05 0.57084482908248901
0.84937846660614014 0.14256718754768372 0.50801509618759155
0.99053877592086792 0.28156301379203796 0.48487788438796997
0 0.29033166170120239 0.57059955596923828
0.2662871778011322 0.28390523791313171 0.58359420299530029
0.63905328512191772 0.31982442736625671 0.58799409866333008
0.83594256639480591 0.37320861220359802 0.53828483819961548
0.97556889057159424 0.39303433895111084 0.50623464584350586
0.25846186280250549 0.59448981285095215 0.58797895908355713
0.41967347264289856 0.60096323490142822 0.59663182497024536
0.61975628137588501 0.60623210668563843 0.60524773597717285
0.79342836141586304 0.58279174566268921 0.56738108396530151
0.95735377073287964 0.58019477128982544 0.54337596893310547
0.56246602535247803 0.77567553520202637 0.66146153211593628
0.59861558675765991 0.77437698841094971 0.66620832681655884
0.64586848020553589 0.76176059246063232 0.65012961626052856
0.7599799633026123 0.77644699811935425 0.60859096050262451
0.97160059213638306 0.7753480076789856 0.57482278347015381
0.72990143299102783 0.916800856590271 0.78314888477325439
0.74165445566177368 0.91627770662307739 0.78386849164962769
0.77431011199951172 0.91476541757583618 0.78495585918426514
0.82716083526611328 0.92437756061553955 0.77865689992904663
0.93175047636032104 0.95197850465774536 0.74369925260543823
7.6310170697979629e-05 0.1531909853219986 0.77938336133956909
0.31436976790428162 0.16279160976409912 0.7805023193359375
0.61960148811340332 0.21827475726604462 0.77953767776489258
0.84744900465011597 0.32949453592300415 0.77952450513839722
0.97965502738952637 0.45402967929840088 0.73590588569641113
0.10467351227998734 0.33130073547363281 0.78089612722396851
0.3556915819644928 0.34644809365272522 0.78172290325164795
0.62909471988677979 0.39757496118545532 0.78104841709136963
0.83761566877365112 0.46757417917251587 0.78225362300872803
0.96955347061157227 0.54324090480804443 0.74658387899398804
0.22791458666324615 0.58553630113601685 0.76033610105514526
0.38971763849258423 0.59220999479293823 0.76479160785675049
0.61460328102111816 0.60616689920425415 0.77574759721755981
0.81395560503005981 0.65027296543121338 0.78421425819396973
0.95238882303237915 0.68093627691268921 0.76658207178115845
0.53325372934341431 0.78957319259643555 0.78312116861343384
0.57736998796463013 0.79067939519882202 0.78543341159820557
0.67833000421524048 0.79163068532943726 0.78988403081893921
0.8057371973991394 0.79620456695556641 0.79919135570526123
0.94143396615982056 0.77597939968109131 0.76867717504501343
0.76400607824325562 0.93050050735473633 0.86251318454742432
0.7763708233833313 0.93111956119537354 0.86337953805923462
0.80972194671630859 0.93201726675033569 0.86483544111251831
0.85308259725570679 0.93081784248352051 0.85791623592376709
0.94509929418563843 0.95504742860794067 0.83594107627868652
0.46616712212562561 0.44148194789886475 0.94511628150939941
0.53671365976333618 0.45802593231201172 0.94389450550079346
0.68243241310119629 0.50234854221343994 0.94021445512771606
0.84548908472061157 0.57900321483612061 0.93557852506637573
0.98467475175857544 0.63546884059906006 0.93508440256118774
0.49386149644851685 0.52910947799682617 0.94347304105758667
0.55569088459014893 0.54122030735015869 0.94273358583450317
0.68839257955551147 0.57308578491210938 0.93959939479827881
0.84407293796539307 0.63047808408737183 0.93527978658676147
0.98045307397842407 0.67312556505203247 0.9351692795753479
0.51832133531570435 0.67414450645446777 0.9371107816696167
0.55812662839889526 0.670379638671875 0.93868708610534668
0.67954224348068237 0.68238222599029541 0.93760424852371216
0.8366931676864624 0.71632236242294312 0.93599045276641846
0.97452259063720703 0.7455066442489624 0.93876928091049194
0.54095786809921265 0.81197267770767212 0.93668431043624878
0.56678509712219238 0.8103172779083252 0.93718600273132324
0.64154684543609619 0.80312520265579224 0.93772399425506592
0.81469500064849854 0.80734992027282715 0.94403517246246338
0.97406840324401855 0.83812499046325684 0.95030272006988525
0.73687797784805298 0.95346462726593018 0.95459210872650146
0.75063979625701904 0.95365262031555176 0.95540285110473633
0.79295790195465088 0.95524638891220093 0.95706111192703247
0.86711955070495605 0.95755529403686523 0.96088844537734985
0.97085064649581909 0.96405279636383057 0.96832233667373657
