Textures/80.cube
# Created by: G'MIC (https://gmic.eu)
TITLE "Kodak_Portra_400_NC_2.cube"
# LUT size
LUT_3D_SIZE 33
# Data domain
DOMAIN_MIN 0.0 0.0 0.0
DOMAIN_MAX 1.0 1.0 1.0
# LUT data points
0.036940623074769974 0.046247974038124084 0.049088567495346069
0.038423873484134674 0.046566162258386612 0.049375079572200775
0.041168086230754852 0.046700380742549896 0.049476943910121918
0.047053426504135132 0.047151587903499603 0.049201108515262604
0.057509787380695343 0.047890126705169678 0.049325726926326752
0.074540197849273682 0.049122072756290436 0.048914205282926559
0.098431259393692017 0.051460795104503632 0.048760578036308289
0.12424995750188828 0.053449194878339767 0.047534368932247162
0.15279275178909302 0.055940918624401093 0.045992039144039154
0.18403027951717377 0.059002824127674103 0.044733241200447083
0.21928402781486511 0.062153521925210953 0.042336728423833847
0.25900140404701233 0.063923507928848267 0.039245445281267166
0.30221682786941528 0.064963765442371368 0.035252977162599564
0.34971678256988525 0.064781278371810913 0.0309430081397295
0.39975693821907043 0.062140468508005142 0.025216491892933846
0.45038533210754395 0.057997394353151321 0.018870344385504723
0.50042122602462769 0.052388839423656464 0.011492424644529819
0.54831552505493164 0.045938238501548767 0.0050135008059442043
0.59576088190078735 0.039626870304346085 0.00085634028073400259
0.64482235908508301 0.036518823355436325 1.5604023246851284e-06
0.68456357717514038 0.037259574979543686 0
0.7179601788520813 0.042777571827173233 0
0.74706250429153442 0.051235675811767578 0
0.7739679217338562 0.061355952173471451 0
0.80100405216217041 0.073081411421298981 0
0.82746046781539917 0.085871629416942596 0
0.85304266214370728 0.099347181618213654 0
0.87770992517471313 0.11335866898298264 0
0.90159112215042114 0.12775106728076935 0
0.92442494630813599 0.14159040153026581 0
0.9471551775932312 0.15729287266731262 0
0.96893662214279175 0.17218105494976044 1.092281672754325e-05
0.99164152145385742 0.19063152372837067 0.0036985911428928375
0.037449557334184647 0.04770781472325325 0.049579046666622162
0.038509737700223923 0.048158701509237289 0.049641981720924377
0.042307049036026001 0.048917006701231003 0.049522958695888519
0.049670122563838959 0.049994993954896927 0.048974718898534775
0.061976257711648941 0.052035652101039886 0.049082934856414795
0.07972041517496109 0.053844697773456573 0.048305720090866089
0.10325349122285843 0.057112015783786774 0.047702550888061523
0.12897175550460815 0.060151185840368271 0.0464000403881073
0.15819169580936432 0.063877947628498077 0.045034881681203842
0.18990375101566315 0.067054413259029388 0.042981259524822235
0.22501698136329651 0.070482440292835236 0.040299739688634872
0.26520073413848877 0.073036804795265198 0.03704824298620224
0.30872535705566406 0.07474248856306076 0.032964818179607391
0.35603985190391541 0.075029119849205017 0.028294490650296211
0.4055182933807373 0.073368430137634277 0.022155420854687691
0.45496284961700439 0.07077016681432724 0.015926428139209747
0.50401479005813599 0.066733099520206451 0.0088487537577748299
0.55177730321884155 0.062664233148097992 0.0029703401960432529
0.60003983974456787 0.058615561574697495 0.00020958563254680485
0.64726650714874268 0.057053495198488235 0
0.68658459186553955 0.058797109872102737 0
0.71956408023834229 0.063636831939220428 0
0.74771767854690552 0.070325970649719238 0
0.77476930618286133 0.078713372349739075 0
0.80194908380508423 0.088636122643947601 0
0.82826340198516846 0.09949135035276413 0
0.85314446687698364 0.11113909631967545 0
0.87769973278045654 0.12396363914012909 0
0.90170276165008545 0.13742759823799133 0
0.92455238103866577 0.15068981051445007 0
0.94704246520996094 0.1647641658782959 0
0.96859633922576904 0.17911422252655029 0
0.99117749929428101 0.19638164341449738 0.0023119503166526556
0.036817669868469238 0.050771672278642654 0.050238225609064102
0.038504447788000107 0.051655635237693787 0.05018986389040947
0.041947193443775177 0.053174160420894623 0.049688715487718582
0.050668478012084961 0.05574449896812439 0.049065560102462769
0.065552733838558197 0.058535881340503693 0.047885946929454803
0.087433919310569763 0.06226758286356926 0.046828102320432663
0.11182622611522675 0.066441357135772705 0.046131260693073273
0.13771216571331024 0.069740332663059235 0.044434990733861923
0.16624733805656433 0.073797255754470825 0.042747888714075089
0.19801108539104462 0.077687129378318787 0.040496464818716049
0.23387067019939423 0.081511944532394409 0.037987269461154938
0.27391660213470459 0.084395237267017365 0.03397715836763382
0.31740888953208923 0.086546055972576141 0.02968369796872139
0.36444371938705444 0.087684720754623413 0.024842977523803711
0.4134553074836731 0.087170124053955078 0.018737941980361938
0.46201080083847046 0.08552134782075882 0.012225206010043621
0.51069998741149902 0.083065859973430634 0.0053763575851917267
0.55799186229705811 0.080394022166728973 0.001113851903937757
0.60742676258087158 0.078690864145755768 4.42586861026939e-05
0.65266227722167969 0.078941591084003448 0
0.69058132171630859 0.080974198877811432 0
0.72197192907333374 0.084855638444423676 0
0.75061208009719849 0.090637765824794769 0
0.7776721715927124 0.09777088463306427 0
0.80450767278671265 0.10629229247570038 0
0.83018100261688232 0.11536438018083572 0
0.85530132055282593 0.1262117475271225 0
0.87947928905487061 0.13720788061618805 0
0.90299469232559204 0.14932627975940704 0
0.924918532371521 0.16124871373176575 0
0.94725823402404785 0.17415697872638702 0
0.96888434886932373 0.18781076371669769 0
0.99136346578598022 0.20456606149673462 0.0017829799326136708
0.035919696092605591 0.058694988489151001 0.051091335713863373
0.038358554244041443 0.059538740664720535 0.051125694066286087
0.041965920478105545 0.061417832970619202 0.050393637269735336
0.05080128088593483 0.064726002514362335 0.049025602638721466
0.068201825022697449 0.071458272635936737 0.046725369989871979
0.09287203848361969 0.078028380870819092 0.045169129967689514
0.12099359929561615 0.082277379930019379 0.042932614684104919
0.14969635009765625 0.08562672883272171 0.041243165731430054
0.1789783239364624 0.089333541691303253 0.039153087884187698
0.21088866889476776 0.093549497425556183 0.036518353968858719
0.24707350134849548 0.097304150462150574 0.033425837755203247
0.28797033429145813 0.10083902627229691 0.029202502220869064
0.33196055889129639 0.10345301777124405 0.024678535759449005
0.37901198863983154 0.10496193915605545 0.019181055948138237
0.42850559949874878 0.10510644316673279 0.012452957220375538
0.47718682885169983 0.10481700301170349 0.0057801981456577778
0.52513700723648071 0.103936567902565 0.001312524895183742
0.57392507791519165 0.1033795177936554 2.6810550480149686e-05
0.62271636724472046 0.10371492803096771 0
0.66520935297012329 0.10490075498819351 0
0.70074045658111572 0.10783462226390839 0
0.73073440790176392 0.11137436330318451 0
0.75817859172821045 0.11573459208011627 0
0.78381526470184326 0.12144336104393005 0
0.81009435653686523 0.12870965898036957 0
0.83583313226699829 0.13697117567062378 0
0.86030054092407227 0.14594447612762451 0
0.88408476114273071 0.15600663423538208 0
0.90791881084442139 0.16697791218757629 0
0.93007969856262207 0.17828868329524994 0
0.95171797275543213 0.18994314968585968 0
0.97309809923171997 0.20254959166049957 0
0.99454468488693237 0.21877048909664154 0.0019916754681617022
0.03274085745215416 0.071365050971508026 0.05192125216126442
0.036380067467689514 0.071877531707286835 0.052054688334465027
0.041548650711774826 0.074101932346820831 0.051425062119960785
0.050138860940933228 0.07846367359161377 0.049558404833078384
0.065269477665424347 0.083940073847770691 0.046971708536148071
0.090094640851020813 0.093497507274150848 0.04351353645324707
0.12017809599637985 0.10146090388298035 0.040135856717824936
0.15198107063770294 0.10596460103988647 0.037018410861492157
0.18836717307567596 0.10977673530578613 0.033831305801868439
0.22469767928123474 0.1136133223772049 0.030555158853530884
0.26195898652076721 0.11747261136770248 0.026973627507686615
0.3031013011932373 0.12078278511762619 0.022386305034160614
0.34738558530807495 0.12384180724620819 0.017409685999155045
0.39411133527755737 0.12630167603492737 0.011336224153637886
0.44265970587730408 0.12760700285434723 0.0053048552945256233
0.48922166228294373 0.12777295708656311 0.0010433058487251401
0.53695815801620483 0.12854625284671783 5.2415332902455702e-05
0.58806502819061279 0.12964390218257904 0
0.63337188959121704 0.13077959418296814 0
0.67276626825332642 0.13250678777694702 0
0.70592236518859863 0.1348913162946701 0
0.73440217971801758 0.13760107755661011 0
0.76116859912872314 0.14134924113750458 0
0.7872002124786377 0.14590658247470856 0
0.81333398818969727 0.15193304419517517 0
0.83828055858612061 0.15881095826625824 0
0.8621441125869751 0.16640718281269073 0
0.8858799934387207 0.17529122531414032 0
0.90869539976119995 0.18470756709575653 0
0.93077200651168823 0.19476945698261261 0
0.95196646451950073 0.2048785388469696 0
0.97338396310806274 0.21667255461215973 0
0.99444365501403809 0.23145654797554016 0.00071852520341053605
0.025549402460455894 0.094061084091663361 0.053061086684465408
0.03117402084171772 0.09444737434387207 0.05341334268450737
0.038671892136335373 0.09492945671081543 0.053215596824884415
0.049235798418521881 0.099013417959213257 0.050811521708965302
0.06446392834186554 0.10426193475723267 0.047475222498178482
0.086339682340621948 0.11106159538030624 0.043560750782489777
0.11758480966091156 0.12240592390298843 0.037401102483272552
0.15336321294307709 0.13187375664710999 0.031597994267940521
0.19085393846035004 0.13713806867599487 0.027693040668964386
0.23231995105743408 0.14086972177028656 0.022997938096523285
0.27723675966262817 0.14348481595516205 0.017477592453360558
0.32215911149978638 0.14661958813667297 0.01246093213558197
0.3665197491645813 0.14943963289260864 0.0068078353069722652
0.41239845752716064 0.15229476988315582 0.0023826328106224537
0.45958128571510315 0.15422670543193817 0.00030239063198678195
0.50703912973403931 0.15560466051101685 7.9438659668085165e-06
0.55830413103103638 0.15801355242729187 0
0.60597246885299683 0.16011472046375275 0
0.64706099033355713 0.1616283655166626 0
0.68316388130187988 0.16316105425357819 0
0.71439164876937866 0.16512016952037811 0
0.74184143543243408 0.16731622815132141 0
0.76798057556152344 0.17014046013355255 0
0.79296457767486572 0.1736488938331604 0
0.81831133365631104 0.17843769490718842 0
0.84270584583282471 0.1840863972902298 0
0.86616730690002441 0.19079181551933289 0
0.8891756534576416 0.19790820777416229 0
0.91175872087478638 0.20615901052951813 0
0.93313807249069214 0.21475392580032349 0
0.95422130823135376 0.22369959950447083 0
0.97514539957046509 0.23409193754196167 0
0.99554073810577393 0.24785551428794861 0.00038460805080831051
0.016003457829356194 0.12041154503822327 0.055438980460166931
0.023474996909499168 0.12126887589693069 0.055717486888170242
0.033150598406791687 0.12050165235996246 0.056384898722171783
0.046134836971759796 0.12311408668756485 0.054717201739549637
0.062100429087877274 0.12786917388439178 0.050270590931177139
0.083543524146080017 0.13385598361492157 0.045179992914199829
0.11067495495080948 0.14146849513053894 0.039003007113933563
0.14665549993515015 0.15308322012424469 0.029902227222919464
0.19021347165107727 0.16580325365066528 0.020483458414673805
0.2334798276424408 0.17186453938484192 0.014490522444248199
0.28164389729499817 0.17698487639427185 0.0079247830435633659
0.33481404185295105 0.17989926040172577 0.0019921818748116493
0.38681089878082275 0.18176871538162231 0.00020277552539482713
0.43490716814994812 0.18413159251213074 0
0.48487821221351624 0.1871941089630127 0
0.53592485189437866 0.19081255793571472 0
0.58356016874313354 0.19334349036216736 0
0.62577211856842041 0.1947014182806015 0
0.66291534900665283 0.19605784118175507 0
0.69582408666610718 0.19701790809631348 0
0.72440403699874878 0.19782494008541107 0
0.75029683113098145 0.19883756339550018 0
0.77556616067886353 0.20065435767173767 0
0.79984325170516968 0.20349019765853882 0
0.82396203279495239 0.20694310963153839 0
0.84796279668807983 0.21143446862697601 0
0.87077641487121582 0.21667468547821045 0
0.89329612255096436 0.22306022047996521 0
0.91553997993469238 0.2299438863992691 0
0.93681371212005615 0.23748353123664856 0
0.95776224136352539 0.24566712975502014 0
0.97814834117889404 0.25463974475860596 0
0.99713671207427979 0.26785311102867126 0.00015876296674832702
0.0064708278514444828 0.14733795821666718 0.060771666467189789
0.01537039689719677 0.14874681830406189 0.061780307441949844
0.027228886261582375 0.14769177138805389 0.062285814434289932
0.041882697492837906 0.1480867862701416 0.061538361012935638
0.058625336736440659 0.15243178606033325 0.057386156171560287
0.080128006637096405 0.15856654942035675 0.051253985613584518
0.10680794715881348 0.16596698760986328 0.043331578373908997
0.13866129517555237 0.17457200586795807 0.033563815057277679
0.18073496222496033 0.18820132315158844 0.020182283595204353
0.23347052931785583 0.20461644232273102 0.0059144864790141582
0.2830348014831543 0.21195520460605621 0.00082242192002013326
0.33707955479621887 0.21733033657073975 7.8020120781729929e-06
0.39536291360855103 0.22186072170734406 0
0.45717918872833252 0.22499099373817444 0
0.51488810777664185 0.22728145122528076 0
0.56155908107757568 0.22902171313762665 0
0.60380691289901733 0.23044206202030182 0
0.64204716682434082 0.23112720251083374 0
0.6752815842628479 0.2311016172170639 0
0.70505207777023315 0.23078803718090057 0
0.73166185617446899 0.23053741455078125 0
0.75690227746963501 0.23079206049442291 0
0.78133362531661987 0.23148904740810394 0
0.80523532629013062 0.23323109745979309 0
0.82871454954147339 0.23600520193576813 0
0.85187137126922607 0.23950867354869843 0
0.87418419122695923 0.24359209835529327 0
0.89619350433349609 0.24868588149547577 0
0.91797453165054321 0.25411346554756165 0
0.93837922811508179 0.26037010550498962 0
0.95911365747451782 0.26737245917320251 0
0.97938579320907593 0.27555942535400391 0
0.99742555618286133 0.28681468963623047 7.8020120781729929e-06
0.00025390752125531435 0.18189023435115814 0.070641294121742249
0.0044528255239129066 0.18334431946277618 0.071685753762722015
0.017572639510035515 0.18218128383159637 0.071907982230186462
0.036551889032125473 0.18103992938995361 0.072889186441898346
0.05612032487988472 0.18373897671699524 0.069109410047531128
0.078070230782032013 0.1896330863237381 0.062256649136543274
0.10483617335557938 0.19689543545246124 0.053667183965444565
0.13606663048267365 0.20522552728652954 0.041843686252832413
0.17386618256568909 0.21448728442192078 0.02736806683242321
0.22146458923816681 0.22868865728378296 0.0092486161738634109
0.2845102846622467 0.24974818527698517 9.1878828243352473e-05
0.34460490942001343 0.26126205921173096 0
0.40558579564094543 0.26900652050971985 0
0.46706640720367432 0.27352139353752136 0
0.52725440263748169 0.27532505989074707 0
0.58151930570602417 0.27425166964530945 0
0.62504976987838745 0.27260416746139526 0
0.65946245193481445 0.27143043279647827 0
0.68934273719787598 0.27006945013999939 0
0.71702480316162109 0.26825150847434998 0
0.74256360530853271 0.26722392439842224 0
0.76667594909667969 0.26631292700767517 0
0.79004687070846558 0.26573735475540161 0
0.81294816732406616 0.26644724607467651 0
0.83538919687271118 0.26779559254646301 0
0.85795074701309204 0.27037379145622253 0
0.87936443090438843 0.27322658896446228 0
0.90108585357666016 0.27723357081413269 0
0.92214888334274292 0.28163900971412659 0
0.94213724136352539 0.28676658868789673 0
0.96259474754333496 0.29265713691711426 0
0.9825054407119751 0.29920923709869385 0
0.99819481372833252 0.30962911248207092 0
0 0.21636819839477539 0.080759026110172272
8.3978018665220588e-05 0.21942754089832306 0.082434050738811493
0.0055842259898781776 0.21813343465328217 0.082789182662963867
0.026397990062832832 0.21645988523960114 0.083693541586399078
0.051580537110567093 0.2163928896188736 0.082494057714939117
0.075002685189247131 0.22184166312217712 0.075947761535644531
0.1028294712305069 0.22938366234302521 0.067562691867351532
0.13503006100654602 0.23898836970329285 0.055890347808599472
0.17435230314731598 0.25098082423210144 0.039791546761989594
0.22091877460479736 0.26431801915168762 0.018811900168657303
0.27712586522102356 0.28088223934173584 0.0016378983855247498
0.34990090131759644 0.30536815524101257 0
0.41337773203849792 0.3174767792224884 0
0.47322559356689453 0.323190838098526 0
0.53107470273971558 0.32581797242164612 0
0.58393436670303345 0.32489955425262451 0
0.63159990310668945 0.32028421759605408 0
0.67126172780990601 0.31428048014640808 0
0.70160508155822754 0.30949747562408447 0
0.727894127368927 0.30659142136573792 0
0.75202643871307373 0.30409795045852661 0
0.77500367164611816 0.30205985903739929 0
0.79771596193313599 0.30061256885528564 0
0.81968939304351807 0.29994359612464905 0
0.84140950441360474 0.30031415820121765 0
0.86322557926177979 0.30187761783599854 0
0.88406378030776978 0.30336207151412964 0
0.90514093637466431 0.30606162548065186 0
0.92571300268173218 0.30954825878143311 0
0.94555270671844482 0.31359961628913879 0
0.96565836668014526 0.31845289468765259 0
0.98510557413101196 0.32400518655776978 0
0.99937701225280762 0.3339860737323761 0
0 0.25571829080581665 0.091911211609840393
0 0.26027417182922363 0.093789719045162201
0.00010372248652856797 0.25939908623695374 0.094445005059242249
0.010533781722187996 0.25875064730644226 0.095185756683349609
0.042684067040681839 0.25804156064987183 0.096296191215515137
0.07341291755437851 0.26292765140533447 0.092607110738754272
0.10331134498119354 0.27178052067756653 0.08378976583480835
0.13812710344791412 0.28193563222885132 0.072460159659385681
0.17887993156909943 0.29371404647827148 0.056707814335823059
0.22469055652618408 0.30592486262321472 0.033968091011047363
0.27570939064025879 0.31888324022293091 0.0077863275073468685
0.33615058660507202 0.33443325757980347 1.7164426026283763e-05
0.41170042753219604 0.3597150444984436 0
0.47603040933609009 0.37140357494354248 0
0.53114801645278931 0.37403777241706848 0
0.58096212148666382 0.37301322817802429 0
0.62695097923278809 0.36876136064529419 0
0.66780728101730347 0.36242938041687012 0
0.70384496450424194 0.35384935140609741 0
0.73529636859893799 0.3461138904094696 0
0.76017695665359497 0.34158331155776978 0
0.78242039680480957 0.33840042352676392 0
0.80389535427093506 0.33534708619117737 0
0.82544821500778198 0.33411923050880432 0
0.84662091732025146 0.33324667811393738 0
0.86737418174743652 0.33309146761894226 0
0.88764393329620361 0.33380913734436035 0
0.90811306238174438 0.33518394827842712 0
0.92815250158309937 0.33742326498031616 0
0.94739806652069092 0.34004431962966919 0
0.96695214509963989 0.34387800097465515 0
0.98605191707611084 0.34854307770729065 0
0.99950635433197021 0.35658851265907288 0
0 0.30810511112213135 0.10702399909496307
0 0.31363010406494141 0.10924290120601654
0 0.31303966045379639 0.10964437574148178
0.00097243412164971232 0.31211391091346741 0.11102829128503799
0.029141237959265709 0.31041610240936279 0.11179550737142563
0.071916036307811737 0.31034988164901733 0.1106940284371376
0.10549824684858322 0.31694212555885315 0.10249075293540955
0.14099933207035065 0.32558530569076538 0.091004855930805206
0.18055541813373566 0.33484482765197754 0.075962930917739868
0.22456052899360657 0.34514501690864563 0.055151123553514481
0.27298140525817871 0.35635143518447876 0.026010565459728241
0.3269592821598053 0.36863717436790466 0.0020669512450695038
0.38680016994476318 0.38228607177734375 0
0.46107140183448792 0.40647199749946594 0
0.52558219432830811 0.4193703830242157 0
0.57596313953399658 0.41996735334396362 0
0.62176960706710815 0.41692399978637695 0
0.66172337532043457 0.41064417362213135 0
0.69789958000183105 0.40322476625442505 0
0.73310017585754395 0.39475178718566895 0
0.76519119739532471 0.38584056496620178 0
0.79130226373672485 0.37888959050178528 0
0.81294363737106323 0.37424123287200928 0
0.83362984657287598 0.37143206596374512 0
0.85395783185958862 0.3692108690738678 0
0.87432289123535156 0.3681735098361969 0
0.89442199468612671 0.36804714798927307 0
0.91415756940841675 0.36828550696372986 0
0.9334951639175415 0.36920961737632751 0
0.95243775844573975 0.37116718292236328 0
0.97165608406066895 0.37390878796577454 0
0.99030029773712158 0.37727856636047363 0
0.99990177154541016 0.3851776123046875 0
0 0.35458970069885254 0.12078402191400528
0 0.3630354106426239 0.12462116032838821
0 0.36201381683349609 0.12507593631744385
0 0.36020317673683167 0.12549702823162079
0.017274098470807076 0.35816684365272522 0.12633755803108215
0.070162318646907806 0.355865478515625 0.12698593735694885
0.1087869331240654 0.35849574208259583 0.12139802426099777
0.14439079165458679 0.36646062135696411 0.11081662029027939
0.18425722420215607 0.3759290874004364 0.097254209220409393
0.22727550566196442 0.38581758737564087 0.078691281378269196
0.27377772331237793 0.39635050296783447 0.053217828273773193
0.32518270611763 0.40738707780838013 0.017658263444900513
0.37983119487762451 0.41858711838722229 0.00050286261830478907
0.43759933114051819 0.42998668551445007 0
0.50908738374710083 0.45220628380775452 0
0.56948834657669067 0.46462321281433105 0
0.61385095119476318 0.46171966195106506 0
0.65319365262985229 0.45563876628875732 0
0.68953198194503784 0.4483281672000885 0
0.72432661056518555 0.44053050875663757 0
0.75671637058258057 0.43168973922729492 0
0.78724831342697144 0.42249667644500732 0
0.81565171480178833 0.41354671120643616 0
0.83901518583297729 0.40760153532028198 0
0.85918337106704712 0.40429079532623291 0
0.87905418872833252 0.40205362439155579 0
0.89794385433197021 0.40018323063850403 0
0.91738617420196533 0.3995281457901001 0
0.93622475862503052 0.39948958158493042 0
0.95457130670547485 0.40015575289726257 0
0.97395861148834229 0.40167564153671265 0
0.99231886863708496 0.40441024303436279 0
0.99998760223388672 0.41069573163986206 0
0 0.40263861417770386 0.13759975135326385
0 0.40963774919509888 0.14096242189407349
0 0.40838289260864258 0.14127133786678314
0 0.40697687864303589 0.14166387915611267
0.013597544282674789 0.40498441457748413 0.14218010008335114
0.071332573890686035 0.40231919288635254 0.14309987425804138
0.11614789068698883 0.40191492438316345 0.14210052788257599
0.15170189738273621 0.40853548049926758 0.13301946222782135
0.18978004157543182 0.4163576066493988 0.12022671103477478
0.23109832406044006 0.42516288161277771 0.10433709621429443
0.27487033605575562 0.43406906723976135 0.083198979496955872
0.32266911864280701 0.44380518794059753 0.05254952609539032
0.37339213490486145 0.4534953236579895 0.014343181625008583
0.42609211802482605 0.46315646171569824 0.00020077430235687643
0.48157241940498352 0.47270038723945618 0
0.54506182670593262 0.49033677577972412 0
0.60357683897018433 0.5033646821975708 0
0.64362519979476929 0.49840050935745239 0
0.67973369359970093 0.49154454469680786 0
0.71462225914001465 0.48415428400039673 0
0.74726748466491699 0.47593042254447937 0
0.77826082706451416 0.46761876344680786 0
0.80809718370437622 0.45861953496932983 0
0.83645325899124146 0.44967153668403625 0
0.86190116405487061 0.44123625755310059 0
0.88281649351119995 0.43616849184036255 0
0.90177220106124878 0.43364059925079346 0
0.92070603370666504 0.43153500556945801 0
0.93889337778091431 0.43020826578140259 0
0.95725792646408081 0.43032276630401611 0
0.97613745927810669 0.43084084987640381 0
0.99371981620788574 0.4320622980594635 0
0.99999541044235229 0.43680697679519653 0
0 0.44346070289611816 0.15352118015289307
0 0.45233562588691711 0.15848715603351593
0 0.45234629511833191 0.15935696661472321
0 0.45117899775505066 0.1599774956703186
0.018461296334862709 0.44860678911209106 0.16000653803348541
0.079423859715461731 0.44608241319656372 0.16066858172416687
0.12517903745174408 0.4435437023639679 0.16145698726177216
0.16116899251937866 0.44571107625961304 0.15602043271064758
