Textures/81.cube
# Created by: G'MIC (https://gmic.eu)
TITLE "Kodak_Portra_400_UC_2.cube"
# LUT size
LUT_3D_SIZE 5
# Data domain
DOMAIN_MIN 0.0 0.0 0.0
DOMAIN_MAX 1.0 1.0 1.0
# LUT data points
0.032264158129692078 0.041511088609695435 0.040481947362422943
0.19136671721935272 0.059446748346090317 0.032448314130306244
0.57066828012466431 0.029593845829367638 0
0.89355283975601196 0.013258167542517185 0
0.99999380111694336 0.18094703555107117 0
0 0.19958838820457458 0.057887587696313858
0.14430806040763855 0.22120188176631927 0.035754714161157608
0.6318785548210144 0.26638713479042053 0
0.90038591623306274 0.26516285538673401 0
0.99999582767486572 0.31256717443466187 0
0 0.51607465744018555 0.12530703842639923
0 0.52080625295639038 0.14209753274917603
0.47753608226776123 0.56170696020126343 0.031700987368822098
0.86696523427963257 0.5747336745262146 0
1 0.52836531400680542 0
0 0.75839591026306152 0.29417756199836731
0 0.75690650939941406 0.30823585391044617
0.36652570962905884 0.76560181379318237 0.30996251106262207
0.72224682569503784 0.78546375036239624 0.26631966233253479
0.9882776141166687 0.80748683214187622 0.17018727958202362
0.54029828310012817 0.93243628740310669 0.65812695026397705
0.57225233316421509 0.93202608823776245 0.66707426309585571
0.64847368001937866 0.93135517835617065 0.68969124555587769
0.76258277893066406 0.94143819808959961 0.68480414152145386
0.91061896085739136 0.95545583963394165 0.67670851945877075
0.00014394085155799985 0.044392876327037811 0.20610994100570679
0.20952415466308594 0.043289780616760254 0.21937872469425201
0.56794494390487671 0 0.2044711709022522
0.88657629489898682 0.025452116504311562 0.20377820730209351
0.99998295307159424 0.21469934284687042 0.18838535249233246
0 0.23468080163002014 0.22494547069072723
0.22759635746479034 0.26387530565261841 0.25408968329429626
0.63823610544204712 0.26834353804588318 0.2338518500328064
0.89494097232818604 0.2747235894203186 0.19846704602241516
0.99999582767486572 0.33280950784683228 0.17560189962387085
6.4891471993178129e-05 0.5513959527015686 0.3305511474609375
0.083283141255378723 0.55454337596893311 0.31178614497184753
0.53329014778137207 0.57570302486419678 0.29249456524848938
0.8753235936164856 0.56375712156295776 0.16883234679698944
0.99995285272598267 0.53694123029708862 0.087562955915927887
0.015093308873474598 0.76375645399093628 0.41653940081596375
0.16993062198162079 0.76429975032806396 0.41527834534645081
0.44754144549369812 0.76638936996459961 0.42821493744850159
0.7403641939163208 0.78782445192337036 0.40596175193786621
0.98646152019500732 0.80721074342727661 0.33901193737983704
0.56876653432846069 0.93254566192626953 0.68726843595504761
0.59630453586578369 0.93236899375915527 0.69435679912567139
0.66551196575164795 0.93140387535095215 0.71386933326721191
0.77112525701522827 0.94090259075164795 0.71524256467819214
0.9129565954208374 0.955757737159729 0.70874720811843872
0 0.078400805592536926 0.52025532722473145
0.19795629382133484 0.078728877007961273 0.54070192575454712
0.63033229112625122 0.012674711644649506 0.57535660266876221
0.84799790382385254 0.029169822111725807 0.49172967672348022
1 0.17377528548240662 0.4596305787563324
0 0.27440619468688965 0.53194916248321533
0.18881024420261383 0.27485358715057373 0.56226855516433716
0.64765703678131104 0.3157925009727478 0.59086918830871582
0.85579448938369751 0.31135848164558411 0.51661008596420288
1 0.34612753987312317 0.47894448041915894
0 0.56269961595535278 0.54175388813018799
0.28950425982475281 0.57798802852630615 0.56123673915863037
0.63749170303344727 0.60981863737106323 0.60262507200241089
0.85354852676391602 0.59577816724777222 0.56153637170791626
0.99995285272598267 0.60139387845993042 0.5265621542930603
0.42003589868545532 0.77545809745788574 0.61526590585708618
0.5107300877571106 0.77769118547439575 0.6328999400138855
0.59096288681030273 0.77683669328689575 0.62367862462997437
0.77535587549209595 0.79552936553955078 0.62989693880081177
0.98430216312408447 0.80064928531646729 0.56283628940582275
0.65522831678390503 0.93225300312042236 0.76908993721008301
0.66531753540039062 0.93311971426010132 0.76674348115921021
0.69879305362701416 0.93449515104293823 0.76456940174102783
0.7889484167098999 0.94028955698013306 0.77781188488006592
0.92129731178283691 0.957172691822052 0.77511900663375854
0 0.16137181222438812 0.78622621297836304
0.17367833852767944 0.16875378787517548 0.79224634170532227
0.60259968042373657 0.20271915197372437 0.80459225177764893
0.87384825944900513 0.29917305707931519 0.81072288751602173
0.99844247102737427 0.38018986582756042 0.75718921422958374
0 0.29291313886642456 0.78260344266891479
0.19939498603343964 0.30791294574737549 0.78933477401733398
0.6134803295135498 0.36138322949409485 0.8033565878868103
0.86631321907043457 0.44692188501358032 0.81169289350509644
0.99047046899795532 0.4832671582698822 0.76415640115737915
0 0.51634836196899414 0.73743939399719238
0.088207751512527466 0.52800107002258301 0.75074118375778198
0.58353978395462036 0.56652635335922241 0.78492152690887451
0.84060585498809814 0.65232640504837036 0.80845719575881958
0.96564346551895142 0.6480979323387146 0.77309411764144897
0.24775974452495575 0.77267575263977051 0.76042765378952026
0.38718900084495544 0.77512454986572266 0.76533210277557373
0.6133885383605957 0.78351467847824097 0.77946096658706665
0.82341998815536499 0.81419116258621216 0.8152155876159668
0.96548378467559814 0.80834275484085083 0.79374957084655762
0.65387755632400513 0.93877929449081421 0.83630645275115967
0.68264418840408325 0.93892991542816162 0.83997297286987305
0.75501036643981934 0.94035083055496216 0.8496214747428894
0.8184661865234375 0.94486778974533081 0.85017436742782593
0.93849027156829834 0.96112817525863647 0.85678589344024658
0.43270972371101379 0.42129188776016235 0.95472872257232666
0.5226893424987793 0.43526241183280945 0.95332783460617065
0.69990438222885132 0.47907757759094238 0.95095127820968628
0.87510734796524048 0.57224231958389282 0.94744980335235596
0.99667441844940186 0.6396249532699585 0.94487786293029785
0.45296934247016907 0.49833604693412781 0.9518197774887085
0.5372159481048584 0.5114520788192749 0.95163947343826294
0.70356857776641846 0.54882752895355225 0.94875544309616089
0.87107348442077637 0.62667292356491089 0.94549131393432617
0.99099528789520264 0.6814267635345459 0.94354212284088135
0.44151383638381958 0.64307487010955811 0.94221270084381104
0.50785845518112183 0.639332115650177 0.94391119480133057
0.67567431926727295 0.65649431943893433 0.94381135702133179
0.85585057735443115 0.71629178524017334 0.94288581609725952
0.98068434000015259 0.76120549440383911 0.94385123252868652
0.30227747559547424 0.79757809638977051 0.93315106630325317
0.37717869877815247 0.79465878009796143 0.93363958597183228
0.54263871908187866 0.78470337390899658 0.93511205911636353
0.81068313121795654 0.80527383089065552 0.9437028169631958
0.97530817985534668 0.85631400346755981 0.94957804679870605
0.58804315328598022 0.96354734897613525 0.94509053230285645
0.61513131856918335 0.96360164880752563 0.94545108079910278
0.69115132093429565 0.96335238218307495 0.94706737995147705
0.80603617429733276 0.96364748477935791 0.95014184713363647
0.97430062294006348 0.97137022018432617 0.96143513917922974
