Textures/81.cube
# Created by: G'MIC (https://gmic.eu)
TITLE "Kodak_Portra_400_UC_2.cube"
# LUT size
LUT_3D_SIZE 33
# Data domain
DOMAIN_MIN 0.0 0.0 0.0
DOMAIN_MAX 1.0 1.0 1.0
# LUT data points
0.032264158129692078 0.041511088609695435 0.040481947362422943
0.034960787743330002 0.041787073016166687 0.040296949446201324
0.041019514203071594 0.042323082685470581 0.040462374687194824
0.053518813103437424 0.043024301528930664 0.039918180555105209
0.074575044214725494 0.045315761119127274 0.039483074098825455
0.10083819925785065 0.048348210752010345 0.038260146975517273
0.12913709878921509 0.052190583199262619 0.037265632301568985
0.15907518565654755 0.056163709610700607 0.034811694175004959
0.19136671721935272 0.059446748346090317 0.032448314130306244
0.22693987190723419 0.063081912696361542 0.029545320197939873
0.26588961482048035 0.065839461982250214 0.026139473542571068
0.3094310462474823 0.066987708210945129 0.021447138860821724
0.35637834668159485 0.066391840577125549 0.015758553519845009
0.40758636593818665 0.063639968633651733 0.0095739802345633507
0.46197891235351562 0.05643053725361824 0.0026552106719464064
0.51672351360321045 0.045007284730672836 3.9293769077630714e-05
0.57066828012466431 0.029593845829367638 0
0.62233155965805054 0.013499449007213116 0
0.6722332239151001 0.0028684774879366159 0
0.72298461198806763 0.00016968858835753053 0
0.76496124267578125 0 0
0.8023192286491394 1.716442420729436e-05 0
0.83551514148712158 0.00029685464687645435 0
0.86541372537612915 0.0029149062465876341 0
0.89355283975601196 0.013258167542517185 0
0.92034512758255005 0.034207578748464584 0
0.94582295417785645 0.057958696037530899 0
0.96947985887527466 0.08033163845539093 0
0.99185138940811157 0.10136198252439499 0
0.99997502565383911 0.12114360928535461 0
0.99995285272598267 0.14095067977905273 0
0.99997198581695557 0.15930214524269104 0
0.99999380111694336 0.18094703555107117 0
0.031847849488258362 0.044163648039102554 0.041161186993122101
0.034646853804588318 0.044918593019247055 0.040799800306558609
0.041354302316904068 0.046681638807058334 0.040707327425479889
0.055578950792551041 0.048970174044370651 0.039541326463222504
0.077467963099479675 0.053119897842407227 0.038722414523363113
0.10249379277229309 0.056895378977060318 0.037022523581981659
0.12991510331630707 0.061323180794715881 0.035485342144966125
0.15951579809188843 0.065353818237781525 0.033467262983322144
0.19304375350475311 0.070095255970954895 0.031207969412207603
0.22887904942035675 0.073671691119670868 0.027641298249363899
0.26792696118354797 0.07661110907793045 0.023955442011356354
0.31164282560348511 0.078433021903038025 0.019176060333848
0.35875013470649719 0.079005368053913116 0.013577142730355263
0.40952444076538086 0.077039808034896851 0.0069237044081091881
0.46341860294342041 0.071561746299266815 0.0010139448568224907
0.51735657453536987 0.063687145709991455 5.9578997024800628e-06
0.57005476951599121 0.05237240344285965 0
0.62186384201049805 0.038835782557725906 0
0.67321813106536865 0.024643581360578537 0
0.72239446640014648 0.014269129373133183 0
0.76484733819961548 0.010387669317424297 0
0.80175799131393433 0.011310193687677383 0
0.8348044753074646 0.016246026381850243 0
0.86450642347335815 0.026775160804390907 0
0.89334529638290405 0.042643286287784576 0
0.92011034488677979 0.060404412448406219 0
0.9451337456703186 0.078354410827159882 0
0.96892827749252319 0.096770130097866058 0
0.99122154712677002 0.11482805758714676 0
0.99997079372406006 0.1321822851896286 0
1 0.15037418901920319 0
0.99996209144592285 0.16757220029830933 0
0.99999552965164185 0.18770727515220642 0
0.029849989339709282 0.050650570541620255 0.041803214699029922
0.032547570765018463 0.051166623830795288 0.041505243629217148
0.039020489901304245 0.053030475974082947 0.041272770613431931
0.053440392017364502 0.057311784476041794 0.039485249668359756
0.077653698623180389 0.063542261719703674 0.037316597998142242
0.10559415817260742 0.06841452419757843 0.035036418586969376
0.13400106132030487 0.073412299156188965 0.033336862921714783
0.1634230762720108 0.07769215852022171 0.030979426577687263
0.19664822518825531 0.082006402313709259 0.028316408395767212
0.23228104412555695 0.086132176220417023 0.025169702246785164
0.27194792032241821 0.089574255049228668 0.021377973258495331
0.31506949663162231 0.091882690787315369 0.016061980277299881
0.36209568381309509 0.092800207436084747 0.010161224752664566
0.41282737255096436 0.092413991689682007 0.0038551341276615858
0.46617546677589417 0.089072883129119873 0.00034867276553995907
0.51930654048919678 0.083334088325500488 0
0.57241594791412354 0.075354263186454773 0
0.62400281429290771 0.065753348171710968 0
0.67696541547775269 0.056524038314819336 0
0.72474187612533569 0.049536269158124924 0
0.76561528444290161 0.046263020485639572 0
0.80200761556625366 0.047449573874473572 0
0.83550101518630981 0.053046349436044693 0
0.86554670333862305 0.061814781278371811 0
0.89373362064361572 0.072980694472789764 0
0.92029541730880737 0.085870251059532166 0
0.9453698992729187 0.10015071183443069 0
0.96900022029876709 0.11494609713554382 0
0.99103802442550659 0.13079217076301575 0
0.99993807077407837 0.14574845135211945 0
0.99995285272598267 0.1619897335767746 0
0.99999707937240601 0.17786420881748199 0
0.99999839067459106 0.19727635383605957 0
0.022858498618006706 0.064703501760959625 0.042371205985546112
0.026856780052185059 0.065520264208316803 0.042465213686227798
0.034532491117715836 0.067186050117015839 0.041624382138252258
0.049130603671073914 0.070470355451107025 0.040037490427494049
0.073178768157958984 0.077835589647293091 0.037304110825061798
0.10364357382059097 0.086375422775745392 0.033851794898509979
0.13658934831619263 0.090941421687602997 0.030443267896771431
0.1695811003446579 0.094719760119915009 0.027407480403780937
0.20283208787441254 0.098826758563518524 0.024188579991459846
0.23856258392333984 0.10290022939443588 0.021024363115429878
0.27770629525184631 0.10679532587528229 0.016704495996236801
0.32197496294975281 0.10993853211402893 0.01126791350543499
0.36904463171958923 0.11173706501722336 0.0054289586842060089
0.42008471488952637 0.11194981634616852 0.0007904311059974134
0.47450095415115356 0.11016731709241867 0
0.52803885936737061 0.10608787834644318 0
0.5809599757194519 0.10122589021921158 0
0.63482213020324707 0.095023378729820251 0
0.68755942583084106 0.08975556492805481 0
0.73300838470458984 0.086881376802921295 0
0.77283322811126709 0.086209185421466827 0
0.80836337804794312 0.087870746850967407 0
0.84028571844100952 0.091557726263999939 0
0.86931908130645752 0.097359277307987213 0
0.8972926139831543 0.10589312762022018 0
0.92405837774276733 0.11575480550527573 0
0.94837766885757446 0.12683844566345215 0
0.97196602821350098 0.13925518095493317 0
0.99359315633773804 0.15289446711540222 0
0.99998444318771362 0.16651298105716705 0
0.99999845027923584 0.18066222965717316 0
0.99997860193252563 0.19512464106082916 0
1 0.21336066722869873 0
0.0097807403653860092 0.084370657801628113 0.04236174002289772
0.015040195547044277 0.084799610078334808 0.042440883815288544
0.024172242730855942 0.086310498416423798 0.042301226407289505
0.040177144110202789 0.089116491377353668 0.040612798184156418
0.062234431505203247 0.09267694503068924 0.038312453776597977
0.092715941369533539 0.10086148977279663 0.034570872783660889
0.12771320343017578 0.11025508493185043 0.029474755749106407
0.16413399577140808 0.11571356654167175 0.024629766121506691
0.20361258089542389 0.11954718828201294 0.01964956521987915
0.24325910210609436 0.12321805208921432 0.015790287405252457
0.28343355655670166 0.1271900087594986 0.010998755693435669
0.32749477028846741 0.13079176843166351 0.0053866486996412277
0.37457999587059021 0.13324287533760071 0.0010528104612603784
0.42581009864807129 0.13455937802791595 1.6597008652752265e-05
0.47911339998245239 0.13404634594917297 0
0.53139418363571167 0.13171713054180145 0
0.58511370420455933 0.12885408103466034 0
0.64166158437728882 0.12566865980625153 0
0.69157975912094116 0.12319136410951614 0
0.73516267538070679 0.12150570005178452 0
0.77397835254669189 0.12135167419910431 0
0.80835539102554321 0.12261026352643967 0
0.8397679328918457 0.12544699013233185 0
0.86895722150802612 0.12998174130916595 0
0.89665281772613525 0.13615936040878296 0
0.92324483394622803 0.14379759132862091 0
0.94737797975540161 0.15247164666652679 0
0.97128760814666748 0.16307367384433746 0
0.99270647764205933 0.17417235672473907 0
1 0.18578577041625977 0
1 0.1980571448802948 0
0.99997431039810181 0.21108822524547577 0
1 0.22766955196857452 0
0.00020277730072848499 0.11032301932573318 0.043236222118139267
0.0017302177147939801 0.11047288030385971 0.043726488947868347
0.0074694212526082993 0.11054368317127228 0.044056866317987442
0.023673361167311668 0.11280772835016251 0.042211353778839111
0.048956561833620071 0.11584955453872681 0.039527826011180878
0.079209335148334503 0.12019751220941544 0.036304540932178497
0.1157420352101326 0.129007488489151 0.030959038063883781
0.15604744851589203 0.14036203920841217 0.023418707773089409
0.19715793430805206 0.14662382006645203 0.016593059524893761
0.24148660898208618 0.15017923712730408 0.0095845460891723633
0.2873426079750061 0.15253439545631409 0.003506531473249197
0.33425569534301758 0.1552596390247345 0.00069003558019176126
0.38156658411026001 0.1583196222782135 1.602958764124196e-05
0.43265536427497864 0.16040632128715515 0
0.48540234565734863 0.16070249676704407 0
0.5390811562538147 0.15973278880119324 0
0.59722495079040527 0.15952080488204956 0
0.65121567249298096 0.15853707492351532 0
0.69806778430938721 0.15709672868251801 0
0.73964023590087891 0.15615865588188171 0
0.7774205207824707 0.15673187375068665 0
0.81123745441436768 0.1578538715839386 0
0.84212607145309448 0.15999644994735718 0
0.87061458826065063 0.16300559043884277 0
0.89798450469970703 0.16804313659667969 0
0.9240686297416687 0.17406457662582397 0
0.94834309816360474 0.1811959445476532 0
0.97174131870269775 0.18945245444774628 0
0.99300575256347656 0.19920051097869873 0
0.99998444318771362 0.20864507555961609 0
0.99999845027923584 0.21942578256130219 0
1 0.2305939793586731 0
0.99999141693115234 0.24564510583877563 0
0 0.13746339082717896 0.045540839433670044
0 0.13839876651763916 0.046546217054128647
8.2985034168814309e-06 0.1375991553068161 0.047622460871934891
0.0044591375626623631 0.13890813291072845 0.046782750636339188
0.026609053835272789 0.14175921678543091 0.043484892696142197
0.061961330473423004 0.14577369391918182 0.039825979620218277
0.097912102937698364 0.15020331740379333 0.034949079155921936
0.13913504779338837 0.15969952940940857 0.027856571599841118
0.18641304969787598 0.1731942743062973 0.016938857734203339
0.23235596716403961 0.18064188957214355 0.0068474253639578819
0.28169915080070496 0.18559449911117554 0.00076007039751857519
0.33537745475769043 0.18755438923835754 0
0.3891150951385498 0.18798935413360596 0
0.44174760580062866 0.18951939046382904 0
0.49796122312545776 0.19154945015907288 0
0.55680549144744873 0.19347578287124634 0
0.61243468523025513 0.19393396377563477 0
0.66208869218826294 0.1932329386472702 0
0.70608997344970703 0.19260105490684509 0
0.74569994211196899 0.1921037882566452 0
0.78177505731582642 0.19238850474357605 0
0.81426727771759033 0.19290095567703247 0
0.84488487243652344 0.19408595561981201 0
0.8726838231086731 0.19667820632457733 0
0.89937388896942139 0.20024299621582031 0
0.92546099424362183 0.20509867370128632 0
0.94924545288085938 0.21089950203895569 0
0.97241419553756714 0.21778161823749542 0
0.99348801374435425 0.22571922838687897 0
0.99997860193252563 0.23431015014648438 0
1 0.2434515655040741 0
1 0.25346595048904419 0
0.99996143579483032 0.2677493691444397 0
0 0.16521547734737396 0.051061078906059265
0 0.16655606031417847 0.05218268558382988
0 0.16578572988510132 0.053296979516744614
0 0.16537928581237793 0.053998351097106934
0.0046111266128718853 0.16840854287147522 0.051210846751928329
0.034971069544553757 0.17222614586353302 0.047104101628065109
0.077375680208206177 0.17708617448806763 0.041845738887786865
0.11852699518203735 0.18293780088424683 0.035202883183956146
0.16632674634456635 0.19333253800868988 0.025425789877772331
0.22079566121101379 0.2101777046918869 0.010939785279333591
0.27206185460090637 0.21889345347881317 0.0010625608265399933
0.32764190435409546 0.2242504209280014 0
0.3871399462223053 0.22680404782295227 0
0.45191806554794312 0.22734305262565613 0
0.51510900259017944 0.2272651195526123 0
0.57028460502624512 0.22781388461589813 0
0.62183094024658203 0.22835405170917511 0
0.66867303848266602 0.22821155190467834 0
0.71001201868057251 0.22722834348678589 0
0.74786889553070068 0.22649307548999786 0
0.78261637687683105 0.22630414366722107 0
0.81449812650680542 0.22677536308765411 0
0.84439659118652344 0.22715914249420166 0
0.87237459421157837 0.22890679538249969 0
0.89913058280944824 0.23199556767940521 0
0.92466241121292114 0.23562191426753998 0
0.9486348032951355 0.24013702571392059 0
0.97187858819961548 0.24585020542144775 0
0.99258190393447876 0.25229156017303467 0
1 0.25925549864768982 0
1 0.26717552542686462 0
1 0.27585938572883606 0
0.99995720386505127 0.28814324736595154 0
0 0.19958838820457458 0.057887587696313858
0 0.20122304558753967 0.059141527861356735
0 0.20012135803699493 0.06005646288394928
0 0.19938401877880096 0.061723187565803528
0 0.200827956199646 0.060400307178497314
0.0052983313798904419 0.20475412905216217 0.056294098496437073
0.045568645000457764 0.20949211716651917 0.051145177334547043
0.096731461584568024 0.2147744745016098 0.044429738074541092
0.14430806040763855 0.22120188176631927 0.035754714161157608
0.19689123332500458 0.23159745335578918 0.02348739467561245
0.26130196452140808 0.25219157338142395 0.0054105757735669613
0.32299095392227173 0.2647186815738678 4.6812069740553852e-06
0.38699197769165039 0.27198228240013123 0
0.45295557379722595 0.27476060390472412 0
0.51876890659332275 0.27371656894683838 0
0.57950031757354736 0.26930323243141174 0
0.6318785548210144 0.26638713479042053 0
0.67625296115875244 0.26528310775756836 0
0.71570104360580444 0.2643052339553833 0
0.75260752439498901 0.26320400834083557 0
0.78659921884536743 0.26296907663345337 0
0.81806546449661255 0.26258584856987 0
0.84690636396408081 0.26241040229797363 0
0.87409263849258423 0.26341840624809265 0
0.90038591623306274 0.26516285538673401 0
0.92597407102584839 0.26789790391921997 0
0.949257493019104 0.27166643738746643 0
0.97179794311523438 0.27587249875068665 0
0.99264425039291382 0.28139644861221313 0
0.99997079372406006 0.28726488351821899 0
0.99990558624267578 0.29375910758972168 0
1 0.30131402611732483 0
0.99999582767486572 0.31256717443466187 0
0 0.23300075531005859 0.063975542783737183
0 0.23598083853721619 0.065769501030445099
0 0.23507894575595856 0.066639453172683716
0 0.23402175307273865 0.068629391491413116
0 0.2337573766708374 0.06901925802230835
0 0.23723077774047852 0.065561018884181976
0.0081746838986873627 0.24237708747386932 0.060669489204883575
0.061341114342212677 0.24912130832672119 0.053905561566352844
0.12173514068126678 0.2576216459274292 0.045702658593654633
0.17765650153160095 0.26747477054595947 0.033999554812908173
0.23911333084106445 0.2802560031414032 0.018059991300106049
0.31573224067687988 0.30272731184959412 0.0013902098871767521
0.38443636894226074 0.31576758623123169 0
0.45060312747955322 0.32145622372627258 0
0.51616436243057251 0.32257509231567383 0
0.5769990086555481 0.31957963109016418 0
0.63213300704956055 0.31288149952888489 0
0.67989045381546021 0.30497962236404419 0
0.71987128257751465 0.30079960823059082 0
0.75583893060684204 0.29952836036682129 0
0.78888899087905884 0.29842332005500793 0
0.81874316930770874 0.29741755127906799 0
0.84769546985626221 0.29694303870201111 0
0.87466830015182495 0.29694026708602905 0
0.90087747573852539 0.29796841740608215 0
0.92592489719390869 0.30013883113861084 0
0.94893968105316162 0.30264973640441895 0
0.97112661600112915 0.30610305070877075 0
0.99213629961013794 0.31041011214256287 0
0.99994003772735596 0.31536144018173218 0
0.99999582767486572 0.32097184658050537 0
1 0.32721284031867981 0
1 0.33791473507881165 0
0 0.26959240436553955 0.070363916456699371
0 0.27411386370658875 0.072259895503520966
0 0.27328521013259888 0.073290087282657623
0 0.27336347103118896 0.075363703072071075
0 0.2733190655708313 0.077660635113716125
0 0.27696606516838074 0.076201029121875763
3.4045142456307076e-06 0.28333109617233276 0.071456126868724823
0.013655394315719604 0.2907605767250061 0.064908869564533234
0.087688528001308441 0.29947221279144287 0.056761570274829865
0.1555459052324295 0.30846360325813293 0.045098837465047836
0.21849155426025391 0.31746694445610046 0.029514927417039871
0.28703078627586365 0.32918238639831543 0.010209804400801659
0.37199172377586365 0.35220798850059509 0.0002890441392082721
0.44533544778823853 0.36492085456848145 0
0.50988298654556274 0.3684195876121521 0
0.56898045539855957 0.3668762743473053 0
0.62370193004608154 0.36228498816490173 0
0.67299836874008179 0.35456246137619019 0
0.71674686670303345 0.34458526968955994 0
0.75597935914993286 0.33658021688461304 0
0.78915786743164062 0.33339810371398926 0
0.8187524676322937 0.33192873001098633 0
0.84685903787612915 0.33013641834259033 0
0.87374681234359741 0.33021095395088196 0
0.89938050508499146 0.33043190836906433 0
0.92417341470718384 0.33175939321517944 0
0.94712013006210327 0.33314996957778931 0
0.96950554847717285 0.33573159575462341 0
0.99058336019515991 0.33921587467193604 0
0.99994945526123047 0.34277576208114624 0
0.99990558624267578 0.34731557965278625 0
1 0.3525422215461731 0
1 0.3612561821937561 0
0 0.31724905967712402 0.078521236777305603
0 0.32238087058067322 0.080960556864738464
0 0.32231345772743225 0.08211950957775116
0 0.32206404209136963 0.084102235734462738
0 0.3212524950504303 0.086465291678905487
0 0.32159653306007385 0.087565883994102478
0 0.32630026340484619 0.083156019449234009
0 0.33228418231010437 0.076970532536506653
0.029233325272798538 0.33878383040428162 0.068542145192623138
0.11898716539144516 0.34645241498947144 0.058090366423130035
0.19083906710147858 0.35440593957901001 0.043335761874914169
0.25940856337547302 0.36313590407371521 0.023330669850111008
0.33108362555503845 0.37347763776779175 0.0047606737352907658
0.41986101865768433 0.39495047926902771 1.9008104573003948e-05
0.49773985147476196 0.40957200527191162 0
0.55878007411956787 0.41229817271232605 0
0.61453509330749512 0.41034415364265442 0
0.66394853591918945 0.40460145473480225 0
0.70894879102706909 0.39658492803573608 0
0.7511056661605835 0.38710892200469971 0
0.78851759433746338 0.37683194875717163 0
0.82103663682937622 0.36975383758544922 0
0.84900981187820435 0.36695536971092224 0
0.87572389841079712 0.36596739292144775 0
0.90058547258377075 0.36542680859565735 0
0.92522311210632324 0.36619913578033447 0
0.94818562269210815 0.3670310378074646 0
0.96999746561050415 0.36871457099914551 0
0.99051570892333984 0.37134081125259399 0
0.99994218349456787 0.37409168481826782 0
1 0.37784212827682495 0
0.99995285272598267 0.38206285238265991 0
0.99998295307159424 0.39070421457290649 0
0 0.35825049877166748 0.085958346724510193
0 0.36648541688919067 0.088687770068645477
0 0.36633074283599854 0.090124659240245819
0 0.36550378799438477 0.092019155621528625
0 0.36444604396820068 0.094045929610729218
0 0.36341136693954468 0.097148440778255463
0 0.36567720770835876 0.095122478902339935
0 0.3713165819644928 0.089083440601825714
0.0011716989101842046 0.37802311778068542 0.081520646810531616
0.061571583151817322 0.38579216599464417 0.07154768705368042
0.15841589868068695 0.39359799027442932 0.058819342404603958
0.23467430472373962 0.40195083618164062 0.040696680545806885
0.30670452117919922 0.41002121567726135 0.017380179837346077
0.38078498840332031 0.41852015256881714 0.0015871989307925105
0.47096741199493408 0.43863892555236816 0
0.54763859510421753 0.45337387919425964 0
0.60328680276870728 0.4537845253944397 0
0.65261423587799072 0.45008289813995361 0
0.69759625196456909 0.44381874799728394 0
0.73990517854690552 0.43594175577163696 0
0.77812939882278442 0.42612525820732117 0
0.81339466571807861 0.41573113203048706 0
0.84596854448318481 0.40539854764938354 0
0.87428373098373413 0.40015867352485657 0
0.89950823783874512 0.39887982606887817 0
0.92354214191436768 0.39839217066764832 0
0.94593018293380737 0.39819574356079102 0
0.96796733140945435 0.39948564767837524 0
0.98866599798202515 0.40101319551467896 0
0.99971598386764526 0.40280568599700928 0
1 0.40588727593421936 0
0.99991852045059204 0.40968528389930725 0
0.99998760223388672 0.41679540276527405 0
0 0.40186041593551636 0.094330400228500366
0 0.40850839018821716 0.09710991382598877
0 0.40812742710113525 0.098332315683364868
0 0.40740975737571716 0.10041271150112152
0 0.40675699710845947 0.10266557335853577
0 0.40568053722381592 0.10538087785243988
0 0.4061952531337738 0.10728423297405243
0 0.41103395819664001 0.10220744460821152
0 0.41720673441886902 0.095383882522583008
0.0097191808745265007 0.42397937178611755 0.086588315665721893
0.10931434482336044 0.43086755275726318 0.075319759547710419
0.20350047945976257 0.43835225701332092 0.059925522655248642
0.28001007437705994 0.44577327370643616 0.0391060970723629
0.35370442271232605 0.45296233892440796 0.013694797642529011
0.42776450514793396 0.46012410521507263 0.00062950188294053078
0.51217150688171387 0.4767342209815979 0
0.58906114101409912 0.49278932809829712 0
0.6399306058883667 0.4922468364238739 0
0.68517583608627319 0.48787799477577209 0
0.72763991355895996 0.48164990544319153 0
0.76666319370269775 0.47382044792175293 0
0.80294948816299438 0.46469777822494507 0
0.83693671226501465 0.45439702272415161 0
0.86850631237030029 0.44384515285491943 0
0.89658463001251221 0.43463441729545593 0
0.92144739627838135 0.43087714910507202 0
0.94430083036422729 0.43044254183769226 0
0.96577662229537964 0.43027681112289429 0
0.98594033718109131 0.43110951781272888 0
0.99947381019592285 0.4326150119304657 0
1 0.43459081649780273 0
0.99998718500137329 0.43723180890083313 0
0.99999541044235229 0.44314488768577576 0
0 0.43958449363708496 0.10276475548744202
0 0.44817265868186951 0.10618935525417328
0 0.44876763224601746 0.10810840874910355
0 0.44829291105270386 0.10995663702487946
0 0.44695645570755005 0.11146711558103561
0 0.44589650630950928 0.11471547931432724
0 0.44495928287506104 0.11759600043296814
0 0.44707709550857544 0.11618764698505402
0 0.45183688402175903 0.10929759591817856
0 0.45775929093360901 0.10170509666204453
0.040594093501567841 0.46457439661026001 0.092188082635402679
0.16211189329624176 0.47152146697044373 0.079893849790096283
0.24762366712093353 0.47831550240516663 0.063542187213897705
0.32379668951034546 0.48507905006408691 0.040841490030288696
0.39753854274749756 0.49194726347923279 0.01354575902223587
0.46936002373695374 0.49820405244827271 0.00076619582250714302
0.54955559968948364 0.51256281137466431 0
0.62412738800048828 0.52944821119308472 0
0.67290270328521729 0.53018712997436523 0
0.71610373258590698 0.52640944719314575 0
0.75579816102981567 0.52008181810379028 0
0.79239863157272339 0.51252871751785278 0
0.82711678743362427 0.50344544649124146 0
0.85915398597717285 0.49378564953804016 0
0.8892667293548584 0.48359644412994385 0
0.91815316677093506 0.47356715798377991 0
0.94282013177871704 0.46585226058959961 0
0.96489799022674561 0.46380838751792908 0
0.98545432090759277 0.46375295519828796 0
0.99936145544052124 0.46459805965423584 0
1 0.46570470929145813 0
1 0.46787336468696594 0
1 0.4732019305229187 0
0 0.47775253653526306 0.11284147202968597
0 0.48663017153739929 0.11690834164619446
0 0.48680329322814941 0.11829658597707748
0 0.4860331118106842 0.12007923424243927
0 0.48528861999511719 0.12209285795688629
0 0.48410803079605103 0.12459375709295273
0 0.48300975561141968 0.12783640623092651
0 0.48298507928848267 0.13021303713321686
0 0.48768725991249084 0.12562991678714752
0 0.49308723211288452 0.11868958175182343
