Textures/82.cube
# Created by: G'MIC (https://gmic.eu)
TITLE "Kodak_Portra_400_VC_2.cube"
# LUT size
LUT_3D_SIZE 5
# Data domain
DOMAIN_MIN 0.0 0.0 0.0
DOMAIN_MAX 1.0 1.0 1.0
# LUT data points
0.026018161326646805 0.039997179061174393 0.04571354016661644
0.18595407903194427 0.061415001749992371 0.038278650492429733
0.54164540767669678 0.058053549379110336 9.3624139481107704e-06
0.8333737850189209 0.093160562217235565 0
0.99999380111694336 0.19796134531497955 0
0 0.20660305023193359 0.083019673824310303
0.15460376441478729 0.23613415658473969 0.052106123417615891
0.62896758317947388 0.27070334553718567 0
0.85658323764801025 0.27364820241928101 0
0.99999582767486572 0.30991557240486145 0
0 0.52585512399673462 0.19423486292362213
6.3832476371317171e-06 0.52213287353515625 0.20385980606079102
0.5068705677986145 0.57043558359146118 0.10813870280981064
0.84803259372711182 0.56952893733978271 0
1 0.50828200578689575 0
0.16223765909671783 0.73711889982223511 0.37913930416107178
0.28180977702140808 0.73202162981033325 0.38494530320167542
0.47093382477760315 0.74041372537612915 0.3739582896232605
0.72233772277832031 0.76894247531890869 0.31672480702400208
0.98628520965576172 0.78381431102752686 0.21391908824443817
0.61650460958480835 0.91152745485305786 0.68439680337905884
0.637931227684021 0.91093182563781738 0.68948638439178467
0.69312995672225952 0.90957123041152954 0.7024877667427063
0.78035914897918701 0.92638969421386719 0.69050192832946777
0.91830539703369141 0.94837707281112671 0.66770190000534058
0 0.045294418931007385 0.23293492197990417
0.19600026309490204 0.048069443553686142 0.24006620049476624
0.57678902149200439 0 0.20491667091846466
0.8192254900932312 0.05099814385175705 0.18756890296936035
0.99944436550140381 0.18969254195690155 0.14275853335857391
0 0.2523726224899292 0.26159623265266418
0.22573290765285492 0.27158913016319275 0.28099507093429565
0.61244726181030273 0.26991677284240723 0.24631200730800629
0.8409503698348999 0.2720501720905304 0.1953805685043335
0.99999582767486572 0.3098452091217041 0.14121231436729431
0.078881457448005676 0.56358325481414795 0.36694103479385376
0.24552054703235626 0.55621194839477539 0.3585650622844696
0.54481834173202515 0.57892364263534546 0.32511985301971436
0.85153013467788696 0.55737912654876709 0.21854081749916077
0.99995285272598267 0.51355016231536865 0.13639770448207855
0.32614758610725403 0.7466360330581665 0.47097539901733398
0.38975101709365845 0.74209761619567871 0.47502651810646057
0.51774626970291138 0.74069356918334961 0.47130578756332397
0.73463565111160278 0.77045243978500366 0.43572872877120972
0.98396462202072144 0.78235280513763428 0.36061814427375793
0.63375246524810791 0.91333872079849243 0.70784145593643188
0.6536216139793396 0.91288548707962036 0.71203607320785522
0.70494431257247925 0.91056919097900391 0.72237896919250488
0.78806555271148682 0.92613965272903442 0.71592003107070923
0.92106044292449951 0.94887906312942505 0.69657069444656372
0 0.094403095543384552 0.56029164791107178
0.1767871230840683 0.1004578024148941 0.56546956300735474
0.60570508241653442 0.08149796724319458 0.57880318164825439
0.85816109180450439 0.157464399933815 0.51077395677566528
1 0.12702129781246185 0.42177072167396545
0 0.31802952289581299 0.57751786708831787
0.21663455665111542 0.31020587682723999 0.59097784757614136
0.62150001525878906 0.3374292254447937 0.59283030033111572
0.84980267286300659 0.36089238524436951 0.53125172853469849
1 0.30467268824577332 0.43672510981559753
0.088496647775173187 0.59495043754577637 0.58783233165740967
0.36620557308197021 0.59979444742202759 0.59661173820495605
0.61863791942596436 0.60138571262359619 0.60547786951065063
0.81364315748214722 0.56867319345474243 0.54457741975784302
0.99052971601486206 0.54672414064407349 0.48092231154441833
0.50788205862045288 0.7704041600227356 0.6497657299041748
0.56032991409301758 0.76873809099197388 0.65763384103775024
0.61607998609542847 0.7551950216293335 0.64000314474105835
0.76281118392944336 0.7757270336151123 0.62922084331512451
0.98229748010635376 0.77315366268157959 0.56556421518325806
0.67941927909851074 0.91985726356506348 0.76874309778213501
0.68545657396316528 0.92012554407119751 0.76452529430389404
0.72974485158920288 0.91745740175247192 0.76882129907608032
0.80454719066619873 0.92520302534103394 0.77247720956802368
0.9288826584815979 0.95043802261352539 0.7598721981048584
0 0.2059217095375061 0.79626107215881348
0.19975541532039642 0.21882231533527374 0.79676586389541626
0.57654708623886108 0.26199603080749512 0.79421496391296387
0.82785606384277344 0.33927682042121887 0.79232072830200195
0.99041616916656494 0.43570071458816528 0.74889904260635376
0 0.35827341675758362 0.79522216320037842
0.28461888432502747 0.37132725119590759 0.79606437683105469
0.59572851657867432 0.41145706176757812 0.79460602998733521
0.82296335697174072 0.46653413772583008 0.79375594854354858
0.98091793060302734 0.52531552314758301 0.75773191452026367
0.14918604493141174 0.58547359704971313 0.77192926406860352
0.36283344030380249 0.59201329946517944 0.7761109471321106
0.60171473026275635 0.60254567861557007 0.78584545850753784
0.80992347002029419 0.64191168546676636 0.7931143045425415
0.96463125944137573 0.66508692502975464 0.77166634798049927
0.46644088625907898 0.78391647338867188 0.78624421358108521
0.52675318717956543 0.78468424081802368 0.78836047649383545
0.65579533576965332 0.78528374433517456 0.79198974370956421
0.80841350555419922 0.79074448347091675 0.80203622579574585
0.96061331033706665 0.76228028535842896 0.75554156303405762
0.70908868312835693 0.93411380052566528 0.84899944067001343
0.72806483507156372 0.93388253450393677 0.85036629438400269
0.77948105335235596 0.93369764089584351 0.85408633947372437
0.8326604962348938 0.93175202608108521 0.84740561246871948
0.94383794069290161 0.95450210571289062 0.84478664398193359
0.42419585585594177 0.46642366051673889 0.9500008225440979
0.50145745277404785 0.47903299331665039 0.94843018054962158
0.65654134750366211 0.51492214202880859 0.94462907314300537
0.82840412855148315 0.58000427484512329 0.93968623876571655
0.9776340126991272 0.62454211711883545 0.93822109699249268
0.4662851095199585 0.54346972703933716 0.94813227653503418
0.53183966875076294 0.55341249704360962 0.94730174541473389
0.67056506872177124 0.57972234487533569 0.94378846883773804
0.83131992816925049 0.62792366743087769 0.93906432390213013
0.97444838285446167 0.66250455379486084 0.93794798851013184
0.52598780393600464 0.68198341131210327 0.94086182117462158
0.56436783075332642 0.67841160297393799 0.94225543737411499
0.67290282249450684 0.68022066354751587 0.94159066677093506
0.83139008283615112 0.71108788251876831 0.9392351508140564
0.97061395645141602 0.73814284801483154 0.94049757719039917
0.51444005966186523 0.81008833646774292 0.93933159112930298
0.54821419715881348 0.80864721536636353 0.93943578004837036
0.63940608501434326 0.80313146114349365 0.94022440910339355
0.81388795375823975 0.80503839254379272 0.94568347930908203
0.97111612558364868 0.83605509996414185 0.95025080442428589
0.67482906579971313 0.95790338516235352 0.95456063747406006
0.6943013072013855 0.957996666431427 0.95513796806335449
0.7511974573135376 0.95863276720046997 0.95682245492935181
0.84416580200195312 0.95980381965637207 0.96056056022644043
0.97263205051422119 0.96547496318817139 0.96804267168045044
