Textures/82.cube
# Created by: G'MIC (https://gmic.eu)
TITLE "Kodak_Portra_400_VC_2.cube"
# LUT size
LUT_3D_SIZE 33
# Data domain
DOMAIN_MIN 0.0 0.0 0.0
DOMAIN_MAX 1.0 1.0 1.0
# LUT data points
0.026018161326646805 0.039997179061174393 0.04571354016661644
0.029224637895822525 0.040124960243701935 0.046006355434656143
0.035554274916648865 0.041286639869213104 0.046020466834306717
0.048297721892595291 0.042409591376781464 0.045541319996118546
0.070030942559242249 0.04503294825553894 0.04504101350903511
0.095817536115646362 0.048872407525777817 0.043872002512216568
0.12393573671579361 0.052931740880012512 0.042572367936372757
0.15326125919818878 0.057162676006555557 0.040572706609964371
0.18595407903194427 0.061415001749992371 0.038278650492429733
0.22121866047382355 0.064868420362472534 0.035120189189910889
0.2598193883895874 0.067899651825428009 0.031851556152105331
0.30247369408607483 0.069723427295684814 0.027060531079769135
0.34702405333518982 0.070186205208301544 0.021718455478549004
0.39444088935852051 0.069667734205722809 0.015722265467047691
0.44397443532943726 0.067065306007862091 0.0080698784440755844
0.49342027306556702 0.063181892037391663 0.0016100395005196333
0.54164540767669678 0.058053549379110336 9.3624139481107704e-06
0.5878109335899353 0.053453747183084488 0
0.63308066129684448 0.049513086676597595 0
0.67942392826080322 0.049504976719617844 0
0.71708273887634277 0.053054828196763992 0
0.74987757205963135 0.060598690062761307 0
0.77976435422897339 0.070128239691257477 0
0.80714017152786255 0.080889143049716949 0
0.8333737850189209 0.093160562217235565 0
0.85902112722396851 0.10582757741212845 0
0.88358414173126221 0.11901271343231201 0
0.90686333179473877 0.13206015527248383 0
0.93031352758407593 0.14543633162975311 0
0.95221465826034546 0.15818847715854645 0
0.97416120767593384 0.17120710015296936 0
0.993763267993927 0.18349647521972656 0
0.99999380111694336 0.19796134531497955 0
0.026013089343905449 0.043202444911003113 0.046895287930965424
0.028658892959356308 0.044084534049034119 0.046498637646436691
0.036003701388835907 0.04583803191781044 0.046031519770622253
0.051029928028583527 0.048585198819637299 0.045281466096639633
0.073707051575183868 0.052940484136343002 0.044520270079374313
0.099007979035377502 0.057195715606212616 0.043037980794906616
0.12600953876972198 0.062099818140268326 0.041407857090234756
0.15544933080673218 0.066169433295726776 0.039170064032077789
0.18905577063560486 0.071035563945770264 0.036849994212388992
0.2249036580324173 0.074470952153205872 0.033622551709413528
0.26379933953285217 0.077825434505939484 0.029558917507529259
0.30660820007324219 0.079775668680667877 0.025034492835402489
0.35137814283370972 0.080964058637619019 0.019639091566205025
0.39846569299697876 0.080951638519763947 0.013200212270021439
0.44733566045761108 0.079235970973968506 0.0057449368759989738
0.49604538083076477 0.076736435294151306 0.00068188237491995096
0.54346948862075806 0.073227375745773315 0
0.58922934532165527 0.070031784474849701 0
0.63554912805557251 0.067459970712661743 0
0.68053215742111206 0.067966505885124207 0
0.71816092729568481 0.072107516229152679 0
0.75081294775009155 0.078274302184581757 0
0.78024101257324219 0.086220383644104004 0
0.80720919370651245 0.095284715294837952 0
0.83400481939315796 0.10644920170307159 0
0.85947102308273315 0.11757156252861023 0
0.88351058959960938 0.12932871282100677 0
0.90694844722747803 0.14170549809932709 0
0.93011593818664551 0.15394176542758942 0
0.95193564891815186 0.16582231223583221 0
0.97387635707855225 0.17819570004940033 0
0.99342286586761475 0.18985074758529663 0
0.99999552965164185 0.20350660383701324 0
0.024233363568782806 0.049994144588708878 0.048080712556838989
0.026942485943436623 0.050736043602228165 0.047817133367061615
0.033828537911176682 0.053273644298315048 0.047396436333656311
0.04979175329208374 0.058936174958944321 0.045567866414785385
0.074935175478458405 0.064579479396343231 0.043068856000900269
0.1027584969997406 0.069182917475700378 0.04138009250164032
0.1314423680305481 0.073692753911018372 0.039675142616033554
0.16168923676013947 0.07811380922794342 0.037272736430168152
0.19511283934116364 0.082602508366107941 0.034279409795999527
0.23117424547672272 0.086609922349452972 0.031170006841421127
0.27002552151679993 0.089840680360794067 0.027346158400177956
0.31252321600914001 0.092209555208683014 0.022077234461903572
0.35704630613327026 0.093822404742240906 0.016607847064733505
0.40416073799133301 0.094826444983482361 0.010150053538382053
0.45270431041717529 0.094059489667415619 0.0031948212999850512
0.50036042928695679 0.092347718775272369 0.00012660537322517484
0.54759770631790161 0.090086832642555237 0
0.59344106912612915 0.08794625848531723 0
0.64109927415847778 0.087080873548984528 0
0.68450736999511719 0.088637650012969971 0
0.72049647569656372 0.091885969042778015 0
0.75245314836502075 0.097148001194000244 0
0.78190886974334717 0.10417567193508148 0
0.80944335460662842 0.11243486404418945 0
0.83569800853729248 0.12178974598646164 0
0.86070185899734497 0.1314854621887207 0
0.88490986824035645 0.14259596168994904 0
0.9079095721244812 0.15322588384151459 0
0.93090140819549561 0.16463252902030945 0
0.95199161767959595 0.17550326883792877 0
0.97363805770874023 0.18680518865585327 0
0.99330401420593262 0.19793322682380676 0
0.99999207258224487 0.21112000942230225 0
0.01860542967915535 0.065113052725791931 0.049753215163946152
0.022986520081758499 0.066094428300857544 0.049823053181171417
0.030288664624094963 0.068939089775085449 0.048720099031925201
0.045411594212055206 0.073886752128601074 0.046628396958112717
0.071652993559837341 0.082219116389751434 0.042991682887077332
0.10319965332746506 0.08905252069234848 0.039636526256799698
0.13648055493831635 0.092819243669509888 0.036643732339143753
0.16983060538768768 0.095452278852462769 0.034023229032754898
0.20373235642910004 0.099123969674110413 0.030900493264198303
0.24017179012298584 0.10302545875310898 0.027428727596998215
0.27961063385009766 0.10664946585893631 0.022984620183706284
0.32283419370651245 0.10968188941478729 0.017789432778954506
0.36770248413085938 0.11173321306705475 0.01160531397908926
0.41479367017745972 0.1129789873957634 0.0047573130577802658
0.46375766396522522 0.11277198046445847 0.00056637503439560533
0.51184576749801636 0.11200720816850662 0
0.55872178077697754 0.11094861477613449 0
0.60617518424987793 0.11061051487922668 0
0.65347760915756226 0.1113278716802597 0
0.69441348314285278 0.11322282999753952 0
0.72922611236572266 0.11677113920450211 0
0.75997292995452881 0.12173760682344437 0
0.78810954093933105 0.12774217128753662 0
0.81460839509963989 0.13405708968639374 0
0.84046894311904907 0.14267918467521667 0
0.86551398038864136 0.1514049768447876 0
0.88880664110183716 0.16058573126792908 0
0.91203266382217407 0.17050023376941681 0
0.93458271026611328 0.18085598945617676 0
0.95619577169418335 0.19106477499008179 0
0.97738826274871826 0.20122577250003815 0
0.99597287178039551 0.21128684282302856 0
1 0.22398483753204346 0
0.0078999549150466919 0.085645362734794617 0.051230635493993759
0.013860807754099369 0.086030736565589905 0.051751695573329926
0.022403772920370102 0.087985903024673462 0.051228713244199753
0.03703070804476738 0.092173673212528229 0.048747465014457703
0.060095146298408508 0.097477219998836517 0.045649141073226929
0.092467494308948517 0.10695697367191315 0.040363386273384094
0.12896768748760223 0.11563059687614441 0.035281363874673843
0.16723766922950745 0.11936184763908386 0.030539287254214287
0.20819194614887238 0.1209561824798584 0.026555472984910011
0.24766084551811218 0.12335146218538284 0.02261912077665329
0.28858062624931335 0.12700119614601135 0.017857687547802925
0.33222651481628418 0.1303962767124176 0.012004155665636063
0.37746381759643555 0.13298897445201874 0.0055948728695511818
0.42485800385475159 0.13474352657794952 0.0011587860062718391
0.47297525405883789 0.13576683402061462 3.3477725082775578e-05
0.51935684680938721 0.13531588017940521 0
0.56681728363037109 0.13514329493045807 0
0.61644071340560913 0.13622227311134338 0
0.66083192825317383 0.13771557807922363 0
0.69937324523925781 0.13952133059501648 0
0.73262792825698853 0.14270766079425812 0
0.76242291927337646 0.14678783714771271 0
0.79029548168182373 0.15122458338737488 0
0.81646513938903809 0.15709595382213593 0
0.84211820363998413 0.16411390900611877 0
0.86635440587997437 0.17136439681053162 0
0.88986974954605103 0.17919978499412537 0
0.91291964054107666 0.18820829689502716 0
0.93498164415359497 0.19705131649971008 0
0.95620262622833252 0.20605182647705078 0
0.97739452123641968 0.21495230495929718 0
0.99586361646652222 0.22438722848892212 0
1 0.23581881821155548 0
0.00017823671805672348 0.11241214722394943 0.055218171328306198
0.0025298444088548422 0.11239932477474213 0.05620080977678299
0.0093552647158503532 0.11218157410621643 0.056311864405870438
0.023854291066527367 0.1158202663064003 0.053820881992578506
0.047795295715332031 0.12067133188247681 0.049889560788869858
0.078442297875881195 0.12703782320022583 0.044798105955123901
0.11805327981710434 0.13836127519607544 0.037189461290836334
0.16106085479259491 0.14842669665813446 0.028800267726182938
0.20508201420307159 0.15281923115253448 0.02246374636888504
0.25089967250823975 0.15407745540142059 0.016028478741645813
0.29675567150115967 0.15388393402099609 0.010184461250901222
0.34243118762969971 0.15522103011608124 0.0051354900933802128
0.38833171129226685 0.15827241539955139 0.0010107717243954539
0.43607449531555176 0.16059236228466034 1.1773945516324602e-05
0.48389822244644165 0.16171412169933319 0
0.53144890069961548 0.16241301596164703 0
0.58269131183624268 0.16397389769554138 0
0.62972384691238403 0.16591773927211761 0
0.67075061798095703 0.16719056665897369 0
0.70708268880844116 0.1690521240234375 0
0.73933035135269165 0.17179311811923981 0
0.76814335584640503 0.17497088015079498 0
0.79513239860534668 0.17872580885887146 0
0.82047122716903687 0.18316802382469177 0
0.84545153379440308 0.18896445631980896 0
0.86953765153884888 0.19515159726142883 0
0.89246273040771484 0.20212198793888092 0
0.91512501239776611 0.20927546918392181 0
0.9370959997177124 0.21707648038864136 0
0.95778310298919678 0.22422464191913605 0
0.97850930690765381 0.2324436753988266 0
0.99664527177810669 0.24089086055755615 0
0.99999141693115234 0.25155350565910339 0
0 0.14105036854743958 0.062193427234888077
0 0.14159910380840302 0.06386537104845047
0.00030019602854736149 0.14029935002326965 0.064778923988342285
0.0076494170352816582 0.14235998690128326 0.063156403601169586
0.029656356200575829 0.14707088470458984 0.058605775237083435
0.062940932810306549 0.1527073085308075 0.052872385829687119
0.099827282130718231 0.15963314473628998 0.045572709292173386
0.14464037120342255 0.17162731289863586 0.03527740016579628
0.19611914455890656 0.18499375879764557 0.022355785593390465
0.24470630288124084 0.18999643623828888 0.012484670616686344
0.29570883512496948 0.19229522347450256 0.0042884703725576401
0.34968987107276917 0.1912311315536499 0.00039909683982841671
0.40010294318199158 0.18931879103183746 2.2980471840128303e-05
0.44887402653694153 0.19035454094409943 0
0.50047057867050171 0.19275914132595062 0
0.55308681726455688 0.1957482248544693 0
0.60167199373245239 0.19766834378242493 0
0.6449626088142395 0.19875960052013397 0
0.68270158767700195 0.19994448125362396 0
0.71637201309204102 0.20128221809864044 0
0.74702292680740356 0.20333680510520935 0
0.77446413040161133 0.20530155301094055 0
0.80087590217590332 0.2081148773431778 0
0.82535278797149658 0.21189616620540619 0
0.84954416751861572 0.21585929393768311 0
0.87335306406021118 0.22110281884670258 0
0.89553052186965942 0.22636047005653381 0
0.9177626371383667 0.23241449892520905 0
0.93953627347946167 0.23922485113143921 0
0.96051555871963501 0.24570159614086151 0
0.98126614093780518 0.25273579359054565 0
0.99809080362319946 0.25994694232940674 0
0.99996143579483032 0.27022111415863037 0
0 0.17021611332893372 0.071696721017360687
0 0.17120960354804993 0.073303192853927612
0 0.16973812878131866 0.074311330914497375
0.00018458014528732747 0.16941070556640625 0.074558794498443604
0.0087604541331529617 0.17410166561603546 0.070626258850097656
0.040327586233615875 0.17971418797969818 0.065436065196990967
0.081003673374652863 0.18671754002571106 0.058247309178113937
0.12384125590324402 0.19516807794570923 0.048727259039878845
0.17587381601333618 0.20852601528167725 0.034453630447387695
0.23524442315101624 0.2252705842256546 0.016041755676269531
0.28893390297889709 0.23148609697818756 0.0035972846671938896
0.34559041261672974 0.23367764055728912 7.4899311584886163e-05
0.40455365180969238 0.23350892961025238 0
0.46517994999885559 0.23140203952789307 0
0.52123624086380005 0.23012508451938629 0
0.57023626565933228 0.23058368265628815 0
0.61549782752990723 0.23197394609451294 0
0.65580052137374878 0.23291949927806854 0
0.6911691427230835 0.23323124647140503 0
0.72284197807312012 0.23388537764549255 0
0.75195825099945068 0.23471425473690033 0
0.77873897552490234 0.2358735054731369 0
0.80403679609298706 0.23776134848594666 0
0.82835179567337036 0.24009357392787933 0
0.85218691825866699 0.24326299130916595 0
0.87522447109222412 0.24728673696517944 0
0.89748942852020264 0.25165602564811707 0
0.91916847229003906 0.25677123665809631 0
0.94062298536300659 0.26182177662849426 0
0.96126705408096313 0.26741701364517212 0
0.98145025968551636 0.27324992418289185 0
0.99805128574371338 0.27973455190658569 0
0.99995720386505127 0.28814592957496643 0
0 0.20660305023193359 0.083019673824310303
0 0.20784342288970947 0.084633663296699524
0 0.20636425912380219 0.085440680384635925
0 0.20480827987194061 0.086953401565551758
5.1312948926351964e-05 0.20697866380214691 0.084433488547801971
0.011628043837845325 0.21262915432453156 0.079181179404258728
0.056687343865633011 0.21948324143886566 0.072699591517448425
0.105215884745121 0.22705936431884766 0.063836686313152313
0.15460376441478729 0.23613415658473969 0.052106123417615891
0.21113656461238861 0.2497963011264801 0.034378413110971451
0.28048750758171082 0.2708815336227417 0.0096520008519291878
0.34447690844535828 0.28037792444229126 0.00024769187439233065
0.4078056812286377 0.28464660048484802 0
0.47078454494476318 0.28476127982139587 0
0.531838059425354 0.28106570243835449 0
0.58475399017333984 0.27444693446159363 0
0.62896758317947388 0.27070334553718567 0
0.66687333583831787 0.26998886466026306 0
0.70045232772827148 0.2697196900844574 0
0.73136246204376221 0.26937904953956604 0
0.75973391532897949 0.26935520768165588 0
0.78589910268783569 0.2698509693145752 0
0.81031119823455811 0.27019840478897095 0
0.83361881971359253 0.27155852317810059 0
0.85658323764801025 0.27364820241928101 0
0.87938672304153442 0.27634605765342712 0
0.90100938081741333 0.27958232164382935 0
0.92251789569854736 0.28337481617927551 0
0.94350796937942505 0.28754362463951111 0
0.9637686014175415 0.29188564419746399 0
0.98378366231918335 0.2966635525226593 0
0.99878263473510742 0.30197978019714355 0
0.99999582767486572 0.30991557240486145 0
0 0.24179290235042572 0.093521185219287872
0 0.24445004761219025 0.095833674073219299
0 0.243055060505867 0.096699073910713196
0 0.24120400846004486 0.098204679787158966
0 0.24046693742275238 0.098170831799507141
0.00026731000980362296 0.24555335938930511 0.093383148312568665
0.022758178412914276 0.25246536731719971 0.087253250181674957
0.08120659738779068 0.26154044270515442 0.07928108423948288
0.1375819593667984 0.27284938097000122 0.068980306386947632
0.19483770430088043 0.28524518013000488 0.054408635944128036
0.25972476601600647 0.30114626884460449 0.031871005892753601
0.34044128656387329 0.32452738285064697 0.0038264698814600706
0.40847757458686829 0.33452606201171875 0
0.47135493159294128 0.3365975022315979 0
0.53212553262710571 0.33508417010307312 0
0.58670014142990112 0.32966604828834534 0
0.63523018360137939 0.32034331560134888 0
0.67515921592712402 0.31112542748451233 0
0.70788115262985229 0.30649733543395996 0
0.73791646957397461 0.30501863360404968 0
0.76522547006607056 0.30431091785430908 0
0.79055178165435791 0.30340296030044556 0
0.8149915337562561 0.30243763327598572 0
0.83823800086975098 0.30323272943496704 0
0.86053758859634399 0.30413815379142761 0
0.8828539252281189 0.30594214797019958 0
0.90370410680770874 0.30808725953102112 0
0.92488449811935425 0.31067544221878052 0
0.94564944505691528 0.31385380029678345 0
0.96562707424163818 0.31702136993408203 0
0.98594141006469727 0.32120901346206665 0
0.99948716163635254 0.32519897818565369 0
1 0.33276519179344177 0
0 0.28046312928199768 0.10488255321979523
0 0.28440341353416443 0.10770013183355331
0 0.28361335396766663 0.10828901827335358
0 0.28263500332832336 0.11006180942058563
0 0.28123244643211365 0.11173418164253235
0 0.28561964631080627 0.10988926887512207
0.0018205288797616959 0.29372850060462952 0.10407599806785583
0.048269461840391159 0.30343958735466003 0.096915826201438904
0.11914800107479095 0.31409963965415955 0.087232001125812531
0.18045656383037567 0.32558754086494446 0.073888838291168213
0.24265055358409882 0.33762243390083313 0.055813349783420563
0.31302773952484131 0.35194838047027588 0.027465596795082092
0.39854332804679871 0.37570673227310181 0.0023579075932502747
0.46854940056800842 0.38553410768508911 0
0.52801364660263062 0.38515451550483704 0
0.58105462789535522 0.38069957494735718 0
0.62955105304718018 0.37321498990058899 0
0.67315733432769775 0.36361923813819885 0
0.71007221937179565 0.35199907422065735 0
0.74192333221435547 0.34241199493408203 0
0.76892811059951782 0.33861306309700012 0
0.79369360208511353 0.33709841966629028 0
0.81723958253860474 0.33516600728034973 0
0.84072130918502808 0.33514705300331116 0
0.86319845914840698 0.33481639623641968 0
0.88465803861618042 0.3355163037776947 0
0.90541166067123413 0.33620676398277283 0
0.92616426944732666 0.33786100149154663 0
0.94668763875961304 0.3399176299571991 0
0.96627014875411987 0.3421434760093689 0
0.98613125085830688 0.34499984979629517 0
0.99948382377624512 0.34831821918487549 0
1 0.35398682951927185 0
0 0.32993507385253906 0.11980064958333969
0 0.33471867442131042 0.12251728773117065
0 0.33392494916915894 0.12367739528417587
0 0.33271250128746033 0.12514092028141022
0 0.33079424500465393 0.12727536261081696
0 0.33022761344909668 0.12760166823863983
0 0.33629882335662842 0.12251320481300354
0.012818381190299988 0.34428918361663818 0.11500422656536102
0.090641811490058899 0.35278251767158508 0.10560642182826996
0.1597309410572052 0.36227566003799438 0.094161532819271088
0.22330355644226074 0.37297508120536804 0.078826464712619781
0.28920596837997437 0.38374307751655579 0.056673053652048111
0.35989660024642944 0.39641657471656799 0.025273550301790237
0.44642660021781921 0.41906842589378357 0.0018371940823271871
0.51884657144546509 0.43074718117713928 0
0.57329022884368896 0.42911058664321899 0
0.62219327688217163 0.42415708303451538 0
0.66532003879547119 0.41589081287384033 0
0.70455384254455566 0.40587708353996277 0
0.7416006326675415 0.39506828784942627 0
0.77300125360488892 0.38287562131881714 0
0.79927408695220947 0.37442705035209656 0
0.82268244028091431 0.37095475196838379 0
0.84526991844177246 0.36959263682365417 0
0.86695873737335205 0.36834603548049927 0
0.88901597261428833 0.36793723702430725 0
0.91004908084869385 0.36814042925834656 0
0.93047243356704712 0.36848762631416321 0
0.95041728019714355 0.36946830153465271 0
0.97019219398498535 0.3707403838634491 0
0.989757239818573 0.37249425053596497 0
0.99995285272598267 0.3746582567691803 0
0.99998295307159424 0.38061240315437317 0
0 0.37246778607368469 0.13290964066982269
0 0.38005214929580688 0.13675114512443542
0 0.37882107496261597 0.13769279420375824
0 0.37716341018676758 0.13865914940834045
0 0.37466186285018921 0.14042459428310394
0 0.37213709950447083 0.14246463775634766
0 0.37469446659088135 0.1396058201789856
0.00032659462885931134 0.38200724124908447 0.13260252773761749
0.053965151309967041 0.39041611552238464 0.12476518750190735
0.1392686516046524 0.39968714118003845 0.11436985433101654
0.20698592066764832 0.40971249341964722 0.10146620124578476
0.27312061190605164 0.41983559727668762 0.083778396248817444
0.34023588895797729 0.43003380298614502 0.059383552521467209
0.41041874885559082 0.44098111987113953 0.024498293176293373
0.49525186419487 0.46181395649909973 0.0015843503642827272
0.56454747915267944 0.47358423471450806 0
0.61309307813644409 0.46972638368606567 0
0.65609759092330933 0.46288225054740906 0
0.69549983739852905 0.45435941219329834 0
0.73235142230987549 0.44442218542098999 0
0.76609820127487183 0.43342232704162598 0
0.79670554399490356 0.4210723340511322 0
0.82376289367675781 0.4090922474861145 0
0.84735602140426636 0.40248450636863708 0
0.86912339925765991 0.40036237239837646 0
0.8905215859413147 0.39898604154586792 0
0.91069656610488892 0.39776507019996643 0
0.93138432502746582 0.39756792783737183 0
0.95168638229370117 0.39736571907997131 0
0.97088128328323364 0.39767175912857056 0
0.99071353673934937 0.39834421873092651 0
0.99991852045059204 0.4001082181930542 0
0.99998760223388672 0.40466603636741638 0
0 0.41591575741767883 0.14741699397563934
0 0.42190703749656677 0.15068410336971283
0 0.42108547687530518 0.15160176157951355
0 0.41913169622421265 0.15299554169178009
0 0.41726219654083252 0.15430007874965668
0 0.41483235359191895 0.15634512901306152
0 0.41414844989776611 0.15708711743354797
0 0.41989481449127197 0.15166184306144714
0.021025795489549637 0.42710360884666443 0.14407692849636078
0.11589223146438599 0.43560394644737244 0.13515652716159821
0.18940342962741852 0.44454634189605713 0.12381672859191895
0.25654575228691101 0.453370600938797 0.10918772965669632
0.32209962606430054 0.46261027455329895 0.090877920389175415
0.3882300853729248 0.47154641151428223 0.065530300140380859
0.45639362931251526 0.48034307360649109 0.028121644631028175
0.53350567817687988 0.49752989411354065 0.0023168895859271288
0.60159605741500854 0.51096874475479126 2.8370953941703192e-07
0.64541023969650269 0.50638598203659058 0
0.68481349945068359 0.4992135763168335 0
0.72208857536315918 0.4904535710811615 0
0.75601857900619507 0.48058366775512695 0
0.78790801763534546 0.46983680129051208 0
0.81831139326095581 0.45754984021186829 0
0.8458322286605835 0.44558316469192505 0
0.86998146772384644 0.43499171733856201 0
0.89172226190567017 0.43001219630241394 0
0.91218018531799316 0.42818248271942139 0
0.9322393536567688 0.42650660872459412 0
0.95193541049957275 0.42560714483261108 0
0.97155827283859253 0.42528140544891357 0
0.99131232500076294 0.42512595653533936 0
0.99998718500137329 0.42576372623443604 0
0.99999541044235229 0.42886713147163391 0
0 0.45276045799255371 0.16099515557289124
0 0.46087646484375 0.16526679694652557
0 0.4607032835483551 0.16652320325374603
0 0.4597688615322113 0.168050616979599
0 0.45723137259483337 0.16862933337688446
0 0.4544224739074707 0.17042309045791626
0 0.4519406259059906 0.17249882221221924
0 0.45385614037513733 0.17013579607009888
0.0036551379598677158 0.45967885851860046 0.16278037428855896
0.086995989084243774 0.46683120727539062 0.15492573380470276
0.17012430727481842 0.47485142946243286 0.14532470703125
0.23902203142642975 0.48329401016235352 0.13334137201309204
0.30262851715087891 0.49147516489028931 0.11883000284433365
0.36640116572380066 0.49956813454627991 0.10022576898336411
0.43130594491958618 0.50786894559860229 0.075140200555324554
0.49543187022209167 0.51568520069122314 0.038945388048887253
0.56677979230880737 0.53020721673965454 0.0060450038872659206
0.63223695755004883 0.54444628953933716 6.383464096870739e-06
0.67481875419616699 0.54176217317581177 0
0.71254599094390869 0.5347743034362793 0
0.74700134992599487 0.52586805820465088 0
0.77896225452423096 0.51625597476959229 0
0.81006509065628052 0.50548911094665527 0
0.83911311626434326 0.49437329173088074 0
0.86673259735107422 0.48270887136459351 0
0.89239895343780518 0.47052198648452759 0
0.91444158554077148 0.46170386672019958 0
0.93494117259979248 0.45791858434677124 0
