Textures/83.cube
# Created by: G'MIC (https://gmic.eu)
TITLE "Kodak_Portra_800_2.cube"
# LUT size
LUT_3D_SIZE 5
# Data domain
DOMAIN_MIN 0.0 0.0 0.0
DOMAIN_MAX 1.0 1.0 1.0
# LUT data points
0.020315222442150116 0.027508221566677094 0.027782808989286423
0.21459713578224182 0.034181844443082809 0.021027609705924988
0.62057924270629883 0 0
0.95456278324127197 0 0
0.99999380111694336 0.15236096084117889 0
0 0.19108830392360687 0.05315835028886795
0.16466754674911499 0.22228638827800751 0.012684809975326061
0.61534017324447632 0.26843550801277161 0
0.93609011173248291 0.30781164765357971 0
0.99999582767486572 0.35847216844558716 0
0 0.45741662383079529 0.050520747900009155
0 0.45477944612503052 0.038469560444355011
0.48758864402770996 0.54464185237884521 0
0.87035650014877319 0.61311471462249756 0
1 0.61530172824859619 0
0 0.72690260410308838 0.075125418603420258
0 0.72045081853866577 0.063278183341026306
0.36594721674919128 0.7426067590713501 0
0.74575763940811157 0.80277740955352783 0
1 0.84085291624069214 0
0.29408106207847595 0.9678385853767395 0.45011052489280701
0.36941462755203247 0.96713471412658691 0.45112848281860352
0.52150285243988037 0.96568673849105835 0.45270484685897827
0.72499758005142212 0.97914141416549683 0.39012917876243591
0.94964087009429932 0.98821908235549927 0.12609529495239258
0.00037872270331718028 0.031362339854240417 0.23251563310623169
0.23302263021469116 0.00871314387768507 0.24336226284503937
0.63040190935134888 0 0.23615208268165588
0.95567494630813599 0 0.20997822284698486
0.99998295307159424 0.087377451360225677 0.1831556111574173
0 0.22076402604579926 0.22179688513278961
0.2165999710559845 0.23848266899585724 0.23471999168395996
0.63438212871551514 0.2395709753036499 0.22878693044185638
0.93815195560455322 0.27160206437110901 0.20284022390842438
0.99999582767486572 0.34322404861450195 0.16307589411735535
0 0.50537681579589844 0.26037091016769409
0.067244797945022583 0.49631062150001526 0.23713301122188568
0.51622921228408813 0.55312681198120117 0.18481481075286865
0.87454092502593994 0.60369777679443359 0.14311376214027405
0.99995285272598267 0.61240971088409424 0.11844337731599808
0 0.74479484558105469 0.26325967907905579
0 0.73843908309936523 0.25496783852577209
0.38651502132415771 0.74237167835235596 0.2241072952747345
0.7525438666343689 0.80470329523086548 0.11910511553287506
1 0.83805805444717407 0.0038952373433858156
0.34102290868759155 0.96853601932525635 0.51950979232788086
0.402965247631073 0.96774750947952271 0.51915198564529419
0.53664982318878174 0.96536844968795776 0.51708030700683594
0.72863620519638062 0.97740030288696289 0.47807604074478149
0.94887757301330566 0.98744094371795654 0.32493406534194946
0 0.015697767958045006 0.58830666542053223
0.27878299355506897 0 0.60036724805831909
0.67550629377365112 0 0.62836599349975586
0.94552838802337646 0 0.59280174970626831
1 0 0.53948515653610229
0 0.23404218256473541 0.5758095383644104
0.25499242544174194 0.24250759184360504 0.59369480609893799
0.66371893882751465 0.21963003277778625 0.61841326951980591
0.93504452705383301 0.17594850063323975 0.58472722768783569
1 0.2881009578704834 0.544300377368927
0 0.55075246095657349 0.54504108428955078
0.2611309289932251 0.56065821647644043 0.55362462997436523
0.5824311375617981 0.57723408937454224 0.56710636615753174
0.87210816144943237 0.60383814573287964 0.57318860292434692
0.99995285272598267 0.63367098569869995 0.57357972860336304
0.29293322563171387 0.78234076499938965 0.58611792325973511
0.390718013048172 0.78108173608779907 0.586334228515625
0.48671364784240723 0.7642967700958252 0.52884644269943237
0.76787477731704712 0.8099513053894043 0.5232158899307251
0.99998718500137329 0.834908127784729 0.54696428775787354
0.46325191855430603 0.97016054391860962 0.67968922853469849
0.47974768280982971 0.97061687707901001 0.66710984706878662
0.57796585559844971 0.96825104951858521 0.65744888782501221
0.73776000738143921 0.97363793849945068 0.64399957656860352
0.94839096069335938 0.98649245500564575 0.58645617961883545
0.14485639333724976 0 0.86170673370361328
0.38068026304244995 0 0.86510330438613892
0.68125230073928833 0 0.87312358617782593
0.93712794780731201 0 0.88244026899337769
1 0 0.84452265501022339
0.10350009799003601 0.24706372618675232 0.85427230596542358
0.36747744679450989 0.2443016916513443 0.85817849636077881
0.66911673545837402 0.25038221478462219 0.86698561906814575
0.92218935489654541 0.29041400551795959 0.87733936309814453
1 0.31149342656135559 0.84157383441925049
0 0.53858315944671631 0.81633824110031128
0.21009315550327301 0.5418134331703186 0.82195079326629639
0.60648989677429199 0.57698577642440796 0.83768928050994873
0.87138938903808594 0.62356257438659668 0.85812729597091675
0.99999934434890747 0.62894552946090698 0.83542782068252563
0.31111931800842285 0.80460447072982788 0.80417448282241821
0.4158061146736145 0.80650776624679565 0.80607187747955322
0.6059454083442688 0.8122483491897583 0.81144672632217407
0.80777454376220703 0.82772952318191528 0.82524377107620239
0.99858617782592773 0.85140341520309448 0.84184324741363525
0.61834681034088135 0.97258287668228149 0.85993432998657227
0.64532011747360229 0.97224295139312744 0.86008632183074951
0.71414697170257568 0.97153890132904053 0.85809862613677979
0.77678376436233521 0.97153198719024658 0.82645690441131592
0.95480996370315552 0.98491775989532471 0.8218986988067627
0.44548764824867249 0.12209110707044601 0.99995285272598267
0.53255832195281982 0.11922533810138702 1
0.71052253246307373 0.13875465095043182 0.99999380111694336
0.90555304288864136 0.24044810235500336 0.99993139505386353
0.99995285272598267 0.32389596104621887 0.99995285272598267
0.44859358668327332 0.3275580108165741 0.99994665384292603
0.53252160549163818 0.33292511105537415 1
0.70417040586471558 0.35506165027618408 1
0.89418333768844604 0.42076504230499268 1
1 0.47660943865776062 1
0.4015524685382843 0.58784693479537964 0.99917465448379517
0.5046464204788208 0.60222315788269043 0.99888837337493896
0.67765027284622192 0.61985713243484497 0.99874085187911987
0.86556816101074219 0.65833365917205811 0.99818795919418335
0.99999141693115234 0.69233500957489014 0.99835902452468872
0.37618103623390198 0.80917954444885254 0.98712462186813354
0.44366282224655151 0.80834019184112549 0.98754590749740601
0.59641551971435547 0.80552554130554199 0.98825919628143311
0.83323287963867188 0.83697551488876343 0.98869448900222778
0.99556916952133179 0.86936146020889282 0.99025100469589233
0.64534932374954224 0.9788774847984314 0.97960638999938965
0.67387878894805908 0.97901886701583862 0.97988009452819824
0.75073236227035522 0.97926968336105347 0.98021012544631958
0.86028265953063965 0.98084712028503418 0.98152321577072144
0.9809190034866333 0.9859587550163269 0.98539268970489502
