Textures/83.cube
# Created by: G'MIC (https://gmic.eu)
TITLE "Kodak_Portra_800_2.cube"
# LUT size
LUT_3D_SIZE 33
# Data domain
DOMAIN_MIN 0.0 0.0 0.0
DOMAIN_MAX 1.0 1.0 1.0
# LUT data points
0.020315222442150116 0.027508221566677094 0.027782808989286423
0.032295893877744675 0.02815631777048111 0.0270717553794384
0.0485086590051651 0.029346449300646782 0.027037020772695541
0.070523828268051147 0.0307291429489851 0.02630239725112915
0.094628319144248962 0.032841969281435013 0.025657461956143379
0.12038951367139816 0.034459423273801804 0.024808276444673538
0.14889280498027802 0.035913955420255661 0.024177126586437225
0.17978571355342865 0.03613768145442009 0.022667188197374344
0.21459713578224182 0.034181844443082809 0.021027609705924988
0.25407469272613525 0.029699003323912621 0.019074058160185814
0.29760828614234924 0.021331608295440674 0.01684996671974659
0.34647640585899353 0.0084493542090058327 0.013505806215107441
0.39774736762046814 0.00055717263603582978 0.0095169078558683395
0.45236217975616455 0 0.0054066046141088009
0.50881540775299072 0 0.0019436893053352833
0.56508916616439819 0 0.00011575350072234869
0.62057924270629883 0 0
0.67381787300109863 0 0
0.7255590558052063 0 0
0.7777591347694397 0 0
0.821907639503479 0 0
0.86041581630706787 0 0
0.89454185962677002 0 0
0.92535316944122314 0 0
0.95456278324127197 0 0
0.98237472772598267 0 0
0.99950987100601196 0 0
1 0.00021960954472888261 0
0.99998295307159424 0.014611787162721157 0
0.99998295307159424 0.059059709310531616 0
0.99995285272598267 0.097428709268569946 0
0.99997198581695557 0.12617860734462738 0
0.99999380111694336 0.15236096084117889 0
0.019286142662167549 0.039581660181283951 0.029753271490335464
0.029348872601985931 0.04156600683927536 0.028211608529090881
0.046909254044294357 0.044698379933834076 0.026891959831118584
0.06865246593952179 0.047060348093509674 0.026260865852236748
0.092551000416278839 0.049186822026968002 0.025829184800386429
0.1183885857462883 0.050876587629318237 0.024518871679902077
0.14676877856254578 0.052480824291706085 0.02342587523162365
0.17811781167984009 0.052889022976160049 0.021824629977345467
0.21376000344753265 0.052596662193536758 0.020489446818828583
0.25374507904052734 0.04893619567155838 0.018170585855841637
0.29733595252037048 0.041806243360042572 0.015494553372263908
0.34623456001281738 0.029591964557766914 0.012433928437530994
0.39768144488334656 0.012441795319318771 0.0083333225920796394
0.45201072096824646 0.00092765339650213718 0.0041952715255320072
0.50808537006378174 0 0.0010837449226528406
0.56362462043762207 0 6.5253188950009644e-05
0.61877524852752686 0 0
0.67210906744003296 0 0
0.72475749254226685 0 0
0.77600002288818359 0 0
0.82065653800964355 0 0
0.85886698961257935 0 0
0.89291024208068848 0 0
0.92377632856369019 0 0
0.95340108871459961 0 0
0.9814375638961792 0 0
0.99922150373458862 0.00031438813311979175 0
0.99999141693115234 0.013317723758518696 0
0.99996143579483032 0.054807532578706741 0
1 0.091328263282775879 0
1 0.12052995711565018 0
0.99996209144592285 0.14455215632915497 0
0.99999552965164185 0.16759020090103149 0
0.017065327614545822 0.05503501370549202 0.032136257737874985
0.025607381016016006 0.056832078844308853 0.030604196712374687
0.041687794029712677 0.060678992420434952 0.028095973655581474
0.065801441669464111 0.064860716462135315 0.025521751493215561
0.089827932417392731 0.066862799227237701 0.024780761450529099
0.11605393141508102 0.068226642906665802 0.024238381534814835
0.1454235166311264 0.070149384438991547 0.023093491792678833
0.17729486525058746 0.071006603538990021 0.021211955696344376
0.21390229463577271 0.070798292756080627 0.019297046586871147
0.25383457541465759 0.068943917751312256 0.017070285975933075
0.29796150326728821 0.064600721001625061 0.01424112357199192
0.34658649563789368 0.055824946612119675 0.010893657803535461
0.39776164293289185 0.04198165237903595 0.0064371614716947079
0.45203834772109985 0.022385809570550919 0.0029495710041373968
0.50788736343383789 0.0046654143370687962 0.00057789660058915615
0.56290429830551147 8.7518412328790873e-05 4.6812069740553852e-06
0.61793398857116699 0 0
0.67144775390625 0 0
0.72523003816604614 0 0
0.77606528997421265 0 0
0.81947332620620728 0 0
0.85728234052658081 0 0
0.89172488451004028 0 0
0.92304003238677979 0 0
0.95257771015167236 0.00019234069623053074 0
0.98023319244384766 0.005648729857057333 0
0.99889767169952393 0.027839105576276779 0
1 0.064486324787139893 0
0.99998295307159424 0.096445761620998383 0
0.99998295307159424 0.12181925028562546 0
0.99995285272598267 0.14491023123264313 0
0.99999707937240601 0.1654355525970459 0
0.99999839067459106 0.18566055595874786 0
0.011201266199350357 0.074921473860740662 0.03432774543762207
0.019983798265457153 0.075627811253070831 0.033756334334611893
0.033705174922943115 0.0787968710064888 0.031260479241609573
0.057028971612453461 0.083055794239044189 0.027429373934864998
0.086440764367580414 0.088739357888698578 0.023208430036902428
0.11464104056358337 0.090809918940067291 0.022354239597916603
0.14408315718173981 0.091502495110034943 0.021896248683333397
0.17627894878387451 0.092176236212253571 0.020797368139028549
0.21241055428981781 0.092465192079544067 0.018694732338190079
0.25306937098503113 0.092036813497543335 0.016052370890974998
0.29816624522209167 0.089543350040912628 0.012527095153927803
0.34778568148612976 0.085107050836086273 0.0085441488772630692
0.39958706498146057 0.076873220503330231 0.0045196427963674068
0.45368286967277527 0.064932197332382202 0.0014808415435254574
0.50996214151382446 0.047245923429727554 0.0001187324378406629
0.56521940231323242 0.026197250932455063 0
0.62038701772689819 0.01041085459291935 0
0.67533421516418457 0.0033431625925004482 0
0.72906053066253662 0.0013497796608135104 0
0.77870404720306396 0.0011203483445569873 0
0.82160782814025879 0.0016604774864390492 0
0.85894596576690674 0.0037623399402946234 0
0.89253878593444824 0.0095608066767454147 0
0.92314130067825317 0.021012429147958755 0
0.95257657766342163 0.042038280516862869 0
0.98078888654708862 0.070398412644863129 0
0.99907821416854858 0.09539012610912323 0
1 0.11826205998659134 0
1 0.1392853856086731 0
0.99998444318771362 0.15802954137325287 0
0.99999845027923584 0.17596536874771118 0
0.99997860193252563 0.19248941540718079 0
1 0.21009275317192078 0
0.0041144913993775845 0.094011224806308746 0.036369942128658295
0.012322490103542805 0.094257272779941559 0.036353457719087601
0.024629956111311913 0.096435531973838806 0.034967582672834396
0.044915661215782166 0.10044661909341812 0.031245673075318336
0.072876967489719391 0.10541539639234543 0.026288172230124474
0.10753577202558517 0.11247058212757111 0.020531339570879936
0.14027315378189087 0.11586171388626099 0.019196506589651108
0.17248399555683136 0.1161486878991127 0.018369255587458611
0.20937484502792358 0.11629407107830048 0.017081405967473984
0.25023698806762695 0.11669007688760757 0.014842850156128407
0.29574638605117798 0.11626667529344559 0.011253518983721733
0.34526601433753967 0.1142561286687851 0.0067280414514243603
0.39747896790504456 0.11022336035966873 0.0028738402761518955
0.45220756530761719 0.10450302064418793 0.00043724954593926668
0.50877600908279419 0.096135951578617096 9.3624139481107704e-06
0.56361281871795654 0.085746347904205322 0
0.61938446760177612 0.074318476021289825 0
0.67588788270950317 0.064173750579357147 0
0.72855901718139648 0.058728989213705063 0
0.77699577808380127 0.05914592370390892 0
0.81917208433151245 0.064628742635250092 0
0.85596060752868652 0.07381092756986618 0
0.88951790332794189 0.085650615394115448 0
0.92039215564727783 0.09932553768157959 0
0.95013529062271118 0.11448667198419571 0
0.97805899381637573 0.13027568161487579 0
0.9983484148979187 0.14600576460361481 0
0.99995285272598267 0.16165663301944733 0
1 0.17721280455589294 0
1 0.19203075766563416 0
1 0.20613299310207367 0
0.99997431039810181 0.22039322555065155 0
1 0.23513577878475189 0
0.00021253121667541564 0.11596741527318954 0.0402870774269104
0.0034573972225189209 0.11614816635847092 0.040386177599430084
0.013824094086885452 0.11680401116609573 0.039734002202749252
0.03226330503821373 0.12021040171384811 0.036237448453903198
0.058899756520986557 0.12486185133457184 0.031180629506707191
0.091544866561889648 0.13102518022060394 0.025140335783362389
0.13190153241157532 0.13978514075279236 0.017281996086239815
0.17007535696029663 0.1445101797580719 0.013659953139722347
0.20792333781719208 0.14533598721027374 0.012583629228174686
0.24831376969814301 0.14516359567642212 0.011207623407244682
0.29265105724334717 0.14472433924674988 0.0087401391938328743
0.34257394075393677 0.14441026747226715 0.0049071628600358963
0.39463704824447632 0.14378634095191956 0.0014984457520768046
0.44921493530273438 0.14178167283535004 0.00012451183283701539
0.50545090436935425 0.13831394910812378 0
0.56165421009063721 0.13426488637924194 0
0.62074261903762817 0.1311391294002533 0
0.67718833684921265 0.12925751507282257 0
0.72849822044372559 0.12964838743209839 0
0.77557814121246338 0.13255350291728973 0
0.81750911474227905 0.13759008049964905 0
0.85402011871337891 0.14383795857429504 0
0.88757628202438354 0.1510501354932785 0
0.91848891973495483 0.15969079732894897 0
0.94793856143951416 0.17008747160434723 0
0.9760473370552063 0.18102788925170898 0
0.99769389629364014 0.19257116317749023 0
1 0.20420888066291809 0
1 0.21642297506332397 0
0.99998444318771362 0.22800491750240326 0
0.99999845027923584 0.23965159058570862 0
1 0.2512136697769165 0
0.99999141693115234 0.2637399435043335 0
0 0.13918988406658173 0.044800173491239548
0 0.13949750363826752 0.04486418142914772
0.0029772173147648573 0.13880670070648193 0.044814243912696838
0.01768389530479908 0.14147239923477173 0.042125873267650604
0.043093495070934296 0.14594052731990814 0.037012666463851929
0.075542241334915161 0.15188053250312805 0.030949322506785393
0.11267993599176407 0.15843847393989563 0.023381218314170837
0.15760444104671478 0.16870169341564178 0.012865296564996243
0.20388850569725037 0.17588405311107635 0.0066359364427626133
0.24599765241146088 0.17732620239257812 0.004971441812813282
0.29131832718849182 0.17829221487045288 0.0035242333542555571
0.3404158353805542 0.17811323702335358 0.0019302035216242075
0.39171439409255981 0.17809540033340454 0.00037242821417748928
0.44613686203956604 0.17833268642425537 0
0.50426894426345825 0.17876486480236053 0
0.56405174732208252 0.17970779538154602 0
0.62224495410919189 0.18050745129585266 0
0.67667686939239502 0.18187181651592255 0
0.7269895076751709 0.18457135558128357 0
0.77413356304168701 0.18865233659744263 0
0.81545692682266235 0.19376596808433533 0
0.85153096914291382 0.19850340485572815 0
0.88485854864120483 0.20430417358875275 0
0.91559547185897827 0.21120928227901459 0
0.94476598501205444 0.21890994906425476 0
0.9732244610786438 0.22738280892372131 0
0.99654358625411987 0.23644156754016876 0
1 0.24594329297542572 0
0.99997431039810181 0.25541308522224426 0
0.99997860193252563 0.26506567001342773 0
1 0.27471166849136353 0
1 0.28383803367614746 0
0.99996143579483032 0.29491105675697327 0
0 0.16298526525497437 0.049264617264270782
0 0.16368536651134491 0.049414787441492081
4.6102795749902725e-06 0.16290591657161713 0.049260318279266357
0.0034145540557801723 0.1633777916431427 0.04794803261756897
0.023676434531807899 0.1677388995885849 0.043858882039785385
0.057357370853424072 0.1735939085483551 0.037817291915416718
0.094638645648956299 0.1803869754076004 0.029551608487963676
0.13617539405822754 0.18826243281364441 0.019539756700396538
0.187633216381073 0.20001229643821716 0.0069571146741509438
0.24177445471286774 0.21064022183418274 0.00072605017339810729
0.28826090693473816 0.21308289468288422 0.00022880066535435617
0.33799561858177185 0.21464577317237854 4.8372472519986331e-05
0.39056473970413208 0.21600288152694702 0
0.44661781191825867 0.21749898791313171 0
0.50526565313339233 0.21940791606903076 0
0.56261444091796875 0.22182142734527588 0
0.61903083324432373 0.22488169372081757 0
0.67245876789093018 0.22825881838798523 0
0.72201001644134521 0.23216158151626587 0
0.76807957887649536 0.23713663220405579 0
0.80905795097351074 0.24184064567089081 0
0.8455926775932312 0.24658669531345367 0
0.87959754467010498 0.25129842758178711 0
0.91091001033782959 0.25707191228866577 0
0.94084131717681885 0.26345899701118469 0
0.96887558698654175 0.27042970061302185 0
0.99408119916915894 0.27780905365943909 0
1 0.28543061017990112 0
1 0.29326358437538147 0
1 0.30079156160354614 0
1 0.30870863795280457 0
1 0.31662988662719727 0
0.99995720386505127 0.32552793622016907 0
0 0.19108830392360687 0.05315835028886795
0 0.19144628942012787 0.053171496838331223
0 0.19078439474105835 0.05310000479221344
2.6597765554470243e-06 0.19013386964797974 0.052992235869169235
0.0040426203049719334 0.19289727509021759 0.049693938344717026
0.032386861741542816 0.19853472709655762 0.043725535273551941
0.074866287410259247 0.2055940181016922 0.035620748996734619
0.11738215386867523 0.21352273225784302 0.025274716317653656
0.16466754674911499 0.22228638827800751 0.012684809975326061
0.22137872874736786 0.23505392670631409 0.0016565260011702776
0.28399953246116638 0.25008317828178406 0
0.33810770511627197 0.25501903891563416 0
0.39211511611938477 0.2589116096496582 0
0.44775134325027466 0.26173484325408936 0
0.50476759672164917 0.26376554369926453 0
0.56061220169067383 0.2655637264251709 0
0.61534017324447632 0.26843550801277161 0
0.66803598403930664 0.27305415272712708 0
0.71697866916656494 0.27828472852706909 0
0.76289945840835571 0.28361985087394714 0
0.803455650806427 0.28868499398231506 0
0.84012919664382935 0.29319706559181213 0
0.87383371591567993 0.29742211103439331 0
0.90553265810012817 0.30221924185752869 0
0.93609011173248291 0.30781164765357971 0
0.96499341726303101 0.31376323103904724 0
0.99108803272247314 0.3194693922996521 0
0.99998718500137329 0.32572993636131287 0
0.99997431039810181 0.33218008279800415 0
0.99997860193252563 0.33833873271942139 0
0.99990558624267578 0.34450975060462952 0
1 0.35079070925712585 0
0.99999582767486572 0.35847216844558716 0
0 0.21916122734546661 0.056093286722898483
0 0.22034510970115662 0.056497987359762192
0 0.21982553601264954 0.056276299059391022
0 0.21857978403568268 0.05635269358754158
0 0.21890117228031158 0.054664891213178635
0.0065125287510454655 0.22441163659095764 0.049352660775184631
0.046654105186462402 0.23155108094215393 0.0411798395216465
0.096067801117897034 0.24001187086105347 0.030523540452122688
0.14576250314712524 0.25025582313537598 0.017094168812036514
0.1998632401227951 0.26158899068832397 0.0031848680227994919
0.26298290491104126 0.27625149488449097 0
0.33475509285926819 0.29495221376419067 0
0.3919263482093811 0.3015284538269043 0
0.44724559783935547 0.3054003119468689 0
0.50351136922836304 0.30881586670875549 0
0.5577847957611084 0.31130969524383545 0
0.61127829551696777 0.31298503279685974 0
0.66209965944290161 0.31599920988082886 0
0.71026802062988281 0.32103478908538818 0
0.75574600696563721 0.32695797085762024 0
0.79618263244628906 0.3317393958568573 0
0.83276522159576416 0.33600631356239319 0
0.86689561605453491 0.34036189317703247 0
0.89921635389328003 0.34500819444656372 0
0.92944830656051636 0.34964942932128906 0
0.95876693725585938 0.3548438549041748 0
0.98605901002883911 0.35975539684295654 0
0.99987012147903442 0.36476078629493713 0
1 0.36995115876197815 0
0.99994003772735596 0.37495681643486023 0
0.99999582767486572 0.380075603723526 0
1 0.38487112522125244 0
1 0.3916904628276825 0
0 0.24934254586696625 0.058223307132720947
0 0.25144690275192261 0.058487977832555771
0 0.25072821974754333 0.05802447721362114
0 0.25036147236824036 0.058240048587322235
0 0.24974170327186584 0.057860109955072403
2.4112632672768086e-05 0.25372713804244995 0.053737208247184753
0.01269009243696928 0.26143854856491089 0.045703306794166565
0.068246327340602875 0.27028441429138184 0.034691821783781052
0.12578862905502319 0.28082019090652466 0.020337367430329323
0.18124400079250336 0.29213598370552063 0.0047370218671858311
0.23997753858566284 0.30410802364349365 2.4966437194962054e-05
0.30763888359069824 0.3186822235584259 0
0.38423195481300354 0.33996394276618958 0
0.44432789087295532 0.34833222627639771 0
0.49974349141120911 0.35195803642272949 0
0.55293577909469604 0.35518002510070801 0
0.60529804229736328 0.35797533392906189 0
0.65532779693603516 0.36128130555152893 0
0.70215582847595215 0.36394751071929932 0
0.74659436941146851 0.36770293116569519 0
0.78697943687438965 0.37203508615493774 0
0.82381296157836914 0.37676480412483215 0
0.85844480991363525 0.38058552145957947 0
0.89128249883651733 0.38490727543830872 0
0.92183953523635864 0.38917496800422668 0
0.95136851072311401 0.39357244968414307 0
0.97910588979721069 0.39763537049293518 0
0.99875509738922119 0.40212458372116089 0
1 0.4062216579914093 0
1 0.40990859270095825 0
0.99990558624267578 0.41429290175437927 0
1 0.41806218028068542 0
1 0.42339104413986206 0
0 0.28603079915046692 0.05952870100736618
0 0.28847870230674744 0.059502985328435898
0 0.28790879249572754 0.059205394238233566
0 0.28709816932678223 0.059238504618406296
0 0.28592783212661743 0.059114474803209305
0 0.28632456064224243 0.057391148060560226
0.00015681148215662688 0.29264608025550842 0.04960191622376442
0.0278813187032938 0.30100524425506592 0.038399972021579742
0.098204970359802246 0.31028619408607483 0.023546833544969559
0.1586531400680542 0.32076069712638855 0.0068634035997092724
0.21769306063652039 0.33227100968360901 7.4046591180376709e-05
0.28022411465644836 0.34480899572372437 0
0.3483426570892334 0.35957664251327515 0
0.42818918824195862 0.38244873285293579 0
0.49250534176826477 0.39399158954620361 0
0.54592812061309814 0.39835914969444275 0
0.5986626148223877 0.40259534120559692 0
0.64810782670974731 0.4061732292175293 0
0.69497239589691162 0.41001877188682556 0
0.7393832802772522 0.41314384341239929 0
0.77931231260299683 0.41515153646469116 0
0.8162505030632019 0.41766756772994995 0
0.85099285840988159 0.42118686437606812 0
0.88412076234817505 0.42546045780181885 0
0.91469818353652954 0.42932423949241638 0
0.94489598274230957 0.43324139714241028 0
0.97303628921508789 0.43728825449943542 0
0.99653530120849609 0.44072872400283813 0
0.99994432926177979 0.44411683082580566 0
0.99995285272598267 0.44712400436401367 0
1 0.45048102736473083 0
0.99995285272598267 0.45331618189811707 0
0.99998295307159424 0.45785370469093323 0
0 0.31985148787498474 0.059219945222139359
0 0.32379907369613647 0.059462264180183411
0 0.32291883230209351 0.059225276112556458
0 0.32193678617477417 0.059068817645311356
0 0.32041963934898376 0.058729082345962524
0 0.31900161504745483 0.058624904602766037
0 0.3222009539604187 0.053061600774526596
0.0023103714920580387 0.33033087849617004 0.041540957987308502
0.059739049524068832 0.33998051285743713 0.026521790772676468
0.13334502279758453 0.35012862086296082 0.0085633713752031326
0.19571906328201294 0.36181652545928955 0.00018937017011921853
0.25870808959007263 0.3741576075553894 0
0.32308083772659302 0.38719639182090759 0
0.39177459478378296 0.40162378549575806 0
0.47359097003936768 0.42593482136726379 0
0.53895670175552368 0.4398006796836853 0
0.59052431583404541 0.44403600692749023 0
0.63968402147293091 0.44831031560897827 0
0.68600606918334961 0.45223045349121094 0
0.72982287406921387 0.45532187819480896 0
0.76943087577819824 0.45708346366882324 0
0.80636000633239746 0.45837220549583435 0
0.84160786867141724 0.45938500761985779 0
0.87487542629241943 0.46235120296478271 0
0.90656739473342896 0.46605810523033142 0
0.93656480312347412 0.46964636445045471 0
0.96489685773849487 0.47234073281288147 0
0.99175918102264404 0.47601065039634705 0
0.99996143579483032 0.47878080606460571 0
0.99995285272598267 0.48140108585357666 0
1 0.48415359854698181 0
0.99991852045059204 0.48661470413208008 0
0.99998760223388672 0.49010050296783447 0
0 0.35566207766532898 0.058358050882816315
0 0.3583686351776123 0.058006860315799713
0 0.3575211763381958 0.057825900614261627
0 0.35670047998428345 0.057699896395206451
0 0.35530903935432434 0.057710956782102585
0 0.35366976261138916 0.057495526969432831
0 0.35372945666313171 0.055120766162872314
0 0.36055973172187805 0.044401112943887711
0.01694960705935955 0.36936557292938232 0.028987333178520203
0.10129234939813614 0.37964174151420593 0.010592157952487469
0.17151659727096558 0.39046156406402588 0.0003202871885150671
0.23593956232070923 0.40232637524604797 0
0.29974526166915894 0.4151797890663147 0
0.3655472993850708 0.42844876646995544 0
0.43457752466201782 0.44256773591041565 0
0.51304960250854492 0.46578148007392883 0
0.5811694860458374 0.48343506455421448 0
0.63037467002868652 0.48863872885704041 0
0.67639100551605225 0.49246674776077271 0
0.71986186504364014 0.49573919177055359 0
0.75946760177612305 0.49778872728347778 0
0.79654258489608765 0.49898189306259155 0
0.83214795589447021 0.49995338916778564 0
0.86586374044418335 0.50102746486663818 0
0.89719802141189575 0.50189316272735596 0
0.9280393123626709 0.5045696496963501 0
0.9565269947052002 0.50756573677062988 0
0.98433291912078857 0.51042723655700684 0
0.99960476160049438 0.51257139444351196 0
0.99995285272598267 0.51490503549575806 0
1 0.51721596717834473 0
0.99998718500137329 0.5189434289932251 0
0.99999541044235229 0.52192080020904541 0
0 0.38878199458122253 0.056183401495218277
0 0.3926318883895874 0.056166604161262512
0 0.39241275191307068 0.055981609970331192
0 0.39149913191795349 0.05607440322637558
0 0.38977509737014771 0.055512607097625732
0 0.38806134462356567 0.055056061595678329
0 0.38594776391983032 0.054830353707075119
0 0.3893665075302124 0.047696411609649658
0.00052899174625054002 0.39736470580101013 0.0319259874522686
0.054364457726478577 0.40703892707824707 0.013397719711065292
0.14217419922351837 0.41784438490867615 0.00075312209082767367
0.21145640313625336 0.42943677306175232 0
0.27536600828170776 0.44152069091796875 0
0.34021869301795959 0.4545452892780304 0
0.40723702311515808 0.46814054250717163 0
0.47449871897697449 0.48228335380554199 0
0.55132043361663818 0.5051109790802002 0
0.61942267417907715 0.52566933631896973 0
0.66695034503936768 0.5317147970199585 0
0.71047955751419067 0.53492730855941772 0
0.75030142068862915 0.53678178787231445 0
0.78739446401596069 0.53844702243804932 0
0.82357925176620483 0.53975600004196167 0
0.85705536603927612 0.5405084490776062 0
0.8892170786857605 0.54111230373382568 0
0.92031830549240112 0.5417521595954895 0
0.94916069507598877 0.5424913763999939 0
0.97708266973495483 0.5446087121963501 0
0.99818217754364014 0.54687356948852539 0
1 0.54912310838699341 0
1 0.55072402954101562 0
1 0.55239826440811157 0
1 0.55485153198242188 0
0 0.42299240827560425 0.053938396275043488
0 0.426809161901474 0.053444944322109222
0 0.42603874206542969 0.053133636713027954
0 0.42529970407485962 0.053190294653177261
0 0.42371556162834167 0.052965559065341949
0 0.4218936562538147 0.052483327686786652
0 0.41962236166000366 0.052155140787363052
0 0.41925185918807983 0.049422536045312881
0 0.42631661891937256 0.035108435899019241
0.013987249694764614 0.43574804067611694 0.016232894733548164
0.10752082616090775 0.4456275999546051 0.0013969577848911285
0.18672552704811096 0.45701968669891357 0
0.25298568606376648 0.46864375472068787 0
0.31785881519317627 0.4812067449092865 0
0.38342756032943726 0.49434834718704224 0
0.44782158732414246 0.50706535577774048 0
0.5144842267036438 0.52121263742446899 0
0.5871848464012146 0.54290604591369629 0
0.65441173315048218 0.56534582376480103 0
0.69955223798751831 0.57038378715515137 0
0.73959577083587646 0.57310253381729126 0
0.77704137563705444 0.57487201690673828 0
0.81333029270172119 0.5763094425201416 0
0.84720849990844727 0.57703548669815063 0
0.87957227230072021 0.5775572657585144 0
0.91091251373291016 0.5779913067817688 0
0.94018000364303589 0.57783234119415283 0
0.96868151426315308 0.57767117023468018 0
0.99383008480072021 0.57855170965194702 0
1 0.5806768536567688 0
0.99998718500137329 0.58224570751190186 0
0.99994862079620361 0.58328944444656372 0
