Textures/84.cube
# Created by: G'MIC (https://gmic.eu)
TITLE "Kodak_Portra_800_HC.cube"
# LUT size
LUT_3D_SIZE 5
# Data domain
DOMAIN_MIN 0.0 0.0 0.0
DOMAIN_MAX 1.0 1.0 1.0
# LUT data points
0.0070167342200875282 0.01006065309047699 0.011044638231396675
0.17636261880397797 0.0014272693078964949 0.0081987390294671059
0.66461390256881714 0 0
0.97232627868652344 0 0
0.99999380111694336 0.060760602355003357 0
0 0.15056635439395905 0.018143655732274055
0.12637682259082794 0.19235982000827789 0
0.66336244344711304 0.21751897037029266 0
0.94868224859237671 0.28258410096168518 0
0.99999582767486572 0.36420845985412598 0
0 0.48786351084709167 0
0 0.48546099662780762 0
0.50560647249221802 0.5795217752456665 0
0.87320631742477417 0.63091760873794556 0
1 0.62456321716308594 0
0 0.74489164352416992 0.00061207683756947517
0 0.73861384391784668 0
0.40776363015174866 0.75344085693359375 0
0.75880414247512817 0.8015512228012085 0
1 0.83312755823135376 0
0.37647745013237 0.9581904411315918 0.49970069527626038
0.4295925498008728 0.95754450559616089 0.50057363510131836
0.54933631420135498 0.95689684152603149 0.50231611728668213
0.72966468334197998 0.97275620698928833 0.44443497061729431
0.95099341869354248 0.9847676157951355 0.20838746428489685
0 0.013558337464928627 0.20192800462245941
0.19923247396945953 0 0.21678631007671356
0.6749383807182312 0 0.1974034309387207
0.96982276439666748 0 0.18010838329792023
0.99998295307159424 0.12257527559995651 0.14241714775562286
0 0.18846853077411652 0.19403031468391418
0.20238804817199707 0.21256676316261292 0.20977964997291565
0.67962288856506348 0.20714564621448517 0.20237268507480621
0.94657456874847412 0.28019791841506958 0.16844789683818817
0.99999582767486572 0.37790864706039429 0.10785993933677673
0 0.54152292013168335 0.24012745916843414
7.1486960223410279e-05 0.531657874584198 0.20842927694320679
0.54237937927246094 0.58647805452346802 0.13280512392520905
0.87460494041442871 0.62535667419433594 0.08986557275056839
0.99995285272598267 0.62839615345001221 0.07376609742641449
0 0.75767397880554199 0.27481776475906372
0.00046651091543026268 0.75166118144989014 0.26411911845207214
0.43383029103279114 0.75204938650131226 0.22962664067745209
0.76312267780303955 0.80268299579620361 0.13367047905921936
1 0.83098161220550537 0.023130958899855614
0.40453863143920898 0.95901262760162354 0.56336688995361328
0.45092767477035522 0.95840722322463989 0.5629163384437561
0.55937081575393677 0.95716023445129395 0.56114226579666138
0.73181909322738647 0.97131741046905518 0.52595031261444092
0.94818639755249023 0.98432183265686035 0.38411906361579895
0 0 0.62413483858108521
0.20021027326583862 0 0.63606864213943481
0.70661258697509766 0 0.6629372239112854
0.95230674743652344 0 0.62130099534988403
1 0 0.57038813829421997
0 0.206027552485466 0.61290192604064941
0.23615947365760803 0.21943674981594086 0.63019251823425293
0.69433403015136719 0.20098042488098145 0.65265297889709473
0.93330317735671997 0.21120963990688324 0.61596477031707764
1 0.3561454713344574 0.57774394750595093
0 0.58527767658233643 0.57848608493804932
0.27047163248062134 0.59368705749511719 0.58702963590621948
0.60019993782043457 0.60817313194274902 0.60011011362075806
0.85923755168914795 0.63237130641937256 0.60692387819290161
0.99995285272598267 0.65311926603317261 0.60866689682006836
0.36608725786209106 0.78421008586883545 0.62149912118911743
0.44404402375221252 0.7827141284942627 0.62179768085479736
0.52390629053115845 0.76820433139801025 0.56803286075592041
0.76825076341629028 0.80740612745285034 0.56513971090316772
0.99998718500137329 0.82840269804000854 0.58835190534591675
0.4913899302482605 0.96224677562713623 0.70239865779876709
0.50483477115631104 0.96242290735244751 0.69129455089569092
0.59052634239196777 0.96075278520584106 0.68355995416641235
0.73849838972091675 0.96803706884384155 0.67163753509521484
0.94602310657501221 0.98357260227203369 0.62102824449539185
0.041925244033336639 0 0.86640465259552002
0.38965177536010742 0 0.86925780773162842
0.71010017395019531 0 0.87574994564056396
0.93861502408981323 0 0.8825957179069519
1 0.0009260062943212688 0.84896755218505859
0.15330229699611664 0.22820395231246948 0.85924595594406128
0.40889742970466614 0.22704572975635529 0.86203300952911377
0.69736969470977783 0.25816360116004944 0.8686068058013916
0.91581666469573975 0.34255439043045044 0.8757668137550354
1 0.37854486703872681 0.84455025196075439
0 0.57012307643890381 0.82161128520965576
0.27208206057548523 0.5745081901550293 0.8263583779335022
0.62347179651260376 0.6084754467010498 0.83879023790359497
0.8613208532333374 0.64873808622360229 0.85594326257705688
0.99999934434890747 0.64911216497421265 0.83749490976333618
0.39164960384368896 0.80267637968063354 0.8092455267906189
0.4697951078414917 0.80407565832138062 0.8110460638999939
0.62428534030914307 0.80931437015533447 0.8153577446937561
0.80793046951293945 0.8228602409362793 0.82731205224990845
0.99865543842315674 0.84384417533874512 0.84179115295410156
0.62608546018600464 0.96660476922988892 0.85830998420715332
0.65103566646575928 0.96647685766220093 0.85807675123214722
0.71650993824005127 0.9661591649055481 0.85565078258514404
0.7775682806968689 0.96669787168502808 0.82624530792236328
0.95532858371734619 0.98248308897018433 0.82072025537490845
0.49897640943527222 0.029408808797597885 0.99995285272598267
0.57986527681350708 0.03844880685210228 1
0.7368590235710144 0.12924782931804657 0.99999380111694336
0.90540146827697754 0.2929166853427887 0.99993139505386353
0.99995285272598267 0.38891935348510742 0.99995285272598267
0.5026475191116333 0.34284654259681702 0.99994665384292603
0.57574295997619629 0.35373204946517944 1
0.7209923267364502 0.39214968681335449 1
0.88831198215484619 0.47022333741188049 0.99987626075744629
1 0.52125966548919678 0.99988752603530884
0.44476410746574402 0.61755317449569702 0.9959525465965271
0.53241699934005737 0.63061606884002686 0.99559444189071655
0.68255329132080078 0.64605951309204102 0.9949226975440979
0.86148107051849365 0.67605972290039062 0.99472701549530029
0.99999141693115234 0.69967448711395264 0.99602895975112915
0.42964166402816772 0.80896145105361938 0.98351693153381348
0.48203453421592712 0.80799359083175659 0.98414665460586548
0.60980874300003052 0.80448228120803833 0.98488163948059082
0.83499670028686523 0.83089947700500488 0.98652523756027222
0.99749958515167236 0.86140692234039307 0.98851418495178223
0.64679950475692749 0.97489625215530396 0.97776126861572266
0.67424619197845459 0.97526282072067261 0.97794312238693237
0.74929851293563843 0.97601723670959473 0.97858172655105591
0.85888749361038208 0.97798836231231689 0.97987848520278931
0.9814077615737915 0.984458327293396 0.98409122228622437
