Textures/84.cube
# Created by: G'MIC (https://gmic.eu)
TITLE "Kodak_Portra_800_HC.cube"
# LUT size
LUT_3D_SIZE 33
# Data domain
DOMAIN_MIN 0.0 0.0 0.0
DOMAIN_MAX 1.0 1.0 1.0
# LUT data points
0.0070167342200875282 0.01006065309047699 0.011044638231396675
0.014295825734734535 0.010695459321141243 0.011358477175235748
0.025307685136795044 0.011408529244363308 0.011162985116243362
0.041086059063673019 0.011643745936453342 0.010560986585915089
0.059153608977794647 0.012526468373835087 0.010257904417812824
0.080192878842353821 0.012597781606018543 0.010179898701608181
0.10644078254699707 0.011372797191143036 0.0098624741658568382
0.13794368505477905 0.0076386174187064171 0.0092144394293427467
0.17636261880397797 0.0014272693078964949 0.0081987390294671059
0.22255675494670868 0 0.0073841349221765995
0.276030033826828 0 0.0060723228380084038
0.33705925941467285 0 0.0041775284335017204
0.4015185534954071 0 0.0020666469354182482
0.46947106719017029 0 0.000573584227822721
0.53796291351318359 0 1.5604024156345986e-05
0.60301244258880615 0 0
0.66461390256881714 0 0
0.7202642560005188 0 0
0.77040141820907593 0 0
0.81912165880203247 0 0
0.85880279541015625 0 0
0.89236438274383545 0 0
0.92149633169174194 0 0
0.94760823249816895 0 0
0.97232627868652344 0 0
0.9949420690536499 0 0
0.99997353553771973 0 0
1 0 0
0.99998295307159424 0 0
0.99998295307159424 0 0
0.99995285272598267 0 0
0.99997198581695557 0.00360632105730474 0
0.99999380111694336 0.060760602355003357 0
0.0064112073741853237 0.017642777413129807 0.012715126387774944
0.012838278897106647 0.018874282017350197 0.011721656657755375
0.024027613922953606 0.020450035110116005 0.011078800074756145
0.039523065090179443 0.0202507134526968 0.010734885931015015
0.058116018772125244 0.021388592198491096 0.010766499675810337
0.079222783446311951 0.021073650568723679 0.0099972747266292572
0.10578767955303192 0.019531192258000374 0.0096860434859991074
0.13771261274814606 0.015842258930206299 0.0088901389390230179
0.1774313747882843 0.0078427363187074661 0.0085883932188153267
0.22360564768314362 0.00033987764618359506 0.0073564187623560429
0.27728801965713501 0 0.0057466416619718075
0.33823195099830627 0 0.0037616838235408068
0.40282070636749268 0 0.0018138977466151118
0.4700276255607605 0 0.00041793959098868072
0.53763258457183838 0 0
0.60254049301147461 0 0
0.66312873363494873 0 0
0.71877652406692505 0 0
0.76996952295303345 0 0
0.81773883104324341 0 0
0.85740196704864502 0 0
0.89073306322097778 0 0
0.91996097564697266 0 0
0.94585913419723511 0 0
0.9712374210357666 0 0
0.99402034282684326 0 0
0.99997007846832275 0 0
0.99999141693115234 0 0
0.99996143579483032 0 0
1 0 0
1 0.00034899517777375877 0
0.99996209144592285 0.028838135302066803 0
0.99999552965164185 0.097523577511310577 0
0.0053318706341087818 0.027038462460041046 0.014125172980129719
0.01060835923999548 0.027991412207484245 0.01344585232436657
0.020742664113640785 0.030223948881030083 0.011833495460450649
0.03760870173573494 0.032269112765789032 0.010696633718907833
0.056060042232275009 0.032039016485214233 0.010362786240875721
0.078231312334537506 0.031757708638906479 0.010754818096756935
0.10587012022733688 0.030387571081519127 0.010223214514553547
0.13881902396678925 0.02608904056251049 0.0092720231041312218
0.17876626551151276 0.018714955076575279 0.0083288513123989105
0.22589072585105896 0.0062210271134972572 0.0073265763930976391
0.27982628345489502 7.5855634349863976e-05 0.0057078558020293713
0.34021252393722534 0 0.0033517831470817327
0.4043724536895752 0 0.0011199701111763716
0.47126078605651855 0 7.5395808380562812e-05
0.5384749174118042 0 0
0.60252964496612549 0 0
0.66303706169128418 0 0
0.71858072280883789 0 0
0.77085989713668823 0 0
0.81804132461547852 0 0
0.85642969608306885 0 0
0.88956946134567261 0 0
0.9189257025718689 0 0
0.94520288705825806 0 0
0.97004830837249756 0 0
0.99313104152679443 0 0
0.99999070167541504 0 0
1 0 0
0.99998295307159424 0 0
0.99998295307159424 0.00042391725583001971 0
0.99995285272598267 0.021436320617794991 0
0.99999707937240601 0.082260355353355408 0
0.99999839067459106 0.13179369270801544 0
0.0043282080441713333 0.039763867855072021 0.016319317743182182
0.0090826712548732758 0.040369249880313873 0.016217892989516258
0.016842447221279144 0.042255789041519165 0.01462972816079855
0.031405404210090637 0.045148741453886032 0.012408409267663956
0.054177958518266678 0.048918750137090683 0.01017411146312952
0.078641004860401154 0.048906918615102768 0.0099903633818030357
0.10677767544984818 0.046946827322244644 0.010122153908014297
0.14010253548622131 0.043419402092695236 0.0095197344198822975
0.18023809790611267 0.037141844630241394 0.0084329750388860703
0.22768545150756836 0.025449905544519424 0.0069244243204593658
0.28239959478378296 0.0077111031860113144 0.0046628457494080067
0.34403109550476074 9.3624155852012336e-05 0.0025956318713724613
0.40845322608947754 0 0.00053478317568078637
0.47496151924133301 0 4.6812069740553852e-06
0.54202967882156372 0 0
0.60621118545532227 0 0
0.66625428199768066 0 0
0.72298514842987061 0 0
0.77496826648712158 0 0
0.82031834125518799 0 0
0.8582732081413269 0 0
0.8903622031211853 0 0
0.91888707876205444 0 0
0.94476139545440674 0 0
0.96957439184188843 0 0
0.99305254220962524 0 0
0.99998295307159424 0 0
1 7.8010180004639551e-06 0
1 0.0052485307678580284 0
0.99998444318771362 0.042817577719688416 0
0.99999845027923584 0.098622336983680725 0
0.99997860193252563 0.13833042979240417 0
1 0.17263029515743256 0
0.0021687434054911137 0.053611841052770615 0.018436726182699203
0.0066873235628008842 0.053619202226400375 0.018363071605563164
0.013011867180466652 0.055612273514270782 0.017415106296539307
0.02395312674343586 0.058716636151075363 0.015157631598412991
0.042766507714986801 0.062843576073646545 0.012136778794229031
0.073165185749530792 0.068838879466056824 0.0092012602835893631
0.10521958768367767 0.069998554885387421 0.0085704037919640541
0.13899503648281097 0.067396491765975952 0.0083507318049669266
0.17963939905166626 0.06243278831243515 0.0074454178102314472
0.2274925708770752 0.054224014282226562 0.0063894442282617092
0.28244924545288086 0.039542518556118011 0.0037303888238966465
0.34378698468208313 0.015661416575312614 0.0012194520095363259
0.40820860862731934 0.0013026611413806677 9.0857975010294467e-05
0.47533559799194336 0 0
0.54228359460830688 0 0
0.60574638843536377 0 0
0.66625779867172241 0 0
0.72384917736053467 0 0
0.77455264329910278 0 0
0.81870919466018677 0 0
0.85590231418609619 0 0
0.88754057884216309 0 0
0.91618227958679199 0 0
0.94196844100952148 0 0
0.96683603525161743 0 0
0.99049675464630127 0 0
1 0.0052733677439391613 0
0.99995285272598267 0.033523444086313248 0
1 0.08201347291469574 0
1 0.12365803122520447 0
1 0.15561603009700775 0
0.99997431039810181 0.18282851576805115 0
1 0.20888561010360718 0
0.00016458699246868491 0.072106689214706421 0.020230233669281006
0.0019047033274546266 0.072374366223812103 0.020374538376927376
0.0066086701117455959 0.072608493268489838 0.020102685317397118
0.015271475538611412 0.076275020837783813 0.017935257405042648
0.030412221327424049 0.080628871917724609 0.015251040458679199
0.057603016495704651 0.086727194488048553 0.01159867737442255
0.097141854465007782 0.095043674111366272 0.0064142383635044098
0.13800698518753052 0.098224826157093048 0.0043523660860955715
0.18034927546977997 0.095487475395202637 0.0037417486310005188
0.22825309634208679 0.089495427906513214 0.002802608534693718
0.28206127882003784 0.079945482313632965 0.0012766399886459112
0.34321701526641846 0.065226897597312927 0.00023363402578979731
0.40758457779884338 0.041771393269300461 1.9859664917021291e-06
0.47361341118812561 0.015415586531162262 0
0.54029375314712524 0.0020808139815926552 0
0.60502731800079346 3.4467124351067469e-05 0
0.66896164417266846 0 0
0.72543579339981079 0 0
0.77408897876739502 0 0
0.81716150045394897 0 0
0.85394644737243652 0 0
0.88536190986633301 5.1491089834598824e-05 0
0.91334384679794312 0.0012711682356894016 0
0.93907129764556885 0.0090331351384520531 0
0.96399170160293579 0.028618825599551201 0
0.98780685663223267 0.059311695396900177 0
0.99994450807571411 0.099607452750205994 0
1 0.13386023044586182 0
1 0.16183295845985413 0
0.99998444318771362 0.18560782074928284 0
0.99999845027923584 0.20716361701488495 0
1 0.22730337083339691 0
0.99999141693115234 0.24808691442012787 0
0 0.093710817396640778 0.021394435316324234
0 0.094359122216701508 0.021433401852846146
0.00032672486850060523 0.094019263982772827 0.021167317405343056
0.0038826873060315847 0.096636056900024414 0.019765647128224373
0.015248805284500122 0.10134065896272659 0.016828898340463638
0.039666302502155304 0.10788268595933914 0.01309901662170887
0.076005257666110992 0.11550320684909821 0.0082715870812535286
0.12471038848161697 0.12660323083400726 0.0018790389876812696
0.17770273983478546 0.13277025520801544 0.0001573133486090228
0.22782877087593079 0.13052104413509369 9.834080992732197e-05
0.28286474943161011 0.1259850412607193 1.9150395019096322e-05
0.34337654709815979 0.11734356731176376 0
0.40647643804550171 0.10532716661691666 0
0.4724869430065155 0.090622149407863617 0
0.54095357656478882 0.071008972823619843 0
0.60856705904006958 0.050473000854253769 0
0.67066758871078491 0.036281690001487732 0
0.72493451833724976 0.030888831242918968 0
0.77292090654373169 0.032258681952953339 0
0.81524300575256348 0.039162896573543549 0
0.85111528635025024 0.051730364561080933 0
0.88187998533248901 0.069644242525100708 0
0.90990281105041504 0.09317992627620697 0
0.93562108278274536 0.11829269677400589 0
0.96037673950195312 0.14181658625602722 0
0.98432266712188721 0.16464501619338989 0
0.99938935041427612 0.18467849493026733 0
1 0.20444966852664948 0
0.99997431039810181 0.22297698259353638 0
0.99997860193252563 0.23996555805206299 0
1 0.25603199005126953 0
1 0.27114462852478027 0
0.99996143579483032 0.28809043765068054 0
0 0.11877843737602234 0.021074814721941948
0 0.11953277885913849 0.021192990243434906
0 0.11921419948339462 0.021003488451242447
0 0.11979255080223083 0.020209513604640961
0.0017816228792071342 0.12479396164417267 0.017499404028058052
0.016920210793614388 0.13140027225017548 0.013498051092028618
0.052002009004354477 0.14011441171169281 0.0077762342989444733
0.098145388066768646 0.14976857602596283 0.0016643801936879754
0.15816126763820648 0.16389267146587372 7.0927382012087037e-07
0.22379675507545471 0.1752418577671051 0
0.28125709295272827 0.17421448230743408 0
0.34289425611495972 0.17063546180725098 0
0.40686279535293579 0.16528818011283875 0
0.47457984089851379 0.15788362920284271 0
0.54324251413345337 0.1511072963476181 0
0.60772866010665894 0.14539894461631775 0
0.66755592823028564 0.14247803390026093 0
0.72058272361755371 0.14248497784137726 0
0.7668614387512207 0.1474757045507431 0
0.80851125717163086 0.15614727139472961 0
0.84392285346984863 0.16691756248474121 0
0.87532603740692139 0.17814137041568756 0
0.903850257396698 0.19020979106426239 0
0.93010550737380981 0.20393179357051849 0
0.95502305030822754 0.21813501417636871 0
0.9791567325592041 0.23283137381076813 0
0.99803680181503296 0.24700936675071716 0
1 0.2612031102180481 0
1 0.27487263083457947 0
1 0.28761020302772522 0
1 0.30040490627288818 0
1 0.31236422061920166 0
0.99995720386505127 0.32532170414924622 0
0 0.15056635439395905 0.018143655732274055
0 0.15163746476173401 0.018415158614516258
0 0.15096612274646759 0.018050845712423325
0 0.15050797164440155 0.018131161108613014
0 0.15375207364559174 0.015612120740115643
0.0006459956057369709 0.16124936938285828 0.010581868700683117
0.018316624686121941 0.17006929218769073 0.0046986634843051434
0.067766420543193817 0.18063876032829285 0.00038466998375952244
0.12637682259082794 0.19235982000827789 0
0.19689469039440155 0.20840491354465485 0
0.27571871876716614 0.22610171139240265 0
0.34332224726676941 0.22838184237480164 0
0.40976995229721069 0.22830267250537872 0
0.47686576843261719 0.22610124945640564 0
0.54302680492401123 0.22192355990409851 0
0.60539394617080688 0.21795225143432617 0
0.66336244344711304 0.21751897037029266 0
0.71515899896621704 0.22150719165802002 0
0.76085478067398071 0.22798745334148407 0
0.80192965269088745 0.23613283038139343 0
0.83749496936798096 0.24467368423938751 0
0.86850500106811523 0.25325015187263489 0
0.89695090055465698 0.26228904724121094 0
0.92341279983520508 0.27234718203544617 0
0.94868224859237671 0.28258410096168518 0
0.97357523441314697 0.293598473072052 0
0.99527972936630249 0.30400955677032471 0
0.99998718500137329 0.31494829058647156 0
0.99997431039810181 0.32512378692626953 0
0.99997860193252563 0.33472919464111328 0
0.99990558624267578 0.34433358907699585 0
1 0.35372805595397949 0
0.99999582767486572 0.36420845985412598 0
0 0.18509550392627716 0.013043869286775589
0 0.18694935739040375 0.013171852566301823
0 0.18614761531352997 0.013044507242739201
0 0.18518182635307312 0.013204550370573997
0 0.18593078851699829 0.011768345721065998
0 0.19271737337112427 0.0066229724325239658
0.00039992178790271282 0.20227089524269104 0.0012380110565572977
0.023409591987729073 0.21377870440483093 5.6741905609669629e-06
0.092315226793289185 0.22776088118553162 0
0.16453436017036438 0.24346260726451874 0
0.24596366286277771 0.26242220401763916 0
0.33770889043807983 0.28510108590126038 0
0.40875145792961121 0.28991404175758362 0
0.47534796595573425 0.2901136577129364 0
0.54090994596481323 0.28965869545936584 0
0.60154950618743896 0.28787803649902344 0
0.65720582008361816 0.28665891289710999 0
0.70725089311599731 0.28710833191871643 0
0.75259125232696533 0.29238525032997131 0
0.79317629337310791 0.30048000812530518 0
0.82832670211791992 0.3079858124256134 0
0.85942238569259644 0.31518310308456421 0
0.88846546411514282 0.32248574495315552 0
0.91535627841949463 0.33072280883789062 0
0.94074392318725586 0.33912366628646851 0
0.96631288528442383 0.34756320714950562 0
0.98989182710647583 0.35570827126502991 0
0.99993014335632324 0.3638860285282135 0
1 0.37153252959251404 0
0.99994003772735596 0.37878501415252686 0
0.99999582767486572 0.38624086976051331 0
1 0.39286094903945923 0
1 0.40188062191009521 0
0 0.22412776947021484 0.0045323413796722889
0 0.22639001905918121 0.0041328785009682178
0 0.22557036578655243 0.0043222592212259769
0 0.22519887983798981 0.0040553626604378223
0 0.22481048107147217 0.0040698009543120861
0 0.23078590631484985 0.0014462482649832964
0 0.24077211320400238 1.9150396838085726e-05
0.00051948800683021545 0.25319623947143555 0
0.041287016123533249 0.26746034622192383 0
0.12989127635955811 0.28273752331733704 0
0.21106304228305817 0.29869857430458069 0
0.29975762963294983 0.31803447008132935 0
0.39682015776634216 0.34451720118522644 0
0.47018176317214966 0.35116434097290039 0
0.53450262546539307 0.35190430283546448 0
0.59352880716323853 0.35143116116523743 0
0.64833939075469971 0.35114014148712158 0
0.69787806272506714 0.35206657648086548 0
0.74208027124404907 0.35331892967224121 0
0.78233492374420166 0.35672640800476074 0
0.81764471530914307 0.36264011263847351 0
0.84902924299240112 0.36930945515632629 0
0.87807893753051758 0.37526297569274902 0
0.90550404787063599 0.38232994079589844 0
0.931862473487854 0.3892158567905426 0
0.95713728666305542 0.395987868309021 0
0.98151636123657227 0.40227928757667542 0
0.99890172481536865 0.40847113728523254 0
1 0.41419956088066101 0
1 0.41959670186042786 0
0.99990558624267578 0.42475110292434692 0
1 0.42969539761543274 0
1 0.43591287732124329 0
0 0.27141678333282471 0
0 0.27424138784408569 0
0 0.27390676736831665 0
0 0.27306535840034485 0
0 0.27197766304016113 0
0 0.27275693416595459 0
0 0.28178691864013672 0
0 0.29314175248146057 0
0.0028821444138884544 0.30569329857826233 0
0.075278691947460175 0.32004213333129883 0
0.17202603816986084 0.33537039160728455 0
0.25907233357429504 0.3518352210521698 0
0.34816485643386841 0.3705274760723114 0
0.44769400358200073 0.39871510863304138 0
0.52338612079620361 0.40938082337379456 0
0.5830085277557373 0.4110875129699707 0
0.63790994882583618 0.4126126766204834 0
0.68695497512817383 0.41386827826499939 0
0.73105490207672119 0.41559407114982605 0
0.77174139022827148 0.41751265525817871 0
0.80715811252593994 0.41853141784667969 0
0.83896267414093018 0.42135575413703918 0
0.86862319707870483 0.42644467949867249 0
0.89639103412628174 0.43204337358474731 0
0.92290991544723511 0.4372553825378418 0
0.9487842321395874 0.44294983148574829 0
0.97398924827575684 0.44786989688873291 0
0.99622237682342529 0.45273849368095398 0
0.99994432926177979 0.45688629150390625 0
0.99995285272598267 0.46088317036628723 0
1 0.4643118679523468 0
0.99995285272598267 0.46766170859336853 0
0.99998295307159424 0.47288164496421814 0
0 0.31566122174263 0
0 0.32048013806343079 0
0 0.31980997323989868 0
0 0.3187592625617981 0
0 0.31696516275405884 0
0 0.31531286239624023 0
0 0.32029539346694946 0
0 0.33075904846191406 0
0 0.34395870566368103 0
0.017749132588505745 0.35767641663551331 0
0.12613770365715027 0.37289837002754211 0
0.22321464121341705 0.38917553424835205 0
0.31068819761276245 0.40560117363929749 0
0.39963740110397339 0.42305004596710205 0
0.49825116991996765 0.45143285393714905 0
0.57170987129211426 0.46470317244529724 0
0.62588566541671753 0.46630382537841797 0
0.67485195398330688 0.46768859028816223 0
0.71862268447875977 0.46948543190956116 0
0.75874549150466919 0.47069835662841797 0
0.79429370164871216 0.47114115953445435 0
0.82678389549255371 0.47119137644767761 0
0.85718446969985962 0.4715600311756134 0
0.88576352596282959 0.47489812970161438 0
0.9129607081413269 0.47941842675209045 0
0.93953770399093628 0.48361259698867798 0
0.96494048833847046 0.48710876703262329 0
0.99016165733337402 0.49092340469360352 0
0.99996143579483032 0.49412506818771362 0
0.99995285272598267 0.49707326292991638 0
1 0.49975860118865967 0
0.99991852045059204 0.50234782695770264 0
0.99998760223388672 0.50591117143630981 0
0 0.36159557104110718 0
0 0.36522850394248962 0
0 0.36467188596725464 0
0 0.36337652802467346 0
0 0.36194965243339539 0
0 0.35997465252876282 0
0 0.36040487885475159 0
0 0.36998137831687927 0
0 0.38163086771965027 0
0.00016829167725518346 0.39485171437263489 0
0.06044904887676239 0.40887141227722168 0
0.18244405090808868 0.42411768436431885 0
0.27471902966499329 0.43967410922050476 0
0.36198896169662476 0.45545119047164917 0
0.44905990362167358 0.47171014547348022 0
0.54070770740509033 0.49730297923088074 0
0.61250448226928711 0.51419544219970703 0
0.6620556116104126 0.5156899094581604 0
0.70568114519119263 0.51741069555282593 0
0.74618405103683472 0.51785743236541748 0
0.78199619054794312 0.51800292730331421 0
0.81476080417633057 0.51837468147277832 0
0.84600925445556641 0.51772212982177734 0
0.87525480985641479 0.51788389682769775 0
0.90276807546615601 0.51814472675323486 0
0.93008327484130859 0.52086955308914185 0
0.95621323585510254 0.52396011352539062 0
0.98182612657546997 0.52644771337509155 0
0.99897658824920654 0.52889692783355713 0
0.99995285272598267 0.53109723329544067 0
1 0.53336143493652344 0
0.99998718500137329 0.53460633754730225 0
0.99999541044235229 0.53739023208618164 0
0 0.40409409999847412 0
0 0.40892782807350159 0
0 0.40875887870788574 0
0 0.40798342227935791 0
0 0.40578913688659668 0
0 0.40386331081390381 0
0 0.40174207091331482 0
0 0.40659546852111816 0
0 0.41643702983856201 0
0 0.42895856499671936 0
0.0091480342671275139 0.44198530912399292 0
0.13055747747421265 0.45682698488235474 0
0.23637883365154266 0.47097340226173401 0
0.3258785605430603 0.48588716983795166 0
0.41167107224464417 0.50128632783889771 0
0.49354860186576843 0.51599502563476562 0
0.5790526270866394 0.53943008184432983 0
0.64840656518936157 0.55779224634170532 0
0.69386142492294312 0.56056302785873413 0
0.73412293195724487 0.56134581565856934 0
0.77015256881713867 0.56136828660964966 0
0.80348461866378784 0.56098282337188721 0
0.83487749099731445 0.5608518123626709 0
0.86449521780014038 0.56037294864654541 0
0.89304667711257935 0.55986011028289795 0
0.92133873701095581 0.55940377712249756 0
0.94785118103027344 0.55962479114532471 0
0.97377592325210571 0.56106716394424438 0
0.99629849195480347 0.56299400329589844 0
1 0.56479448080062866 0
1 0.56575363874435425 0
1 0.56708657741546631 0
1 0.56893432140350342 0
0 0.4461175799369812 0
0 0.45129212737083435 0
0 0.45072856545448303 0
0 0.44927558302879333 0
0 0.44777807593345642 0
0 0.44575092196464539 0
0 0.44333690404891968 0
0 0.44282829761505127 0
0 0.45200613141059875 0
0 0.46334755420684814 0
0 0.47559568285942078 0
0.065602660179138184 0.48874446749687195 0
0.19892787933349609 0.50216025114059448 0
0.29400193691253662 0.51597660779953003 0
0.38039195537567139 0.52981275320053101 0
0.4603416919708252 0.54247522354125977 0
0.53680181503295898 0.55595839023590088 0
0.61410063505172729 0.57637715339660645 0
0.67994236946105957 0.59605014324188232 0
0.72185617685317993 0.59826368093490601 0
0.75837057828903198 0.59866970777511597 0
0.7920038104057312 0.59854763746261597 0
0.82394087314605713 0.59795713424682617 0
0.85385012626647949 0.59753096103668213 0
0.88283532857894897 0.59676730632781982 0
0.91135746240615845 0.59572166204452515 0
0.93840944766998291 0.59439879655838013 0
0.9653814435005188 0.59335541725158691 0
0.99076849222183228 0.59335333108901978 0
1 0.59471869468688965 0
0.99998718500137329 0.59534049034118652 0
0.99994862079620361 0.5958561897277832 0
1 0.59721177816390991 0
0 0.48786351084709167 0
0 0.49193647503852844 0
0 0.49103787541389465 0
0 0.49035146832466125 0
0 0.48836410045623779 0
0 0.48686924576759338 0
0 0.48447588086128235 0
0 0.4820411205291748 0
0 0.48546099662780762 0
0 0.49579596519470215 0
0 0.50681114196777344 0
0.018114106729626656 0.51880925893783569 0
0.15613526105880737 0.53090101480484009 0
0.26221257448196411 0.54295337200164795 0
0.35046109557151794 0.55542975664138794 0
0.43039730191230774 0.56743472814559937 0
0.50560647249221802 0.5795217752456665 0
0.57503986358642578 0.59141278266906738 0
0.64368546009063721 0.60927498340606689 0
0.70770549774169922 0.62979322671890259 0
0.74775403738021851 0.6330951452255249 0
0.78109771013259888 0.6328461766242981 0
0.81396758556365967 0.63268828392028809 0
0.84401339292526245 0.63180595636367798 0
0.87320631742477417 0.63091760873794556 0
0.90206021070480347 0.63009053468704224 0
0.929912269115448 0.62866437435150146 0
0.95730513334274292 0.6273348331451416 0
0.98384255170822144 0.62579745054244995 0
0.99970316886901855 0.62449377775192261 0
1 0.62393462657928467 0
1 0.62413597106933594 0
1 0.62456321716308594 0
0 0.52465134859085083 0
0 0.52912682294845581 0
0 0.52874940633773804 0
0 0.52771914005279541 0
0 0.52638143301010132 0
0 0.52438825368881226 0
0 0.52213793992996216 0
0 0.51957756280899048 0
0 0.51837873458862305 0
0 0.5258452296257019 0
0 0.53577965497970581 0
0.0013029343681409955 0.54673963785171509 0
0.10674400627613068 0.55743789672851562 0
0.23229742050170898 0.56851780414581299 0
0.32406246662139893 0.58016413450241089 0
0.40409037470817566 0.59095180034637451 0
0.4785708487033844 0.60198014974594116 0
0.5472678542137146 0.61338120698928833 0
0.61021143198013306 0.62478488683700562 0
0.67240011692047119 0.64011251926422119 0
0.73227220773696899 0.65999239683151245 0
0.77166330814361572 0.66455364227294922 0
0.80443441867828369 0.6643376350402832 0
0.8351738452911377 0.66381174325942993 0
0.8645363450050354 0.66303282976150513 0
0.89391559362411499 0.66213893890380859 0
0.92233526706695557 0.6607087254524231 0
0.94983696937561035 0.65942198038101196 0
0.97684770822525024 0.65749633312225342 0
0.99785035848617554 0.65543943643569946 0
0.99995285272598267 0.65317338705062866 0
1 0.65117770433425903 0
0.99998295307159424 0.65123462677001953 0
0 0.55999332666397095 0
0 0.56442791223526001 0
0 0.56362098455429077 0
0 0.56323009729385376 0
0 0.56150251626968384 0
0 0.55984467267990112 0
0 0.55776548385620117 0
0 0.55560171604156494 0
0 0.55301785469055176 0
0 0.55590999126434326 0
0 0.56444406509399414 0
0 0.57432752847671509 0
0.064251258969306946 0.58369892835617065 0
0.20734159648418427 0.59371143579483032 0
