Textures/85.cube
# Created by: G'MIC (https://gmic.eu)
TITLE "Lomography_Redscale_100.cube"
# LUT size
LUT_3D_SIZE 5
# Data domain
DOMAIN_MIN 0.0 0.0 0.0
DOMAIN_MAX 1.0 1.0 1.0
# LUT data points
0.003561131889000535 0.00062057911418378353 0.00027104900800623
0.14679232239723206 0.0090391775593161583 0.031889103353023529
0.3612804114818573 0.036848675459623337 0.12490828335285187
0.60143506526947021 0.076412834227085114 0.22932475805282593
0.76775187253952026 0.10362941771745682 0.30145809054374695
0.026686299592256546 0.073564589023590088 0.012675553560256958
0.11625144630670547 0.088410906493663788 0.026012314483523369
0.33457711338996887 0.12239382416009903 0.11468452215194702
0.60656553506851196 0.16174936294555664 0.23183470964431763
0.78588992357254028 0.17615112662315369 0.30968800187110901
0.041875910013914108 0.2469327300786972 0.03911706805229187
0.090905196964740753 0.25706544518470764 0.048951387405395508
0.31008994579315186 0.2873082160949707 0.1158829927444458
0.63096904754638672 0.32979711890220642 0.24458597600460052
0.83585488796234131 0.34139412641525269 0.33291912078857422
0 0.50999969244003296 0.092621825635433197
0 0.50999969244003296 0.075091555714607239
0.026623087003827095 0.52794915437698364 0.086820349097251892
0.61059761047363281 0.58527672290802002 0.24208848178386688
0.90466254949569702 0.61876463890075684 0.36710557341575623
0 0.77483659982681274 0.12249317765235901
0 0.77551692724227905 0.088820680975914001
0 0.77862566709518433 0.048075981438159943
0 0.78332430124282837 0.048934534192085266
0.91368228197097778 0.89197051525115967 0.37818074226379395
0.032679527997970581 0.013705255463719368 0.069228842854499817
0.19867250323295593 0.034388285130262375 0.085734009742736816
0.41346454620361328 0.070681609213352203 0.14761002361774445
0.63028913736343384 0.10328982025384903 0.24199014902114868
0.78030985593795776 0.11533947288990021 0.30711892247200012
0.064814865589141846 0.10745307803153992 0.092620491981506348
0.15871673822402954 0.12250590324401855 0.099056780338287354
0.38489037752151489 0.15691253542900085 0.13781633973121643
0.6358191967010498 0.1922471821308136 0.24499784409999847
0.80284589529037476 0.20216104388237 0.31729096174240112
0.061797782778739929 0.27978166937828064 0.12157297879457474
0.10797742754220963 0.29071959853172302 0.12394674867391586
0.35725939273834229 0.32332572340965271 0.14865490794181824
0.66047346591949463 0.36416184902191162 0.25763681530952454
0.85322052240371704 0.37497031688690186 0.34077200293540955
0 0.52678549289703369 0.15834996104240417
0 0.52684402465820312 0.13639408349990845
0.12156704068183899 0.55121970176696777 0.12711505591869354
0.64265763759613037 0.60799354314804077 0.25621592998504639
0.91776472330093384 0.6391182541847229 0.37308895587921143
0 0.78267961740493774 0.2488752156496048
0 0.78292709589004517 0.21615852415561676
0 0.786598801612854 0.092202134430408478
0.0020130935590714216 0.79520857334136963 0.050907604396343231
0.92806637287139893 0.90288239717483521 0.38480961322784424
0.084038510918617249 0.048666056245565414 0.20729117095470428
0.25530865788459778 0.075982749462127686 0.21605826914310455
0.46514478325843811 0.11128954589366913 0.22305384278297424
0.66420489549636841 0.14019317924976349 0.25682732462882996
0.80067175626754761 0.14782737195491791 0.31590217351913452
0.12504670023918152 0.16317018866539001 0.25423541665077209
0.22042366862297058 0.17875632643699646 0.26105916500091553
0.44915580749511719 0.21353380382061005 0.26926875114440918
0.67950040102005005 0.24478529393672943 0.26432693004608154
0.82913583517074585 0.24998001754283905 0.32905548810958862
0.054259646683931351 0.34060007333755493 0.30710974335670471
0.15120844542980194 0.35253685712814331 0.31481274962425232
0.43361413478851318 0.3868887722492218 0.32808828353881836
0.70961189270019531 0.42417559027671814 0.29362082481384277
0.88281965255737305 0.43492946028709412 0.35430297255516052
0 0.56009334325790405 0.34354624152183533
0 0.56435251235961914 0.33624997735023499
0.24092370271682739 0.59883081912994385 0.35696059465408325
0.69957971572875977 0.65238034725189209 0.33432650566101074
0.94225949048995972 0.6792064905166626 0.38430047035217285
0 0.79817372560501099 0.42704319953918457
0 0.79853808879852295 0.41223672032356262
0 0.7996324896812439 0.35499903559684753
0.02399018406867981 0.81985938549041748 0.19795061647891998
0.9564550518989563 0.92418158054351807 0.39743596315383911
0.17698037624359131 0.12326227873563766 0.39628803730010986
0.34772452712059021 0.15246327221393585 0.43064576387405396
0.52860456705093384 0.18239207565784454 0.44465962052345276
0.70701026916503906 0.20590132474899292 0.3633689284324646
0.83232372999191284 0.20862233638763428 0.33010691404342651
0.22256742417812347 0.26106154918670654 0.45945113897323608
0.33559614419937134 0.27864480018615723 0.48395445942878723
0.53293466567993164 0.30921304225921631 0.51486611366271973
0.72545772790908813 0.33343014121055603 0.46433067321777344
0.86874741315841675 0.33525773882865906 0.34710273146629333
0.1846870630979538 0.44228354096412659 0.5151020884513855
0.30119839310646057 0.45522332191467285 0.5359194278717041
0.53612762689590454 0.48731765151023865 0.57956069707870483
0.75256478786468506 0.51617884635925293 0.56324338912963867
0.92214667797088623 0.52546173334121704 0.37311676144599915
0 0.6216626763343811 0.5341261625289917
0.00065574847394600511 0.63340115547180176 0.55453997850418091
0.42922550439834595 0.66915243864059448 0.61492067575454712
0.74773800373077393 0.7104911208152771 0.64293748140335083
0.97166073322296143 0.7354387640953064 0.4084591269493103
0 0.8170819878578186 0.57075154781341553
0 0.81739616394042969 0.56514978408813477
0 0.8184623122215271 0.54499679803848267
0.15364387631416321 0.85880780220031738 0.5804905891418457
0.98723787069320679 0.95083808898925781 0.4232465922832489
0.34168064594268799 0.25673118233680725 0.5926479697227478
0.48504438996315002 0.28237059712409973 0.63394701480865479
0.61942732334136963 0.30608659982681274 0.66268366575241089
0.75393128395080566 0.32345768809318542 0.65298217535018921
0.87314599752426147 0.32304865121841431 0.44440770149230957
0.41665148735046387 0.40566781163215637 0.66290068626403809
0.50367200374603271 0.42152255773544312 0.68881535530090332
0.64309209585189819 0.44526815414428711 0.72469902038574219
0.78250890970230103 0.46494504809379578 0.73430442810058594
0.89987516403198242 0.46825122833251953 0.60968172550201416
0.44840291142463684 0.57603007555007935 0.73058253526687622
0.52036869525909424 0.58725506067276001 0.75067472457885742
0.66750949621200562 0.61039465665817261 0.78841108083724976
0.81408005952835083 0.63260501623153687 0.80957686901092529
0.9352073073387146 0.6434401273727417 0.73961764574050903
0.35748520493507385 0.73614078760147095 0.77249622344970703
0.46073019504547119 0.74794471263885498 0.79711663722991943
0.65081048011779785 0.7737002968788147 0.84684473276138306
0.82867956161499023 0.80017060041427612 0.88482582569122314
0.96808451414108276 0.81691616773605347 0.84692895412445068
0 0.84416025876998901 0.66274499893188477
0 0.8456915020942688 0.66416645050048828
0.01236661896109581 0.86478257179260254 0.70919108390808105
0.62476354837417603 0.93460005521774292 0.87660408020019531
0.98405337333679199 0.98447024822235107 0.95562094449996948
