Textures/85.cube
# Created by: G'MIC (https://gmic.eu)
TITLE "Lomography_Redscale_100.cube"
# LUT size
LUT_3D_SIZE 33
# Data domain
DOMAIN_MIN 0.0 0.0 0.0
DOMAIN_MAX 1.0 1.0 1.0
# LUT data points
0.003561131889000535 0.00062057911418378353 0.00027104900800623
0.015660177916288376 0.00143549928907305 0.0014140437124297023
0.030543161556124687 0.0019673630595207214 0.0032248890493065119
0.0496860072016716 0.0028751881327480078 0.0055179931223392487
0.069113858044147491 0.0037625550758093596 0.0091362576931715012
0.088140971958637238 0.0049755233339965343 0.013132676482200623
0.10622909665107727 0.0063528097234666348 0.01813996210694313
0.12663444876670837 0.0077392915263772011 0.024670323356986046
0.14679232239723206 0.0090391775593161583 0.031889103353023529
0.16783973574638367 0.010948215611279011 0.040431369096040726
0.1897275298833847 0.0130934938788414 0.050119966268539429
0.21436263620853424 0.015787845477461815 0.060826458036899567
0.24123351275920868 0.018676450476050377 0.072505787014961243
0.2692287266254425 0.022201245650649071 0.084763601422309875
0.29833000898361206 0.026853118091821671 0.097559511661529541
0.3289133608341217 0.031840864568948746 0.11097608506679535
0.3612804114818573 0.036848675459623337 0.12490828335285187
0.39517295360565186 0.041769832372665405 0.13941964507102966
0.42857089638710022 0.047308087348937988 0.15400484204292297
0.46064010262489319 0.05313008651137352 0.16826611757278442
0.49166461825370789 0.058590590953826904 0.18184742331504822
0.52116554975509644 0.064075902104377747 0.19454944133758545
0.54950487613677979 0.068458743393421173 0.20698973536491394
0.57602685689926147 0.072551429271697998 0.21847015619277954
0.60143506526947021 0.076412834227085114 0.22932475805282593
0.62554943561553955 0.080365143716335297 0.23974815011024475
0.64859139919281006 0.083881057798862457 0.24978141486644745
0.67075711488723755 0.087493143975734711 0.25933158397674561
0.69222277402877808 0.09069138765335083 0.2687014639377594
0.71257573366165161 0.093671798706054688 0.27747383713722229
0.73220664262771606 0.09734904021024704 0.28600600361824036
0.75068551301956177 0.10046108067035675 0.29392454028129578
0.76775187253952026 0.10362941771745682 0.30145809054374695
0.0027059374842792749 0.0044872877188026905 0.00088857830269262195
0.011002702638506889 0.0056235403753817081 0.0017916611395776272
0.023450087755918503 0.0069031724706292152 0.0026880763471126556
0.040492065250873566 0.0081921499222517014 0.0045851445756852627
0.059322729706764221 0.0097099272534251213 0.0073349154554307461
0.077699296176433563 0.011192451231181622 0.01095118373632431
0.096269018948078156 0.012856956571340561 0.0154228201135993
0.11660593003034592 0.014891738072037697 0.021369617432355881
0.13668330013751984 0.017067389562726021 0.028178423643112183
0.15753450989723206 0.019507123157382011 0.036512129008769989
0.1793704479932785 0.022133829072117805 0.04572952538728714
0.20373991131782532 0.025483191013336182 0.056342855095863342
0.23006851971149445 0.029314715415239334 0.067683719098567963
0.25810566544532776 0.033881820738315582 0.080104410648345947
0.28770008683204651 0.038982503116130829 0.093050643801689148
0.31901836395263672 0.044646501541137695 0.10649915784597397
0.35212200880050659 0.050283800810575485 0.12105142325162888
0.38674160838127136 0.055579178035259247 0.13588126003742218
0.42093223333358765 0.060786757618188858 0.15102112293243408
0.45450413227081299 0.066672295331954956 0.16581027209758759
0.48679631948471069 0.071979738771915436 0.17973802983760834
0.51689088344573975 0.076877899467945099 0.19279961287975311
0.54610210657119751 0.08131708949804306 0.20537698268890381
0.57342046499252319 0.084979288280010223 0.21741534769535065
0.59935730695724487 0.088472932577133179 0.22847047448158264
0.62411636114120483 0.091944269835948944 0.23913462460041046
0.64750480651855469 0.094851627945899963 0.24927277863025665
0.66998249292373657 0.097630158066749573 0.25896215438842773
0.69157576560974121 0.099828325212001801 0.26842647790908813
0.71197474002838135 0.1010688990354538 0.27709582448005676
0.73115825653076172 0.10276516526937485 0.28561437129974365
0.74976974725723267 0.10420682281255722 0.29349082708358765
0.76626920700073242 0.10519476234912872 0.30065149068832397
0.0039940676651895046 0.0090897921472787857 0.0015962208854034543
0.010410727001726627 0.010479883290827274 0.0021173595450818539
0.021019754931330681 0.011713625863194466 0.00308072823099792
0.036704838275909424 0.01322587113827467 0.0046531814150512218
0.054845403879880905 0.015098525211215019 0.0069518997333943844
0.07273758202791214 0.016878211870789528 0.010285807773470879
0.091181062161922455 0.01894460991024971 0.014115701429545879
0.11155780404806137 0.021358069032430649 0.019995328038930893
0.13147835433483124 0.02366267517209053 0.026381444185972214
0.15243643522262573 0.026520738378167152 0.034544147551059723
0.17433668673038483 0.029712582007050514 0.043690551072359085
0.19837698340415955 0.033517133444547653 0.054123688489198685
0.22435785830020905 0.037655025720596313 0.06546349823474884
0.25246551632881165 0.042432427406311035 0.077654562890529633
0.28229635953903198 0.047870580106973648 0.090735055506229401
0.31398463249206543 0.05357128381729126 0.1045113280415535
0.34740325808525085 0.05936766043305397 0.11895176768302917
0.38254508376121521 0.064801529049873352 0.1344124972820282
0.41747605800628662 0.070226311683654785 0.14923134446144104
0.45188763737678528 0.075905874371528625 0.16484701633453369
0.48437076807022095 0.081348463892936707 0.17886552214622498
0.51537895202636719 0.086353302001953125 0.19215916097164154
0.54504776000976562 0.091051392257213593 0.20511399209499359
0.57285487651824951 0.094791829586029053 0.21692122519016266
0.59924024343490601 0.098137155175209045 0.22855903208255768
0.62452238798141479 0.10165566951036453 0.23935694992542267
0.64811593294143677 0.104961097240448 0.24962306022644043
0.671031653881073 0.107500821352005 0.25967824459075928
0.69284814596176147 0.10976088792085648 0.26887544989585876
0.71345829963684082 0.1111176609992981 0.27786663174629211
0.73340463638305664 0.11270552128553391 0.28634771704673767
0.75138950347900391 0.11317789554595947 0.29431647062301636
0.7681078314781189 0.11321223527193069 0.30150842666625977
0.0059054400771856308 0.015389257110655308 0.0021920064464211464
0.011749283410608768 0.016879241913557053 0.0027065386530011892
0.02004188671708107 0.018317928537726402 0.0038266000337898731
0.034039333462715149 0.020063547417521477 0.0054078339599072933
0.051551871001720428 0.021966630592942238 0.0071675912477076054
0.068569906055927277 0.024003423750400543 0.0098515572026371956
0.087306462228298187 0.026373002678155899 0.01364227756857872
0.10764452069997787 0.029091674834489822 0.019263992086052895
0.12731607258319855 0.032106373459100723 0.025118226185441017
0.1482604593038559 0.03524336963891983 0.03309263288974762
0.17048406600952148 0.038715995848178864 0.04198591411113739
0.19428645074367523 0.042513880878686905 0.052408415824174881
0.21985937654972076 0.046683035790920258 0.063402712345123291
0.2478289008140564 0.051849782466888428 0.075644023716449738
0.2777983546257019 0.057238839566707611 0.088670745491981506
0.30953508615493774 0.062811911106109619 0.10267657786607742
0.34342789649963379 0.068614460527896881 0.11766931414604187
0.37920364737510681 0.074190765619277954 0.13281027972698212
0.41508546471595764 0.079652659595012665 0.14829090237617493
0.44966369867324829 0.085488095879554749 0.16386903822422028
0.48319247364997864 0.09085574746131897 0.17830352485179901
0.51435065269470215 0.095941849052906036 0.19191889464855194
0.54457885026931763 0.10062194615602493 0.20486393570899963
0.57273703813552856 0.10452971607446671 0.21694347262382507
0.59966081380844116 0.10798267275094986 0.22884222865104675
0.62522596120834351 0.11144307255744934 0.23987333476543427
0.6492798924446106 0.11458653211593628 0.2502276599407196
0.67241817712783813 0.11738615483045578 0.26007649302482605
0.69445997476577759 0.11949066072702408 0.26982951164245605
0.71552020311355591 0.12104497849941254 0.27885031700134277
0.73528969287872314 0.12256747484207153 0.28747701644897461
0.75393152236938477 0.12333865463733673 0.2953592836856842
0.77063745260238647 0.12361165136098862 0.3028818666934967
0.008941182866692543 0.023421294987201691 0.0036803358234465122
0.014381296001374722 0.024958154186606407 0.0045516807585954666
0.021675966680049896 0.026315808296203613 0.0054390039294958115
0.033325333148241043 0.028186751529574394 0.0062199831008911133
0.049247778952121735 0.030286926776170731 0.0078539503738284111
0.066165991127490997 0.032638505101203918 0.010092850774526596
0.084785021841526031 0.03536606952548027 0.013561710715293884
0.10446792840957642 0.038351375609636307 0.018903620541095734
0.12450196593999863 0.041312094777822495 0.024787036702036858
0.14537383615970612 0.044608954340219498 0.03247673436999321
0.16756857931613922 0.048374582082033157 0.04133022204041481
0.19138143956661224 0.052230469882488251 0.051158439368009567
0.21652373671531677 0.056367445737123489 0.062393482774496078
0.24453932046890259 0.061082378029823303 0.074360236525535583
0.27455666661262512 0.066495761275291443 0.087553307414054871
0.3068731427192688 0.072200164198875427 0.1014324352145195
0.34101906418800354 0.077709406614303589 0.11655420809984207
0.37700954079627991 0.083509504795074463 0.13180848956108093
0.41327303647994995 0.089263603091239929 0.14781336486339569
0.44845661520957947 0.094820268452167511 0.16321337223052979
0.48239749670028687 0.10020339488983154 0.1781131774187088
0.51401048898696899 0.1054588109254837 0.19179171323776245
0.54461008310317993 0.11021220684051514 0.20493100583553314
0.57341307401657104 0.11397804319858551 0.21744079887866974
0.6005864143371582 0.11737625300884247 0.22916842997074127
0.62645602226257324 0.12093978375196457 0.24031558632850647
0.65066713094711304 0.12422820925712585 0.25083926320075989
0.67399722337722778 0.12688750028610229 0.26086056232452393
0.69636940956115723 0.12906423211097717 0.27060258388519287
0.71750050783157349 0.13072745501995087 0.27959716320037842
0.73778760433197021 0.13211524486541748 0.28839799761772156
0.7562137246131897 0.13284310698509216 0.29657018184661865
0.77329111099243164 0.13337592780590057 0.30385565757751465
0.012592784129083157 0.033540159463882446 0.0057295490987598896
0.018165254965424538 0.035009503364562988 0.0063013052567839622
0.024923931807279587 0.036615904420614243 0.0068988422863185406
0.035061359405517578 0.038275685161352158 0.0080216564238071442
0.048381026834249496 0.040300473570823669 0.0093327527865767479
0.06479308009147644 0.042540229856967926 0.010956638492643833
0.083846189081668854 0.045461241155862808 0.014063500799238682
0.1027771383523941 0.048330493271350861 0.018926646560430527
0.12268282473087311 0.051495317369699478 0.024916160851716995
0.14362131059169769 0.054847832769155502 0.032426800578832626
0.16585510969161987 0.058229591697454453 0.041182771325111389
0.18981081247329712 0.062080111354589462 0.051125690340995789
0.21468552947044373 0.066002316772937775 0.061723079532384872
0.24219673871994019 0.070857919752597809 0.073556602001190186
0.27249065041542053 0.07627558708190918 0.086633369326591492
0.30476459860801697 0.081751622259616852 0.10075825452804565
0.33943343162536621 0.087674528360366821 0.11575521528720856
0.37585729360580444 0.093279756605625153 0.13161748647689819
0.4124181866645813 0.09879419207572937 0.14744086563587189
0.44811609387397766 0.1046597808599472 0.16317008435726166
0.48224887251853943 0.10983344167470932 0.17808935046195984
0.51435172557830811 0.11495828628540039 0.19206985831260681
0.54527467489242554 0.11958359181880951 0.20523998141288757
0.5741763710975647 0.12367913126945496 0.2178315669298172
0.60175728797912598 0.12718828022480011 0.22989478707313538
0.6278921365737915 0.13042789697647095 0.24089083075523376
0.65235716104507446 0.13382825255393982 0.25169491767883301
0.67601174116134644 0.13638919591903687 0.26188170909881592
0.69848489761352539 0.13859172165393829 0.2714938223361969
0.71983438730239868 0.14019292593002319 0.28089165687561035
0.74010086059570312 0.14169661700725555 0.28965798020362854
0.75906276702880859 0.14255279302597046 0.29766464233398438
0.77623754739761353 0.14287266135215759 0.30519935488700867
0.016995079815387726 0.046081032603979111 0.0078473621979355812
0.022003196179866791 0.047341674566268921 0.0085787344723939896
0.028525765985250473 0.048707433044910431 0.0093768173828721046
0.037493076175451279 0.050468709319829941 0.010023938491940498
0.047845728695392609 0.052292712032794952 0.010922195389866829
0.063027136027812958 0.054639849811792374 0.012579116970300674
0.081888094544410706 0.057346396148204803 0.014980314299464226
0.10017365962266922 0.059879947453737259 0.019157968461513519
0.12030434608459473 0.062892213463783264 0.02499103918671608
0.14108645915985107 0.06615079939365387 0.031995795667171478
0.16329056024551392 0.06961456686258316 0.040886718779802322
0.18737921118736267 0.073380738496780396 0.050866283476352692
0.21220363676548004 0.077207796275615692 0.061236746609210968
0.23941212892532349 0.081950180232524872 0.072908684611320496
0.26964491605758667 0.086908794939517975 0.085560046136379242
0.30209428071975708 0.092511959373950958 0.099688343703746796
0.33733144402503967 0.098256893455982208 0.1152561753988266
0.37416255474090576 0.10369129478931427 0.1310289204120636
0.41113507747650146 0.10946330428123474 0.14680351316928864
0.44717675447463989 0.11532395333051682 0.16307099163532257
0.48155966401100159 0.12059540301561356 0.17797110974788666
0.51458573341369629 0.12590710818767548 0.19221070408821106
0.54581499099731445 0.13037288188934326 0.205574631690979
0.57508808374404907 0.13423076272010803 0.21823373436927795
0.60303539037704468 0.13779833912849426 0.23050956428050995
0.62937945127487183 0.14117278158664703 0.24175913631916046
0.65421873331069946 0.14455416798591614 0.25258132815361023
0.67795228958129883 0.14717000722885132 0.26273080706596375
0.70079165697097778 0.14932005107402802 0.27268266677856445
0.72225493192672729 0.1507938951253891 0.28188541531562805
0.74272716045379639 0.1521577388048172 0.29066574573516846
0.76168102025985718 0.15307289361953735 0.29890942573547363
0.77899861335754395 0.15323087573051453 0.30669093132019043
0.021690761670470238 0.059270992875099182 0.010162279941141605
0.02636437676846981 0.060323040932416916 0.010600348934531212
0.03265264630317688 0.061555743217468262 0.011369166895747185
0.040480591356754303 0.062913700938224792 0.012284260243177414
0.050663705915212631 0.064675949513912201 0.013466008938848972
0.063812211155891418 0.066945560276508331 0.014790364541113377
0.080131419003009796 0.069401636719703674 0.016940111294388771
0.098292864859104156 0.071911066770553589 0.020013004541397095
0.11846049129962921 0.074961915612220764 0.025223890319466591
0.13937172293663025 0.077992022037506104 0.032679170370101929
0.16155281662940979 0.081304512917995453 0.041307192295789719
0.18567956984043121 0.084895305335521698 0.050924796611070633
0.21030031144618988 0.089011520147323608 0.061225432902574539
0.23758070170879364 0.093450084328651428 0.07289113849401474
0.26772236824035645 0.09858209639787674 0.085394658148288727
0.30061301589012146 0.1038762629032135 0.099158473312854767
0.33577254414558411 0.10963985323905945 0.11472315341234207
0.37306788563728333 0.11509273946285248 0.1306845098733902
0.4106401801109314 0.12078717350959778 0.14661182463169098
0.44702258706092834 0.1265631765127182 0.16311131417751312
0.4818720817565918 0.13176807761192322 0.17827673256397247
0.51502454280853271 0.13693138957023621 0.19263842701911926
0.54681706428527832 0.14172835648059845 0.20613652467727661
0.57646709680557251 0.14548377692699432 0.21883848309516907
0.60462290048599243 0.14902003109455109 0.23106379806995392
0.63127624988555908 0.15230482816696167 0.24272075295448303
0.65641337633132935 0.15557287633419037 0.25352874398231506
0.68036746978759766 0.15818677842617035 0.26372939348220825
0.70335620641708374 0.16014622151851654 0.27376145124435425
0.72496777772903442 0.1617300808429718 0.28308537602424622
0.74569845199584961 0.16297529637813568 0.29219728708267212
0.76478224992752075 0.16383090615272522 0.30049917101860046
0.78219074010848999 0.1640310138463974 0.30784842371940613
0.026686299592256546 0.073564589023590088 0.012675553560256958
0.030997337773442268 0.074325039982795715 0.013149715960025787
0.036549780517816544 0.075338475406169891 0.013763842172920704
0.044115606695413589 0.07674582302570343 0.014598898589611053
0.054552406072616577 0.078688792884349823 0.016003960743546486
0.066705100238323212 0.080749392509460449 0.01771530881524086
0.079717382788658142 0.08286769688129425 0.019429370760917664
0.096688583493232727 0.085411563515663147 0.021920623257756233
0.11625144630670547 0.088410906493663788 0.026012314483523369
0.1374087780714035 0.091472111642360687 0.033158537000417709
0.15955285727977753 0.094611465930938721 0.041633691638708115
0.1836211234331131 0.098087891936302185 0.05130159854888916
0.20860773324966431 0.10196169465780258 0.061530835926532745
0.23573245108127594 0.10630480200052261 0.073045574128627777
0.26607456803321838 0.11127617955207825 0.085394658148288727
0.29867681860923767 0.11657993495464325 0.099150672554969788
0.33457711338996887 0.12239382416009903 0.11468452215194702
0.37230673432350159 0.12792672216892242 0.13053436577320099
0.41017574071884155 0.13350658118724823 0.14647330343723297
0.4471161961555481 0.13929574191570282 0.1631535142660141
0.48309686779975891 0.14455541968345642 0.17873460054397583
0.51604539155960083 0.14955596625804901 0.19310073554515839
0.5482105016708374 0.15449626743793488 0.20679548382759094
0.57800662517547607 0.15801005065441132 0.21965298056602478
0.60656553506851196 0.16174936294555664 0.23183470964431763
0.63363420963287354 0.16478298604488373 0.24380306899547577
0.65881091356277466 0.16821932792663574 0.25455540418624878
0.68303167819976807 0.17069728672504425 0.26517015695571899
0.70638340711593628 0.17252558469772339 0.27513313293457031
0.72821259498596191 0.17399698495864868 0.28462898731231689
0.74914991855621338 0.17529530823230743 0.29359841346740723
0.76833051443099976 0.17597559094429016 0.30201515555381775
0.78588992357254028 0.17615112662315369 0.30968800187110901
0.031238632276654243 0.088944956660270691 0.015219375491142273
0.035499289631843567 0.089845336973667145 0.015871262177824974
0.040874678641557693 0.090695224702358246 0.016577403992414474
0.048792824149131775 0.092098109424114227 0.017699534073472023
0.058688938617706299 0.093797996640205383 0.019031397998332977
0.069309726357460022 0.095715753734111786 0.020670725032687187
0.081460274755954742 0.097890965640544891 0.022329498082399368
0.095831401646137238 0.10027970373630524 0.024501504376530647
0.11384705454111099 0.10305967181921005 0.027699314057826996
0.13502645492553711 0.10603994131088257 0.03388301283121109
0.15739251673221588 0.10923392325639725 0.042113840579986572
0.18128186464309692 0.1125020906329155 0.051722470670938492
0.20634458959102631 0.11625891923904419 0.061785958707332611
0.2338421642780304 0.12046278268098831 0.07321561872959137
0.26416462659835815 0.12530508637428284 0.085757412016391754
0.29710683226585388 0.13058634102344513 0.099445946514606476
0.33317297697067261 0.13626751303672791 0.11513620615005493
0.37143746018409729 0.14202059805393219 0.13100005686283112
0.40977451205253601 0.14759702980518341 0.14663691818714142
0.44759479165077209 0.15333957970142365 0.16315607726573944
0.4835626482963562 0.15863434970378876 0.17946867644786835
0.51718086004257202 0.16365453600883484 0.19347599148750305
0.54975837469100952 0.16842919588088989 0.20749758183956146
0.57999610900878906 0.17225475609302521 0.22072526812553406
0.60876196622848511 0.17590367794036865 0.23314441740512848
0.63629388809204102 0.17907255887985229 0.24480104446411133
0.66169989109039307 0.18217863142490387 0.25611603260040283
0.68628334999084473 0.1845414787530899 0.2666192352771759
0.70973682403564453 0.18639816343784332 0.27671948075294495
0.73188954591751099 0.18786829710006714 0.28628849983215332
0.75295060873031616 0.18870246410369873 0.29529240727424622
0.77230268716812134 0.18934954702854156 0.30377748608589172
0.79004102945327759 0.18935383856296539 0.3114764392375946
0.03615773469209671 0.10596857964992523 0.018473163247108459
0.040534380823373795 0.10680875182151794 0.019141724333167076
0.046132799237966537 0.10751492530107498 0.019973313435912132
0.053938403725624084 0.1088985875248909 0.020964493975043297
0.062256272882223129 0.11040423065423965 0.022087592631578445
0.072305247187614441 0.11216682940721512 0.023609492927789688
0.084397852420806885 0.11416739225387573 0.025424059480428696
0.097577273845672607 0.11641844362020493 0.027533911168575287
0.11313565075397491 0.11906944215297699 0.030256172642111778
0.13220770657062531 0.12198855727910995 0.035262316465377808
0.15462912619113922 0.12513931095600128 0.043001603335142136
0.17876960337162018 0.12849833071231842 0.052438206970691681
0.20384560525417328 0.13196979463100433 0.062301211059093475
0.2314734011888504 0.13614952564239502 0.073755033314228058
0.26221039891242981 0.1409270167350769 0.086108878254890442
0.2957284152507782 0.14613652229309082 0.099950686097145081
0.3321678638458252 0.15193776786327362 0.11561328172683716
0.37086910009384155 0.15744943916797638 0.13201223313808441
0.40958607196807861 0.16317154467105865 0.14781065285205841
0.44805380702018738 0.16886171698570251 0.16349069774150848
0.48430103063583374 0.17415313422679901 0.17999251186847687
0.51848483085632324 0.17937050759792328 0.19398580491542816
0.55147916078567505 0.18411998450756073 0.20851406455039978
0.58231818675994873 0.18782767653465271 0.22185291349887848
0.61143481731414795 0.19125565886497498 0.23459814488887787
0.63930165767669678 0.1945701390504837 0.24642163515090942
0.66504228115081787 0.19756434857845306 0.25750982761383057
0.68987369537353516 0.20020762085914612 0.26822221279144287
0.71368217468261719 0.20148035883903503 0.27856889367103577
0.73593389987945557 0.20304334163665771 0.28812134265899658
0.75727188587188721 0.20420576632022858 0.29732370376586914
0.77683418989181519 0.20499682426452637 0.30587154626846313
0.79467993974685669 0.2046407014131546 0.31377604603767395
0.042219296097755432 0.12453401833772659 0.021902253851294518
0.046514585614204407 0.12514209747314453 0.022459197789430618
0.051472824066877365 0.12609459459781647 0.023183500394225121
0.057988077402114868 0.12720829248428345 0.024136004969477654
0.06570376455783844 0.1284867525100708 0.025314850732684135
0.07588493824005127 0.13026107847690582 0.026836130768060684
0.087228462100028992 0.13216908276081085 0.02881108783185482
0.10028813779354095 0.13447783887386322 0.03127734363079071
0.1151154413819313 0.13683120906352997 0.034060817211866379
0.13160182535648346 0.1397845596075058 0.037510942667722702
0.15160699188709259 0.14284098148345947 0.043875239789485931
0.17557600140571594 0.14608222246170044 0.05329359695315361
0.20092847943305969 0.14966166019439697 0.063084669411182404
0.2286820262670517 0.15369674563407898 0.074064120650291443
0.25965893268585205 0.158298060297966 0.086677618324756622
0.29373142123222351 0.16345751285552979 0.10091999173164368
0.33114352822303772 0.16921071708202362 0.11582466214895248
0.3702024519443512 0.17475058138370514 0.13284304738044739
0.40944758057594299 0.1805606335401535 0.14952342212200165
0.44857805967330933 0.18622298538684845 0.16528426110744476
0.4852314293384552 0.1914733499288559 0.18034105002880096
0.52003437280654907 0.19680219888687134 0.19519264996051788
0.55365467071533203 0.20165044069290161 0.20981322228908539
0.58486843109130859 0.20528456568717957 0.22313421964645386
0.61445605754852295 0.20887452363967896 0.23580512404441833
0.64279139041900635 0.21205632388591766 0.24815672636032104
0.66889071464538574 0.21495088934898376 0.2594132125377655
