Textures/86.cube
# Created by: G'MIC (https://gmic.eu)
TITLE "Lomography_X-Pro_Slide_200.cube"
# LUT size
LUT_3D_SIZE 33
# Data domain
DOMAIN_MIN 0.0 0.0 0.0
DOMAIN_MAX 1.0 1.0 1.0
# LUT data points
0.0057446165010333061 0.006617553997784853 0.004812371451407671
0.021895386278629303 0.0071876570582389832 0.0050690365023910999
0.040559910237789154 0.0081090116873383522 0.0055969473905861378
0.061354111880064011 0.0087850065901875496 0.0058279805816709995
0.081724941730499268 0.0094504822045564651 0.0065995249897241592
0.10198491811752319 0.010758975520730019 0.0068195145577192307
0.12053884565830231 0.012090015225112438 0.0076573295518755913
0.14263162016868591 0.012877891771495342 0.0080741187557578087
0.16525684297084808 0.013724489137530327 0.008381200022995472
0.19031181931495667 0.015196898952126503 0.0091788535937666893
0.21785993874073029 0.017154725268483162 0.0099956337362527847
0.24932004511356354 0.019164212048053741 0.010783455334603786
0.28148883581161499 0.020619703456759453 0.011602975428104401
0.3143450915813446 0.022572895511984825 0.012473798356950283
0.34881904721260071 0.025553174316883087 0.013283298350870609
0.38473474979400635 0.026859922334551811 0.013927684165537357
0.42343148589134216 0.029707757756114006 0.015398899093270302
0.46517398953437805 0.033280324190855026 0.016870921477675438
0.50903129577636719 0.036021847277879715 0.01760987751185894
0.55415803194046021 0.041008405387401581 0.018539916723966599
0.59894639253616333 0.045564629137516022 0.019405897706747055
0.6434786319732666 0.050679326057434082 0.019866937771439552
0.6897881031036377 0.056624744087457657 0.02112673781812191
0.73570138216018677 0.063688375055789948 0.021980561316013336
0.77976620197296143 0.072538897395133972 0.022256737574934959
0.82047897577285767 0.081380397081375122 0.022618323564529419
0.85584384202957153 0.090262167155742645 0.022003959864377975
0.88706785440444946 0.10257656872272491 0.021232439205050468
0.91406756639480591 0.11653045564889908 0.020323600620031357
0.93884629011154175 0.13008314371109009 0.018573947250843048
0.96121013164520264 0.14806139469146729 0.017061064019799232
0.98132991790771484 0.16712374985218048 0.015103177167475224
0.99638515710830688 0.18909154832363129 0.012555845081806183
0.013267687521874905 0.025961237028241158 0.0089268907904624939
0.026706406846642494 0.028027938678860664 0.0095136286690831184
0.044628389179706573 0.02956039272248745 0.010288620367646217
0.06543751060962677 0.031278509646654129 0.010856389999389648
0.085888281464576721 0.033244002610445023 0.011468008160591125
0.10472607612609863 0.034969896078109741 0.012141967192292213
0.12489961087703705 0.037109702825546265 0.013044489547610283
0.14729024469852448 0.038912560790777206 0.013906711712479591
0.16998849809169769 0.040846560150384903 0.014353998936712742
0.19583018124103546 0.042867258191108704 0.01513779629021883
0.22367846965789795 0.045422889292240143 0.016151254996657372
0.25491321086883545 0.048444073647260666 0.017198074609041214
0.28731155395507812 0.050918862223625183 0.018293313682079315
0.3200799822807312 0.053912833333015442 0.01958690769970417
0.35424995422363281 0.056638266891241074 0.020540313795208931
0.38981479406356812 0.059097286313772202 0.021859526634216309
0.42829680442810059 0.062957927584648132 0.023207586258649826
0.46994569897651672 0.067420780658721924 0.024828702211380005
0.51364833116531372 0.071419134736061096 0.026045076549053192
0.55827528238296509 0.076909966766834259 0.027100721374154091
0.60266602039337158 0.082169190049171448 0.027865177020430565
0.64710283279418945 0.088200531899929047 0.028750192373991013
0.69293701648712158 0.095172889530658722 0.029927264899015427
0.73856353759765625 0.1024724468588829 0.030985092744231224
0.78192436695098877 0.11100853979587555 0.0312382522970438
0.82168078422546387 0.12079464644193649 0.031329520046710968
0.85599374771118164 0.13110436499118805 0.030476812273263931
0.88766002655029297 0.14367170631885529 0.029623441398143768
0.91395139694213867 0.15840679407119751 0.02784179151058197
0.93824559450149536 0.1736387312412262 0.025697071105241776
0.96022909879684448 0.19187454879283905 0.022779980674386024
0.98022890090942383 0.21099896728992462 0.019594861194491386
0.9958299994468689 0.23196934163570404 0.016695756465196609
0.022122951224446297 0.048595219850540161 0.013890776783227921
0.03516228124499321 0.050257626920938492 0.014527203515172005
0.049699854105710983 0.051861695945262909 0.01472464669495821
0.067900232970714569 0.053720444440841675 0.015379559248685837
0.087951041758060455 0.055690348148345947 0.016273161396384239
0.10774025321006775 0.057526219636201859 0.017193639650940895
0.1272183358669281 0.059481795877218246 0.01787344366312027
0.14981295168399811 0.061487264931201935 0.018872743472456932
0.17328456044197083 0.0634617879986763 0.019797194749116898
0.19926850497722626 0.065583594143390656 0.020728351548314095
0.2274223268032074 0.067905135452747345 0.02183561772108078
0.25891441106796265 0.070754289627075195 0.02295193076133728
0.29102346301078796 0.073467046022415161 0.024258648976683617
0.32376822829246521 0.07648380845785141 0.025825271382927895
0.35775688290596008 0.079227574169635773 0.02701825276017189
0.393360435962677 0.082003407180309296 0.028361542150378227
0.43180376291275024 0.085836969316005707 0.029901804402470589
0.47336658835411072 0.090186670422554016 0.0317947156727314
0.51674598455429077 0.094770476222038269 0.032724630087614059
0.56118756532669067 0.10048592090606689 0.033863373100757599
0.6053159236907959 0.10597278922796249 0.034835189580917358
0.64959079027175903 0.11205250024795532 0.035800982266664505
0.69533717632293701 0.11944850534200668 0.037017084658145905
0.74058610200881958 0.12716478109359741 0.038356129080057144
0.78365468978881836 0.13606064021587372 0.03846457228064537
0.82261985540390015 0.14620792865753174 0.038377981632947922
0.85684382915496826 0.1575506180524826 0.03738877922296524
0.88771146535873413 0.17023666203022003 0.036356367170810699
0.91388899087905884 0.18504294753074646 0.034558579325675964
0.93781334161758423 0.20060732960700989 0.031775910407304764
0.95960593223571777 0.21801826357841492 0.028298642486333847
0.98008531332015991 0.23640431463718414 0.02490139938890934
0.99545073509216309 0.25618153810501099 0.021169761195778847
0.034404844045639038 0.072006374597549438 0.020308841019868851
0.046483106911182404 0.073445945978164673 0.020659111440181732
0.058604191988706589 0.074986815452575684 0.021073887124657631
0.072926640510559082 0.076567292213439941 0.021733283996582031
0.090699844062328339 0.07848406583070755 0.022469336166977882
0.10891629010438919 0.080168262124061584 0.023285068571567535
0.13008145987987518 0.082072839140892029 0.024450257420539856
0.15293705463409424 0.084007464349269867 0.025810535997152328
0.17657847702503204 0.085915125906467438 0.026618340983986855
0.20304873585700989 0.088033966720104218 0.027745284140110016
0.23179103434085846 0.09043603390455246 0.029115762561559677
0.26319313049316406 0.093185797333717346 0.030714418739080429
0.29523298144340515 0.096180267632007599 0.031818509101867676
0.32749307155609131 0.09909096360206604 0.033621884882450104
0.36147129535675049 0.10195107758045197 0.034912988543510437
0.39719709753990173 0.10479142516851425 0.036309842020273209
0.43570429086685181 0.10882381349802017 0.037705037742853165
0.47714793682098389 0.11334263533353806 0.039614316076040268
0.52028840780258179 0.11833295971155167 0.040980290621519089
0.56448686122894287 0.12426600605249405 0.041769120842218399
0.60826200246810913 0.1299281120300293 0.043211359530687332
0.65238481760025024 0.13648928701877594 0.043891631066799164
0.69774132966995239 0.14453360438346863 0.045198198407888412
0.7428857684135437 0.15269216895103455 0.04683396965265274
0.78533178567886353 0.16187010705471039 0.047026943415403366
0.8242383599281311 0.17247724533081055 0.046931736171245575
0.85803693532943726 0.1842668205499649 0.045575771480798721
0.88788741827011108 0.1968051940202713 0.043918825685977936
0.91388899087905884 0.21117593348026276 0.04132692888379097
0.93732017278671265 0.22623032331466675 0.038645986467599869
0.95909136533737183 0.2427574098110199 0.035489421337842941
0.97943371534347534 0.26031196117401123 0.032163515686988831
0.99462324380874634 0.27963835000991821 0.02741357684135437
0.048199031502008438 0.094539768993854523 0.028644116595387459
0.058321110904216766 0.09581352025270462 0.028867220506072044
0.069323927164077759 0.097235754132270813 0.029326407238841057
0.081869147717952728 0.098616160452365875 0.029788216575980186
0.095854043960571289 0.10043460130691528 0.030437914654612541
0.11190187931060791 0.10207268595695496 0.03144778311252594
0.13319648802280426 0.10393546521663666 0.032608278095722198
0.1560128778219223 0.1057664081454277 0.034021962434053421
0.18022963404655457 0.1077796071767807 0.035174328833818436
0.20709817111492157 0.10985566675662994 0.036410901695489883
0.23647595942020416 0.11234158277511597 0.038023587316274643
0.2677687406539917 0.11512956023216248 0.039441481232643127
0.29952719807624817 0.1181018128991127 0.040399312973022461
0.33153837919235229 0.1211710125207901 0.042322345077991486
0.36549654603004456 0.12407991290092468 0.04396405816078186
0.40111979842185974 0.12727749347686768 0.045804094523191452
0.43969264626502991 0.13146959245204926 0.046837009489536285
0.48129492998123169 0.13624362647533417 0.048767007887363434
0.5240132212638855 0.14171144366264343 0.05041089653968811
0.5678754448890686 0.14803290367126465 0.050970442593097687
0.61151820421218872 0.15408161282539368 0.052559245377779007
0.65530812740325928 0.16090254485607147 0.053307782858610153
0.70059829950332642 0.16969381272792816 0.054269678890705109
0.74518740177154541 0.17797058820724487 0.055842187255620956
0.7873421311378479 0.18717348575592041 0.056208912283182144
0.82570165395736694 0.19802199304103851 0.055091101676225662
0.85900688171386719 0.2094360888004303 0.053471457213163376
0.88811600208282471 0.22158820927143097 0.051762174814939499
0.91391444206237793 0.23525702953338623 0.0498957559466362
0.93707126379013062 0.24961283802986145 0.047693401575088501
0.95876425504684448 0.2654089629650116 0.044090740382671356
0.97809374332427979 0.28261673450469971 0.039610195904970169
0.99491769075393677 0.301749587059021 0.034454580396413803
0.062468256801366806 0.11710871011018753 0.038212701678276062
0.07079748809337616 0.11799951642751694 0.038860585540533066
0.080531179904937744 0.11918660253286362 0.03894367441534996
0.092110276222229004 0.12073314934968948 0.03926105797290802
0.10385697335004807 0.12205111980438232 0.040209036320447922
0.11776438355445862 0.12375283241271973 0.040856633335351944
0.13719546794891357 0.12571011483669281 0.04214048758149147
0.15945921838283539 0.12764330208301544 0.04322340339422226
0.1843598335981369 0.12950362265110016 0.044854484498500824
0.21169610321521759 0.13173757493495941 0.046376097947359085
0.24122054874897003 0.13417617976665497 0.047973345965147018
0.27285656332969666 0.13719239830970764 0.049442600458860397
0.30398121476173401 0.14032961428165436 0.050448920577764511
0.33601400256156921 0.14351768791675568 0.052228804677724838
0.3697790801525116 0.14679622650146484 0.054043613374233246
0.40536049008369446 0.15026389062404633 0.05567086860537529
0.4442296028137207 0.15465646982192993 0.056645732372999191
0.48570829629898071 0.15973202884197235 0.058321744203567505
0.52807509899139404 0.16579681634902954 0.060032188892364502
0.57154655456542969 0.17248423397541046 0.060772903263568878
0.61510258913040161 0.17867057025432587 0.062116693705320358
0.65873938798904419 0.18577109277248383 0.062943130731582642
0.70383268594741821 0.19459536671638489 0.063388943672180176
0.74796861410140991 0.20294190943241119 0.063989251852035522
0.78955638408660889 0.21180523931980133 0.063864059746265411
0.8260732889175415 0.22243273258209229 0.062902532517910004
0.85964429378509521 0.2333369106054306 0.062471508979797363
0.88850957155227661 0.2449759840965271 0.06078733503818512
0.91403448581695557 0.25804325938224792 0.059444475919008255
0.93693941831588745 0.27178260684013367 0.056910883635282516
0.95841795206069946 0.28754782676696777 0.052207488566637039
0.97674340009689331 0.30448716878890991 0.04785267636179924
0.99444186687469482 0.32286688685417175 0.04330478236079216
0.07738456130027771 0.14293636381626129 0.048378400504589081
0.08451465517282486 0.14395284652709961 0.048811759799718857
0.092943310737609863 0.14498318731784821 0.049444824457168579
0.10279320925474167 0.14629887044429779 0.049962431192398071
0.11376751959323883 0.14788109064102173 0.050377886742353439
0.12757700681686401 0.14962853491306305 0.051197770982980728
0.14383845031261444 0.15166597068309784 0.052156843245029449
0.1631673276424408 0.15346452593803406 0.053318880498409271
0.18885494768619537 0.15555235743522644 0.054562561213970184
0.21648329496383667 0.15778373181819916 0.056118983775377274
0.24631451070308685 0.16042576730251312 0.057774845510721207
0.27756315469741821 0.16346395015716553 0.059373233467340469
0.30859750509262085 0.16687704622745514 0.060311760753393173
0.34056288003921509 0.17037162184715271 0.061832167208194733
0.37421143054962158 0.17395344376564026 0.063548922538757324
0.40986952185630798 0.17764315009117126 0.065321557223796844
0.44886228442192078 0.18234995007514954 0.066151984035968781
0.49026161432266235 0.18767903745174408 0.067497916519641876
0.53243446350097656 0.19385792315006256 0.068926788866519928
0.57545918226242065 0.20068369805812836 0.069358170032501221
0.61881852149963379 0.20694193243980408 0.070110514760017395
0.66237020492553711 0.21377739310264587 0.070745222270488739
0.70718592405319214 0.22252729535102844 0.070895366370677948
0.75086402893066406 0.23042331635951996 0.071990422904491425
0.79154640436172485 0.23886270821094513 0.072218716144561768
0.82916450500488281 0.24875907599925995 0.072013594210147858
0.86054164171218872 0.25925081968307495 0.07141200453042984
0.88924676179885864 0.27039402723312378 0.069702431559562683
0.91423803567886353 0.28302481770515442 0.067453786730766296
0.93676465749740601 0.29654958844184875 0.064020901918411255
0.95786553621292114 0.31177288293838501 0.060353707522153854
0.976307213306427 0.32849627733230591 0.056632291525602341
0.99330061674118042 0.34704491496086121 0.051219917833805084
0.092538237571716309 0.17030030488967896 0.058253742754459381
0.098421081900596619 0.17110785841941833 0.058829464018344879
0.10545355081558228 0.17174196243286133 0.059417642652988434
0.1139976978302002 0.17302986979484558 0.059696923941373825
0.12518689036369324 0.17474517226219177 0.060567446053028107
0.13863828778266907 0.17630214989185333 0.060984604060649872
0.15409353375434875 0.17874757945537567 0.061874952167272568
0.17078302800655365 0.18059444427490234 0.063134841620922089
0.19345331192016602 0.18294018507003784 0.064559854567050934
0.2210618257522583 0.18522016704082489 0.065714985132217407
0.25107601284980774 0.1878407895565033 0.066813364624977112
0.28243905305862427 0.19093349575996399 0.068600304424762726
0.31317725777626038 0.1943533718585968 0.069465100765228271
0.34518513083457947 0.19797022640705109 0.070703290402889252
0.37893414497375488 0.20183433592319489 0.071884781122207642
0.41455483436584473 0.20576803386211395 0.073080353438854218
0.45369714498519897 0.21050539612770081 0.07436060905456543
0.49517381191253662 0.21571485698223114 0.074878349900245667
0.53729355335235596 0.22178365290164948 0.076061457395553589
0.57993406057357788 0.22813926637172699 0.076774522662162781
0.62286311388015747 0.23445697128772736 0.077827140688896179
0.66637015342712402 0.24083758890628815 0.078788265585899353
0.71099376678466797 0.24886858463287354 0.079662390053272247
0.75406950712203979 0.25659653544425964 0.080567933619022369
0.79416120052337646 0.2648388147354126 0.080774933099746704
0.82978403568267822 0.27422371506690979 0.080230779945850372
0.86187988519668579 0.28437748551368713 0.079016931354999542
0.89008522033691406 0.29524803161621094 0.07650863379240036
0.91452932357788086 0.30759119987487793 0.074432581663131714
0.93667459487915039 0.3210127055644989 0.071909725666046143
0.95704758167266846 0.33611047267913818 0.068414747714996338
0.976307213306427 0.35286465287208557 0.063486732542514801
0.99290734529495239 0.37084037065505981 0.058453917503356934
0.10198536515235901 0.20093055069446564 0.067476719617843628
0.10673012584447861 0.20139396190643311 0.067578144371509552
0.11258872598409653 0.20231319963932037 0.068083234131336212
0.12060359865427017 0.20427325367927551 0.068677283823490143
0.13134954869747162 0.20510324835777283 0.069158673286437988
0.14464034140110016 0.20726236701011658 0.069849692285060883
0.15908233821392059 0.20894241333007812 0.070899732410907745
0.17622072994709015 0.2111055850982666 0.071586988866329193
0.19745157659053802 0.21330438554286957 0.072793565690517426
0.22611723840236664 0.21605439484119415 0.073931142687797546
0.25575399398803711 0.21852861344814301 0.074905499815940857
0.28688144683837891 0.22145678102970123 0.07595410943031311
0.31778883934020996 0.22473388910293579 0.077300183475017548
0.34979689121246338 0.22818806767463684 0.078689016401767731
0.38388365507125854 0.23210448026657104 0.080085650086402893
0.41970339417457581 0.23625856637954712 0.081015907227993011
0.45906928181648254 0.2407229095697403 0.082482829689979553
0.50040853023529053 0.24563567340373993 0.083880536258220673
0.54233860969543457 0.25121656060218811 0.08481934666633606
0.58515787124633789 0.25703820586204529 0.086051970720291138
0.62754899263381958 0.26300784945487976 0.087058484554290771
0.67081016302108765 0.26935237646102905 0.087968878448009491
0.71543437242507935 0.27651649713516235 0.088678412139415741
0.75759541988372803 0.28416681289672852 0.088518880307674408
0.79673701524734497 0.29236525297164917 0.088087484240531921
0.83269214630126953 0.30119949579238892 0.086999990046024323
0.8628380298614502 0.31130126118659973 0.08606451004743576
0.89019632339477539 0.3223821222782135 0.084445595741271973
0.91462415456771851 0.33429250121116638 0.082641586661338806
0.93616777658462524 0.34762963652610779 0.079409509897232056
0.95568889379501343 0.36241495609283447 0.074966743588447571
0.97566229104995728 0.37885859608650208 0.070792026817798615
0.99143493175506592 0.39635327458381653 0.065921589732170105
0.094030998647212982 0.23496723175048828 0.075821623206138611
0.09891924262046814 0.23496720194816589 0.076061911880970001
0.10504996776580811 0.23497892916202545 0.07648080587387085
0.11389618366956711 0.23711472749710083 0.077117256820201874
0.12566195428371429 0.23888905346393585 0.077833689749240875
0.1390414834022522 0.23910945653915405 0.078563287854194641
0.15495948493480682 0.2421160489320755 0.079497076570987701
0.17457304894924164 0.24306707084178925 0.080621249973773956
0.20100218057632446 0.24632050096988678 0.0818161740899086
0.23058706521987915 0.24802610278129578 0.083106301724910736
0.26066890358924866 0.25070112943649292 0.084096290171146393
0.29153698682785034 0.25373196601867676 0.085198916494846344
0.32255071401596069 0.25629228353500366 0.086839526891708374
0.35468944907188416 0.25941869616508484 0.088209420442581177
0.38905668258666992 0.26324442028999329 0.089609064161777496
0.42548754811286926 0.26745861768722534 0.0905313640832901
0.4648175835609436 0.27177566289901733 0.091751441359519958
0.50631856918334961 0.27641057968139648 0.092897593975067139
0.54796826839447021 0.28144419193267822 0.093749150633811951
0.59048199653625488 0.28688892722129822 0.094207853078842163
0.63283830881118774 0.29279109835624695 0.094808071851730347
0.67572039365768433 0.29885876178741455 0.09522516280412674
0.72007948160171509 0.30574771761894226 0.095744334161281586
0.76151788234710693 0.31326690316200256 0.095753692090511322
0.79930001497268677 0.32150521874427795 0.095663212239742279
0.83390873670578003 0.33004811406135559 0.095209978520870209
0.86395502090454102 0.34017610549926758 0.093844428658485413
0.89019834995269775 0.35114023089408875 0.091723650693893433
0.91462415456771851 0.36276355385780334 0.089005611836910248
0.93554610013961792 0.37577739357948303 0.086285039782524109
0.95531052350997925 0.39053303003311157 0.08242875337600708
0.97249650955200195 0.40596663951873779 0.077488094568252563
0.9893653392791748 0.42320975661277771 0.072640635073184967
0.099517621099948883 0.26895448565483093 0.085922814905643463
0.10342327505350113 0.26895448565483093 0.086197040975093842
0.1086203008890152 0.26895442605018616 0.086683057248592377
0.11508709192276001 0.27078732848167419 0.087228864431381226
0.1238737627863884 0.27287578582763672 0.087935075163841248
0.13443043828010559 0.27287581562995911 0.088584534823894501
0.15165241062641144 0.27492985129356384 0.089598692953586578
0.17659071087837219 0.27679756283760071 0.090266048908233643
0.20595495402812958 0.27883994579315186 0.091334544122219086
0.23572938144207001 0.2808118462562561 0.092409335076808929
0.26564818620681763 0.28399786353111267 0.093317732214927673
0.29657003283500671 0.28588321805000305 0.094417266547679901
0.32752805948257446 0.28866833448410034 0.095501191914081573
0.36039978265762329 0.29208832979202271 0.096448257565498352
0.39516386389732361 0.29519829154014587 0.097384072840213776
0.43175363540649414 0.29925492405891418 0.098290383815765381
0.47138494253158569 0.30340671539306641 0.099211312830448151
0.51253789663314819 0.30802229046821594 0.10011579096317291
0.55393743515014648 0.31300446391105652 0.10106053948402405
0.59634041786193848 0.31799286603927612 0.10195256024599075
0.63821840286254883 0.32391443848609924 0.10265550762414932
0.68110531568527222 0.32994413375854492 0.10371202230453491
0.72478187084197998 0.3369118869304657 0.10392185300588608
0.76531636714935303 0.34420028328895569 0.10396125167608261
0.8026655912399292 0.35213467478752136 0.10305126011371613
0.83619958162307739 0.3605995774269104 0.10204610228538513
0.86490803956985474 0.37059226632118225 0.10035166889429092
0.89045876264572144 0.38133057951927185 0.09876665472984314
0.91424649953842163 0.39270809292793274 0.096248157322406769
0.93442130088806152 0.40539306402206421 0.092567399144172668
0.95511436462402344 0.41937249898910522 0.088423103094100952
0.97238564491271973 0.43478432297706604 0.084198281168937683
0.98853814601898193 0.45069265365600586 0.078697279095649719
0.087990634143352509 0.30360075831413269 0.094817318022251129
0.092281527817249298 0.30375835299491882 0.094885967671871185
0.097158439457416534 0.30456289649009705 0.095398060977458954
0.10373246669769287 0.30674019455909729 0.095773674547672272
0.11275118589401245 0.3075164258480072 0.096512429416179657
0.1276000440120697 0.30761590600013733 0.097190730273723602
0.15273264050483704 0.30978995561599731 0.098182961344718933
0.1813233345746994 0.31143775582313538 0.099137462675571442
0.21127909421920776 0.31321001052856445 0.099770858883857727
0.24103635549545288 0.31537041068077087 0.10083342343568802
0.27079638838768005 0.31803807616233826 0.10180925577878952
0.30136638879776001 0.32003021240234375 0.10292354971170425
0.33244046568870544 0.32322743535041809 0.10393539816141129
0.36542949080467224 0.32653665542602539 0.10511386394500732
0.40112850069999695 0.32929998636245728 0.10596082359552383
0.43865549564361572 0.33296719193458557 0.10711847990751266
0.47857460379600525 0.33692812919616699 0.10823755711317062
0.51928263902664185 0.34132227301597595 0.10901181399822235
0.56033360958099365 0.34676060080528259 0.10961207002401352
0.60227686166763306 0.35176107287406921 0.11006065458059311
0.64429712295532227 0.35698533058166504 0.11038993299007416
0.68675941228866577 0.3636014461517334 0.11108056455850601
0.7296905517578125 0.37023013830184937 0.11139141023159027
0.76909726858139038 0.37733480334281921 0.11069676280021667
0.80528891086578369 0.38503381609916687 0.11051051318645477
0.83757811784744263 0.39367219805717468 0.10942484438419342
0.86606764793395996 0.4031093418598175 0.10772421956062317
