Textures/86.cube
# Created by: G'MIC (https://gmic.eu)
TITLE "Lomography_X-Pro_Slide_200.cube"
# LUT size
LUT_3D_SIZE 5
# Data domain
DOMAIN_MIN 0.0 0.0 0.0
DOMAIN_MAX 1.0 1.0 1.0
# LUT data points
0.0057446165010333061 0.006617553997784853 0.004812371451407671
0.16525684297084808 0.013724489137530327 0.008381200022995472
0.42343148589134216 0.029707757756114006 0.015398899093270302
0.77976620197296143 0.072538897395133972 0.022256737574934959
0.99638515710830688 0.18909154832363129 0.012555845081806183
0.10198536515235901 0.20093055069446564 0.067476719617843628
0.19745157659053802 0.21330438554286957 0.072793565690517426
0.45906928181648254 0.2407229095697403 0.082482829689979553
0.79673701524734497 0.29236525297164917 0.088087484240531921
0.99143493175506592 0.39635327458381653 0.065921589732170105
0.018258949741721153 0.51282680034637451 0.13678117096424103
0.22037915885448456 0.5194392204284668 0.1396850198507309
0.51297503709793091 0.53802239894866943 0.14366400241851807
0.81298720836639404 0.57499349117279053 0.13947099447250366
0.97039574384689331 0.64886218309402466 0.10562979429960251
0.24705691635608673 0.81037610769271851 0.2635551393032074
0.38142487406730652 0.81096565723419189 0.26756489276885986
0.63132590055465698 0.81217336654663086 0.27545985579490662
0.82473117113113403 0.81746530532836914 0.27394512295722961
0.95409184694290161 0.83356934785842896 0.24138043820858002
0.68401098251342773 0.94811409711837769 0.51963651180267334
0.71473723649978638 0.94811409711837769 0.52106970548629761
0.78398364782333374 0.94893801212310791 0.52353793382644653
0.8693355917930603 0.95106208324432373 0.52170974016189575
0.967235267162323 0.95615267753601074 0.49535360932350159
0.0068203001283109188 0.0035985424183309078 0.12946489453315735
0.16521011292934418 0.0088342064991593361 0.1385418176651001
0.42886379361152649 0.021645151078701019 0.15084512531757355
0.78828781843185425 0.062615841627120972 0.1584382951259613
0.99809181690216064 0.1811191588640213 0.13719624280929565
0.1039634495973587 0.18909046053886414 0.19534096121788025
0.20209629833698273 0.20137804746627808 0.20161512494087219
0.46588730812072754 0.23031589388847351 0.21208682656288147
0.80352514982223511 0.28420174121856689 0.21573984622955322
0.99370944499969482 0.39206346869468689 0.18398052453994751
0.021428048610687256 0.51074427366256714 0.27431407570838928
0.2241961658000946 0.51765996217727661 0.27913045883178711
0.51881611347198486 0.53633129596710205 0.28790634870529175
0.81689947843551636 0.57433623075485229 0.29022499918937683
0.97150242328643799 0.65028947591781616 0.25825861096382141
0.24530501663684845 0.81403356790542603 0.39716139435768127
0.38221403956413269 0.8142513632774353 0.40142181515693665
0.63320696353912354 0.81567275524139404 0.41032198071479797
0.82472991943359375 0.82158273458480835 0.41302579641342163
0.95408505201339722 0.83839660882949829 0.39147451519966125
0.68401354551315308 0.95398461818695068 0.62343573570251465
0.71401870250701904 0.95390969514846802 0.62501364946365356
0.78323245048522949 0.95453780889511108 0.62834656238555908
0.86807906627655029 0.95589649677276611 0.62904638051986694
0.96646755933761597 0.96244668960571289 0.60956907272338867
0.0070672091096639633 0.00032683333847671747 0.31512436270713806
0.162557452917099 0.0036684765946120024 0.32883411645889282
0.43259811401367188 0.012840054929256439 0.34484586119651794
0.79477399587631226 0.048903696238994598 0.35709670186042786
0.99918651580810547 0.16724832355976105 0.3399830162525177
0.10090093314647675 0.16789737343788147 0.40472957491874695
0.20403063297271729 0.17955632507801056 0.41399013996124268
0.47104474902153015 0.20742006599903107 0.43004554510116577
0.81020480394363403 0.26485052704811096 0.44232025742530823
0.99618744850158691 0.37775394320487976 0.42622414231300354
0.037509392946958542 0.49876624345779419 0.50477951765060425
0.22837035357952118 0.50513714551925659 0.5111503005027771
0.52498894929885864 0.52472740411758423 0.52483648061752319
0.8214220404624939 0.56406933069229126 0.53529685735702515
0.97354096174240112 0.64586681127548218 0.52127259969711304
0.23166462779045105 0.8179740309715271 0.62780582904815674
0.37696990370750427 0.8179740309715271 0.63239699602127075
0.63215935230255127 0.81994187831878662 0.64344590902328491
0.82355296611785889 0.82713872194290161 0.65140587091445923
0.95408505201339722 0.84477657079696655 0.64302182197570801
0.68371295928955078 0.96049672365188599 0.76584959030151367
0.71383607387542725 0.96070259809494019 0.76771765947341919
0.78166204690933228 0.96216475963592529 0.77153545618057251
0.86661398410797119 0.96373552083969116 0.7751808762550354
0.96774202585220337 0.97122550010681152 0.77108848094940186
0.0029549819882959127 0.0002960863639600575 0.57237958908081055
0.15064649283885956 0 0.59132105112075806
0.42784345149993896 0.0010942124063149095 0.61378538608551025
0.79674506187438965 0.020670788362622261 0.63385117053985596
0.9997481107711792 0.12979061901569366 0.62970685958862305
0.087267041206359863 0.12480776757001877 0.67459702491760254
0.19994165003299713 0.13400088250637054 0.68524879217147827
0.47011905908584595 0.15735384821891785 0.70406550168991089
0.81394129991531372 0.21458995342254639 0.72188544273376465
0.99844765663146973 0.33876639604568481 0.71846753358840942
0.094140909612178802 0.46130269765853882 0.74942600727081299
0.23962736129760742 0.4685327410697937 0.75519669055938721
0.53117477893829346 0.4894062876701355 0.76890462636947632
0.82812947034835815 0.53152000904083252 0.78272163867950439
0.97903144359588623 0.62213581800460815 0.78077840805053711
0.21201924979686737 0.81326091289520264 0.79983401298522949
0.36848297715187073 0.8137851357460022 0.80413639545440674
0.63021385669708252 0.81572920083999634 0.81490939855575562
0.82464677095413208 0.82406908273696899 0.8241037130355835
0.95408546924591064 0.84501117467880249 0.82696443796157837
0.68314766883850098 0.96644037961959839 0.86405926942825317
0.71341115236282349 0.96685230731964111 0.86585628986358643
0.78154194355010986 0.96758264303207397 0.86983257532119751
0.86626923084259033 0.96985781192779541 0.87456929683685303
0.97228151559829712 0.97770774364471436 0.87685191631317139
0.0002304785157321021 0.003922000527381897 0.80466628074645996
0.12796929478645325 0.0039220014587044716 0.81875568628311157
0.41358858346939087 0 0.83837652206420898
0.79304158687591553 0 0.86212551593780518
1 0.056384280323982239 0.86896032094955444
0.070576459169387817 0.040807835757732391 0.85566204786300659
0.18446932733058929 0.048088736832141876 0.86334419250488281
0.45897641777992249 0.066909253597259521 0.87975096702575684
0.81342816352844238 0.11196903139352798 0.89876145124435425
0.99967330694198608 0.24149453639984131 0.90307855606079102
0.12412697821855545 0.36365419626235962 0.88619482517242432
0.26386764645576477 0.37013170123100281 0.89149254560470581
0.53959357738494873 0.39163598418235779 0.90438294410705566
0.84001272916793823 0.43900421261787415 0.91885823011398315
0.99312222003936768 0.54281157255172729 0.92139333486557007
0.17613182961940765 0.78380477428436279 0.90451818704605103
0.34861034154891968 0.78474020957946777 0.90881997346878052
0.62334007024765015 0.78800636529922485 0.91968512535095215
0.82894909381866455 0.79893475770950317 0.93037360906600952
0.96192806959152222 0.82642841339111328 0.93635660409927368
0.66927498579025269 0.96760118007659912 0.95173615217208862
0.70196789503097534 0.96760118007659912 0.95391517877578735
0.77494841814041138 0.9678071141242981 0.95961868762969971
0.86368083953857422 0.97119390964508057 0.96834152936935425
0.97930514812469482 0.98016244173049927 0.97898757457733154
