Textures/87.cube
# Created by: G'MIC (https://gmic.eu)
TITLE "Polaroid_669_3.cube"
# LUT size
LUT_3D_SIZE 33
# Data domain
DOMAIN_MIN 0.0 0.0 0.0
DOMAIN_MAX 1.0 1.0 1.0
# LUT data points
0.0079922862350940704 0.14384461939334869 0.10811717808246613
0.016413671895861626 0.14437893033027649 0.1088382676243782
0.028943706303834915 0.14522004127502441 0.10950105637311935
0.047855090349912643 0.14630410075187683 0.11027568578720093
0.067349359393119812 0.14748379588127136 0.11142204701900482
0.086279354989528656 0.14871008694171906 0.11247313022613525
0.10543962568044662 0.15043596923351288 0.11376018822193146
0.1246454194188118 0.15115171670913696 0.11421818286180496
0.14520712196826935 0.15229737758636475 0.11558612436056137
0.16753430664539337 0.15406450629234314 0.11729443073272705
0.191706582903862 0.15552185475826263 0.11879537999629974
0.21869291365146637 0.15637248754501343 0.12055534869432449
0.24768650531768799 0.15752312541007996 0.12201181054115295
0.27984082698822021 0.15850034356117249 0.12420345097780228
0.3134562075138092 0.15864312648773193 0.12619107961654663
0.34819638729095459 0.15819206833839417 0.1279766708612442
0.38371527194976807 0.15752860903739929 0.13010673224925995
0.41941499710083008 0.15643578767776489 0.13248677551746368
0.45664399862289429 0.15439952909946442 0.13469678163528442
0.49884197115898132 0.15235200524330139 0.13774637877941132
0.53744781017303467 0.14918044209480286 0.13991999626159668
0.57353460788726807 0.14649869501590729 0.1427488774061203
0.60773402452468872 0.14378026127815247 0.14526957273483276
0.64048737287521362 0.14130347967147827 0.14777924120426178
0.67394131422042847 0.13947853446006775 0.15052896738052368
0.70770299434661865 0.13746128976345062 0.15305167436599731
0.74127417802810669 0.13675197958946228 0.1560833752155304
0.77385097742080688 0.13701289892196655 0.15921157598495483
0.80597734451293945 0.13902819156646729 0.16287437081336975
0.83653312921524048 0.1419081836938858 0.16666591167449951
0.86725187301635742 0.14729239046573639 0.17123256623744965
0.89706707000732422 0.15433147549629211 0.17612718045711517
0.92955243587493896 0.16558974981307983 0.1830531507730484
0.0076169054955244064 0.14872203767299652 0.10970655083656311
0.016863010823726654 0.14956113696098328 0.10968208312988281
0.030447931960225105 0.15036182105541229 0.11054635047912598
0.048926789313554764 0.15133883059024811 0.11118213087320328
0.067857816815376282 0.15263420343399048 0.1124860867857933
0.086571410298347473 0.15321986377239227 0.11314783245325089
0.10560508817434311 0.15453332662582397 0.11432816833257675
0.12531988322734833 0.15553544461727142 0.11524094641208649
0.14698266983032227 0.15672211349010468 0.1167718693614006
0.16940015554428101 0.15804937481880188 0.1180456280708313
0.19403472542762756 0.15954560041427612 0.11958866566419601
0.22168296575546265 0.16063384711742401 0.12143488973379135
0.25126004219055176 0.16145527362823486 0.12317335605621338
0.28314957022666931 0.16255161166191101 0.12513446807861328
0.31677466630935669 0.16246074438095093 0.12685097754001617
0.35149016976356506 0.16243088245391846 0.12885943055152893
0.38637000322341919 0.16177944839000702 0.13084235787391663
0.42230355739593506 0.16082665324211121 0.13334479928016663
0.46057808399200439 0.15881370007991791 0.13542628288269043
0.50187802314758301 0.15665698051452637 0.13804851472377777
0.54065626859664917 0.15428091585636139 0.14090341329574585
0.5764508843421936 0.15206974744796753 0.14338004589080811
0.61058789491653442 0.14927151799201965 0.14585496485233307
0.64344698190689087 0.14706394076347351 0.14817763864994049
0.67725193500518799 0.14574947953224182 0.15109923481941223
0.71083825826644897 0.14413969218730927 0.153962641954422
0.74397170543670654 0.14367574453353882 0.15700845420360565
0.77649307250976562 0.14419081807136536 0.16003534197807312
0.80864030122756958 0.14627929031848907 0.16380114853382111
0.83850562572479248 0.14962431788444519 0.16774280369281769
0.86945647001266479 0.15505670011043549 0.17212393879890442
0.89920812845230103 0.1622166782617569 0.17705665528774261
0.93118834495544434 0.1729058176279068 0.18372367322444916
0.006599722895771265 0.15582148730754852 0.11128021776676178
0.015985239297151566 0.15650995075702667 0.1112685427069664
0.031402863562107086 0.15795080363750458 0.11114253103733063
0.05127410963177681 0.15832968056201935 0.11146127432584763
0.069570884108543396 0.15848514437675476 0.11253132671117783
0.088337726891040802 0.15924753248691559 0.1138916090130806
0.10831655561923981 0.16031824052333832 0.11537721008062363
0.12801326811313629 0.16120000183582306 0.11674172431230545
0.14977572858333588 0.162318155169487 0.11786460131406784
0.17283055186271667 0.16358113288879395 0.11919622868299484
0.19782334566116333 0.16506166756153107 0.12134071439504623
0.22565998136997223 0.16581776738166809 0.12247773259878159
0.25530460476875305 0.16680653393268585 0.12434373050928116
0.28764498233795166 0.16796767711639404 0.12655743956565857
0.32121634483337402 0.16848291456699371 0.12823878228664398
0.35538762807846069 0.16801530122756958 0.13031862676143646
0.39029207825660706 0.16760654747486115 0.13216532766819
0.42636406421661377 0.1664501428604126 0.13420113921165466
0.46651172637939453 0.16500456631183624 0.13674984872341156
0.50666916370391846 0.16326680779457092 0.13964743912220001
0.54443913698196411 0.16101516783237457 0.14199332892894745
0.57979077100753784 0.15855590999126434 0.1442534476518631
0.61436164379119873 0.15640856325626373 0.14696170389652252
0.64770036935806274 0.15494368970394135 0.14972531795501709
0.68112903833389282 0.153130903840065 0.15220855176448822
0.71464216709136963 0.15196713805198669 0.15478916466236115
0.74793648719787598 0.15201243758201599 0.15834711492061615
0.78021961450576782 0.15290287137031555 0.16113851964473724
0.81224983930587769 0.15542763471603394 0.16486272215843201
0.84210675954818726 0.15888364613056183 0.16867715120315552
0.87280440330505371 0.16476856172084808 0.17333574593067169
0.90243244171142578 0.17216414213180542 0.1786084771156311
0.93510770797729492 0.18325483798980713 0.18599237501621246
0.0056768534705042839 0.16567252576351166 0.11347053200006485
0.015298557467758656 0.16625367105007172 0.11386292427778244
0.029883142560720444 0.1672690212726593 0.11350613087415695
0.051834568381309509 0.16812430322170258 0.11317899823188782
0.073522195219993591 0.16780038177967072 0.11303015798330307
0.092980258166790009 0.168169304728508 0.11479005217552185
0.11252069473266602 0.1684257835149765 0.11696738749742508
0.13302625715732574 0.1695985347032547 0.11860304325819016
0.15450012683868408 0.17010802030563354 0.1199435293674469
0.17795291543006897 0.17154940962791443 0.12126961350440979
0.20334850251674652 0.1726309061050415 0.12270559370517731
0.23206987977027893 0.17355629801750183 0.12459813058376312
0.26194101572036743 0.17466355860233307 0.12610609829425812
0.29410514235496521 0.17527236044406891 0.12798197567462921
0.328166663646698 0.17575882375240326 0.12998317182064056
0.3626120388507843 0.17582853138446808 0.13164903223514557
0.39776426553726196 0.17552632093429565 0.13405008614063263
0.43544080853462219 0.1746685802936554 0.13603423535823822
0.47628790140151978 0.17325232923030853 0.13867957890033722
0.51546603441238403 0.17171171307563782 0.14090405404567719
0.55226671695709229 0.17042447626590729 0.14365150034427643
0.58679819107055664 0.16815678775310516 0.14600549638271332
0.61981403827667236 0.1662275642156601 0.14813932776451111
0.65165102481842041 0.16467665135860443 0.15073497593402863
0.68486934900283813 0.16377840936183929 0.15360665321350098
0.71835631132125854 0.16317422688007355 0.15631063282489777
0.75054889917373657 0.16329154372215271 0.15917140245437622
0.78272908926010132 0.16480676829814911 0.16221871972084045
0.81406795978546143 0.16731579601764679 0.16632084548473358
0.8440021276473999 0.17106667160987854 0.1703459769487381
0.87330281734466553 0.17629939317703247 0.17441253364086151
0.90215164422988892 0.18340152502059937 0.17936995625495911
0.93470305204391479 0.19458194077014923 0.18657214939594269
0.0052977344021201134 0.17537122964859009 0.11573588103055954
0.014586327597498894 0.17561271786689758 0.11635418236255646
0.027951512485742569 0.17633864283561707 0.11646801233291626
0.047871440649032593 0.1774483323097229 0.11557125300168991
0.071115031838417053 0.17832107841968536 0.11503563076257706
0.093785464763641357 0.17803230881690979 0.11474145948886871
0.11462780833244324 0.17830654978752136 0.11676166206598282
0.1353875994682312 0.17857363820075989 0.11920469999313354
0.15867742896080017 0.18003155291080475 0.12151661515235901
0.18358473479747772 0.18138986825942993 0.12362083047628403
0.21013496816158295 0.18236750364303589 0.12519805133342743
0.23909550905227661 0.18337205052375793 0.12666426599025726
0.26966366171836853 0.18448106944561005 0.12835396826267242
0.30197125673294067 0.1854611337184906 0.1302029937505722
0.33623424172401428 0.18589985370635986 0.13223642110824585
0.36970865726470947 0.18596896529197693 0.13368712365627289
0.40591779351234436 0.1856873482465744 0.1357121616601944
0.4460701048374176 0.18530482053756714 0.13801662623882294
0.48515906929969788 0.18428498506546021 0.14069554209709167
0.52332013845443726 0.18284009397029877 0.14291973412036896
0.55911868810653687 0.18133780360221863 0.14539073407649994
0.59260040521621704 0.17988552153110504 0.14755003154277802
0.62511557340621948 0.17864003777503967 0.15001596510410309
0.65726608037948608 0.17731726169586182 0.15256549417972565
0.69005167484283447 0.17672470211982727 0.15521098673343658
0.72341829538345337 0.17671114206314087 0.15793086588382721
0.75499260425567627 0.17733757197856903 0.16079859435558319
0.78715419769287109 0.17926080524921417 0.16437524557113647
0.81765496730804443 0.18172603845596313 0.16765011847019196
0.84699130058288574 0.18566694855690002 0.17177219688892365
0.87582552433013916 0.19074892997741699 0.17605829238891602
0.90500861406326294 0.19851233065128326 0.18158590793609619
0.93681818246841431 0.20922955870628357 0.18867497146129608
0.006173738744109869 0.1874212920665741 0.11916779726743698
0.015793649479746819 0.18755277991294861 0.11980369687080383
0.028172174468636513 0.18732066452503204 0.1200326681137085
0.046785436570644379 0.18836560845375061 0.11936186254024506
0.068479709327220917 0.18935379385948181 0.11878189444541931
0.093504175543785095 0.19087871909141541 0.11812321096658707
0.11710308492183685 0.19052635133266449 0.11779202520847321
0.1394437700510025 0.19030661880970001 0.11948095262050629
0.16323833167552948 0.19108536839485168 0.12211494147777557
0.18878518044948578 0.19265758991241455 0.12477265298366547
0.21692144870758057 0.19415926933288574 0.12733352184295654
0.2472148984670639 0.19588054716587067 0.12936949729919434
0.27779498696327209 0.19650165736675262 0.13083414733409882
0.3103996217250824 0.19729907810688019 0.13254784047603607
0.34397289156913757 0.19803176820278168 0.13419634103775024
0.37901175022125244 0.19839686155319214 0.13605433702468872
0.41838094592094421 0.19863595068454742 0.13822296261787415
0.45781540870666504 0.19865843653678894 0.14068242907524109
0.49476143717765808 0.1980571448802948 0.14311973750591278
0.53136575222015381 0.1966833621263504 0.14508251845836639
0.56635463237762451 0.19599948823451996 0.14756089448928833
0.59927994012832642 0.19468623399734497 0.14990948140621185
0.63146322965621948 0.19343218207359314 0.15209826827049255
0.66273385286331177 0.19262053072452545 0.15456995368003845
0.69524592161178589 0.19291667640209198 0.15754485130310059
0.72806096076965332 0.19298821687698364 0.15987655520439148
0.75995653867721558 0.19402746856212616 0.16283541917800903
0.79128742218017578 0.19644446671009064 0.16621223092079163
0.82163983583450317 0.19936747848987579 0.17034608125686646
0.85119372606277466 0.20339219272136688 0.17389881610870361
0.88000178337097168 0.2088857889175415 0.17865550518035889
0.90861350297927856 0.21637602150440216 0.18405330181121826
0.94059759378433228 0.22749872505664825 0.19155307114124298
0.0081083597615361214 0.20033638179302216 0.12300672382116318
0.017783837392926216 0.20037533342838287 0.12357501685619354
0.029820442199707031 0.1999969482421875 0.12371110171079636
0.047679278999567032 0.20035672187805176 0.12331674993038177
0.068020164966583252 0.20120196044445038 0.12247367948293686
0.091261200606822968 0.20287375152111053 0.12203170359134674
0.11662250012159348 0.20427678525447845 0.12103325128555298
0.14127202332019806 0.2039652019739151 0.12057357281446457
0.16591168940067291 0.20404341816902161 0.12174712866544724
0.1924733966588974 0.20516933500766754 0.12492098659276962
0.22159652411937714 0.20723998546600342 0.12784069776535034
0.25415042042732239 0.21005065739154816 0.13091176748275757
0.28733155131340027 0.21173419058322906 0.13372147083282471
0.32091209292411804 0.21285119652748108 0.13567826151847839
0.35689404606819153 0.21382345259189606 0.137563556432724
0.39619347453117371 0.21517367660999298 0.13976924121379852
0.43442854285240173 0.21561898291110992 0.14175185561180115
0.47112217545509338 0.21535558998584747 0.14374001324176788
0.50666534900665283 0.21464534103870392 0.14578311145305634
0.54154789447784424 0.21403923630714417 0.14797109365463257
0.57506990432739258 0.21316151320934296 0.15043067932128906
0.60672658681869507 0.21188773214817047 0.1521969735622406
0.63807320594787598 0.210992231965065 0.15458594262599945
0.66869735717773438 0.21075974404811859 0.15700039267539978
0.70060092210769653 0.21068352460861206 0.15936499834060669
0.732718825340271 0.21155431866645813 0.16212692856788635
0.76335293054580688 0.21279673278331757 0.16512328386306763
0.79387754201889038 0.21519872546195984 0.16822673380374908
0.82401949167251587 0.21846389770507812 0.1717601865530014
0.85274207592010498 0.22247067093849182 0.17604377865791321
0.88090032339096069 0.22764171659946442 0.18028149008750916
0.90882289409637451 0.23462003469467163 0.18554984033107758
0.94122087955474854 0.24621447920799255 0.19345402717590332
0.010861875489354134 0.21403521299362183 0.12689375877380371
0.02077733539044857 0.21439050137996674 0.12732286751270294
0.03283257782459259 0.21355003118515015 0.1276906281709671
0.049319017678499222 0.21322110295295715 0.12770900130271912
0.069140680134296417 0.21428638696670532 0.12709110975265503
0.091068007051944733 0.2157650887966156 0.12655304372310638
0.11523165553808212 0.21737822890281677 0.12529611587524414
0.14211168885231018 0.21920183300971985 0.1240801215171814
0.16886134445667267 0.21951015293598175 0.12340271472930908
0.19635939598083496 0.22007416188716888 0.12436327338218689
0.22573485970497131 0.22183085978031158 0.12720838189125061
0.25823453068733215 0.22373354434967041 0.13034266233444214
0.29444500803947449 0.22701802849769592 0.13405813276767731
0.3349042534828186 0.23066945374011993 0.13783375918865204
0.37633001804351807 0.23380076885223389 0.14145280420780182
0.4129912257194519 0.23448467254638672 0.14334873855113983
0.44943287968635559 0.23481021821498871 0.14513248205184937
0.48458483815193176 0.23457339406013489 0.14722722768783569
0.51861274242401123 0.23402814567089081 0.14916218817234039
0.55228471755981445 0.23310256004333496 0.15090040862560272
0.5843997597694397 0.23256929218769073 0.15298271179199219
0.61515235900878906 0.23174718022346497 0.15543407201766968
0.64601004123687744 0.23111197352409363 0.15735867619514465
0.67671173810958862 0.23112015426158905 0.15976454317569733
0.70816540718078613 0.23131336271762848 0.16232340037822723
0.73927897214889526 0.23259490728378296 0.16508251428604126
0.76947081089019775 0.2343544065952301 0.16821925342082977
0.7996056079864502 0.23737794160842896 0.17176121473312378
0.82890713214874268 0.24039089679718018 0.17512628436088562
0.85692805051803589 0.24465039372444153 0.17916578054428101
0.88482725620269775 0.25014287233352661 0.18384736776351929
0.91277313232421875 0.25706437230110168 0.18923169374465942
0.9437255859375 0.26776966452598572 0.19674055278301239
0.013897146098315716 0.22999776899814606 0.13054090738296509
0.024439973756670952 0.23065097630023956 0.13118083775043488
0.037201303988695145 0.22977398335933685 0.13128094375133514
0.05343097448348999 0.22910572588443756 0.13172712922096252
0.07194133847951889 0.2293049544095993 0.13118374347686768
0.093010127544403076 0.2303936630487442 0.13050642609596252
0.11663870513439178 0.23229683935642242 0.12941232323646545
0.14223138988018036 0.23429024219512939 0.12841922044754028
0.17047511041164398 0.23648637533187866 0.12719741463661194
0.19852185249328613 0.23681405186653137 0.12594658136367798
0.22871361672878265 0.23763304948806763 0.12648910284042358
0.26340720057487488 0.24071435630321503 0.12921920418739319
0.30077308416366577 0.2443811446428299 0.13295812904834747
0.34039700031280518 0.24822135269641876 0.13700936734676361
0.38229069113731384 0.25218343734741211 0.14143204689025879
0.42365723848342896 0.25532877445220947 0.14588761329650879
0.46150138974189758 0.25688061118125916 0.14900688827037811
0.49587678909301758 0.25652402639389038 0.15087960660457611
0.52881401777267456 0.25594773888587952 0.15285658836364746
0.5614287257194519 0.25511971116065979 0.15458892285823822
0.59260571002960205 0.25449004769325256 0.15658092498779297
0.62273859977722168 0.25369450449943542 0.15891648828983307
0.65235477685928345 0.25318798422813416 0.16069036722183228
0.68282628059387207 0.25362089276313782 0.16303296387195587
0.71354252099990845 0.2545035183429718 0.16550026834011078
0.74437105655670166 0.25561341643333435 0.16825693845748901
0.77410233020782471 0.25772580504417419 0.1710335910320282
0.80361920595169067 0.2607099711894989 0.17434658110141754
0.83271044492721558 0.26416343450546265 0.17815962433815002
0.86067265272140503 0.26857635378837585 0.1825021505355835
0.88829153776168823 0.274260014295578 0.1873171478509903
0.91571706533432007 0.28115391731262207 0.19302067160606384
0.94714057445526123 0.29249337315559387 0.2011563777923584
0.017915297299623489 0.2476218044757843 0.13445870578289032
0.029469702392816544 0.24886538088321686 0.13517023622989655
0.042741503566503525 0.24772442877292633 0.13507774472236633
0.058951824903488159 0.24650532007217407 0.13546314835548401
0.075866445899009705 0.24570460617542267 0.13551874458789825
0.096016891300678253 0.24665473401546478 0.13461606204509735
0.11942116916179657 0.24900330603122711 0.13389673829078674
0.14458486437797546 0.25134503841400146 0.13245326280593872
0.17370221018791199 0.25476282835006714 0.13146193325519562
0.2058541476726532 0.25852510333061218 0.12977083027362823
0.23751318454742432 0.26017025113105774 0.12858881056308746
0.2698914110660553 0.26014742255210876 0.12810376286506653
0.30631536245346069 0.26331615447998047 0.13097676634788513
0.34488517045974731 0.26697906851768494 0.13478952646255493
0.38552364706993103 0.2707250714302063 0.1391131579875946
0.4259999692440033 0.27409300208091736 0.14391987025737762
0.46701622009277344 0.27747741341590881 0.14914092421531677
0.5061379075050354 0.27996423840522766 0.15406432747840881
0.54020226001739502 0.28036168217658997 0.15666177868843079
0.5721479058265686 0.27971279621124268 0.15863752365112305
0.60250020027160645 0.27883777022361755 0.16079790890216827
0.63166779279708862 0.27840286493301392 0.16251467168331146
0.6610066294670105 0.27783256769180298 0.16471001505851746
0.69074630737304688 0.27825188636779785 0.16676834225654602
0.7206876277923584 0.2793707549571991 0.16898952424526215
0.75046205520629883 0.28095123171806335 0.17180576920509338
0.77900540828704834 0.28281915187835693 0.17484533786773682
0.8078039288520813 0.28581926226615906 0.17819948494434357
0.8360905647277832 0.28916949033737183 0.1820368617773056
0.86325669288635254 0.29348722100257874 0.186062291264534
0.89035886526107788 0.2990894615650177 0.19084885716438293
0.91732817888259888 0.30599209666252136 0.19637364149093628
0.94849503040313721 0.31726905703544617 0.20514895021915436
0.022901251912117004 0.26735767722129822 0.13811209797859192
0.0352955162525177 0.26903331279754639 0.13861949741840363
0.049039572477340698 0.26801005005836487 0.13886387646198273
0.065197296440601349 0.26722314953804016 0.13905458152294159
0.082375615835189819 0.26618412137031555 0.13946202397346497
0.10257982462644577 0.26720401644706726 0.13931497931480408
0.12600497901439667 0.2695976197719574 0.13825595378875732
0.15158066153526306 0.27249482274055481 0.13706374168395996
0.18024516105651855 0.27578392624855042 0.13583105802536011
0.21122446656227112 0.27923053503036499 0.13401027023792267
0.24475991725921631 0.28301751613616943 0.13210186362266541
0.27759644389152527 0.28434053063392639 0.1300525963306427
0.31026023626327515 0.28386461734771729 0.12946975231170654
0.3471740186214447 0.28609484434127808 0.13182061910629272
0.38626286387443542 0.28977605700492859 0.13612744212150574
0.42501196265220642 0.29283782839775085 0.14040598273277283
0.46500229835510254 0.29618829488754272 0.14574542641639709
0.50548601150512695 0.29995757341384888 0.15150955319404602
0.54501152038574219 0.3034743070602417 0.15746124088764191
0.58169460296630859 0.30583235621452332 0.16251057386398315
0.61278122663497925 0.30605000257492065 0.16501866281032562
0.64168351888656616 0.30536603927612305 0.16725307703018188
0.67065256834030151 0.30491337180137634 0.16882571578025818
0.69985705614089966 0.30576285719871521 0.17106318473815918
0.72917771339416504 0.30680328607559204 0.17369525134563446
0.75806307792663574 0.30840146541595459 0.17649334669113159
0.78611129522323608 0.3106861412525177 0.17932169139385223
0.81477051973342896 0.31366679072380066 0.18285772204399109
0.84235149621963501 0.31751352548599243 0.1867588609457016
0.86923903226852417 0.32191058993339539 0.19131982326507568
0.89617449045181274 0.32787123322486877 0.19642797112464905
0.92320787906646729 0.3350105881690979 0.2025468498468399
0.95257687568664551 0.34560477733612061 0.21082954108715057
0.029502836987376213 0.29076495766639709 0.14165669679641724
0.04318464919924736 0.29278331995010376 0.14241600036621094
0.057078830897808075 0.29164582490921021 0.1423591822385788
0.072939731180667877 0.29066547751426697 0.14279603958129883
0.089826270937919617 0.28890588879585266 0.14325785636901855
0.10831336677074432 0.2879118025302887 0.14311042428016663
0.13073942065238953 0.28950247168540955 0.14196492731571198
0.1550668329000473 0.29159533977508545 0.14082865417003632
0.1815868616104126 0.29381847381591797 0.13931915163993835
0.21037782728672028 0.29683810472488403 0.13777410984039307
0.24144168198108673 0.29992884397506714 0.13572995364665985
0.2754608690738678 0.30306822061538696 0.13281910121440887
0.30855286121368408 0.30454069375991821 0.13104920089244843
0.33992576599121094 0.30264469981193542 0.12924861907958984
0.37683802843093872 0.30505284667015076 0.13144746422767639
0.41571807861328125 0.30837717652320862 0.13583186268806458
0.45534902811050415 0.31247240304946899 0.14103436470031738
0.49471187591552734 0.31615009903907776 0.14639715850353241
0.53463083505630493 0.32049739360809326 0.15230998396873474
0.5747758150100708 0.32524621486663818 0.15900479257106781
0.61331337690353394 0.32999882102012634 0.16578704118728638
0.64683264493942261 0.33277148008346558 0.17065291106700897
0.67598778009414673 0.33297732472419739 0.17293192446231842
0.70433932542800903 0.33372238278388977 0.17537520825862885
0.73272156715393066 0.33421555161476135 0.17755572497844696
0.76135724782943726 0.33647421002388 0.18025773763656616
0.78918397426605225 0.33852913975715637 0.18358626961708069
0.81650298833847046 0.34148898720741272 0.18706580996513367
0.84319031238555908 0.34477126598358154 0.19099107384681702
0.86961311101913452 0.34939268231391907 0.19505181908607483
0.89596617221832275 0.35449907183647156 0.20001624524593353
0.92186921834945679 0.36099356412887573 0.20568904280662537
0.9519163966178894 0.37255397439002991 0.21518152952194214
0.037389177829027176 0.31406134366989136 0.1449621319770813
0.052244912832975388 0.31757321953773499 0.14597846567630768
