Textures/87.cube
# Created by: G'MIC (https://gmic.eu)
TITLE "Polaroid_669_3.cube"
# LUT size
LUT_3D_SIZE 5
# Data domain
DOMAIN_MIN 0.0 0.0 0.0
DOMAIN_MAX 1.0 1.0 1.0
# LUT data points
0.0079922862350940704 0.14384461939334869 0.10811717808246613
0.14520712196826935 0.15229737758636475 0.11558612436056137
0.38371527194976807 0.15752860903739929 0.13010673224925995
0.67394131422042847 0.13947853446006775 0.15052896738052368
0.92955243587493896 0.16558974981307983 0.1830531507730484
0.013897146098315716 0.22999776899814606 0.13054090738296509
0.17047511041164398 0.23648637533187866 0.12719741463661194
0.46150138974189758 0.25688061118125916 0.14900688827037811
0.71354252099990845 0.2545035183429718 0.16550026834011078
0.94714057445526123 0.29249337315559387 0.2011563777923584
0.070497192442417145 0.39952987432479858 0.1549663245677948
0.19131825864315033 0.38780039548873901 0.15565776824951172
0.42526093125343323 0.4112403392791748 0.1326403021812439
0.71117526292800903 0.45205813646316528 0.15814149379730225
0.96106469631195068 0.53778427839279175 0.25944423675537109
0.10947360843420029 0.60119920969009399 0.15537020564079285
0.21639025211334229 0.58350270986557007 0.15453401207923889
0.39993447065353394 0.58800679445266724 0.1373525857925415
0.64232432842254639 0.63614970445632935 0.057219970971345901
0.9146878719329834 0.72474348545074463 0.1230759471654892
0.32660022377967834 0.95146256685256958 0.28112801909446716
0.3834017813205719 0.94718015193939209 0.27198925614356995
0.52624857425689697 0.94506216049194336 0.26965683698654175
0.75023126602172852 0.96206933259963989 0.27855232357978821
0.96187734603881836 0.97900044918060303 0.30915737152099609
0 0.16224290430545807 0.19981248676776886
0.14910194277763367 0.17236045002937317 0.21852579712867737
0.4254986047744751 0.17274224758148193 0.25223302841186523
0.6848565936088562 0.13990427553653717 0.25460225343704224
0.9294934868812561 0.16232265532016754 0.27939027547836304
0 0.25867658853530884 0.24345529079437256
0.20564080774784088 0.26528921723365784 0.26504653692245483
0.47720670700073242 0.26736491918563843 0.27502456307411194
0.71916705369949341 0.2621692419052124 0.27944833040237427
0.94779312610626221 0.29487508535385132 0.30168047547340393
0.10652288794517517 0.4580518901348114 0.27626198530197144
0.23761051893234253 0.44009298086166382 0.27014559507369995
0.46300047636032104 0.44441822171211243 0.25133815407752991
0.74088764190673828 0.48611912131309509 0.30100837349891663
0.96044248342514038 0.54472213983535767 0.36071011424064636
0.11698690801858902 0.64558583498001099 0.25718399882316589
0.23322105407714844 0.62831014394760132 0.25059914588928223
0.41104763746261597 0.6120903491973877 0.23431076109409332
0.6575285792350769 0.65750163793563843 0.19712476432323456
0.92421913146972656 0.73997771739959717 0.27249088883399963
0.31778693199157715 0.95877116918563843 0.36231929063796997
0.37756925821304321 0.95482778549194336 0.35287505388259888
0.5216982364654541 0.95049995183944702 0.34375831484794617
0.74563509225845337 0.96393245458602905 0.35241574048995972
0.96003472805023193 0.980266273021698 0.38236737251281738
0 0.2172541469335556 0.4676433801651001
0.027191080152988434 0.2159283310174942 0.4932648241519928
0.50307726860046387 0.24272119998931885 0.55154067277908325
0.75874346494674683 0.29439714550971985 0.57543545961380005
0.96490478515625 0.28882932662963867 0.56308525800704956
0 0.34733080863952637 0.50536513328552246
0.16274690628051758 0.33035403490066528 0.53648591041564941
0.53633922338485718 0.35998782515525818 0.58124780654907227
0.7664000391960144 0.39626440405845642 0.59558218717575073
0.96488124132156372 0.34763959050178528 0.55257439613342285
0.0033080426510423422 0.53740763664245605 0.54795509576797485
0.25439608097076416 0.54110485315322876 0.55986189842224121
0.54034024477005005 0.54905056953430176 0.59213560819625854
0.75130504369735718 0.53008174896240234 0.5643622875213623
0.95210236310958862 0.53731948137283325 0.54918384552001953
0 0.75451290607452393 0.50668865442276001
0.21394601464271545 0.74665188789367676 0.50819486379623413
0.45081877708435059 0.70267200469970703 0.48949798941612244
0.68784815073013306 0.71367794275283813 0.45707249641418457
0.93338561058044434 0.78564995527267456 0.56651002168655396
0.2986980676651001 0.97521257400512695 0.5647163987159729
0.35844108462333679 0.97131073474884033 0.55194354057312012
0.50653177499771118 0.96523195505142212 0.52852827310562134
0.72257506847381592 0.96732431650161743 0.51692813634872437
0.95238220691680908 0.98300457000732422 0.54721790552139282
0 0.33353373408317566 0.80146855115890503
0 0.31475678086280823 0.80951619148254395
0.50392091274261475 0.36159765720367432 0.83042216300964355
0.7986181378364563 0.46046879887580872 0.84755486249923706
0.94902306795120239 0.57360976934432983 0.84614431858062744
0 0.45640963315963745 0.8033682107925415
0.01485820859670639 0.43203833699226379 0.81198722124099731
0.52806723117828369 0.46517941355705261 0.83379369974136353
0.79690259695053101 0.56484907865524292 0.85075223445892334
0.93972158432006836 0.65127760171890259 0.85223835706710815
0 0.62284344434738159 0.76782703399658203
0.19628255069255829 0.62521326541900635 0.77823883295059204
0.52436047792434692 0.63187175989151001 0.81791967153549194
0.78260165452957153 0.72294634580612183 0.84927767515182495
0.92031610012054443 0.77591222524642944 0.85793083906173706
0.066263362765312195 0.83061462640762329 0.79926425218582153
0.27205181121826172 0.82897490262985229 0.80166923999786377
0.5223051905632019 0.83290141820907593 0.81457072496414185
0.75846987962722778 0.84869623184204102 0.83917200565338135
0.92044353485107422 0.82599407434463501 0.81519454717636108
0.41940319538116455 0.99530339241027832 0.80928057432174683
0.45413476228713989 0.99392038583755493 0.8060416579246521
0.55345296859741211 0.99035710096359253 0.79813975095748901
0.7101292610168457 0.97854089736938477 0.77295136451721191
0.93373197317123413 0.98822426795959473 0.77361637353897095
0.30014348030090332 0.59958624839782715 0.9553908109664917
0.3806421160697937 0.58562690019607544 0.95589399337768555
0.61652606725692749 0.63385432958602905 0.95266592502593994
0.82767564058303833 0.73542416095733643 0.94587129354476929
0.9430307149887085 0.80934709310531616 0.93998932838439941
0.39838051795959473 0.68676120042800903 0.94864308834075928
0.45614749193191528 0.67544621229171753 0.94958877563476562
0.62985104322433472 0.69428759813308716 0.94885140657424927
0.82786941528320312 0.7792850136756897 0.9428478479385376
0.93731868267059326 0.84104025363922119 0.93812227249145508
0.4643118679523468 0.82392853498458862 0.93514370918273926
0.51921224594116211 0.8175041675567627 0.93625801801681519
0.63749003410339355 0.80117946863174438 0.93999397754669189
0.82219207286834717 0.85025161504745483 0.93770474195480347
0.92903196811676025 0.89777004718780518 0.93544983863830566
0.39811187982559204 0.93328630924224854 0.92611217498779297
0.44789218902587891 0.92981243133544922 0.92560255527496338
0.58697140216827393 0.92230761051177979 0.9264833927154541
0.80524426698684692 0.91978746652603149 0.93325722217559814
0.92772769927978516 0.9559096097946167 0.93458020687103271
0.64390569925308228 0.99995285272598267 0.92794102430343628
0.66716676950454712 0.9999658465385437 0.92832368612289429
0.73857921361923218 1 0.92939871549606323
0.83902239799499512 0.99975383281707764 0.93190521001815796
0.93586218357086182 0.99981516599655151 0.93667501211166382
