Textures/88.cube
# Created by: G'MIC (https://gmic.eu)
TITLE "Polaroid_669_Cold_3.cube"
# LUT size
LUT_3D_SIZE 5
# Data domain
DOMAIN_MIN 0.0 0.0 0.0
DOMAIN_MAX 1.0 1.0 1.0
# LUT data points
0 0.18757399916648865 0.23937298357486725
0 0.19549497961997986 0.25143918395042419
0.26044651865959167 0.20474523305892944 0.27654650807380676
0.57721918821334839 0.19226193428039551 0.31290644407272339
0.86668968200683594 0.2010493278503418 0.3643290102481842
0 0.24390621483325958 0.2779695987701416
0.029916888102889061 0.24924670159816742 0.28114721179008484
0.36571919918060303 0.26186710596084595 0.31280887126922607
0.64204388856887817 0.25988110899925232 0.34158995747566223
0.89082890748977661 0.30411320924758911 0.39350211620330811
0.052526660263538361 0.37328219413757324 0.33862456679344177
0.1712941974401474 0.36766758561134338 0.34000310301780701
0.40795078873634338 0.39244210720062256 0.34245312213897705
0.68806499242782593 0.43913084268569946 0.38037997484207153
0.90069729089736938 0.55855065584182739 0.48225286602973938
0.22069984674453735 0.59744000434875488 0.39213842153549194
0.28463351726531982 0.58254796266555786 0.3904125988483429
0.43958720564842224 0.59684538841247559 0.39111503958702087
0.65490293502807617 0.66131323575973511 0.39457795023918152
0.85242617130279541 0.76179718971252441 0.48616868257522583
0.42700424790382385 0.95799046754837036 0.58744388818740845
0.45609849691390991 0.95523834228515625 0.58255225419998169
0.54535979032516479 0.9557873010635376 0.58604419231414795
0.70381879806518555 0.97430181503295898 0.63488298654556274
0.86156105995178223 0.98933857679367065 0.71684813499450684
0 0.19764496386051178 0.29567745327949524
0 0.20735718309879303 0.31387597322463989
0.29348567128181458 0.21767920255661011 0.35195222496986389
0.59667891263961792 0.19360817968845367 0.37796857953071594
0.86962199211120605 0.19947934150695801 0.42195004224777222
0 0.25796049833297729 0.3456137478351593
0.065057113766670227 0.26464211940765381 0.36423346400260925
0.3831118643283844 0.27054506540298462 0.38666760921478271
0.65452885627746582 0.26608210802078247 0.40867510437965393
0.89221107959747314 0.30848047137260437 0.45316222310066223
0.11673647910356522 0.420367032289505 0.41391283273696899
0.22789567708969116 0.40956607460975647 0.41277962923049927
0.44716867804527283 0.42137503623962402 0.41257810592651367
0.71461337804794312 0.47504699230194092 0.46380394697189331
0.89676868915557861 0.57101243734359741 0.54211956262588501
0.23660260438919067 0.64534878730773926 0.45346224308013916
0.30522194504737854 0.63120388984680176 0.44975313544273376
0.45093438029289246 0.62522292137145996 0.44619414210319519
0.66450470685958862 0.68635255098342896 0.45297253131866455
0.85114496946334839 0.78230255842208862 0.55630159378051758
0.43975210189819336 0.96404802799224854 0.63146805763244629
0.46683558821678162 0.96153193712234497 0.62658369541168213
0.54938369989395142 0.96014368534088135 0.6251799464225769
0.70207774639129639 0.97536206245422363 0.66486507654190063
0.86118823289871216 0.98993337154388428 0.73837757110595703
0 0.22659978270530701 0.45233535766601562
0 0.23010334372520447 0.47793292999267578
0.37731385231018066 0.2455151379108429 0.5434684157371521
0.68455398082733154 0.27161514759063721 0.60019880533218384
0.90241497755050659 0.30180561542510986 0.62668895721435547
0 0.3089163601398468 0.51372677087783813
0.0022543317172676325 0.30131888389587402 0.54153579473495483
0.45624610781669617 0.3228658139705658 0.59090441465377808
0.71369004249572754 0.36412712931632996 0.63130533695220947
0.90404307842254639 0.36667558550834656 0.62952333688735962
0.038792293518781662 0.48906970024108887 0.59687000513076782
0.26656228303909302 0.49655994772911072 0.60971063375473022
0.52688956260681152 0.51604229211807251 0.64303368330001831
0.72292309999465942 0.52493906021118164 0.64188599586486816
0.88537269830703735 0.57423734664916992 0.65786910057067871
0.2396511435508728 0.75493431091308594 0.62600010633468628
0.33525127172470093 0.75028443336486816 0.63012385368347168
0.49251651763916016 0.71937340497970581 0.62462705373764038
0.6781461238861084 0.74711257219314575 0.62273275852203369
0.83866536617279053 0.83699005842208862 0.72074025869369507
0.47425290942192078 0.9775693416595459 0.73418432474136353
0.49476596713066101 0.97523695230484009 0.72866100072860718
0.56344771385192871 0.9723823070526123 0.7211424708366394
0.69324189424514771 0.97803395986557007 0.73218518495559692
0.86142605543136597 0.99159914255142212 0.78648769855499268
0 0.29359588027000427 0.75230205059051514
0 0.28092852234840393 0.76482445001602173
0.43151810765266418 0.30600932240486145 0.79868459701538086
0.75100034475326538 0.41270917654037476 0.82886844873428345
0.87940949201583862 0.58603709936141968 0.84043675661087036
0 0.39064088463783264 0.77340114116668701
0 0.37254491448402405 0.78410822153091431
0.48580363392829895 0.40335199236869812 0.81259042024612427
0.75338131189346313 0.53199446201324463 0.836151123046875
0.86495465040206909 0.67224276065826416 0.84672075510025024
0 0.57546627521514893 0.76765024662017822
0.23379334807395935 0.58091884851455688 0.77804917097091675
0.52366912364959717 0.6012459397315979 0.81353920698165894
0.73517948389053345 0.72213447093963623 0.84095519781112671
0.83667600154876709 0.80657941102981567 0.85392016172409058
0.32002821564674377 0.83200222253799438 0.81205683946609497
0.39439371228218079 0.8328055739402771 0.81411021947860718
0.5507848858833313 0.84413003921508789 0.82506442070007324
0.71190387010574341 0.87283384799957275 0.84440320730209351
0.83078479766845703 0.87374109029769897 0.83818602561950684
0.57197707891464233 0.99448508024215698 0.84615409374237061
0.5843275785446167 0.99370688199996948 0.84479951858520508
0.62721031904220581 0.99249869585037231 0.84280192852020264
0.70659631490707397 0.9871361255645752 0.83561760187149048
0.86716777086257935 0.99450480937957764 0.85314929485321045
0.13250218331813812 0.50473529100418091 0.93508672714233398
0.29375281929969788 0.49606403708457947 0.93578094244003296
0.58440297842025757 0.57519930601119995 0.93322765827178955
0.77151685953140259 0.73795932531356812 0.92572885751724243
0.85840487480163574 0.84656751155853271 0.91919994354248047
0.33408865332603455 0.61375761032104492 0.92901057004928589
0.41134321689605713 0.60792958736419678 0.92993128299713135
0.60074818134307861 0.65575242042541504 0.92908191680908203
0.76645755767822266 0.78866755962371826 0.92256927490234375
0.85259699821472168 0.87688463926315308 0.91759234666824341
0.42019334435462952 0.7915959358215332 0.91350853443145752
0.47922980785369873 0.78869980573654175 0.91499888896942139
0.60266423225402832 0.78929698467254639 0.91919684410095215
0.75342726707458496 0.86736297607421875 0.91732102632522583
0.84731119871139526 0.92782920598983765 0.91604655981063843
0.43580532073974609 0.93546074628829956 0.90393948554992676
0.46678382158279419 0.93215095996856689 0.90408754348754883
0.56277996301651001 0.9274212121963501 0.90486437082290649
0.73592978715896606 0.93750923871994019 0.91353428363800049
0.85922175645828247 0.97284001111984253 0.91855913400650024
0.68941855430603027 0.99995285272598267 0.91507869958877563
0.70017009973526001 0.9999658465385437 0.91557908058166504
0.73938959836959839 1 0.91692525148391724
0.80525749921798706 0.99994176626205444 0.92013055086135864
0.89607447385787964 0.99969589710235596 0.92654657363891602
