Textures/88.cube
# Created by: G'MIC (https://gmic.eu)
TITLE "Polaroid_669_Cold_3.cube"
# LUT size
LUT_3D_SIZE 33
# Data domain
DOMAIN_MIN 0.0 0.0 0.0
DOMAIN_MAX 1.0 1.0 1.0
# LUT data points
0 0.18757399916648865 0.23937298357486725
0 0.18836091458797455 0.24027425050735474
0 0.18918564915657043 0.24185776710510254
0 0.18975244462490082 0.2428307980298996
0 0.19110606610774994 0.24435143172740936
0 0.19218651950359344 0.24575641751289368
0 0.1935344934463501 0.24794335663318634
0 0.19424723088741302 0.2495766282081604
0 0.19549497961997986 0.25143918395042419
7.0998299634084105e-05 0.19724488258361816 0.25384101271629333
0.023637942969799042 0.19847707450389862 0.25667884945869446
0.07602943480014801 0.19966875016689301 0.2592913806438446
0.11672559380531311 0.20107857882976532 0.26223844289779663
0.15383605659008026 0.20269925892353058 0.26550871133804321
0.19011645019054413 0.20339564979076385 0.26911380887031555
0.2252633273601532 0.20447219908237457 0.27283960580825806
0.26044651865959167 0.20474523305892944 0.27654650807380676
0.29604801535606384 0.20504903793334961 0.28045198321342468
0.33459487557411194 0.20478168129920959 0.28459379076957703
0.37911805510520935 0.20404985547065735 0.28980982303619385
0.42087623476982117 0.20228436589241028 0.294330894947052
0.46120744943618774 0.20008692145347595 0.29906812310218811
0.50030660629272461 0.197795569896698 0.3039354681968689
0.53833860158920288 0.19520063698291779 0.30841463804244995
0.57721918821334839 0.19226193428039551 0.31290644407272339
0.61677062511444092 0.18886855244636536 0.31800749897956848
0.6556546688079834 0.18648225069046021 0.32371550798416138
0.69426625967025757 0.18405136466026306 0.32875457406044006
0.73187655210494995 0.18318222463130951 0.33484640717506409
0.76668500900268555 0.18377122282981873 0.34070393443107605
0.80080550909042358 0.18641464412212372 0.34815245866775513
0.8325849175453186 0.19151788949966431 0.35498061776161194
0.86668968200683594 0.2010493278503418 0.3643290102481842
0 0.19115966558456421 0.24205935001373291
0 0.19169718027114868 0.24257422983646393
0 0.19252392649650574 0.24370826780796051
0 0.19311033189296722 0.24501892924308777
0 0.19430577754974365 0.24644801020622253
0 0.1950003057718277 0.24747182428836823
0 0.19608631730079651 0.24947325885295868
0 0.19698049128055573 0.25134608149528503
0 0.19860884547233582 0.25359556078910828
0.00031648491858504713 0.19953696429729462 0.25584316253662109
0.030490247532725334 0.20083782076835632 0.25833374261856079
0.081984348595142365 0.20213185250759125 0.26105120778083801
0.12233810126781464 0.20359937846660614 0.26380178332328796
0.15902368724346161 0.2049470990896225 0.26710677146911621
0.19433782994747162 0.20545698702335358 0.27043101191520691
0.22914740443229675 0.20670390129089355 0.2741541862487793
0.26398929953575134 0.20707195997238159 0.27789679169654846
0.30002304911613464 0.20753222703933716 0.28216174244880676
0.33971035480499268 0.20689128339290619 0.28608739376068115
0.38386711478233337 0.20567533373832703 0.29098579287528992
0.4255794882774353 0.20454078912734985 0.29596444964408875
0.46617007255554199 0.20252649486064911 0.30084988474845886
0.50493317842483521 0.20013329386711121 0.30528989434242249
0.54282313585281372 0.19737417995929718 0.30963298678398132
0.5820164680480957 0.19512037932872772 0.31452050805091858
0.62139236927032471 0.19203321635723114 0.31948089599609375
0.65973293781280518 0.18966938555240631 0.32471102476119995
0.69844025373458862 0.18767999112606049 0.3306485116481781
0.73535656929016113 0.18720602989196777 0.33641669154167175
0.76971960067749023 0.18818160891532898 0.34269741177558899
0.80372267961502075 0.19120396673679352 0.34953239560127258
0.83558309078216553 0.19701677560806274 0.35668599605560303
0.8687710165977478 0.20632016658782959 0.36582803726196289
0 0.19565595686435699 0.24535128474235535
0 0.19660933315753937 0.24564085900783539
0 0.19741122424602509 0.24627259373664856
0 0.19756206870079041 0.24689795076847076
0 0.19790203869342804 0.24828308820724487
0 0.19883021712303162 0.25009691715240479
0 0.19977529346942902 0.25237235426902771
0 0.20055553317070007 0.25366246700286865
0 0.20172834396362305 0.2556893527507782
0.0019069566624239087 0.20274324715137482 0.25807660818099976
0.040357068181037903 0.20413015782833099 0.26056641340255737
0.08941853791475296 0.20506700873374939 0.2632172703742981
0.12859930098056793 0.20618559420108795 0.26599568128585815
0.1650468111038208 0.20777375996112823 0.26952853798866272
0.19987395405769348 0.20862306654453278 0.27279117703437805
0.23446352779865265 0.20956346392631531 0.27645471692085266
0.26927998661994934 0.21007971465587616 0.28019142150878906
0.30557960271835327 0.21021580696105957 0.28379678726196289
0.34726589918136597 0.20999813079833984 0.28839936852455139
0.39027431607246399 0.20944887399673462 0.29331246018409729
0.4313187301158905 0.20773898065090179 0.29812860488891602
0.47108578681945801 0.20562000572681427 0.30257710814476013
0.51058053970336914 0.20343215763568878 0.30707019567489624
0.54898166656494141 0.20116950571537018 0.31175041198730469
0.58767843246459961 0.19849607348442078 0.31647214293479919
0.62673830986022949 0.19571544229984283 0.32155555486679077
0.66552215814590454 0.19407296180725098 0.32694461941719055
0.70355147123336792 0.19247043132781982 0.33224791288375854
0.74035555124282837 0.19248837232589722 0.33844321966171265
0.77424174547195435 0.19382770359516144 0.34444043040275574
0.80816709995269775 0.19744794070720673 0.3514237105846405
0.83983069658279419 0.20372395217418671 0.35927477478981018
0.87325888872146606 0.21394859254360199 0.36878684163093567
0 0.20211257040500641 0.24910695850849152
0 0.20272617042064667 0.24989677965641022
0 0.20352685451507568 0.25019276142120361
0 0.20418667793273926 0.25085505843162537
0 0.20427227020263672 0.25130349397659302
0 0.2046610414981842 0.25335004925727844
0 0.20519624650478363 0.25554567575454712
0 0.20595484972000122 0.2575613260269165
0 0.20646731555461884 0.25924709439277649
0.007051635067909956 0.20758859813213348 0.26147666573524475
0.054636009037494659 0.20848396420478821 0.26386520266532898
0.10070979595184326 0.20963934063911438 0.26658761501312256
0.13825894892215729 0.21079103648662567 0.26932817697525024
0.17363026738166809 0.21207040548324585 0.27239525318145752
0.20883798599243164 0.21311216056346893 0.27583503723144531
0.24327936768531799 0.21343979239463806 0.27918639779090881
0.27860686182975769 0.21430791914463043 0.28293171525001526
0.31680527329444885 0.21443939208984375 0.28723162412643433
0.35950332880020142 0.21415281295776367 0.29177665710449219
0.40143784880638123 0.21313080191612244 0.29636344313621521
0.44208806753158569 0.21202625334262848 0.30091068148612976
0.48074620962142944 0.21033698320388794 0.30555716156959534
0.51859110593795776 0.20838864147663116 0.30965784192085266
0.55572015047073364 0.20563896000385284 0.31406539678573608
0.59371191263198853 0.20378951728343964 0.31890648603439331
0.6327592134475708 0.20157454907894135 0.32391443848609924
0.67022252082824707 0.19970914721488953 0.32902225852012634
0.70752906799316406 0.19905714690685272 0.33453476428985596
0.74373435974121094 0.19955812394618988 0.34098851680755615
0.77739554643630981 0.20140762627124786 0.34663069248199463
0.80958276987075806 0.20530356466770172 0.35339289903640747
0.84017527103424072 0.21122637391090393 0.3607429563999176
0.87343293428421021 0.22191886603832245 0.37019899487495422
0 0.20839013159275055 0.25361275672912598
0 0.20870098471641541 0.25436097383499146
0 0.20919403433799744 0.25478735566139221
0 0.21007831394672394 0.25532802939414978
0 0.21101380884647369 0.2554994523525238
0 0.21117553114891052 0.25602468848228455
0 0.21106867492198944 0.25800365209579468
0 0.2115747481584549 0.26030957698822021
1.0532715350564104e-05 0.21240529417991638 0.26298621296882629
0.018539192155003548 0.21360684931278229 0.26558378338813782
0.070501752197742462 0.21464179456233978 0.26807180047035217
0.11303576081991196 0.21561811864376068 0.2706129252910614
0.14945559203624725 0.2163461446762085 0.27338790893554688
0.18449318408966064 0.21778242290019989 0.27671569585800171
0.21949411928653717 0.21856017410755157 0.27989137172698975
0.25306609272956848 0.21892549097537994 0.28309941291809082
0.28937587141990662 0.21990123391151428 0.2870921790599823
0.33050042390823364 0.22002531588077545 0.29111161828041077
0.37177470326423645 0.21986185014247894 0.29568403959274292
0.41263347864151001 0.21877902746200562 0.30012378096580505
0.45205742120742798 0.21791070699691772 0.30460816621780396
0.48978516459465027 0.21626363694667816 0.30845507979393005
0.52738642692565918 0.21437427401542664 0.31315776705741882
0.56416338682174683 0.21236604452133179 0.31739711761474609
0.60210442543029785 0.21072755753993988 0.32231566309928894
0.64033949375152588 0.20914185047149658 0.32697176933288574
0.67708319425582886 0.20783759653568268 0.33218696713447571
0.71427536010742188 0.20791307091712952 0.33793213963508606
0.74943310022354126 0.20878779888153076 0.3435823917388916
0.78211510181427002 0.21120040118694305 0.34981033205986023
0.81332951784133911 0.21553440392017365 0.35634985566139221
0.84402817487716675 0.22218699753284454 0.36391133069992065
0.87659716606140137 0.23326709866523743 0.37355637550354004
0 0.21590124070644379 0.25905108451843262
0 0.21625781059265137 0.25994235277175903
0 0.21649202704429626 0.26044785976409912
0 0.21708139777183533 0.26047354936599731
0 0.21803805232048035 0.26074570417404175
0 0.21954506635665894 0.26129069924354553
0 0.21919369697570801 0.26185601949691772
0 0.21903972327709198 0.2636055052280426
0.0010441693011671305 0.21955755352973938 0.26628938317298889
0.036209862679243088 0.22069059312343597 0.26944705843925476
0.086134962737560272 0.22167931497097015 0.27256301045417786
0.12636226415634155 0.22286926209926605 0.27554723620414734
0.16178910434246063 0.22381363809108734 0.27817147970199585
0.19595557451248169 0.22477927803993225 0.28113484382629395
0.23034270107746124 0.22536447644233704 0.2842995822429657
0.265208899974823 0.2260352224111557 0.28737875819206238
0.30550685524940491 0.22686837613582611 0.29171794652938843
0.34606659412384033 0.22741338610649109 0.29645699262619019
0.38512232899665833 0.22705811262130737 0.30020743608474731
0.42489311099052429 0.22631792724132538 0.30442917346954346
0.46335411071777344 0.22542521357536316 0.30889418721199036
0.5007094144821167 0.22420956194400787 0.31284916400909424
0.53709965944290161 0.2223564088344574 0.3170141875743866
0.57342100143432617 0.2206975519657135 0.32124415040016174
0.61057788133621216 0.21960864961147308 0.32615417242050171
0.64836233854293823 0.21843121945858002 0.33079969882965088
0.68523550033569336 0.2182805985212326 0.33594268560409546
0.72108215093612671 0.21855033934116364 0.34153664112091064
0.75597292184829712 0.22057461738586426 0.34752979874610901
0.78802835941314697 0.22372588515281677 0.35334563255310059
0.8191564679145813 0.2287743091583252 0.36018577218055725
0.84908407926559448 0.23625242710113525 0.36825469136238098
0.88125234842300415 0.24802085757255554 0.37807634472846985
0 0.22443476319313049 0.26507097482681274
0 0.22469407320022583 0.26550272107124329
0 0.22475658357143402 0.26592481136322021
0 0.22515450417995453 0.26660466194152832
0 0.22563977539539337 0.26638934016227722
0 0.22659857571125031 0.26664122939109802
0 0.22807677090167999 0.2672652006149292
0 0.22822079062461853 0.26799201965332031
0.0068159210495650768 0.22782090306282043 0.26967298984527588
0.054529514163732529 0.22860497236251831 0.2726995050907135
0.1006627157330513 0.22978660464286804 0.27623844146728516
0.14014960825443268 0.23151266574859619 0.28018558025360107
0.17660650610923767 0.23253899812698364 0.28377431631088257
0.21104896068572998 0.23363068699836731 0.28711146116256714
0.24749134480953217 0.23458027839660645 0.29033580422401428
0.28689002990722656 0.23584826290607452 0.29448413848876953
0.32592266798019409 0.23658068478107452 0.29848197102546692
0.36414939165115356 0.23676161468029022 0.30200597643852234
0.40197092294692993 0.236409991979599 0.30614745616912842
0.44027054309844971 0.23607942461967468 0.30999374389648438
0.4773465096950531 0.23525401949882507 0.31407353281974792
0.51292753219604492 0.23363523185253143 0.31778571009635925
0.54852300882339478 0.23248572647571564 0.3218970000743866
0.58395922183990479 0.23121315240859985 0.32571932673454285
0.6199413537979126 0.23041483759880066 0.33006289601325989
0.65661317110061646 0.23009316623210907 0.33507722616195679
0.69198399782180786 0.23009437322616577 0.34003561735153198
0.72697186470031738 0.23144203424453735 0.34525993466377258
0.76052641868591309 0.23423434793949127 0.35111770033836365
0.79161429405212402 0.23764990270137787 0.35739243030548096
0.82176119089126587 0.24320067465305328 0.36382147669792175
0.85055989027023315 0.2506578266620636 0.37136206030845642
0.88246244192123413 0.26331987977027893 0.38146600127220154
0 0.23335231840610504 0.27133446931838989
0 0.23400948941707611 0.27178844809532166
0 0.23355522751808167 0.27201661467552185
0 0.23343135416507721 0.27255183458328247
0 0.23427504301071167 0.27275621891021729
0 0.2352767139673233 0.27299025654792786
0 0.23668983578681946 0.27344930171966553
0 0.23809640109539032 0.27397948503494263
0.018908722326159477 0.23845212161540985 0.27473390102386475
0.073207758367061615 0.23841561377048492 0.27667909860610962
0.11506303399801254 0.23924607038497925 0.27995699644088745
0.1531488299369812 0.24047283828258514 0.2835719883441925
0.19080106914043427 0.24207772314548492 0.28802341222763062
0.23149357736110687 0.2444930225610733 0.29325377941131592
0.27213191986083984 0.2468813955783844 0.29817530512809753
0.30950808525085449 0.24749983847141266 0.30188095569610596
0.3467089831829071 0.24812899529933929 0.30545049905776978
0.38377416133880615 0.24814188480377197 0.30910325050354004
0.42005875706672668 0.24782125651836395 0.31253820657730103
0.45665466785430908 0.24729681015014648 0.31613919138908386
0.49260386824607849 0.2466777116060257 0.31977835297584534
0.52724045515060425 0.24578994512557983 0.32357847690582275
0.56177300214767456 0.24456712603569031 0.32744824886322021
0.59660893678665161 0.24418269097805023 0.33148127794265747
0.63201981782913208 0.24397569894790649 0.33596348762512207
0.6676056981086731 0.24412234127521515 0.34046372771263123
0.70192748308181763 0.24551065266132355 0.34546694159507751
0.73598325252532959 0.24752002954483032 0.35081779956817627
0.76815420389175415 0.25052332878112793 0.35651558637619019
0.79823583364486694 0.25505638122558594 0.36258354783058167
0.82752984762191772 0.26105779409408569 0.36901012063026428
0.85565704107284546 0.26917535066604614 0.3769381046295166
0.88597410917282104 0.28212946653366089 0.38688838481903076
0 0.24390621483325958 0.2779695987701416
0 0.2444293349981308 0.27858972549438477
0 0.24381610751152039 0.27894562482833862
0 0.24376796185970306 0.27924701571464539
0 0.24393604695796967 0.27953088283538818
0 0.24497479200363159 0.2797648012638092
0 0.24625115096569061 0.27986115217208862
0 0.24757799506187439 0.28067761659622192
0.029916888102889061 0.24924670159816742 0.28114721179008484
0.086516708135604858 0.24951440095901489 0.28151592612266541
0.12799721956253052 0.25008338689804077 0.28383722901344299
0.16750128567218781 0.25139588117599487 0.287385493516922
0.20643435418605804 0.25387266278266907 0.29226091504096985
0.24555329978466034 0.25603798031806946 0.29752665758132935
0.2864241898059845 0.25847169756889343 0.30288195610046387
0.32718244194984436 0.26077646017074585 0.30852150917053223
0.36571919918060303 0.26186710596084595 0.31280887126922607
0.40168756246566772 0.26202598214149475 0.31624287366867065
0.43689918518066406 0.2618122398853302 0.31957617402076721
0.47251373529434204 0.26125362515449524 0.32305410504341125
0.50684106349945068 0.26082408428192139 0.32643875479698181
0.54080301523208618 0.26019775867462158 0.32992658019065857
0.57419866323471069 0.25927227735519409 0.33348271250724792
0.60779637098312378 0.25941359996795654 0.33741313219070435
0.64204388856887817 0.25988110899925232 0.34158995747566223
0.67698395252227783 0.26085731387138367 0.3462403416633606
0.71070492267608643 0.26265972852706909 0.35111737251281738
0.74373781681060791 0.26538601517677307 0.35682669281959534
0.77486270666122437 0.26931184530258179 0.36212867498397827
0.80465388298034668 0.2747093141078949 0.36844846606254578
0.83333975076675415 0.28145730495452881 0.37526616454124451
0.86057770252227783 0.28996646404266357 0.38283836841583252
0.89082890748977661 0.30411320924758911 0.39350211620330811
0 0.25509229302406311 0.28491559624671936
0 0.25600853562355042 0.28572952747344971
0 0.25579071044921875 0.28621110320091248
0 0.25536888837814331 0.28631165623664856
0 0.25479510426521301 0.28667089343070984
0 0.25554859638214111 0.28668129444122314
0 0.25733464956283569 0.28710690140724182
0.0018388249445706606 0.2588118314743042 0.28781795501708984
0.047744244337081909 0.26118138432502747 0.28872114419937134
0.10573866218328476 0.26380831003189087 0.28996080160140991
0.14859011769294739 0.26525941491127014 0.29110673069953918
0.18494044244289398 0.26505661010742188 0.292115718126297
0.22192250192165375 0.26706245541572571 0.29654309153556824
0.25981083512306213 0.26869034767150879 0.30127081274986267
0.29947662353515625 0.27140220999717712 0.30667814612388611
0.33921495079994202 0.27353182435035706 0.31219092011451721
0.38001099228858948 0.27568027377128601 0.31812691688537598
0.42028498649597168 0.27759012579917908 0.32343524694442749
0.4563336968421936 0.27816709876060486 0.32766628265380859
0.49079647660255432 0.27802368998527527 0.33097201585769653
0.52418166399002075 0.27747723460197449 0.33394718170166016
0.55626940727233887 0.27700787782669067 0.33730527758598328
0.58890515565872192 0.27689969539642334 0.34048178791999817
0.62175488471984863 0.27757513523101807 0.34454518556594849
0.65494471788406372 0.27821058034896851 0.34832116961479187
0.68845123052597046 0.28005871176719666 0.35290476679801941
0.71991050243377686 0.28246021270751953 0.35778728127479553
0.75144708156585693 0.28575560450553894 0.36295223236083984
0.78149515390396118 0.29036778211593628 0.36848679184913635
0.80971217155456543 0.29597219824790955 0.37456303834915161
0.83751803636550903 0.30293995141983032 0.38150635361671448
0.86348652839660645 0.31194970011711121 0.38913005590438843
0.89288944005966187 0.32686656713485718 0.40023082494735718
0 0.26792514324188232 0.29258528351783752
0 0.26949933171272278 0.29354783892631531
0 0.26919576525688171 0.29357033967971802
0 0.26894405484199524 0.29403981566429138
0 0.2686932384967804 0.29462876915931702
0 0.2694038450717926 0.29508200287818909
3.5109056625515223e-05 0.27121585607528687 0.29558593034744263
0.018285095691680908 0.27330935001373291 0.29627743363380432
0.075543217360973358 0.27593490481376648 0.29748362302780151
0.1228562518954277 0.27835935354232788 0.29801735281944275
0.16514796018600464 0.28083980083465576 0.29895517230033875
0.20317602157592773 0.28219759464263916 0.2999415397644043
0.23648372292518616 0.28197351098060608 0.30121377110481262
0.27292066812515259 0.28303048014640808 0.30494928359985352
0.31074815988540649 0.28525868058204651 0.31000903248786926
0.34854522347450256 0.28704911470413208 0.31519970297813416
0.38804343342781067 0.2896847128868103 0.32095718383789062
0.429240882396698 0.2923961877822876 0.32708925008773804
0.47010126709938049 0.2950456440448761 0.33344230055809021
0.50906658172607422 0.2970929741859436 0.33890470862388611
0.54228752851486206 0.29732879996299744 0.34275585412979126
0.57361006736755371 0.2974855899810791 0.34591448307037354
0.60497260093688965 0.29738029837608337 0.34867846965789795
0.63714629411697388 0.2984498143196106 0.35251188278198242
0.6695215106010437 0.30014282464981079 0.35662844777107239
0.70154750347137451 0.30249649286270142 0.360807865858078
0.73191344738006592 0.30565559864044189 0.36566469073295593
0.76210939884185791 0.30994650721549988 0.37077111005783081
0.79108583927154541 0.31555217504501343 0.37679442763328552
0.81823205947875977 0.32166481018066406 0.3828434944152832
0.84508854150772095 0.32976615428924561 0.39012700319290161
0.87037217617034912 0.33948642015457153 0.39832141995429993
0.8975759744644165 0.35440078377723694 0.40897458791732788
0 0.28408113121986389 0.30079635977745056
0 0.28575670719146729 0.30194425582885742
0 0.2854057252407074 0.30208110809326172
0 0.28503555059432983 0.30260226130485535
0 0.28439822793006897 0.30297547578811646
0 0.28376328945159912 0.3032715916633606
0.0032540911342948675 0.2852611243724823 0.30357310175895691
0.041839558631181717 0.28666052222251892 0.30393624305725098
0.090475276112556458 0.28872182965278625 0.30442702770233154
0.13085657358169556 0.29070347547531128 0.30499705672264099
0.16880905628204346 0.29301929473876953 0.30548357963562012
0.2076854407787323 0.29540857672691345 0.3060537576675415
0.24314284324645996 0.29684093594551086 0.30729407072067261
0.27481618523597717 0.29611846804618835 0.3078838586807251
0.31134018301963806 0.29742953181266785 0.31133085489273071
0.34914207458496094 0.2997182309627533 0.31659498810768127
0.38859090209007263 0.30269816517829895 0.32210969924926758
0.42821195721626282 0.30540928244590759 0.32789817452430725
0.46859246492385864 0.30888605117797852 0.33423131704330444
0.51042944192886353 0.31244131922721863 0.34117814898490906
0.55029749870300293 0.31635665893554688 0.34795770049095154
0.58583128452301025 0.31903082132339478 0.35324046015739441
0.61719930171966553 0.3197573721408844 0.35682711005210876
0.64769995212554932 0.32143643498420715 0.36048763990402222
0.6785319447517395 0.32347390055656433 0.3639410138130188
0.70949119329452515 0.32660126686096191 0.36849913001060486
0.73893314599990845 0.33009800314903259 0.37331309914588928
0.76747506856918335 0.33457684516906738 0.37853628396987915
0.79476940631866455 0.33993855118751526 0.38369265198707581
0.82083916664123535 0.34653791785240173 0.38988086581230164
0.84629964828491211 0.35461488366127014 0.39709752798080444
0.87058568000793457 0.36453178524971008 0.40462252497673035
0.89760154485702515 0.38063111901283264 0.41645357012748718
0 0.30120038986206055 0.309430330991745
0 0.30417159199714661 0.31099572777748108
0 0.30332902073860168 0.31115853786468506
0 0.30234611034393311 0.31106913089752197
0 0.30119183659553528 0.31083357334136963
0.0014161503640934825 0.30047374963760376 0.31145063042640686
0.025689259171485901 0.30060103535652161 0.31160712242126465
0.071529753506183624 0.30205181241035461 0.31167727708816528
0.11132406443357468 0.30417326092720032 0.31249779462814331
0.14701229333877563 0.30634158849716187 0.31283795833587646
0.18215101957321167 0.30878016352653503 0.31361567974090576
0.2181040495634079 0.31145206093788147 0.31394472718238831
0.25485396385192871 0.31407693028450012 0.31478461623191833
0.28960955142974854 0.31565254926681519 0.31541085243225098
0.3207709789276123 0.31420254707336426 0.3159014880657196
0.35585522651672363 0.31514939665794373 0.31858420372009277
0.39342862367630005 0.31786185503005981 0.32391989231109619
0.43270385265350342 0.32085001468658447 0.32978138327598572
0.47195392847061157 0.3244263231754303 0.33572676777839661
0.51227724552154541 0.32856392860412598 0.34265023469924927
0.55183237791061401 0.33319410681724548 0.34957334399223328
0.59104835987091064 0.33856070041656494 0.35695257782936096
0.62973296642303467 0.34452539682388306 0.36445155739784241
0.66318428516387939 0.34844338893890381 0.37006402015686035
0.69306445121765137 0.35153722763061523 0.37379485368728638
0.72177243232727051 0.3547261655330658 0.37819632887840271
0.74920248985290527 0.35866442322731018 0.38260787725448608
0.77660894393920898 0.36388906836509705 0.3879951536655426
0.80286043882369995 0.36966952681541443 0.39335757493972778
0.82767665386199951 0.37675538659095764 0.39961361885070801
0.85239797830581665 0.38567474484443665 0.40723347663879395
0.87589025497436523 0.39629542827606201 0.41541913151741028
