Textures/89.cube
# Created by: G'MIC (https://gmic.eu)
TITLE "Polaroid_690_3.cube"
# LUT size
LUT_3D_SIZE 5
# Data domain
DOMAIN_MIN 0.0 0.0 0.0
DOMAIN_MAX 1.0 1.0 1.0
# LUT data points
0.039501722902059555 0.051137331873178482 0.048284277319908142
0.14573383331298828 0.042314291000366211 0.049255039542913437
0.44163906574249268 0 0.044254262000322342
0.78320014476776123 0 0.018521212041378021
0.99999380111694336 0 0
0.011010990478098392 0.16933348774909973 0.042013559490442276
0.19312608242034912 0.18663972616195679 0.025751939043402672
0.58615821599960327 0.18451604247093201 0.00030178730958141387
0.86441230773925781 0.015244336798787117 0
0.99999582767486572 0 0
0 0.47384434938430786 0
0.17199958860874176 0.46796584129333496 0
0.56018495559692383 0.53078776597976685 0
0.88767296075820923 0.58110338449478149 0
1 0.59167993068695068 0
0.00039817832293920219 0.74495857954025269 0
0.25005626678466797 0.73625606298446655 0
0.55468100309371948 0.74373972415924072 0
0.83727729320526123 0.77077192068099976 0
1 0.79110157489776611 0
0.52772271633148193 0.94560074806213379 0.20591118931770325
0.57719939947128296 0.94243520498275757 0.17440386116504669
0.70122224092483521 0.94152075052261353 0.10325431078672409
0.84820187091827393 0.9567984938621521 0.13457067310810089
0.98362523317337036 0.97760212421417236 0.16537867486476898
0.01214918028563261 0.055238451808691025 0.16837979853153229
0.17168569564819336 0.039301175624132156 0.19733633100986481
0.45329701900482178 0 0.18093717098236084
0.74604755640029907 0 0.16742333769798279
0.9999392032623291 0 0.10750795155763626
0.0003324223798699677 0.18469399213790894 0.20729196071624756
0.22138595581054688 0.20361648499965668 0.22983464598655701
0.55427038669586182 0.12381253391504288 0.20491613447666168
0.83617788553237915 0 0.16809467971324921
0.99999582767486572 0 0.12290564179420471
0 0.52270609140396118 0.22469794750213623
0.20281237363815308 0.51108741760253906 0.20570898056030273
0.58420431613922119 0.54938453435897827 0.1753804087638855
0.89224272966384888 0.58974665403366089 0.22831998765468597
0.99995285272598267 0.57196015119552612 0.21952547132968903
0.0088110771030187607 0.7603270411491394 0.17953568696975708
0.27456212043762207 0.75206446647644043 0.15127798914909363
0.56007653474807739 0.74857044219970703 0.10073300451040268
0.84084242582321167 0.77496027946472168 0.11838895827531815
1 0.79404842853546143 0.26021453738212585
0.5165289044380188 0.94866126775741577 0.36507117748260498
0.56616437435150146 0.94589191675186157 0.34486401081085205
0.69073605537414551 0.94411784410476685 0.30473542213439941
0.8406328558921814 0.95770382881164551 0.31931048631668091
0.97750699520111084 0.97837793827056885 0.35156914591789246
0 0.051570728421211243 0.54100507497787476
0.083289720118045807 0.011180835776031017 0.57746058702468872
0.60146105289459229 0 0.63653600215911865
0.80751889944076538 0 0.51250708103179932
0.99971026182174683 0 0.47212737798690796
0 0.20137502253055573 0.55410504341125488
0.18613743782043457 0.2143385112285614 0.59166735410690308
0.62874269485473633 0.21536530554294586 0.64761447906494141
0.82301104068756104 0.10618440061807632 0.52908241748809814
1 0 0.46153974533081055
0 0.5417751669883728 0.59015834331512451
0.26441708207130432 0.55390429496765137 0.60100865364074707
0.61418068408966064 0.59287106990814209 0.6356462836265564
0.8530426025390625 0.50049084424972534 0.55632609128952026
0.99995285272598267 0.40165078639984131 0.45460963249206543
0.23819230496883392 0.78677988052368164 0.59904980659484863
0.36115115880966187 0.78359168767929077 0.58965164422988892
0.576973557472229 0.7681688666343689 0.55235892534255981
0.83294594287872314 0.78404271602630615 0.56540226936340332
0.99519586563110352 0.80279803276062012 0.64436966180801392
0.50349527597427368 0.95458513498306274 0.6343076229095459
0.5449860692024231 0.9523235559463501 0.61952632665634155
0.66065508127212524 0.95067822933197021 0.58776551485061646
0.81577068567276001 0.95817011594772339 0.57079154253005981
0.95855212211608887 0.98091292381286621 0.61597734689712524
0 0.03576209768652916 0.85705536603927612
0.20484058558940887 0 0.86491119861602783
0.62704908847808838 0 0.89144629240036011
0.90919017791748047 0.0091455448418855667 0.90238344669342041
1 0.047679822891950607 0.82715731859207153
0 0.22893810272216797 0.85155749320983887
0.26347234845161438 0.23124022781848907 0.85971450805664062
0.63829416036605835 0.26500332355499268 0.88619345426559448
0.89705532789230347 0.35858154296875 0.89934819936752319
1 0.31278035044670105 0.82564806938171387
0 0.4825606644153595 0.80404746532440186
0.19567945599555969 0.49631628394126892 0.8151322603225708
0.60651892423629761 0.57448387145996094 0.85589373111724854
0.85495781898498535 0.65632754564285278 0.88626617193222046
0.97832804918289185 0.56259733438491821 0.80911546945571899
0.36307960748672485 0.78310734033584595 0.83769947290420532
0.4609132707118988 0.78216522932052612 0.83912360668182373
0.6545448899269104 0.78782308101654053 0.85072088241577148
0.83521604537963867 0.81311768293380737 0.87594151496887207
0.97478687763214111 0.74114280939102173 0.80609673261642456
0.61219155788421631 0.95939260721206665 0.87003612518310547
0.63174867630004883 0.9584471583366394 0.86683917045593262
0.69160270690917969 0.9602617621421814 0.85847586393356323
0.78791362047195435 0.96190190315246582 0.82925242185592651
0.93577319383621216 0.98512691259384155 0.84699523448944092
0.46991294622421265 0.25285899639129639 0.99995285272598267
0.55140388011932373 0.25599837303161621 1
0.72679626941680908 0.29970264434814453 0.99999380111694336
0.89207917451858521 0.43421098589897156 0.99993139505386353
0.99981367588043213 0.55295723676681519 0.99923539161682129
0.49357950687408447 0.39948078989982605 0.99979531764984131
0.56772428750991821 0.4067322313785553 0.99980789422988892
0.72715198993682861 0.45232886075973511 0.99984157085418701
0.87920832633972168 0.56039416790008545 0.99978876113891602
0.99416106939315796 0.63113307952880859 0.99742621183395386
0.46779698133468628 0.61485856771469116 0.99062162637710571
0.54570299386978149 0.62253296375274658 0.9910888671875
0.70809656381607056 0.65439236164093018 0.99101758003234863
0.86320739984512329 0.70760917663574219 0.99239873886108398
0.9771580696105957 0.74317407608032227 0.99197733402252197
0.48019358515739441 0.78534382581710815 0.97728925943374634
0.52179622650146484 0.78059840202331543 0.97710669040679932
0.64091545343399048 0.77225536108016968 0.97785955667495728
0.84217703342437744 0.81543445587158203 0.98375719785690308
0.95722359418869019 0.86801624298095703 0.98577946424484253
0.68163931369781494 0.96939003467559814 0.97587049007415771
0.69953173398971558 0.9695475697517395 0.97581559419631958
0.75374501943588257 0.97252607345581055 0.97639757394790649
0.83567929267883301 0.9793580174446106 0.97799146175384521
0.93406444787979126 0.99546575546264648 0.98180085420608521
