Textures/89.cube
# Created by: G'MIC (https://gmic.eu)
TITLE "Polaroid_690_3.cube"
# LUT size
LUT_3D_SIZE 33
# Data domain
DOMAIN_MIN 0.0 0.0 0.0
DOMAIN_MAX 1.0 1.0 1.0
# LUT data points
0.039501722902059555 0.051137331873178482 0.048284277319908142
0.044760644435882568 0.051531117409467697 0.048361368477344513
0.051543880254030228 0.051591712981462479 0.048653166741132736
0.060359515249729156 0.05111340805888176 0.048765018582344055
0.071207180619239807 0.050936870276927948 0.048990622162818909
0.084581725299358368 0.049714487046003342 0.049049902707338333
0.10193085670471191 0.048792183399200439 0.049380239099264145
0.12203463166952133 0.04618661105632782 0.049562759697437286
0.14573383331298828 0.042314291000366211 0.049255039542913437
0.17346446216106415 0.036344543099403381 0.049418132752180099
0.20419444143772125 0.028113244101405144 0.049442179501056671
0.23871684074401855 0.015085658058524132 0.048929393291473389
0.27525597810745239 0.0020356364548206329 0.048417672514915466
0.31450864672660828 0 0.048187535256147385
0.35586041212081909 0 0.047229520976543427
0.39831367135047913 0 0.045861613005399704
0.44163906574249268 0 0.044254262000322342
0.48561850190162659 0 0.042400814592838287
0.53048050403594971 0 0.039994802325963974
0.57889491319656372 0 0.037374943494796753
0.62385469675064087 0 0.033948544412851334
0.66659837961196899 0 0.030342141166329384
0.70683687925338745 0 0.026708656921982765
0.74514812231063843 0 0.022705910727381706
0.78320014476776123 0 0.018521212041378021
0.82054686546325684 0 0.013067266903817654
0.85675108432769775 0 0.0080154230818152428
0.89059829711914062 0 0.0023681432940065861
0.92283844947814941 0 8.3871622337028384e-05
0.95231491327285767 0 0
0.98063951730728149 0 0
0.99906402826309204 0 0
0.99999380111694336 0 0
0.040082767605781555 0.055883672088384628 0.048820033669471741
0.045052465051412582 0.056344915181398392 0.048737779259681702
0.052119340747594833 0.056500870734453201 0.048975072801113129
0.060958404093980789 0.056356266140937805 0.049102354794740677
0.072131030261516571 0.056247986853122711 0.049466051161289215
0.086335845291614532 0.055378921329975128 0.049289289861917496
0.10414930433034897 0.054328057914972305 0.049518764019012451
0.12490340322256088 0.051912639290094376 0.049255877733230591
0.15019439160823822 0.04861174151301384 0.049753069877624512
0.17826125025749207 0.042707502841949463 0.049567896872758865
0.20986375212669373 0.033638603985309601 0.049306463450193405
0.24475207924842834 0.02106538787484169 0.048968758434057236
0.28207248449325562 0.00540546840056777 0.048345092684030533
0.32153749465942383 0 0.047503042966127396
0.36294108629226685 0 0.046448495239019394
0.40529239177703857 0 0.045263867825269699
0.44827833771705627 0 0.043368887156248093
0.49267977476119995 0 0.041726388037204742
0.53837847709655762 0 0.038949493318796158
0.58617657423019409 0 0.035656385123729706
0.63163429498672485 0 0.03247382864356041
0.67341840267181396 0 0.029123963788151741
0.71325957775115967 0 0.025006724521517754
0.75145077705383301 0 0.020616345107555389
0.78959882259368896 0 0.016546096652746201
0.82658201456069946 0 0.011329137720167637
0.86198663711547852 0 0.0055861677974462509
0.89565080404281616 0 0.00089683145051822066
0.92712044715881348 0 0
0.95602154731750488 0 0
0.98414570093154907 0 0
0.99965763092041016 0 0
0.99999552965164185 0 0
0.040583614259958267 0.061680849641561508 0.049536392092704773
0.045540619641542435 0.062079485505819321 0.049151152372360229
0.052576981484889984 0.062854640185832977 0.048948511481285095
0.062105868011713028 0.062960498034954071 0.049142327159643173
0.073902785778045654 0.062560133635997772 0.049512576311826706
0.08895333856344223 0.062373880296945572 0.049768310040235519
0.108366958796978 0.061849918216466904 0.050071738660335541
0.13014926016330719 0.059523411095142365 0.049969065934419632
0.15585459768772125 0.056343812495470047 0.0494980588555336
0.18519259989261627 0.051362492144107819 0.049377758055925369
0.21752774715423584 0.043093111366033554 0.049269620329141617
0.25259217619895935 0.030024362727999687 0.048378665000200272
0.29005524516105652 0.013079319149255753 0.047552589327096939
0.33052310347557068 0.00060587021289393306 0.047085106372833252
0.37173184752464294 0 0.045694321393966675
0.41396710276603699 0 0.044298708438873291
0.45746135711669922 0 0.042610567063093185
0.50143963098526001 0 0.04014003649353981
0.54861444234848022 0 0.03770461305975914
0.595866858959198 0 0.034311339259147644
0.63993668556213379 0 0.030708584934473038
0.68108433485031128 0 0.026641272008419037
0.72102349996566772 0 0.022785155102610588
0.75917345285415649 0 0.018677461892366409
0.7966010570526123 0 0.014034011401236057
0.83304637670516968 0 0.0081578027456998825
0.86833822727203369 0 0.0030634130816906691
0.90138447284698486 0 9.5645576948300004e-05
0.93225491046905518 0 0
0.96087807416915894 0 0
0.98804676532745361 0 0
0.99999707937240601 0 0
0.99999839067459106 0 0
0.040948823094367981 0.070449031889438629 0.050184957683086395
0.046392247080802917 0.071037977933883667 0.050055485218763351
0.053168907761573792 0.071503192186355591 0.049668624997138977
0.063455894589424133 0.072364285588264465 0.049144670367240906
0.076701350510120392 0.073066093027591705 0.049125086516141891
0.094030655920505524 0.073222346603870392 0.049272675067186356
0.11443649977445602 0.07298627495765686 0.049613412469625473
0.13810969889163971 0.071797676384449005 0.049623303115367889
0.16483131051063538 0.069068059325218201 0.049235932528972626
0.19478002190589905 0.064355030655860901 0.049029596149921417
0.22787313163280487 0.056951627135276794 0.048472229391336441
0.26425960659980774 0.045897196978330612 0.04778684675693512
0.30191358923912048 0.029073925688862801 0.0467090904712677
0.34217706322669983 0.0084038414061069489 0.045647956430912018
0.38414013385772705 7.8020115324761719e-05 0.044467214494943619
0.4266389012336731 0 0.042680270969867706
0.47034987807273865 0 0.040625188499689102
0.51566183567047119 0 0.038001857697963715
0.56276750564575195 0 0.0347856804728508
0.60849714279174805 0 0.031168509274721146
0.65168523788452148 0 0.027757298201322556
0.69189953804016113 0 0.023778639733791351
0.73008179664611816 0 0.01954244077205658
0.76682764291763306 0 0.015049564652144909
0.80325233936309814 0 0.0103638656437397
0.83931243419647217 0 0.0047896420583128929
0.87278884649276733 0 0.00078663573367521167
0.90489178895950317 0 0
0.93522143363952637 0 0
0.96304792165756226 0 0
0.98936253786087036 0 0
0.99997860193252563 0 0
1 0 0
0.040777735412120819 0.08116614818572998 0.050432872027158737
0.046259764581918716 0.081677138805389404 0.050127390772104263
0.053401816636323929 0.082634098827838898 0.050123553723096848
0.063828460872173309 0.083808094263076782 0.049359474331140518
0.077676229178905487 0.085157513618469238 0.048708606511354446
0.095986142754554749 0.08618483692407608 0.048152424395084381
0.118646539747715 0.086777560412883759 0.04826866090297699
0.1442694216966629 0.086737677454948425 0.047971926629543304
0.17409376800060272 0.085610643029212952 0.048029035329818726
0.20667068660259247 0.082536324858665466 0.047794029116630554
0.2412135899066925 0.076706498861312866 0.047221742570400238
0.27824267745018005 0.06727154552936554 0.046208135783672333
0.31701874732971191 0.05350865051150322 0.044997293502092361
0.35778549313545227 0.033147662878036499 0.043493933975696564
0.40023905038833618 0.0085523696616292 0.042042240500450134
0.4423249363899231 0.00012638185580726713 0.039671115577220917
0.48665401339530945 0 0.037152722477912903
0.53388714790344238 0 0.034215360879898071
0.57990020513534546 0 0.030644116923213005
0.6245763897895813 0 0.026777295395731926
0.66618108749389648 0 0.023047680035233498
0.70535212755203247 0 0.018852433189749718
0.74279040098190308 0 0.014401698485016823
0.77871233224868774 0 0.010090568102896214
0.81463676691055298 0 0.0048158597201108932
0.84935730695724487 0 0.00087323912885040045
0.8819621205329895 0 5.1067709136987105e-06
0.91303718090057373 0 0
0.94206756353378296 0 0
0.96879094839096069 0 0
0.99338573217391968 0 0
0.99997431039810181 0 0
1 0 0
0.038432154804468155 0.097013436257839203 0.05038103461265564
0.045439168810844421 0.097376957535743713 0.050155691802501678
0.053659085184335709 0.098025120794773102 0.049828283488750458
0.064783453941345215 0.09945264458656311 0.049295738339424133
0.079273946583271027 0.1012873575091362 0.048317573964595795
0.098859071731567383 0.10351840406656265 0.047033615410327911
0.12219689786434174 0.10490413755178452 0.046095531433820724
0.15045845508575439 0.10606265813112259 0.04526674747467041
0.1824822872877121 0.1061544194817543 0.04483974352478981
0.21695567667484283 0.10505381226539612 0.044485613703727722
0.25471514463424683 0.10177507996559143 0.043740585446357727
0.29420772194862366 0.095336258411407471 0.042800929397344589
0.333963543176651 0.084997594356536865 0.041211262345314026
0.37500596046447754 0.069999083876609802 0.039457216858863831
0.41758996248245239 0.047385051846504211 0.037235189229249954
0.46087530255317688 0.017884615808725357 0.034762933850288391
0.50807350873947144 0.0012687237467616796 0.031400151550769806
0.55448734760284424 0 0.028372373431921005
0.59859937429428101 0 0.024449910968542099
0.64136582612991333 0 0.020293692126870155
0.68192875385284424 0 0.016387339681386948
0.71964210271835327 0 0.012215934693813324
0.75631791353225708 0 0.0073322150856256485
0.79085946083068848 0 0.0030384135898202658
0.82567811012268066 0 0.00058762537082657218
0.85926699638366699 0 0
0.89095258712768555 0 0
0.92088019847869873 0 0
0.9491150975227356 0 0
0.97519910335540771 0 0
0.99684274196624756 0 0
1 0 0
0.99999141693115234 0 0
0.033607721328735352 0.11699407547712326 0.049066729843616486
0.041424456983804703 0.11781554669141769 0.048781521618366241
0.051435559988021851 0.11777766793966293 0.048457041382789612
0.0642365962266922 0.11922416836023331 0.047669567167758942
0.079900175333023071 0.12100998312234879 0.046464979648590088
0.10040976107120514 0.12388978153467178 0.045213665813207626
0.125228151679039 0.12680546939373016 0.043524224311113358
0.15333984792232513 0.12833629548549652 0.041694086045026779
0.18723408877849579 0.12968350946903229 0.040008954703807831
0.22434866428375244 0.13025800883769989 0.038742221891880035
0.26441392302513123 0.12937578558921814 0.03780268132686615
0.30805858969688416 0.12682315707206726 0.036741450428962708
0.35244441032409668 0.12132196128368378 0.034999355673789978
0.39593842625617981 0.11158949136734009 0.032854035496711731
0.4409516453742981 0.09687969833612442 0.029786258935928345
0.48789310455322266 0.076615668833255768 0.026520732790231705
0.53376281261444092 0.046083983033895493 0.023132976144552231
0.5780748724937439 0.015178518369793892 0.018919141963124275
0.62072932720184326 0.0013399973977357149 0.015129558742046356
0.66169673204421997 0 0.010977983474731445
0.70014601945877075 0 0.0068650273606181145
0.73588395118713379 0 0.0032032825984060764
0.77101367712020874 0 0.0010150623274967074
0.80446189641952515 0 7.0535003033000976e-05
0.83734363317489624 0 0
0.86931216716766357 0 0
0.89922863245010376 0 0
0.92759710550308228 0 0
0.95444619655609131 0 0
0.97930490970611572 0 0
0.99834936857223511 0 0
1 0 0
0.99996143579483032 0 0
0.025395352393388748 0.14072735607624054 0.046998035162687302
0.034569811075925827 0.14171613752841949 0.046564687043428421
0.046979840844869614 0.1415780633687973 0.046070881187915802
0.062336713075637817 0.14216746389865875 0.045209579169750214
0.079861626029014587 0.14435462653636932 0.044121004641056061
0.1010286808013916 0.14729167520999908 0.042067844420671463
0.12670762836933136 0.150914266705513 0.039668742567300797
0.15686197578907013 0.1545693576335907 0.036488063633441925
0.19086410105228424 0.15698044002056122 0.033714238554239273
0.22969667613506317 0.15922917425632477 0.031361594796180725
0.27240851521492004 0.16006121039390564 0.02851446345448494
0.31791743636131287 0.15933451056480408 0.026058701798319817
0.36580273509025574 0.15809527039527893 0.02390352264046669
0.41875270009040833 0.15550872683525085 0.020890777930617332
0.47101539373397827 0.14903400838375092 0.017146369442343712
0.51688092947006226 0.13581804931163788 0.013171089813113213
0.56152510643005371 0.11885403841733932 0.009438028559088707
0.6043095588684082 0.096148289740085602 0.005667251069098711
0.64483731985092163 0.065889425575733185 0.0029789383988827467
0.68410050868988037 0.033125545829534531 0.0011266898363828659
0.72071659564971924 0.010612734593451023 0.00022540180361829698
0.75527292490005493 0.00067798327654600143 9.0787052613450214e-06
0.7886236310005188 0 0
0.82086187601089478 0 0
0.85253584384918213 0 0
0.88266474008560181 0 0
0.91088724136352539 0 0
0.93777507543563843 0 0
0.96315461397171021 0 0
0.98687666654586792 0 0
0.99981993436813354 0 0
1 0 0
0.99995720386505127 0 0
0.011010990478098392 0.16933348774909973 0.042013559490442276
0.021850863471627235 0.17020082473754883 0.041448246687650681
0.036877397447824478 0.16993740200996399 0.040956232696771622
0.056640669703483582 0.16996380686759949 0.04054226353764534
0.077115990221500397 0.17136523127555847 0.039359558373689651
0.1003376767039299 0.1746559739112854 0.036867331713438034
0.12714627385139465 0.17830327153205872 0.033930320292711258
0.15797881782054901 0.18262141942977905 0.030167939141392708
0.19312608242034912 0.18663972616195679 0.025751939043402672
0.23171742260456085 0.18987530469894409 0.021559858694672585
0.27521246671676636 0.1929311603307724 0.017524493858218193
0.32469955086708069 0.19579324126243591 0.012588548474013805
0.37627860903739929 0.19738084077835083 0.0085415840148925781
0.42870825529098511 0.19702588021755219 0.0056306892074644566
0.48387420177459717 0.1959296315908432 0.0027724048122763634
0.53769814968109131 0.19316774606704712 0.0012024296447634697
0.58615821599960327 0.18451604247093201 0.00030178730958141387
0.62762236595153809 0.17071232199668884 2.9079901651130058e-05
0.66672396659851074 0.15474975109100342 1.5604023246851284e-06
0.70407271385192871 0.1354953795671463 0
0.73910689353942871 0.11275913566350937 0
0.77195346355438232 0.085382610559463501 0
0.80394041538238525 0.053937956690788269 0
0.83483976125717163 0.031338248401880264 0
0.86441230773925781 0.015244336798787117 0
0.89327174425125122 0.0053287488408386707 0
0.92007702589035034 0.0017811137950047851 0
0.94579261541366577 0.00021053019736427814 0
0.9698861837387085 0 0
0.99227744340896606 0 0
0.9999052882194519 0 0
1 0 0
0.99999582767486572 0 0
0.00028695701621472836 0.20112884044647217 0.034694641828536987
0.0046338285319507122 0.20279721915721893 0.034222740679979324
0.020378150045871735 0.20221896469593048 0.03362671285867691
0.045185841619968414 0.20161442458629608 0.033302463591098785
0.071290478110313416 0.20193395018577576 0.031904477626085281
0.097802795469760895 0.20469464361667633 0.029487648978829384
0.12680572271347046 0.20867009460926056 0.026221700012683868
0.15872469544410706 0.21344320476055145 0.021305112168192863
0.19610688090324402 0.21995830535888672 0.015375972725450993
0.23790071904659271 0.22627292573451996 0.0083574531599879265
0.28227394819259644 0.23135985434055328 0.0037908775266259909
0.33094939589500427 0.23490695655345917 0.00095790182240307331
0.38369408249855042 0.23841540515422821 6.7239154304843396e-05
0.43817722797393799 0.24083465337753296 0
0.49249213933944702 0.2413916140794754 0
0.54619282484054565 0.24142691493034363 0
0.59943145513534546 0.24115554988384247 0
0.64911127090454102 0.23845827579498291 0
0.6902192234992981 0.22960537672042847 0
0.72642505168914795 0.2167169600725174 0
0.75946027040481567 0.20259539783000946 0
0.79055970907211304 0.18728122115135193 0
0.82097905874252319 0.17174266278743744 0
0.84990257024765015 0.15630583465099335 0
0.87772172689437866 0.14015407860279083 0
0.90449309349060059 0.12388622760772705 0
0.92951029539108276 0.10668415576219559 0
0.95351529121398926 0.091093190014362335 0
0.97596001625061035 0.079701155424118042 0
0.99593406915664673 0.07027067244052887 0
0.99999582767486572 0.063738316297531128 0
1 0.061310216784477234 0
1 0.070379398763179779 0
0 0.236223503947258 0.024182096123695374
0 0.23837505280971527 0.023244787007570267
0.0031161133665591478 0.23779423534870148 0.022354533895850182
0.025799134746193886 0.2377423495054245 0.022033324465155602
0.061043411493301392 0.23752158880233765 0.020927898585796356
0.093520388007164001 0.24029265344142914 0.018505316227674484
0.1258767694234848 0.24500933289527893 0.013809215277433395
0.16096687316894531 0.25070649385452271 0.0084582483395934105
0.19947020709514618 0.25725311040878296 0.0030079779680818319
0.24205081164836884 0.26410719752311707 0.00030696653993800282
0.28802400827407837 0.2711101770401001 0
0.33679527044296265 0.27616909146308899 0
0.38789233565330505 0.28079515695571899 0
0.4424298107624054 0.28458607196807861 0
0.49870902299880981 0.28769230842590332 0
0.55181640386581421 0.28911972045898438 0
0.60395306348800659 0.28991925716400146 0
0.65526896715164185 0.291656494140625 0
0.70338797569274902 0.29320317506790161 0
0.74616366624832153 0.29113489389419556 0
0.77995699644088745 0.28167036175727844 0
0.80964839458465576 0.27006268501281738 0
0.83813822269439697 0.25796177983283997 0
0.86562556028366089 0.24745005369186401 0
0.89152884483337402 0.23750439286231995 0
0.91653472185134888 0.22797496616840363 0
0.9401630163192749 0.21956191956996918 0
0.9625544548034668 0.21199189126491547 0
0.98430132865905762 0.2060711532831192 0
0.99902075529098511 0.20125997066497803 0
0.99990558624267578 0.19834363460540771 0
1 0.19755426049232483 0
1 0.2023300975561142 0
0 0.27511551976203918 0.010019036941230297
0 0.27764299511909485 0.0088402880355715752
0 0.27708622813224792 0.008076149970293045
0.0052979146130383015 0.27659928798675537 0.0075705456547439098
0.042201090604066849 0.27574658393859863 0.0065776603296399117
0.084485888481140137 0.27586179971694946 0.005052532535046339
0.12111280113458633 0.27990898489952087 0.0023342007771134377
0.15762922167778015 0.28501871228218079 0.00049814226804301143
0.19635882973670959 0.2903384268283844 2.3015934857539833e-05
0.23801380395889282 0.29671040177345276 0
0.28301030397415161 0.3038947582244873 0
0.33242860436439514 0.31095212697982788 0
0.38225531578063965 0.31655985116958618 0
0.43389138579368591 0.32132786512374878 0
0.48958739638328552 0.3263285756111145 0
0.5449603796005249 0.33081969618797302 0
0.59899443387985229 0.33448502421379089 0
0.64917933940887451 0.33668476343154907 0
0.6970289945602417 0.33932399749755859 0
0.7432934045791626 0.34292358160018921 0
0.78547674417495728 0.34618395566940308 0
0.82003885507583618 0.34355008602142334 0
0.84797906875610352 0.33377695083618164 0
0.87396228313446045 0.32427430152893066 0
0.89822101593017578 0.31518855690956116 0
0.92215800285339355 0.30717116594314575 0
0.94447702169418335 0.29984709620475769 0
0.96587204933166504 0.29350602626800537 0
0.98618340492248535 0.28793364763259888 0
0.99929904937744141 0.28344857692718506 0
1 0.2804591953754425 0
0.99995285272598267 0.27874243259429932 0
0.99998295307159424 0.28278756141662598 0
0 0.31669184565544128 0.00021774147171527147
0 0.32072865962982178 6.6778127802535892e-05
0 0.31973063945770264 7.7700955444015563e-05
5.9579000662779436e-05 0.3183194100856781 4.2698284232756123e-05
0.017043020576238632 0.31714430451393127 1.0922817637037951e-05
0.070735454559326172 0.31565895676612854 0
0.11482858657836914 0.31738254427909851 0
0.15458519756793976 0.32223328948020935 0
0.19550192356109619 0.32792234420776367 0
0.23803332448005676 0.33476316928863525 0
0.28346684575080872 0.34216028451919556 0
0.33256092667579651 0.3500514030456543 0
0.38358971476554871 0.35812801122665405 0
0.43465933203697205 0.36372298002243042 0
0.48779416084289551 0.36950463056564331 0
0.54207324981689453 0.3747708797454834 0
0.59609955549240112 0.37973523139953613 0
0.6479802131652832 0.38433820009231567 0
0.69568377733230591 0.38797199726104736 0
0.74069267511367798 0.39154538512229919 0
0.78293168544769287 0.39580368995666504 0
0.82146614789962769 0.40038034319877625 0
0.85631394386291504 0.40353170037269592 0
0.88419240713119507 0.40013045072555542 0
0.90781128406524658 0.3920879065990448 0
0.93000859022140503 0.38371044397354126 0
0.9507976770401001 0.37615174055099487 0
0.97121858596801758 0.37006297707557678 0
0.99033987522125244 0.36434325575828552 0
0.99982112646102905 0.35952284932136536 0
1 0.35630327463150024 0
0.99991852045059204 0.35439983010292053 0
0.99998760223388672 0.35648688673973083 0
0 0.35663771629333496 0
0 0.35958617925643921 0
0 0.35851755738258362 0
0 0.35773986577987671 0
0.001796128461137414 0.35637804865837097 0
0.047730766236782074 0.35464096069335938 0
0.10458581894636154 0.35477492213249207 0
0.14894603192806244 0.35909223556518555 0
0.19194328784942627 0.36466717720031738 0
0.23581691086292267 0.37157788872718811 0
0.28085425496101379 0.37864023447036743 0
0.32895350456237793 0.38616809248924255 0
0.37949377298355103 0.39479079842567444 0
0.4315679669380188 0.40315470099449158 0
0.48368033766746521 0.40956953167915344 0
0.53468459844589233 0.41478228569030762 0
0.58828991651535034 0.42143622040748596 0
0.64027482271194458 0.42703613638877869 0
0.68952161073684692 0.43277156352996826 0
0.73502045869827271 0.43748748302459717 0
0.77673631906509399 0.44194924831390381 0
0.81527435779571533 0.44664710760116577 0
0.85137999057769775 0.45197603106498718 0
0.88391143083572388 0.45779412984848022 0
0.91173303127288818 0.46025201678276062 0
0.93470388650894165 0.45579683780670166 0
0.95521020889282227 0.44835278391838074 0
0.97451168298721313 0.44182178378105164 0
0.99269139766693115 0.4354800283908844 0
0.99992942810058594 0.43068787455558777 0
1 0.42712500691413879 0
0.99998718500137329 0.42432647943496704 0
0.99999541044235229 0.42494961619377136 0
0 0.3954203724861145 0
0 0.39917775988578796 0
0 0.39849701523780823 0
0 0.39718392491340637 0
0 0.39468097686767578 0
0.020560549572110176 0.39271575212478638 0
0.089015990495681763 0.39105695486068726 0
0.13982543349266052 0.39266765117645264 0
0.18454466760158539 0.39750394225120544 0
0.2291681170463562 0.40352219343185425 0
0.27401962876319885 0.41045206785202026 0
0.32162579894065857 0.41832944750785828 0
0.3701348602771759 0.42616894841194153 0
0.42093920707702637 0.4351649284362793 0
0.47436606884002686 0.44412142038345337 0
0.52509504556655884 0.45136764645576477 0
0.57555609941482544 0.45723971724510193 0
0.62633395195007324 0.46414041519165039 0
0.67545193433761597 0.47097137570381165 0
0.72307628393173218 0.47748222947120667 0
0.7665901780128479 0.48311343789100647 0
0.80512189865112305 0.48788687586784363 0
0.841133713722229 0.49303305149078369 0
0.87350571155548096 0.49816408753395081 0
0.90353411436080933 0.50397211313247681 0
0.9311869740486145 0.50976306200027466 0
0.95437395572662354 0.51048612594604492 0
0.9737202525138855 0.50499820709228516 0
0.99152475595474243 0.49838635325431824 0
0.99992793798446655 0.49297425150871277 0
1 0.48766908049583435 0
1 0.48411214351654053 0
1 0.48356613516807556 0
0 0.43717718124389648 0
0 0.44106554985046387 0
0 0.43950566649436951 0
0 0.4379003643989563 0
0 0.43590214848518372 0
0.0042413058690726757 0.43336951732635498 0
0.069191083312034607 0.43157917261123657 0
0.13106004893779755 0.43026593327522278 0
0.17977491021156311 0.4351145327091217 0
0.22614356875419617 0.44114065170288086 0
0.27180606126785278 0.44782048463821411 0
0.3195112943649292 0.45551958680152893 0
0.36723241209983826 0.46324434876441956 0
0.417315274477005 0.47231385111808777 0
0.46938931941986084 0.48159140348434448 0
0.52020758390426636 0.48991379141807556 0
0.57020366191864014 0.49737128615379333 0
0.61890095472335815 0.5041469931602478 0
0.66656798124313354 0.51107996702194214 0
0.7131272554397583 0.51751303672790527 0
0.75744104385375977 0.5245177149772644 0
0.79816257953643799 0.53061842918395996 0
0.83451861143112183 0.53582519292831421 0
0.86650711297988892 0.54009264707565308 0
