Textures/9.cube
# Created by: G'MIC (https://gmic.eu)
TITLE "CrispWinter.cube"
# LUT size
LUT_3D_SIZE 33
# Data domain
DOMAIN_MIN 0.0 0.0 0.0
DOMAIN_MAX 1.0 1.0 1.0
# LUT data points
0.0085552027449011803 0.013432862237095833 0.020775144919753075
0.034946661442518234 0.013398542068898678 0.020528616383671761
0.062714181840419769 0.013398543931543827 0.020528616383671761
0.090491406619548798 0.013398543931543827 0.020528616383671761
0.11835199594497681 0.013398542068898678 0.020514575764536858
0.15447711944580078 0.013398542068898678 0.020201746374368668
0.1941717118024826 0.013398542068898678 0.020172880962491035
0.23390978574752808 0.013398542068898678 0.020172880962491035
0.27385568618774414 0.013398542068898678 0.020172880962491035
0.31311401724815369 0.012252239510416985 0.019586959853768349
0.35034158825874329 0.010376022197306156 0.01835300587117672
0.38710764050483704 0.010376022197306156 0.018329603597521782
0.42379999160766602 0.010376022197306156 0.018329603597521782
0.46066281199455261 0.010376022197306156 0.018329605460166931
0.49644795060157776 0.010376022197306156 0.018000820651650429
0.53146165609359741 0.010376022197306156 0.017767967656254768
0.56709969043731689 0.010376022197306156 0.01776796393096447
0.60267126560211182 0.010376022197306156 0.017767967656254768
0.63692796230316162 0.010376022197306156 0.017725054174661636
0.67140549421310425 0.01019955612719059 0.017025971785187721
0.70555537939071655 0.010049189440906048 0.016973143443465233
0.73954254388809204 0.010049189440906048 0.016973143443465233
0.77409178018569946 0.010049189440906048 0.016973143443465233
0.80776679515838623 0.0098350243642926216 0.01684948243200779
0.84039938449859619 0.0091503970324993134 0.01637125201523304
0.87314200401306152 0.0091503961011767387 0.016336536034941673
0.90682953596115112 0.0091503961011767387 0.016336536034941673
0.94019335508346558 0.0091503961011767387 0.016336536034941673
0.97234761714935303 0.0088922586292028427 0.015853321179747581
0.99787580966949463 0.0082883890718221664 0.015268530696630478
1 0.0082805892452597618 0.015260728076100349
1 0.0082805892452597618 0.015260728076100349
1 0.0082805892452597618 0.015260728076100349
0.0079248538240790367 0.050547003746032715 0.020172880962491035
0.032715197652578354 0.049041576683521271 0.020098002627491951
0.059721194207668304 0.048657376319169998 0.020098000764846802
0.087472625076770782 0.048657376319169998 0.020098000764846802
0.11548370122909546 0.048618752509355545 0.020098000764846802
0.15154701471328735 0.047533184289932251 0.020098000764846802
0.19174228608608246 0.047385793179273605 0.020098002627491951
0.23115991055965424 0.047385793179273605 0.020098002627491951
0.27124443650245667 0.047385793179273605 0.020098000764846802
0.31061020493507385 0.047091338783502579 0.01896447129547596
0.34752067923545837 0.04377157986164093 0.017075253650546074
0.3850090503692627 0.043463964015245438 0.017075253650546074
0.42111533880233765 0.043463964015245438 0.017075253650546074
0.457969069480896 0.043463964015245438 0.017075253650546074
0.49442705512046814 0.04345829039812088 0.017075253650546074
0.52987593412399292 0.041956234723329544 0.017075253650546074
0.56470352411270142 0.041219085454940796 0.017075253650546074
0.59921133518218994 0.041219085454940796 0.017075253650546074
0.63434058427810669 0.041160590946674347 0.017075253650546074
0.66905725002288818 0.039913926273584366 0.016830189153552055
0.70288783311843872 0.0388534776866436 0.016748504713177681
0.73641598224639893 0.038608111441135406 0.016748504713177681
0.77067381143569946 0.038608111441135406 0.016748504713177681
0.80434668064117432 0.038410715758800507 0.016392732039093971
0.8383786678314209 0.037103135138750076 0.015849711373448372
0.87182295322418213 0.036250624805688858 0.015849711373448372
0.9039192795753479 0.036157023161649704 0.015849709510803223
0.93726581335067749 0.036157023161649704 0.015849709510803223
0.9709627628326416 0.035503175109624863 0.015209660865366459
0.99710607528686523 0.03405582532286644 0.014624082483351231
1 0.03349626436829567 0.014624082483351231
1 0.033490024507045746 0.01462408434599638
1 0.033490020781755447 0.014624082483351231
0.0079248547554016113 0.089274190366268158 0.020172880962491035
0.032441601157188416 0.087511196732521057 0.020098000764846802
0.056969329714775085 0.085966251790523529 0.020098000764846802
0.08460535854101181 0.085494980216026306 0.020098000764846802
0.11238913238048553 0.085487954318523407 0.020098000764846802
0.14856630563735962 0.084784135222434998 0.020098000764846802
0.18891741335391998 0.082325860857963562 0.020098000764846802
0.2286030650138855 0.081537961959838867 0.020098000764846802
0.26878920197486877 0.081536009907722473 0.020098000764846802
0.30805155634880066 0.081536009907722473 0.01896447129547596
0.34486812353134155 0.07951054722070694 0.017075253650546074
0.38228189945220947 0.077614523470401764 0.017075253650546074
0.41911306977272034 0.077614523470401764 0.017075251787900925
0.45539593696594238 0.077614516019821167 0.017075251787900925
0.49238651990890503 0.07714051753282547 0.017075253650546074
0.52655124664306641 0.073948301374912262 0.017075253650546074
0.56179553270339966 0.073588721454143524 0.017075251787900925
0.59754765033721924 0.073124229907989502 0.017075253650546074
0.63278341293334961 0.073081314563751221 0.017075253650546074
0.66742414236068726 0.071324162185192108 0.016830189153552055
0.7015073299407959 0.069697141647338867 0.016748504713177681
0.73522841930389404 0.06828463077545166 0.016748504713177681
0.76935207843780518 0.068098165094852448 0.016748504713177681
0.80277299880981445 0.067969821393489838 0.016392732039093971
0.8353460431098938 0.066548921167850494 0.015849709510803223
0.86897772550582886 0.064536213874816895 0.015849709510803223
0.90259838104248047 0.063942126929759979 0.015849709510803223
0.93514096736907959 0.063926443457603455 0.015849709510803223
0.96787798404693604 0.063392527401447296 0.015209659934043884
0.99647116661071777 0.061258047819137573 0.01462408434599638
1 0.059928379952907562 0.01462408434599638
1 0.059517931193113327 0.01462408434599638
1 0.059517931193113327 0.01462408434599638
0.0079248547554016113 0.12837323546409607 0.020172880962491035
0.032441604882478714 0.12639610469341278 0.020098000764846802
0.056496981531381607 0.12477386742830276 0.020098000764846802
0.082193434238433838 0.12347197532653809 0.020098000764846802
0.10935494303703308 0.12332918494939804 0.020098000764846802
0.14566595852375031 0.12144223600625992 0.020098000764846802
0.18582940101623535 0.11989294737577438 0.020098000764846802
0.22583860158920288 0.11805214732885361 0.020098000764846802
0.26596644520759583 0.11614170670509338 0.020098000764846802
0.30522230267524719 0.11601303517818451 0.01896447129547596
0.34243980050086975 0.11567717045545578 0.017075253650546074
0.37954413890838623 0.11231876164674759 0.017075253650546074
0.41624400019645691 0.11209137737751007 0.017075253650546074
0.45324987173080444 0.11186441779136658 0.017075251787900925
0.48901191353797913 0.10976029932498932 0.017075253650546074
0.52436256408691406 0.1081700399518013 0.017075253650546074
0.56016683578491211 0.10640377551317215 0.017075253650546074
0.59507405757904053 0.10424815118312836 0.017075253650546074
0.62920588254928589 0.10424815118312836 0.017075253650546074
0.66378456354141235 0.10339652001857758 0.016830189153552055
0.697712242603302 0.101010762155056 0.016748504713177681
0.73169946670532227 0.099725104868412018 0.016748504713177681
0.76633983850479126 0.098168119788169861 0.016748504713177681
0.80032682418823242 0.097941070795059204 0.016392732039093971
0.8339838981628418 0.096228882670402527 0.015849709510803223
0.86674493551254272 0.094438947737216949 0.015849711373448372
0.89920729398727417 0.092660732567310333 0.015849709510803223
0.93328726291656494 0.091568157076835632 0.015849709510803223
0.9660906195640564 0.091001354157924652 0.015209660865366459
0.99449068307876587 0.089438632130622864 0.01462408434599638
1 0.087314583361148834 0.01462408434599638
1 0.086002767086029053 0.01462408434599638
1 0.085798151791095734 0.01462408434599638
0.0079248547554016113 0.16682291030883789 0.020158844068646431
0.032311700284481049 0.16512431204319 0.020098000764846802
0.056458376348018646 0.16315779089927673 0.020098000764846802
0.081821292638778687 0.1616283655166626 0.020098000764846802
0.10676176100969315 0.1596226841211319 0.020066402852535248
0.14280189573764801 0.158513143658638 0.019667182117700577
0.18278689682483673 0.15672038495540619 0.019531236961483955
0.22278288006782532 0.15478979051113129 0.019531236961483955
0.26316756010055542 0.15322849154472351 0.019531236961483955
0.3026491105556488 0.15106087923049927 0.018610242754220963
0.33962911367416382 0.150215744972229 0.017075253650546074
0.3771527111530304 0.14811816811561584 0.017075253650546074
0.41357749700546265 0.14641733467578888 0.017075253650546074
0.4504132866859436 0.14485153555870056 0.017075251787900925
0.48722100257873535 0.14268399775028229 0.017075253650546074
0.52242553234100342 0.14205151796340942 0.017075253650546074
0.55692809820175171 0.13917577266693115 0.017075253650546074
0.59205937385559082 0.13819089531898499 0.017075253650546074
0.62753754854202271 0.13621050119400024 0.017062488943338394
0.66237872838973999 0.13441662490367889 0.016688480973243713
0.69614905118942261 0.1332477331161499 0.016579978168010712
0.72989606857299805 0.13063828647136688 0.016579978168010712
0.76415473222732544 0.12961201369762421 0.016579978168010712
0.79761010408401489 0.12761783599853516 0.016262825578451157
0.83068925142288208 0.12623493373394012 0.015681186690926552
0.86495977640151978 0.1241263821721077 0.015681186690926552
0.89771097898483276 0.12243319302797318 0.015681186690926552
0.93020141124725342 0.12056592851877213 0.015681186690926552
0.96369695663452148 0.11937099695205688 0.015111355111002922
0.99377864599227905 0.11714107543230057 0.014624082483351231
1 0.11559628695249557 0.014624082483351231
1 0.11340352892875671 0.01462408434599638
1 0.11217306554317474 0.014624082483351231
0.0071304505690932274 0.21052703261375427 0.018264839425683022
0.029981760308146477 0.20850318670272827 0.01748201996088028
0.054575871676206589 0.20708464086055756 0.01748201996088028
0.079411745071411133 0.20486681163311005 0.01748201996088028
0.10453084111213684 0.20340290665626526 0.017474997788667679
0.13976241648197174 0.20157164335250854 0.017134327441453934
0.18017458915710449 0.19984154403209686 0.017075253650546074
0.219913050532341 0.19807404279708862 0.017075253650546074
0.26050561666488647 0.19628776609897614 0.017075253650546074
0.30010011792182922 0.19451352953910828 0.017062347382307053
0.33698597550392151 0.1926271915435791 0.016918117180466652
0.37443456053733826 0.19106394052505493 0.016911877319216728
0.41134345531463623 0.18900813162326813 0.016911877319216728
0.44780069589614868 0.18747138977050781 0.016911877319216728
0.48461511731147766 0.18543906509876251 0.016334550455212593
0.51901215314865112 0.18387381732463837 0.015900773927569389
0.55467253923416138 0.18191356956958771 0.015900773927569389
0.59050071239471436 0.18017013370990753 0.015900775790214539
0.62514722347259521 0.17829278111457825 0.015897937119007111
0.65964055061340332 0.17655910551548004 0.01495747733861208
0.69379103183746338 0.17473699152469635 0.014824950136244297
0.72777450084686279 0.17291639745235443 0.014824950136244297
0.76237291097640991 0.17112584412097931 0.014824950136244297
0.79619741439819336 0.1691611111164093 0.014789058826863766
0.82899278402328491 0.16757450997829437 0.014221075922250748
0.86172443628311157 0.16566658020019531 0.014188308268785477
0.89510041475296021 0.16387169063091278 0.014188306406140327
0.928905189037323 0.16187743842601776 0.014188306406140327
0.96117329597473145 0.16021829843521118 0.013896237127482891
0.9921688437461853 0.15835648775100708 0.013599367812275887
1 0.15651969611644745 0.013599367812275887
1 0.15459845960140228 0.013599367812275887
1 0.15273952484130859 0.013599367812275887
0.0069241570308804512 0.25579923391342163 0.017842862755060196
0.028243767097592354 0.25453630089759827 0.017075253650546074
0.051545016467571259 0.25262796878814697 0.017075251787900925
0.076478540897369385 0.25098544359207153 0.017075253650546074
0.10137835144996643 0.24895711243152618 0.017075253650546074
0.13680104911327362 0.24752961099147797 0.017075253650546074
0.17745508253574371 0.2459607869386673 0.017075253650546074
0.21732810139656067 0.24396102130413055 0.017075253650546074
0.25774860382080078 0.24243961274623871 0.017075253650546074
0.29724901914596558 0.24031874537467957 0.017027601599693298
0.3346579372882843 0.23898287117481232 0.016748504713177681
0.37178397178649902 0.23710207641124725 0.016748504713177681
0.40850687026977539 0.23553268611431122 0.016748504713177681
0.44564995169639587 0.23351842164993286 0.016748504713177681
0.48167333006858826 0.23185694217681885 0.016036957502365112
0.51733630895614624 0.23035295307636261 0.015849709510803223
0.55279600620269775 0.22843556106090546 0.015849709510803223
0.58727580308914185 0.22681878507137299 0.015849711373448372
0.62217020988464355 0.22469609975814819 0.015849709510803223
0.65706354379653931 0.2232448011636734 0.014724518172442913
0.69093930721282959 0.22136706113815308 0.01462408434599638
0.72459465265274048 0.21976476907730103 0.014624082483351231
0.75902670621871948 0.21775789558887482 0.01462408434599638
0.79264873266220093 0.21604111790657043 0.014624082483351231
0.82663083076477051 0.21437862515449524 0.013781468383967876
0.86036664247512817 0.212643101811409 0.013725293800234795
0.89265191555023193 0.21089288592338562 0.01372529286891222
0.92559570074081421 0.20887097716331482 0.01372529286891222
0.95946556329727173 0.20731151103973389 0.01360956858843565
0.99026358127593994 0.20547153055667877 0.013398542068898678
1 0.203807532787323 0.013398542068898678
1 0.20183877646923065 0.013398542068898678
1 0.20006240904331207 0.013398542068898678
0.0069241579622030258 0.30127567052841187 0.017842862755060196
0.028089327737689018 0.29944491386413574 0.017075253650546074
0.049738198518753052 0.29820406436920166 0.017075251787900925
0.073438040912151337 0.29617604613304138 0.017075253650546074
0.098274290561676025 0.29450848698616028 0.017075253650546074
0.13398516178131104 0.29287886619567871 0.017075253650546074
0.17442852258682251 0.2911895215511322 0.017075253650546074
0.21477009356021881 0.28982782363891602 0.017075253650546074
0.25509965419769287 0.28775641322135925 0.017075253650546074
0.29476043581962585 0.2863045334815979 0.017027601599693298
0.33188766241073608 0.28440797328948975 0.016748504713177681
0.36955231428146362 0.28283748030662537 0.016748504713177681
0.40606844425201416 0.28135615587234497 0.016748504713177681
0.44274371862411499 0.27932623028755188 0.016748504713177681
0.47986423969268799 0.2778078019618988 0.016036957502365112
0.51470577716827393 0.275957852602005 0.015849709510803223
0.54943835735321045 0.27464675903320312 0.015849709510803223
0.58518511056900024 0.27271217107772827 0.015849709510803223
0.62069892883300781 0.27088749408721924 0.015849709510803223
0.65564066171646118 0.26922887563705444 0.014724518172442913
0.68954384326934814 0.26749852299690247 0.01462408434599638
0.72324204444885254 0.26609727740287781 0.014624082483351231
0.75765633583068848 0.26402759552001953 0.014624082483351231
0.79125338792800903 0.2624104917049408 0.014624082483351231
0.82376229763031006 0.26060906052589417 0.013781468383967876
0.85724806785583496 0.25912284851074219 0.013725293800234795
0.89104270935058594 0.25747120380401611 0.01372529286891222
0.92393690347671509 0.25546130537986755 0.013725291937589645
0.95637995004653931 0.25389498472213745 0.01360956858843565
0.98895066976547241 0.25210380554199219 0.013398542068898678
1 0.25054863095283508 0.013398542068898678
1 0.24870190024375916 0.013398542068898678
1 0.24684163928031921 0.013398542068898678
0.0069241579622030258 0.34684982895851135 0.017842862755060196
0.028089327737689018 0.34561240673065186 0.017075253650546074
0.049591526389122009 0.34373277425765991 0.017075251787900925
0.071401678025722504 0.34229123592376709 0.017075253650546074
0.095297098159790039 0.34058472514152527 0.017075253650546074
0.13091044127941132 0.33881118893623352 0.017075253650546074
0.17146305739879608 0.33753100037574768 0.017075253650546074
0.21161265671253204 0.3355427086353302 0.017075253650546074
0.25242409110069275 0.33409678936004639 0.017075253650546074
0.29215797781944275 0.33227643370628357 0.017027601599693298
0.32908675074577332 0.33081242442131042 0.016748504713177681
0.36666488647460938 0.32923614978790283 0.016748504713177681
0.40364173054695129 0.32740065455436707 0.016748504713177681
0.4405025839805603 0.32603719830513 0.016748504713177681
0.47681879997253418 0.32401666045188904 0.016036957502365112
0.51168680191040039 0.32263872027397156 0.015849709510803223
0.54763787984848022 0.32101380825042725 0.015849709510803223
0.58321261405944824 0.31928348541259766 0.015849711373448372
0.61735439300537109 0.31779393553733826 0.015849709510803223
0.6518714427947998 0.31580683588981628 0.014724518172442913
0.68599700927734375 0.3143884539604187 0.01462408434599638
0.7199549674987793 0.31266027688980103 0.014624082483351231
0.75457525253295898 0.31109157204627991 0.01462408434599638
0.7885621190071106 0.30932977795600891 0.014624082483351231
0.82238531112670898 0.30760934948921204 0.013781468383967876
0.855255126953125 0.30618348717689514 0.013725293800234795
0.88762456178665161 0.30441385507583618 0.01372529286891222
0.92155921459197998 0.30281630158424377 0.013725291937589645
0.95481085777282715 0.30099961161613464 0.01360956858843565
0.98639625310897827 0.29945403337478638 0.013398542068898678
1 0.29778596758842468 0.013398542068898678
1 0.29613164067268372 0.013398542068898678
1 0.29437291622161865 0.013398542068898678
0.0068227308802306652 0.39200404286384583 0.01749064214527607
0.027506023645401001 0.39033609628677368 0.017075253650546074
0.049100339412689209 0.38879477977752686 0.017075251787900925
0.070927269756793976 0.38704752922058105 0.017075253650546074
0.093111850321292877 0.38549137115478516 0.017075253650546074
0.12782041728496552 0.38402977585792542 0.016896571964025497
0.16855643689632416 0.38239666819572449 0.016821647062897682
0.20863626897335052 0.38088816404342651 0.016821647062897682
0.2496003657579422 0.37908920645713806 0.016821645200252533
0.2892758846282959 0.37756618857383728 0.016665473580360413
0.32679027318954468 0.37610268592834473 0.016091570258140564
0.36392828822135925 0.37443652749061584 0.01607440784573555
0.40069019794464111 0.37295430898666382 0.01607440784573555
0.43790325522422791 0.3711550235748291 0.01607440784573555
0.47435691952705383 0.36971002817153931 0.015595079399645329
0.5099414587020874 0.36811822652816772 0.015390100888907909
0.54509055614471436 0.36648839712142944 0.015390100888907909
0.57983189821243286 0.36493727564811707 0.015390100888907909
0.61537075042724609 0.36313033103942871 0.015390100888907909
0.650287926197052 0.36169078946113586 0.014558511786162853
0.68427801132202148 0.36002564430236816 0.014493010006844997
0.71799445152282715 0.35845804214477539 0.014493010006844997
0.75230026245117188 0.35693302750587463 0.014493010006844997
0.78597879409790039 0.35512241721153259 0.014403536915779114
0.81896907091140747 0.35369035601615906 0.013659710995852947
0.85322493314743042 0.35185670852661133 0.01360276248306036
0.88622438907623291 0.35048103332519531 0.013602760620415211
0.91882580518722534 0.34893295168876648 0.013602760620415211
0.95201677083969116 0.34711143374443054 0.013240274041891098
0.98480355739593506 0.34564369916915894 0.012930541299283504
0.99995070695877075 0.34378272294998169 0.012930541299283504
1 0.342450350522995 0.012930541299283504
1 0.34072735905647278 0.012930541299283504
0.0066994591616094112 0.43382254242897034 0.016947334632277489
0.024904157966375351 0.43217480182647705 0.016775732859969139
0.046441882848739624 0.4308418333530426 0.016775732859969139
0.06819424033164978 0.42917731404304504 0.016775732859969139
0.090290166437625885 0.42745700478553772 0.01662125438451767
0.12502144277095795 0.42605426907539368 0.015871129930019379
0.16582123935222626 0.42445489764213562 0.015849709510803223
0.20606598258018494 0.42300894856452942 0.015849709510803223
0.24672400951385498 0.42138341069221497 0.015849709510803223
0.28678563237190247 0.41960179805755615 0.015479892492294312
0.32404306530952454 0.41823863983154297 0.014674724079668522
0.36179590225219727 0.41658857464790344 0.01465131901204586
0.39839503169059753 0.41518065333366394 0.01465131901204586
0.43516463041305542 0.41361048817634583 0.01465132087469101
0.47254452109336853 0.4117838442325592 0.014361370354890823
0.5069047212600708 0.41042327880859375 0.013800191693007946
0.54215437173843384 0.40881028771400452 0.013800190761685371
0.57815879583358765 0.40733492374420166 0.013800191693007946
0.61334818601608276 0.40572687983512878 0.013800190761685371
0.64787584543228149 0.40388059616088867 0.013536533340811729
0.68202626705169678 0.40257826447486877 0.013425772078335285
0.71601307392120361 0.4008755087852478 0.013425772078335285
0.75065344572067261 0.39939919114112854 0.013425772078335285
0.78454244136810303 0.39785531163215637 0.013421232812106609
0.81743860244750977 0.39601397514343262 0.013398543931543827
0.85016202926635742 0.39457529783248901 0.013398543931543827
0.88335210084915161 0.39295598864555359 0.013398542068898678
0.91747790575027466 0.39147225022315979 0.013398542068898678
0.94990020990371704 0.38997143507003784 0.011790157295763493
0.98207724094390869 0.38815984129905701 0.010485940612852573
0.99991840124130249 0.38668975234031677 0.01047813892364502
1 0.38499122858047485 0.01047813892364502
1 0.38349813222885132 0.010478137992322445
0.0066994591616094112 0.4760977029800415 0.016898263245820999
0.023692796006798744 0.47462558746337891 0.016748504713177681
0.043273068964481354 0.47300764918327332 0.016748504713177681
0.065065138041973114 0.4714411199092865 0.016748504713177681
0.086989566683769226 0.47008150815963745 0.016579978168010712
0.12195939570665359 0.46845808625221252 0.015849709510803223
0.1629071831703186 0.46687883138656616 0.015849711373448372
0.20333608984947205 0.46530354022979736 0.015849709510803223
0.24415521323680878 0.46375280618667603 0.015849711373448372
0.28422421216964722 0.46240860223770142 0.015464999713003635
0.32126480340957642 0.46070712804794312 0.014624082483351231
0.35887604951858521 0.45907261967658997 0.01462408434599638
0.395915687084198 0.45755231380462646 0.014624082483351231
0.43287289142608643 0.45598447322845459 0.01462408434599638
0.46908718347549438 0.45466023683547974 0.014324488118290901
0.50450974702835083 0.4529401957988739 0.01372529286891222
0.54052978754043579 0.4513915479183197 0.013725291937589645
0.57548516988754272 0.44985777139663696 0.01372529286891222
0.60999035835266113 0.44826334714889526 0.013725291937589645
0.64485746622085571 0.44690558314323425 0.013480230234563351
0.67897522449493408 0.4451259970664978 0.013398542068898678
0.71282094717025757 0.44356873631477356 0.013398542068898678
0.74719125032424927 0.44205167889595032 0.013398542068898678
0.78087341785430908 0.44047772884368896 0.013398542068898678
0.81486731767654419 0.43921500444412231 0.013398543931543827
0.84886133670806885 0.43733307719230652 0.013398543931543827
0.88131624460220337 0.43581464886665344 0.013398542068898678
0.91396033763885498 0.43425002694129944 0.013398542068898678
0.94792276620864868 0.43270954489707947 0.011710304766893387
0.97999882698059082 0.43140295147895813 0.010376022197306156
0.99985378980636597 0.42948120832443237 0.010376022197306156
1 0.42803078889846802 0.010376022197306156
1 0.42640110850334167 0.010376022197306156
0.0066994591616094112 0.51747006177902222 0.016898263245820999
0.023692796006798744 0.51602119207382202 0.016748504713177681
0.041332550346851349 0.51462143659591675 0.016748504713177681
