Textures/9.cube
# Created by: G'MIC (https://gmic.eu)
TITLE "CrispWinter.cube"
# LUT size
LUT_3D_SIZE 5
# Data domain
DOMAIN_MIN 0.0 0.0 0.0
DOMAIN_MAX 1.0 1.0 1.0
# LUT data points
0.0085552027449011803 0.013432862237095833 0.020775144919753075
0.27385568618774414 0.013398542068898678 0.020172880962491035
0.56709969043731689 0.010376022197306156 0.01776796393096447
0.84039938449859619 0.0091503970324993134 0.01637125201523304
1 0.0082805892452597618 0.015260728076100349
0.0069241579622030258 0.34684982895851135 0.017842862755060196
0.25242409110069275 0.33409678936004639 0.017075253650546074
0.54763787984848022 0.32101380825042725 0.015849709510803223
0.82238531112670898 0.30760934948921204 0.013781468383967876
1 0.29437291622161865 0.013398542068898678
0.0036765625700354576 0.6798170804977417 0.015185829252004623
0.23036700487136841 0.66816872358322144 0.013725291937589645
0.52808582782745361 0.65649884939193726 0.013398542068898678
0.80310904979705811 0.64470094442367554 0.010376022197306156
1 0.63294970989227295 0.010049189440906048
0.0018919940339401364 0.98721718788146973 0.011690531857311726
0.2078191339969635 0.97615617513656616 0.010376022197306156
0.50818347930908203 0.96540123224258423 0.0091503970324993134
0.7840607762336731 0.95457673072814941 0.0070953224785625935
1 0.94368261098861694 0.0067198863252997398
0.00032683333847671747 1 0.010273885913193226
0.18489895761013031 1 0.0091503961011767387
0.48818552494049072 1 0.0070262923836708069
0.76590430736541748 1 0.0066994596272706985
1 1 0.0036765625700354576
0.0082805892452597618 0.013398542068898678 0.47542750835418701
0.26976668834686279 0.010376021265983582 0.46095168590545654
0.56336730718612671 0.010376021265983582 0.4462418258190155
0.83699494600296021 0.0091503961011767387 0.43135514855384827
1 0.0079248547554016113 0.41656437516212463
0.0066994596272706985 0.34214654564857483 0.44695347547531128
0.24821491539478302 0.32928261160850525 0.43233063817024231
0.54384058713912964 0.31586548686027527 0.41743826866149902
0.81869244575500488 0.30272787809371948 0.40235686302185059
1 0.28933188319206238 0.38732844591140747
0.0036765625700354576 0.67542630434036255 0.41779085993766785
0.2261069118976593 0.66380631923675537 0.40300831198692322
0.52425003051757812 0.65213495492935181 0.38789534568786621
0.79923027753829956 0.64044177532196045 0.37258994579315186
1 0.62870138883590698 0.35737103223800659
0.0012460470898076892 0.98328840732574463 0.3882230818271637
0.20358166098594666 0.97206133604049683 0.37326207756996155
0.50438672304153442 0.96120262145996094 0.35776335000991821
0.78057706356048584 0.95039981603622437 0.34225550293922424
1 0.9395403265953064 0.32663699984550476
0 1 0.35818347334861755
0.18049311637878418 1 0.34300318360328674
0.48433828353881836 1 0.32732370495796204
0.76247382164001465 1 0.31136879324913025
1 1 0.29535183310508728
0.0076440540142357349 0.012397863902151585 0.87027174234390259
0.26556336879730225 0.010376022197306156 0.85718333721160889
0.55971115827560425 0.010049189440906048 0.84410005807876587
0.83356195688247681 0.0079452767968177795 0.83096599578857422
1 0.0079248547554016113 0.81783163547515869
0.0066994591616094112 0.33730053901672363 0.84467041492462158
0.24388521909713745 0.32404384016990662 0.83155286312103271
0.5402258038520813 0.31095826625823975 0.81845372915267944
0.8148493766784668 0.29758983850479126 0.80515754222869873
1 0.28426468372344971 0.7918626070022583
0.0036765625700354576 0.67087835073471069 0.8189050555229187
0.2217995822429657 0.65929919481277466 0.80582231283187866
0.52055394649505615 0.64763432741165161 0.79255980253219604
0.7954707145690918 0.63586878776550293 0.77923095226287842
1 0.62410163879394531 0.76596301794052124
0.0012256253976374865 0.9793020486831665 0.79294532537460327
0.19909331202507019 0.96790206432342529 0.77962452173233032
0.50062710046768188 0.95687496662139893 0.76651477813720703
0.77714687585830688 0.94603967666625977 0.75306642055511475
1 0.93521577119827271 0.73957675695419312
0 1 0.76676613092422485
0.17593507468700409 1 0.75347453355789185
0.48053860664367676 1 0.74018442630767822
0.75896728038787842 1 0.72670990228652954
1 1 0.71312868595123291
0.0074125993996858597 0.011103400029242039 1
0.2613939642906189 0.010376023128628731 1
0.55597382783889771 0.0091503961011767387 1
0.83015793561935425 0.0079248556867241859 1
1 0.0070262933149933815 1
0.0066994596272706985 0.33205416798591614 1
0.23961997032165527 0.31912010908126831 1
0.5363461971282959 0.30602294206619263 1
0.81094890832901001 0.29241341352462769 1
1 0.27895349264144897 1
0.0033497298136353493 0.66628623008728027 1
0.21747073531150818 0.65465724468231201 1
0.51675081253051758 0.64300018548965454 1
0.79187297821044922 0.63117355108261108 1
1 0.6193995475769043 1
0.00038300786400213838 0.97524034976959229 1
0.19452850520610809 0.96388965845108032 1
0.49674093723297119 0.95270174741744995 1
0.77366185188293457 0.94189280271530151 1
1 0.93095690011978149 1
0 1 1
0.17129236459732056 1 1
0.47664418816566467 1 1
0.75556749105453491 1 1
1 1 1
0.0071300775744020939 0.010376022197306156 1
0.25715771317481995 0.010376022197306156 1
0.55224621295928955 0.0091503961011767387 1
0.82647520303726196 0.0070824529975652695 1
1 0.0066994591616094112 1
0.0066994591616094112 0.32708761096000671 1
0.23528109490871429 0.31422007083892822 1
0.53254860639572144 0.30074241757392883 1
0.80704307556152344 0.2873956561088562 1
1 0.27381756901741028 1
0.0024511669762432575 0.6616552472114563 1
0.21309919655323029 0.64996355772018433 1
0.51289480924606323 0.63830399513244629 1
0.78828626871109009 0.62656807899475098 1
1 0.61478304862976074 1
9.5326395239681005e-05 0.97087627649307251 1
0.19016341865062714 0.95980644226074219 1
0.49298807978630066 0.94852465391159058 1
0.77028697729110718 0.93758898973464966 1
1 0.9267619252204895 1
0 1 1
0.16652068495750427 1 1
0.4728144109249115 1 1
0.75201702117919922 1 1
1 1 1
