Textures/90.cube
# Created by: G'MIC (https://gmic.eu)
TITLE "Polaroid_690_Cold_3.cube"
# LUT size
LUT_3D_SIZE 5
# Data domain
DOMAIN_MIN 0.0 0.0 0.0
DOMAIN_MAX 1.0 1.0 1.0
# LUT data points
0 0.13037750124931335 0.12099688500165939
0.12376928329467773 0.13127224147319794 0.12458604574203491
0.3985021710395813 0.092087522149085999 0.12860627472400665
0.74758541584014893 0 0.12411414086818695
0.99974578619003296 0 0.10674727708101273
0 0.21822179853916168 0.13533960282802582
0.14547517895698547 0.23135684430599213 0.12964484095573425
0.54175007343292236 0.2477116584777832 0.12439863383769989
0.83076322078704834 0.16757570207118988 0.10904267430305481
0.99999582767486572 0.091511629521846771 0.082048080861568451
0 0.47364071011543274 0.10218420624732971
0.12636904418468475 0.46839714050292969 0.093105077743530273
0.52484267950057983 0.53300881385803223 0
0.86317211389541626 0.59019076824188232 0
1 0.5958629846572876 0.028200723230838776
0 0.74793827533721924 0
0.16171298921108246 0.73959243297576904 0
0.5139504075050354 0.74733906984329224 0
0.81691592931747437 0.77159321308135986 0
1 0.7853083610534668 0.00036041135899722576
0.48297592997550964 0.93941265344619751 0.25839081406593323
0.53901326656341553 0.93633115291595459 0.23577164113521576
0.67824250459671021 0.93513059616088867 0.19356679916381836
0.84547567367553711 0.95010644197463989 0.20938208699226379
0.98812687397003174 0.97271835803985596 0.22661352157592773
0 0.13788238167762756 0.22653631865978241
0.12540772557258606 0.14014115929603577 0.24807369709014893
0.40521886944770813 0.10037199407815933 0.24264295399188995
0.70939826965332031 0 0.23201324045658112
0.99295622110366821 0 0.18402712047100067
0 0.22938083112239838 0.25551766157150269
0.1577867865562439 0.24439120292663574 0.27406233549118042
0.50967943668365479 0.19590999186038971 0.25451627373695374
0.80311864614486694 0.027952002361416817 0.22629170119762421
0.99999582767486572 0 0.19543583691120148
0 0.52282255887985229 0.27323412895202637
0.10677934437990189 0.51201111078262329 0.25849780440330505
0.54570877552032471 0.55260539054870605 0.23591996729373932
0.87101006507873535 0.59475260972976685 0.27339494228363037
0.99995285272598267 0.57370179891586304 0.26599118113517761
0 0.76377499103546143 0.23511150479316711
0.16653348505496979 0.75564539432525635 0.21601547300815582
0.51453083753585815 0.75254517793655396 0.18608735501766205
0.82137531042098999 0.77540451288223267 0.19616498053073883
1 0.78729069232940674 0.29946839809417725
0.47043603658676147 0.94292360544204712 0.39326456189155579
0.52697193622589111 0.93991339206695557 0.37495037913322449
0.66755795478820801 0.93764567375183105 0.33901458978652954
0.83831912279129028 0.95094895362854004 0.35094368457794189
0.98195290565490723 0.97424805164337158 0.37902370095252991
0 0.14510028064250946 0.55453360080718994
0.014369388110935688 0.13536563515663147 0.5905730128288269
0.5628846287727356 5.8159007494396064e-06 0.65007191896438599
0.77335935831069946 0 0.53256642818450928
0.99036604166030884 0 0.49553969502449036
0 0.24299249053001404 0.56749153137207031
0.049484655261039734 0.25165435671806335 0.60529965162277222
0.58886098861694336 0.24777889251708984 0.66231697797775269
0.79150760173797607 0.16785167157649994 0.54622584581375122
0.99660396575927734 0 0.4829660952091217
0 0.54319041967391968 0.60608643293380737
0.15243220329284668 0.55614113807678223 0.61705338954925537
0.57138615846633911 0.59734869003295898 0.65216457843780518
0.82858991622924805 0.50419872999191284 0.57279574871063232
0.99995285272598267 0.40059953927993774 0.47377181053161621
0.040246255695819855 0.78941041231155396 0.61632615327835083
0.27374833822250366 0.78606885671615601 0.60687881708145142
0.52898257970809937 0.77121424674987793 0.56958460807800293
0.81751292943954468 0.78308939933776855 0.58359313011169434
0.99805909395217896 0.79575854539871216 0.66412651538848877
0.45880365371704102 0.94856703281402588 0.65618866682052612
0.50582164525985718 0.94644558429718018 0.6409795880317688
0.63787323236465454 0.94425773620605469 0.60866379737854004
0.8136783242225647 0.9515005350112915 0.59193974733352661
0.96165615320205688 0.97663408517837524 0.63712465763092041
0 0.14585919678211212 0.87604892253875732
0.069567263126373291 0.12716288864612579 0.88409942388534546
0.58168530464172363 0.033883724361658096 0.91066980361938477
0.8853943943977356 0.066087618470191956 0.92176961898803711
1 0.077534496784210205 0.84645110368728638
0 0.2618979811668396 0.87098515033721924
0.1280520111322403 0.26285657286643982 0.87919807434082031
0.59121358394622803 0.28566744923591614 0.90635615587234497
0.87642323970794678 0.36216810345649719 0.91935431957244873
0.99979543685913086 0.31220242381095886 0.84526878595352173
0 0.48549744486808777 0.82388389110565186
0.0041406857781112194 0.49842992424964905 0.83540964126586914
0.55694383382797241 0.57892155647277832 0.87684357166290283
0.8377532958984375 0.65998303890228271 0.90612781047821045
0.97244685888290405 0.56433773040771484 0.82925713062286377
0.25942277908325195 0.7849242091178894 0.85944682359695435
0.38903957605361938 0.78421121835708618 0.86095881462097168
0.61731290817260742 0.7881656289100647 0.87247854471206665
0.8289756178855896 0.80779415369033813 0.89675962924957275
0.97539526224136353 0.73849326372146606 0.82801216840744019
0.59050494432449341 0.95297539234161377 0.89069360494613647
0.6132628321647644 0.95258039236068726 0.88782662153244019
0.68084990978240967 0.95412635803222656 0.88023453950881958
0.78732770681381226 0.95526230335235596 0.85213345289230347
0.93569254875183105 0.98201406002044678 0.86869907379150391
0.40789371728897095 0.27750346064567566 0.99995285272598267
0.49838131666183472 0.27887609601020813 1
0.68887293338775635 0.31326377391815186 0.99999380111694336
0.87835943698883057 0.43593841791152954 0.99993139505386353
0.99991226196289062 0.55384498834609985 0.99995285272598267
0.43513107299804688 0.40646418929100037 0.99994665384292603
0.51747375726699829 0.41325181722640991 1
0.69249182939529419 0.45676320791244507 1
0.86773502826690674 0.5632743239402771 1
0.99584048986434937 0.63243323564529419 0.99997830390930176
0.40348601341247559 0.61990821361541748 0.99839228391647339
0.49318352341651917 0.62790811061859131 0.99836874008178711
0.67682731151580811 0.65955632925033569 0.99798756837844849
0.85709124803543091 0.7087138295173645 0.99814522266387939
0.98149240016937256 0.7397923469543457 0.99725323915481567
0.42210644483566284 0.78629660606384277 0.98603755235671997
0.47109293937683105 0.78172838687896729 0.98598265647888184
0.60900622606277466 0.77317839860916138 0.98647040128707886
0.84418463706970215 0.80938738584518433 0.99035912752151489
0.96482586860656738 0.85788965225219727 0.99066877365112305
0.6807895302772522 0.96356534957885742 0.98093026876449585
0.70063114166259766 0.96388638019561768 0.98102259635925293
0.75978761911392212 0.96647167205810547 0.98103874921798706
0.84418940544128418 0.97441345453262329 0.98139858245849609
0.93545293807983398 0.99436676502227783 0.98312497138977051
