Textures/90.cube
# Created by: G'MIC (https://gmic.eu)
TITLE "Polaroid_690_Cold_3.cube"
# LUT size
LUT_3D_SIZE 33
# Data domain
DOMAIN_MIN 0.0 0.0 0.0
DOMAIN_MAX 1.0 1.0 1.0
# LUT data points
0 0.13037750124931335 0.12099688500165939
0 0.13070580363273621 0.12127212435007095
0.00048038567183539271 0.13125382363796234 0.12178707122802734
0.012486424297094345 0.13127714395523071 0.12199874967336655
0.033488001674413681 0.13141618669033051 0.1224389523267746
0.056768909096717834 0.13158929347991943 0.12273143231868744
0.078889019787311554 0.13197039067745209 0.12386763840913773
0.10051175951957703 0.13162951171398163 0.12414669245481491
0.12376928329467773 0.13127224147319794 0.12458604574203491
0.1486586332321167 0.13084864616394043 0.12539930641651154
0.1759653240442276 0.1299145370721817 0.12615600228309631
0.2063894122838974 0.12802398204803467 0.12638679146766663
0.23917248845100403 0.12474215775728226 0.12674500048160553
0.2758728563785553 0.120527483522892 0.12761536240577698
0.31517654657363892 0.11377054452896118 0.12814243137836456
0.35589370131492615 0.10461393743753433 0.1285376101732254
0.3985021710395813 0.092087522149085999 0.12860627472400665
0.44217661023139954 0.074240982532501221 0.128499835729599
0.48747998476028442 0.046376362442970276 0.12834225594997406
0.53721517324447632 0.0074710501357913017 0.12828688323497772
0.58364737033843994 0 0.12750212848186493
0.62728196382522583 0 0.12682913243770599
0.66904902458190918 0 0.12620395421981812
0.70869404077529907 0 0.12513178586959839
0.74758541584014893 0 0.12411414086818695
0.78589797019958496 0 0.12233284115791321
0.8228524923324585 0 0.12115566432476044
0.85820299386978149 0 0.11903998255729675
0.89204704761505127 0 0.1170637384057045
0.92346203327178955 0 0.11460637301206589
0.95412653684616089 0 0.11228026449680328
0.98311924934387207 0 0.10961058735847473
0.99974578619003296 0 0.10674727708101273
0 0.13643783330917358 0.1224922314286232
0 0.13696324825286865 0.12199452519416809
4.2342551751062274e-05 0.13758789002895355 0.12248730659484863
0.0094186421483755112 0.13729612529277802 0.12283440679311752
0.030641328543424606 0.13786183297634125 0.12382886558771133
0.054792027920484543 0.13726556301116943 0.12400251626968384
0.078174829483032227 0.13716958463191986 0.12436871230602264
0.10087175667285919 0.13679318130016327 0.12502655386924744
0.12575514614582062 0.13653309643268585 0.12565554678440094
0.15137983858585358 0.13559113442897797 0.12594029307365417
0.17958109080791473 0.13435575366020203 0.12658423185348511
0.21092058718204498 0.13255925476551056 0.12727032601833344
0.24470141530036926 0.12955655157566071 0.12773968279361725
0.2814640998840332 0.12506201863288879 0.128496915102005
0.3211338222026825 0.11836199462413788 0.12817642092704773
0.36223423480987549 0.10981401801109314 0.1285204291343689
0.40474832057952881 0.097476653754711151 0.12890776991844177
0.449186772108078 0.080749422311782837 0.12876942753791809
0.4954146146774292 0.053966779261827469 0.12847450375556946
0.54442864656448364 0.013438067398965359 0.12805323302745819
0.59071093797683716 0 0.12747195363044739
0.63435745239257812 0 0.12682734429836273
0.67573082447052002 0 0.125749871134758
0.71476262807846069 0 0.12470551580190659
0.75389528274536133 0 0.12376619130373001
0.79194068908691406 0 0.12222302705049515
0.82816892862319946 0 0.12037807703018188
0.86318105459213257 0 0.1184743270277977
0.89665865898132324 0 0.11655993759632111
0.92747807502746582 0 0.11411940306425095
0.95785480737686157 0 0.11177908629179001
0.98623502254486084 0 0.10890656709671021
0.99992221593856812 0 0.1057288646697998
0 0.14289793372154236 0.1235746368765831
0 0.14335209131240845 0.12341447919607162
5.461407909024274e-06 0.14421278238296509 0.12328703701496124
0.0071335877291858196 0.14432607591152191 0.12345071136951447
0.028231872245669365 0.14403620362281799 0.12406760454177856
0.05370727926492691 0.14408224821090698 0.12520350515842438
0.079018697142601013 0.14391724765300751 0.12588690221309662
0.10320509225130081 0.14338842034339905 0.12578614056110382
0.12827979028224945 0.14278964698314667 0.12640291452407837
0.15526407957077026 0.14179493486881256 0.12696337699890137
0.18462742865085602 0.14094540476799011 0.12768658995628357
0.21689689159393311 0.13866381347179413 0.12796770036220551
0.2514050304889679 0.13561967015266418 0.12821671366691589
0.28901255130767822 0.13171908259391785 0.12897197902202606
0.32904350757598877 0.12533164024353027 0.1292303204536438
0.37005755305290222 0.11676766723394394 0.12924517691135406
0.41300994157791138 0.10499017685651779 0.12922757863998413
0.45767253637313843 0.089000940322875977 0.12885139882564545
0.5055992603302002 0.064536035060882568 0.12870502471923828
0.55382770299911499 0.025726344436407089 0.12820301949977875
0.59930747747421265 0.00039663162897340953 0.12741585075855255
0.64210319519042969 0 0.12646995484828949
0.68360787630081177 0 0.12550145387649536
0.72249627113342285 0 0.12475696206092834
0.76109540462493896 0 0.1234557256102562
0.79850310087203979 0 0.1216864287853241
0.83490782976150513 0 0.11990987509489059
0.86911916732788086 0 0.11750611662864685
0.9021797776222229 0 0.11582762002944946
0.9324265718460083 0 0.11301030963659286
0.96279573440551758 0 0.11060018837451935
0.99022263288497925 0 0.10803475975990295
0.99999839067459106 0 0.10468896478414536
0 0.15091991424560547 0.12563303112983704
0 0.15128536522388458 0.12544189393520355
0 0.15224847197532654 0.1251225620508194
0.004006268922239542 0.15319474041461945 0.12485550343990326
0.026509430259466171 0.15302467346191406 0.12468520551919937
0.054906859993934631 0.15319669246673584 0.12578895688056946
0.081208929419517517 0.15300822257995605 0.12666802108287811
0.10666802525520325 0.15301282703876495 0.12777560949325562
0.13344492018222809 0.1520395427942276 0.12811598181724548
0.16154123842716217 0.15119002759456635 0.12855979800224304
0.19174531102180481 0.14994263648986816 0.12896135449409485
0.22550173103809357 0.14803653955459595 0.12895964086055756
0.26102760434150696 0.14487722516059875 0.12941983342170715
0.29945027828216553 0.14083874225616455 0.12963056564331055
0.34015128016471863 0.13490720093250275 0.12977646291255951
0.38182008266448975 0.12640693783760071 0.12943589687347412
0.42513993382453918 0.1156165599822998 0.12939105927944183
0.47128376364707947 0.10054996609687805 0.12914037704467773
0.51945626735687256 0.078506119549274445 0.1288267970085144
0.56670385599136353 0.046114284545183182 0.12804609537124634
0.61110275983810425 0.0076537770219147205 0.12719549238681793
0.65292996168136597 0 0.12644147872924805
0.692524254322052 0 0.12513858079910278
0.73022657632827759 0 0.12383891642093658
0.76765561103820801 0 0.12240704149007797
0.80467796325683594 0 0.12117543071508408
0.83946555852890015 0 0.11890848726034164
0.872874915599823 0 0.11685828864574432
0.90528374910354614 0 0.11490265280008316
0.93504345417022705 0 0.11231642216444016
0.96392947435379028 0 0.10932110995054245
0.99097740650177002 0 0.10634207725524902
1 0 0.10319698601961136
0 0.15969228744506836 0.12743213772773743
0 0.16004647314548492 0.1271224319934845
0 0.16104847192764282 0.1270865797996521
0.0010546828852966428 0.16184304654598236 0.12695939838886261
0.020048364996910095 0.16282336413860321 0.12611132860183716
0.051003988832235336 0.16368673741817474 0.12619365751743317
0.081564858555793762 0.1637299656867981 0.12706546485424042
0.1092013344168663 0.16374808549880981 0.12811338901519775
0.13850881159305573 0.16392076015472412 0.1290130615234375
0.16941948235034943 0.16373084485530853 0.13012531399726868
0.20166170597076416 0.16273109614849091 0.13025850057601929
0.23664212226867676 0.16072884202003479 0.13019846379756927
0.27370378375053406 0.15761575102806091 0.13033570349216461
0.31318536400794983 0.15360552072525024 0.13033494353294373
0.35475650429725647 0.14817547798156738 0.13035993278026581
0.39654320478439331 0.14029510319232941 0.12979045510292053
0.44109979271888733 0.13007436692714691 0.12956112623214722
0.48941799998283386 0.11640144884586334 0.12917819619178772
0.53664320707321167 0.098067082464694977 0.12846937775611877
0.58246433734893799 0.072591334581375122 0.12749308347702026
0.62593281269073486 0.036713317036628723 0.12644703686237335
0.66657328605651855 0.0042402171529829502 0.12551431357860565
0.70520555973052979 0 0.12432283908128738
0.74222618341445923 0 0.12277936935424805
0.77917033433914185 0 0.12122923135757446
0.814769446849823 0 0.1194920688867569
0.84859699010848999 0 0.11752079427242279
0.88138562440872192 0 0.11565417051315308
0.91253435611724854 0 0.11287984251976013
0.94135761260986328 0 0.11060388386249542
0.96939259767532349 0 0.10766419768333435
0.99448961019515991 0 0.10479961335659027
1 0 0.10099650919437408
0 0.17095127701759338 0.12972451746463776
0 0.17112335562705994 0.1295802891254425
0 0.17153632640838623 0.12938669323921204
6.2416103901341558e-05 0.172613725066185 0.12896445393562317
0.01358384732156992 0.17374281585216522 0.1283545196056366
0.046139288693666458 0.17557094991207123 0.12795664370059967
0.079538844525814056 0.17632760107517242 0.12778572738170624
0.11096291244029999 0.17680400609970093 0.12822572886943817
0.1428389847278595 0.1774442195892334 0.12913613021373749
0.17582094669342041 0.17815577983856201 0.13047227263450623
0.21177284419536591 0.17845603823661804 0.13116374611854553
0.24985744059085846 0.17748205363750458 0.13145628571510315
0.28803703188896179 0.1745489090681076 0.1312960684299469
0.32838597893714905 0.17094215750694275 0.13121908903121948
0.37065416574478149 0.16547304391860962 0.13048678636550903
0.41427522897720337 0.15884718298912048 0.13009274005889893
0.46197828650474548 0.14936597645282745 0.12944567203521729
0.50984698534011841 0.13774211704730988 0.1287386417388916
0.55544447898864746 0.1226988211274147 0.12774661183357239
0.60031354427337646 0.10338295996189117 0.12646181881427765
0.64209258556365967 0.07944207638502121 0.12567409873008728
0.68119221925735474 0.046432573348283768 0.12436527013778687
0.71862530708312988 0.012564730830490589 0.12299899756908417
0.75476610660552979 0.0005763386725448072 0.12152633816003799
0.79044544696807861 0 0.1197134405374527
0.82506191730499268 0 0.11775190383195877
0.85807567834854126 0 0.11556306481361389
0.88970714807510376 0 0.1132524311542511
0.91995704174041748 0 0.11084962636232376
0.9482995867729187 0 0.10802377015352249
0.97567790746688843 0 0.1049262136220932
0.99747079610824585 0 0.10162371397018433
0.99999141693115234 0 0.098067633807659149
0 0.18400420248508453 0.13174331188201904
0 0.18444019556045532 0.13180726766586304
0 0.18439742922782898 0.1315782219171524
0 0.18530771136283875 0.13100151717662811
0.008281308226287365 0.18654343485832214 0.13012628257274628
0.040484815835952759 0.18839146196842194 0.12985444068908691
0.076544053852558136 0.19057260453701019 0.12913905084133148
0.10934494435787201 0.19171604514122009 0.12876978516578674
0.14410400390625 0.19322362542152405 0.1290203332901001
0.18083620071411133 0.19439074397087097 0.12953300774097443
0.21877378225326538 0.19590635597705841 0.13031819462776184
0.26114529371261597 0.19696424901485443 0.13125163316726685
0.30484077334403992 0.19686686992645264 0.13190735876560211
0.34788963198661804 0.19382889568805695 0.13149765133857727
0.39289349317550659 0.18918879330158234 0.13094986975193024
0.44084286689758301 0.18367642164230347 0.13008533418178558
0.48799979686737061 0.17570751905441284 0.12907573580741882
0.53369134664535522 0.16515140235424042 0.1278369277715683
0.57789891958236694 0.15326787531375885 0.12651520967483521
0.62067800760269165 0.1385798454284668 0.1251634806394577
0.66056770086288452 0.12182412296533585 0.12389618903398514
0.69774633646011353 0.10161382704973221 0.12245020270347595
0.73371261358261108 0.076759092509746552 0.12112218886613846
0.76794564723968506 0.045177001506090164 0.11924649029970169
0.8022388219833374 0.017079988494515419 0.11723888665437698
0.83549124002456665 0.0031347195617854595 0.11508452147245407
0.86675119400024414 4.2127285269089043e-05 0.1126997247338295
0.89664173126220703 0 0.11016944050788879
0.92604047060012817 0 0.10773897171020508
0.95306462049484253 0 0.10467894375324249
0.97943460941314697 0 0.10136756300926208
0.99859046936035156 0 0.097869239747524261
0.99996143579483032 0 0.094134874641895294
0 0.19954147934913635 0.1339736133813858
0 0.20000019669532776 0.13371464610099792
0 0.1998855322599411 0.1336132138967514
0 0.19988241791725159 0.1328696608543396
0.0049208775162696838 0.20172235369682312 0.13261821866035461
0.035310432314872742 0.20379792153835297 0.13201768696308136
0.073135599493980408 0.2060779333114624 0.13079433143138885
0.10904351621866226 0.20882216095924377 0.12969876825809479
0.1446937769651413 0.21095503866672516 0.12922333180904388
0.18303567171096802 0.21340031921863556 0.12893973290920258
0.22483868896961212 0.21605876088142395 0.12887535989284515
0.26952949166297913 0.21803274750709534 0.12907469272613525
0.31689015030860901 0.2197546511888504 0.12990415096282959
0.36973884701728821 0.22115021944046021 0.13009597361087799
0.42304721474647522 0.22021248936653137 0.12962046265602112
0.47012946009635925 0.21511091291904449 0.12820963561534882
0.51617354154586792 0.20797081291675568 0.12724529206752777
0.56065022945404053 0.1995290070772171 0.12587599456310272
0.60284769535064697 0.18921034038066864 0.12424686551094055
0.64359378814697266 0.17761610448360443 0.12271149456501007
0.68169379234313965 0.1651197224855423 0.1210462749004364
0.71741688251495361 0.15167458355426788 0.11945588886737823
0.75169622898101807 0.13571380078792572 0.11786111444234848
0.78521126508712769 0.11904061585664749 0.11592210829257965
0.81780719757080078 0.099805086851119995 0.11401195079088211
0.84932488203048706 0.076962314546108246 0.11154495924711227
0.87924408912658691 0.052628681063652039 0.10881617665290833
0.90817034244537354 0.032427724450826645 0.10635467618703842
0.93562287092208862 0.018024340271949768 0.10314817726612091
0.96170413494110107 0.0084561491385102272 0.10027121007442474
0.98678421974182129 0.0035073214676231146 0.097147345542907715
0.99989759922027588 0.0005812071030959487 0.093561090528964996
0.99995720386505127 0.0001287222548853606 0.088818028569221497
0 0.21822179853916168 0.13533960282802582
0 0.2190115749835968 0.13513317704200745
0 0.21874615550041199 0.13497933745384216
0 0.21859981119632721 0.1346542090177536
0.0020917246583849192 0.21980620920658112 0.13401123881340027
0.030380630865693092 0.22186994552612305 0.13318511843681335
0.070317335426807404 0.22465075552463531 0.1320061981678009
0.1077321395277977 0.22770242393016815 0.13101693987846375
0.14547517895698547 0.23135684430599213 0.12964484095573425
0.18371175229549408 0.23391140997409821 0.12860183417797089
0.22659516334533691 0.23818711936473846 0.12753108143806458
0.27590373158454895 0.24249425530433655 0.12658056616783142
0.32692989706993103 0.24637562036514282 0.12639562785625458
0.37986767292022705 0.24866998195648193 0.12612304091453552
0.43616244196891785 0.25072324275970459 0.12611193954944611
0.49184423685073853 0.25118950009346008 0.12541364133358002
0.54175007343292236 0.2477116584777832 0.12439863383769989
0.58492541313171387 0.24067610502243042 0.12275569140911102
0.62573593854904175 0.23232319951057434 0.12096058577299118
0.66479122638702393 0.22270922362804413 0.11916613578796387
0.70107001066207886 0.21248452365398407 0.11709974706172943
0.73489546775817871 0.20227541029453278 0.11558166146278381
0.76781576871871948 0.19044904410839081 0.1133367195725441
0.7997468113899231 0.17916052043437958 0.11117285490036011
0.83076322078704834 0.16757570207118988 0.10904267430305481
0.86124038696289062 0.15566873550415039 0.10631357133388519
0.88941782712936401 0.14403297007083893 0.10380591452121735
0.91688770055770874 0.13226230442523956 0.10112456232309341
0.94354325532913208 0.12068904191255569 0.097847640514373779
0.96859467029571533 0.10977383702993393 0.094351157546043396
0.9923393726348877 0.099702589213848114 0.09085894376039505
1 0.092397861182689667 0.086802206933498383
0.99999582767486572 0.091511629521846771 0.082048080861568451
0 0.24045629799365997 0.13630977272987366
0 0.24178728461265564 0.1362205445766449
0 0.24142767488956451 0.13579373061656952
0 0.24124179780483246 0.13565443456172943
0.00045928056351840496 0.24112053215503693 0.13495896756649017
0.024660427123308182 0.24323843419551849 0.13378280401229858
0.068573229014873505 0.24653400480747223 0.1330987811088562
0.1081874817609787 0.25030139088630676 0.13163857161998749
0.14867039024829865 0.25509098172187805 0.12952570617198944
0.19042742252349854 0.26052308082580566 0.12742386758327484
0.23379421234130859 0.2652079164981842 0.12584856152534485
0.2816169261932373 0.26994913816452026 0.12337601184844971
0.33446004986763 0.27508386969566345 0.1215946227312088
0.3896404504776001 0.27950111031532288 0.12022833526134491
0.44541704654693604 0.28297865390777588 0.11925273388624191
0.5009954571723938 0.28514018654823303 0.11845927685499191
0.5567818284034729 0.28658440709114075 0.11765096336603165
0.60865974426269531 0.28643983602523804 0.11636926233768463
0.65114873647689819 0.28146302700042725 0.11472032964229584
0.68828189373016357 0.27321961522102356 0.11300870031118393
0.72244566679000854 0.26441064476966858 0.11102726310491562
0.75460553169250488 0.25537765026092529 0.10892980545759201
0.78579843044281006 0.24618390202522278 0.10691797733306885
0.81626194715499878 0.23725597560405731 0.10472991317510605
0.84499740600585938 0.22822676599025726 0.10219606757164001
0.87355870008468628 0.21992966532707214 0.099551409482955933
0.90037822723388672 0.21143440902233124 0.096974551677703857
0.92630141973495483 0.20386448502540588 0.093892805278301239
0.95131087303161621 0.19709903001785278 0.090426385402679443
0.97491949796676636 0.19044932723045349 0.086694255471229553
0.99617326259613037 0.18542072176933289 0.083337731659412384
1 0.18163877725601196 0.078523188829421997
1 0.18313075602054596 0.073589228093624115
0 0.26684439182281494 0.13604013621807098
0 0.26849672198295593 0.13592070341110229
0 0.26796683669090271 0.13546378910541534
0 0.26809576153755188 0.13531579077243805
0 0.26808762550354004 0.13487741351127625
0.018310859799385071 0.26986390352249146 0.1340126097202301
0.067765042185783386 0.27380868792533875 0.1324407160282135
0.11130035668611526 0.27835038304328918 0.13074849545955658
0.15368326008319855 0.28405898809432983 0.12844164669513702
0.19654490053653717 0.28979980945587158 0.12556606531143188
0.24161265790462494 0.29594847559928894 0.12263160198926926
0.28867566585540771 0.30045542120933533 0.11989229917526245
0.33946037292480469 0.30635088682174683 0.11665768176317215
0.39486387372016907 0.31202107667922974 0.11340593546628952
0.45258137583732605 0.31739541888237 0.11031805723905563
0.50779151916503906 0.32066872715950012 0.10797933489084244
0.56203019618988037 0.3235047459602356 0.10695356130599976
0.61549317836761475 0.32623186707496643 0.10575134307146072
0.66563570499420166 0.32890903949737549 0.10428482294082642
0.70946484804153442 0.32813704013824463 0.10348111391067505
0.74409312009811401 0.32148587703704834 0.10162978619337082
0.77486056089401245 0.31342411041259766 0.099868692457675934
0.80438178777694702 0.30461889505386353 0.097280807793140411
0.83297336101531982 0.29688355326652527 0.095451287925243378
0.86060035228729248 0.28947275876998901 0.092849560081958771
0.88748401403427124 0.28220194578170776 0.090165525674819946
0.91287463903427124 0.27530848979949951 0.087001562118530273
0.93768632411956787 0.26932662725448608 0.08392518013715744
0.96150285005569458 0.26436787843704224 0.080298908054828644
0.98390263319015503 0.25986918807029724 0.076456747949123383
0.9990842342376709 0.25597149133682251 0.071889311075210571
1 0.25405445694923401 0.06719227135181427
1 0.25514927506446838 0.061588477343320847
0 0.2974846363067627 0.13484419882297516
0 0.29957795143127441 0.13474397361278534
0 0.29918837547302246 0.13414561748504639
0 0.29875260591506958 0.13390836119651794
0 0.29825502634048462 0.13349546492099762
0.010072164237499237 0.29827019572257996 0.13257578015327454
0.061427399516105652 0.30157548189163208 0.13103562593460083
0.10870318114757538 0.30546799302101135 0.12903422117233276
0.1522098183631897 0.31055355072021484 0.1268085241317749
0.19506648182868958 0.31595629453659058 0.12383507192134857
0.23972044885158539 0.32208439707756042 0.11993362754583359
0.2875092625617981 0.32827386260032654 0.11536198854446411
0.33548787236213684 0.33380168676376343 0.11213791370391846
0.38735669851303101 0.34013044834136963 0.1071498766541481
0.44434601068496704 0.34679034352302551 0.10217711329460144
0.50189507007598877 0.35295563936233521 0.097424477338790894
0.55812990665435791 0.35817053914070129 0.093471162021160126
0.61027544736862183 0.3619723916053772 0.091178849339485168
0.65970450639724731 0.3657630980014801 0.089503131806850433
0.70746022462844849 0.36982041597366333 0.088583245873451233
0.75106841325759888 0.37332805991172791 0.08788638561964035
0.78685867786407471 0.37171775102615356 0.087265834212303162
0.81622028350830078 0.36380124092102051 0.085319064557552338
0.84315729141235352 0.35639709234237671 0.083131201565265656
0.86913049221038818 0.3486972451210022 0.080451652407646179
0.89480268955230713 0.34176898002624512 0.077790491282939911
0.91889876127243042 0.33551955223083496 0.074856847524642944
0.94232034683227539 0.32968965172767639 0.071246258914470673
0.96468210220336914 0.3244154155254364 0.067355737090110779
0.98626720905303955 0.31997236609458923 0.063033640384674072
0.99975782632827759 0.31661304831504822 0.058334730565547943
0.99995285272598267 0.31398770213127136 0.052451860159635544
0.99998295307159424 0.315775066614151 0.045844227075576782
0 0.33181732892990112 0.13185232877731323
0 0.33531820774078369 0.13151726126670837
0 0.33430367708206177 0.13115453720092773
0 0.3333187997341156 0.13038891553878784
0 0.33218669891357422 0.13007712364196777
0.0032054989133030176 0.33128067851066589 0.12974333763122559
0.052932269871234894 0.33275622129440308 0.12831839919090271
0.10662547498941422 0.3368646502494812 0.12596049904823303
0.15303705632686615 0.34201651811599731 0.12337128818035126
0.19761013984680176 0.34788283705711365 0.1196054071187973
0.24317152798175812 0.35425910353660583 0.11543554067611694
0.29116865992546082 0.36156967282295227 0.1098339632153511
0.34070771932601929 0.36888480186462402 0.10392171889543533
0.3907431960105896 0.37465861439704895 0.098163366317749023
0.44403573870658875 0.38111549615859985 0.091621257364749908
0.49989607930183411 0.38856887817382812 0.083904758095741272
0.55612778663635254 0.39529973268508911 0.076991632580757141
0.61002111434936523 0.40158233046531677 0.069919243454933167
0.65889543294906616 0.40679571032524109 0.065864428877830505
0.70537549257278442 0.4112485945224762 0.063978865742683411
0.74854809045791626 0.41574811935424805 0.063321642577648163
0.789131760597229 0.42033588886260986 0.063932329416275024
0.82604753971099854 0.42360585927963257 0.065324164927005768
0.85571765899658203 0.42037084698677063 0.065582893788814545
0.88106787204742432 0.41324639320373535 0.063651695847511292
0.9050784707069397 0.40591573715209961 0.060798287391662598
0.92771071195602417 0.3990100622177124 0.057398442178964615
0.95032781362533569 0.39327207207679749 0.05409066379070282
0.97170776128768921 0.38741496205329895 0.049796156585216522
0.99198716878890991 0.38297399878501892 0.044795412570238113
0.99999028444290161 0.37908613681793213 0.039033189415931702
0.99991852045059204 0.37646859884262085 0.032950751483440399
0.99998760223388672 0.3775370717048645 0.026371916756033897
0 0.36614599823951721 0.12739996612071991
0 0.36858588457107544 0.12696085870265961
0 0.36790776252746582 0.12664729356765747
0 0.36717838048934937 0.12621408700942993
0 0.36568054556846619 0.12569564580917358
0.00026443062233738601 0.36449739336967468 0.12502628564834595
0.038072660565376282 0.36463072896003723 0.12373633682727814
