Textures/91.cube
# Created by: G'MIC (https://gmic.eu)
TITLE "Polaroid_690_Warm_3.cube"
# LUT size
LUT_3D_SIZE 5
# Data domain
DOMAIN_MIN 0.0 0.0 0.0
DOMAIN_MAX 1.0 1.0 1.0
# LUT data points
0.11916273832321167 0.069786645472049713 0.050243381410837173
0.23603479564189911 0.054828006774187088 0.052056759595870972
0.47514951229095459 0 0.050492275506258011
0.78237432241439819 0 0.028051460161805153
0.99999380111694336 0 0
0.14751781523227692 0.19970528781414032 0.049459271132946014
0.2662462592124939 0.2133491188287735 0.032225452363491058
0.59383302927017212 0.22697396576404572 0.0035322373732924461
0.86225712299346924 0.1309661865234375 0
0.99999582767486572 0.027484029531478882 0
0.091578051447868347 0.47828620672225952 0
0.26772567629814148 0.4725165069103241 0
0.5733637809753418 0.52851951122283936 0
0.90504699945449829 0.571513831615448 0
1 0.57576465606689453 0
0.1633169949054718 0.74022454023361206 0
0.31397673487663269 0.73100131750106812 0
0.56659340858459473 0.74471598863601685 0
0.85215729475021362 0.78624933958053589 0
1 0.81279128789901733 0
0.53764200210571289 0.95928901433944702 0.075720347464084625
0.58992421627044678 0.95638012886047363 0.036529678851366043
0.72776365280151367 0.95202088356018066 0.0012419536942616105
0.90508478879928589 0.95362359285354614 0.019644888117909431
1 0.95605283975601196 0.057314697653055191
0.13605609536170959 0.079527206718921661 0.16940915584564209
0.25659298896789551 0.072275444865226746 0.19148990511894226
0.48317825794219971 8.511285614076769e-07 0.17824003100395203
0.74705314636230469 0 0.16577924787998199
0.99998295307159424 0 0.10874248296022415
0.16830907762050629 0.21240921318531036 0.19566218554973602
0.29239979386329651 0.22905711829662323 0.21390177309513092
0.56810760498046875 0.17179968953132629 0.19111520051956177
0.83489245176315308 0.0052641225047409534 0.15607331693172455
0.99999582767486572 0 0.10838384926319122
0.073842376470565796 0.52275711297988892 0.19594322144985199
0.28494876623153687 0.5119023323059082 0.1782258152961731
0.59687310457229614 0.5450294017791748 0.14536894857883453
0.91529196500778198 0.57700139284133911 0.18938593566417694
0.99995285272598267 0.55351841449737549 0.1757781058549881
0.1612507551908493 0.76029425859451294 0.11478402465581894
0.31910964846611023 0.75165432691574097 0.07686179131269455
0.56997543573379517 0.75149053335189819 0.0088110761716961861
0.85815668106079102 0.791939377784729 0.0020537085365504026
1 0.81520146131515503 0.17026370763778687
0.52937525510787964 0.96153551340103149 0.29923775792121887
0.58153247833251953 0.95871841907501221 0.27578979730606079
0.71983158588409424 0.95358729362487793 0.22739948332309723
0.8999931812286377 0.95414936542510986 0.24916593730449677
1 0.95608454942703247 0.29385635256767273
0.025525093078613281 0.087620668113231659 0.50435060262680054
0.2575480043888092 0.066629618406295776 0.54101473093032837
0.61935973167419434 0 0.60096120834350586
0.81095743179321289 0 0.47857475280761719
1 0 0.4406990110874176
0.08867761492729187 0.22744607925415039 0.51634955406188965
0.28753909468650818 0.23954571783542633 0.5545964241027832
0.63961786031723022 0.24828308820724487 0.61201596260070801
0.82782679796218872 0.16718468070030212 0.49259969592094421
1 0 0.42759382724761963
0.11925926804542542 0.53962117433547974 0.55269354581832886
0.33029574155807495 0.55030077695846558 0.56448423862457275
0.63297855854034424 0.5830230712890625 0.60134780406951904
0.87307977676391602 0.49343350529670715 0.51842957735061646
0.99995285272598267 0.39038980007171631 0.41438156366348267
0.25703620910644531 0.79831689596176147 0.55926656723022461
0.3698294460773468 0.79536056518554688 0.54866766929626465
0.58426016569137573 0.77887922525405884 0.50919687747955322
0.85975605249404907 0.80316174030303955 0.51977622509002686
0.99998718500137329 0.8242957592010498 0.60341602563858032
0.52456057071685791 0.96428096294403076 0.59606987237930298
0.56860190629959106 0.96194624900817871 0.57991284132003784
0.69724875688552856 0.9574284553527832 0.5452619194984436
0.87933170795440674 0.95408505201339722 0.52899563312530518
1 0.95675420761108398 0.58220571279525757
0.0079714376479387283 0.093613728880882263 0.83734261989593506
0.30457061529159546 0.068459540605545044 0.84584742784500122
0.64064544439315796 1.7020835002767853e-05 0.87512505054473877
0.932300865650177 0.052410721778869629 0.88755226135253906
1 0.055066905915737152 0.80631065368652344
0.079594574868679047 0.2536061704158783 0.83127057552337646
0.324095219373703 0.2573627233505249 0.84020918607711792
0.64755755662918091 0.28974243998527527 0.86969339847564697
0.92576050758361816 0.35831174254417419 0.885445237159729
1 0.30275553464889526 0.80564165115356445
0 0.48763886094093323 0.78038227558135986
0.26612019538879395 0.49905136227607727 0.79289722442626953
0.62411069869995117 0.56521254777908325 0.83933711051940918
0.89905625581741333 0.64393246173858643 0.8730354905128479
0.99999934434890747 0.53855258226394653 0.78904122114181519
0.36243939399719238 0.79730045795440674 0.81828254461288452
0.461152583360672 0.79778975248336792 0.81962782144546509
0.66625338792800903 0.80761897563934326 0.83196413516998291
0.87588077783584595 0.83552181720733643 0.85905444622039795
0.99998718500137329 0.75159817934036255 0.78254729509353638
0.66008704900741577 0.96068191528320312 0.85644662380218506
0.68184399604797363 0.95974773168563843 0.85332000255584717
0.75058615207672119 0.95845043659210205 0.84469914436340332
0.85970783233642578 0.95409953594207764 0.81285709142684937
1 0.95770746469497681 0.83552700281143188
0.4872010350227356 0.27826330065727234 0.99851745367050171
0.56396424770355225 0.28063216805458069 0.99821597337722778
0.74116897583007812 0.31494957208633423 0.99864614009857178
0.93351596593856812 0.42125293612480164 0.99866533279418945
0.99995285272598267 0.52467000484466553 0.99321955442428589
0.50620168447494507 0.40937900543212891 0.99546796083450317
0.57872039079666138 0.41496840119361877 0.9951825737953186
0.74689441919326782 0.44955968856811523 0.99505335092544556
0.92857581377029419 0.53918987512588501 0.99429047107696533
1 0.61293333768844604 0.98902648687362671
0.48843488097190857 0.60407751798629761 0.98284345865249634
0.56652116775512695 0.61074161529541016 0.98324275016784668
0.74004197120666504 0.64273524284362793 0.98307979106903076
0.9148135781288147 0.70789074897766113 0.98316168785095215
0.99999141693115234 0.75595998764038086 0.98076581954956055
0.47944912314414978 0.80409723520278931 0.96692299842834473
0.52518248558044434 0.79885125160217285 0.96646934747695923
0.65744960308074951 0.78911703824996948 0.96721529960632324
0.88988327980041504 0.83734142780303955 0.97199100255966187
0.99999541044235229 0.88290262222290039 0.97421658039093018
0.75458824634552002 0.96111905574798584 0.96721994876861572
0.77464038133621216 0.96062928438186646 0.96724528074264526
0.83542734384536743 0.95895719528198242 0.96820604801177979
0.92217248678207397 0.95772814750671387 0.97045791149139404
1 0.96130794286727905 0.97604227066040039
