Textures/91.cube
# Created by: G'MIC (https://gmic.eu)
TITLE "Polaroid_690_Warm_3.cube"
# LUT size
LUT_3D_SIZE 33
# Data domain
DOMAIN_MIN 0.0 0.0 0.0
DOMAIN_MAX 1.0 1.0 1.0
# LUT data points
0.11916273832321167 0.069786645472049713 0.050243381410837173
0.12807588279247284 0.069808483123779297 0.050590775907039642
0.1391521543264389 0.068974941968917847 0.050918493419885635
0.15268851816654205 0.067599892616271973 0.050807658582925797
0.16663163900375366 0.065734446048736572 0.051256768405437469
0.18188221752643585 0.064211755990982056 0.050936538726091385
0.198729008436203 0.062047384679317474 0.05179460346698761
0.21619342267513275 0.058930207043886185 0.051883969455957413
0.23603479564189911 0.054828006774187088 0.052056759595870972
0.25784128904342651 0.049383576959371567 0.052341967821121216
0.28201431035995483 0.041979778558015823 0.052752211689949036
0.30884397029876709 0.030642842873930931 0.052428022027015686
0.33791649341583252 0.016756843775510788 0.05237395316362381
0.36984428763389587 0.0026417248882353306 0.052601456642150879
0.40369582176208496 0 0.052052326500415802
0.43878144025802612 0 0.051385439932346344
0.47514951229095459 0 0.050492275506258011
0.51247119903564453 0 0.04924294725060463
0.55131047964096069 0 0.047406192868947983
0.59402656555175781 0 0.045493640005588531
0.63389754295349121 0 0.042809166014194489
0.67242097854614258 0 0.039951227605342865
0.71007919311523438 0 0.036325123161077499
0.74601101875305176 0 0.032429914921522141
0.78237432241439819 0 0.028051460161805153
0.81908649206161499 0 0.022825820371508598
0.8555179238319397 0 0.017386293038725853
0.89035183191299438 0 0.010703463107347488
0.92464125156402588 0 0.0042056897655129433
0.95621699094772339 0 0.00024352715990971774
0.98749709129333496 0 0
0.99997198581695557 0 0
0.99999380111694336 0 0
0.12202060222625732 0.079509876668453217 0.05081508681178093
0.13056637346744537 0.079905323684215546 0.050485122948884964
0.14166073501110077 0.079678550362586975 0.050682708621025085
0.15402565896511078 0.078211590647697449 0.051262844353914261
0.16826921701431274 0.076590336859226227 0.051826737821102142
0.18340139091014862 0.074495352804660797 0.051457881927490234
0.20017984509468079 0.071758657693862915 0.052097808569669724
0.21835611760616302 0.068530730903148651 0.052208937704563141
0.2388579249382019 0.064891241490840912 0.052572015672922134
0.26103651523590088 0.059356562793254852 0.052504230290651321
0.2857649028301239 0.052113912999629974 0.052685465663671494
0.31338727474212646 0.042114347219467163 0.052564982324838638
0.34309518337249756 0.028219472616910934 0.052534680813550949
0.37515753507614136 0.010960835032165051 0.05220436304807663
0.40891703963279724 0.00024971651146188378 0.051538974046707153
0.44434383511543274 0 0.05110892653465271
0.48095652461051941 0 0.050115887075662613
0.51841861009597778 0 0.048848990350961685
0.55837571620941162 0 0.046445902436971664
0.60021531581878662 0 0.043956924229860306
0.64049148559570312 0 0.041388846933841705
0.67905545234680176 0 0.038209453225135803
0.71576249599456787 0 0.034528110176324844
0.7520289421081543 0 0.03032631054520607
0.78864890336990356 0 0.026026956737041473
0.82515877485275269 0 0.020597986876964569
0.8606717586517334 0 0.014823843725025654
0.89530181884765625 0 0.0081275207921862602
0.92916136980056763 0 0.0023941025137901306
0.96053361892700195 0 2.0568941181409173e-05
0.99084717035293579 0 0
0.99996209144592285 0 0
0.99999552965164185 0 0
0.12517207860946655 0.09039422869682312 0.051427967846393585
0.1327451765537262 0.090605780482292175 0.050811778753995895
0.143307164311409 0.091239064931869507 0.050562441349029541
0.15649400651454926 0.090480543673038483 0.050361998379230499
0.17035150527954102 0.088414952158927917 0.051012516021728516
0.18582254648208618 0.086582042276859283 0.051632832735776901
0.20334450900554657 0.0838041752576828 0.052589703351259232
0.22198231518268585 0.080741047859191895 0.052534908056259155
0.24265925586223602 0.076672948896884918 0.052593149244785309
0.26569205522537231 0.071618318557739258 0.052789162844419479
0.2910294234752655 0.065499357879161835 0.052988413721323013
0.31902515888214111 0.056274138391017914 0.052335582673549652
0.34907007217407227 0.043599709868431091 0.052158642560243607
0.38165321946144104 0.026938106864690781 0.05207318440079689
0.41592520475387573 0.0072617107070982456 0.051523551344871521
0.45111829042434692 5.7093937357421964e-05 0.050497308373451233
0.48785263299942017 0 0.049104493111371994
0.52571815252304077 0 0.047619082033634186
0.56668442487716675 0 0.045251809060573578
0.6084015965461731 0 0.042891848832368851
0.64767765998840332 0 0.039668932557106018
0.68560445308685303 0 0.036223866045475006
0.72317647933959961 0 0.032186057418584824
0.75928640365600586 0 0.028026271611452103
0.79543942213058472 0 0.023098155856132507
0.83157247304916382 0 0.017645645886659622
0.8670123815536499 0 0.01158301904797554
0.90129786729812622 0 0.0045914906077086926
0.9346662163734436 0 0.0004388120723888278
0.96577548980712891 0 0
0.99410814046859741 0 0
0.99999707937240601 0 0
0.99999839067459106 0 0
0.1292768120765686 0.10349807888269424 0.052119139581918716
0.13646435737609863 0.1040785014629364 0.051791075617074966
0.14546902477741241 0.1045534610748291 0.050995606929063797
0.15829813480377197 0.10498689115047455 0.050182163715362549
0.17334538698196411 0.10389496386051178 0.049955554306507111
0.19020812213420868 0.10183894634246826 0.050910107791423798
0.20776525139808655 0.099746286869049072 0.051971156150102615
0.22753250598907471 0.097060777246952057 0.05263926088809967
0.2489289790391922 0.093272097408771515 0.052483532577753067
0.272531658411026 0.088834904134273529 0.052809115499258041
0.29839366674423218 0.082950800657272339 0.052553437650203705
0.32729005813598633 0.075442418456077576 0.052266053855419159
0.35812497138977051 0.065082021057605743 0.051947366446256638
0.39078864455223083 0.051121849566698074 0.051426038146018982
0.42571792006492615 0.031166231259703636 0.050414618104696274
0.46125298738479614 0.0085379034280776978 0.04881567507982254
0.49834555387496948 0.00018642279610503465 0.04777933657169342
0.53720623254776001 0 0.045631065964698792
0.57869201898574829 0 0.042898479849100113
0.61927413940429688 0 0.039685651659965515
0.65810495615005493 0 0.036762118339538574
0.69518953561782837 0 0.033252526074647903
0.73097658157348633 0 0.028727365657687187
0.76617079973220825 0 0.024331731721758842
0.80174285173416138 0 0.019648356363177299
0.83742523193359375 0 0.013868151232600212
0.87198108434677124 0 0.0073686158284544945
0.90539902448654175 0 0.0017707382794469595
0.93772011995315552 0 4.7875983000267297e-05
0.96821326017379761 0 0
0.99509686231613159 0 0
0.99997860193252563 0 0
1 0 0
0.13306407630443573 0.11716695874929428 0.052625816315412521
0.13944496214389801 0.11760029941797256 0.052188891917467117
0.14770185947418213 0.11817301064729691 0.051883913576602936
0.15881481766700745 0.11899455636739731 0.050812803208827972
0.17391665279865265 0.11982908099889755 0.049560777842998505
0.19133308529853821 0.11891478300094604 0.049105606973171234
0.21115249395370483 0.1174393892288208 0.049950167536735535
0.23169265687465668 0.11557663232088089 0.050928305834531784
0.25524246692657471 0.11318507045507431 0.051682781428098679
0.28088891506195068 0.11021462082862854 0.052314326167106628
0.30780485272407532 0.10533494502305984 0.052190463989973068
0.33762580156326294 0.09873015433549881 0.051289983093738556
0.3692583441734314 0.09067961573600769 0.050566643476486206
0.40280303359031677 0.080031126737594604 0.049782298505306244
0.43824586272239685 0.065332338213920593 0.048669490963220596
0.47362509369850159 0.044498063623905182 0.046752914786338806
0.51165926456451416 0.018056703731417656 0.04482920840382576
0.55264216661453247 0.0015564532950520515 0.04239974170923233
0.59322041273117065 0 0.039246868342161179
0.63300472497940063 0 0.035612598061561584
0.67106437683105469 0 0.032229088246822357
0.70723170042037964 0 0.028110045939683914
0.74262773990631104 0 0.023719964548945427
0.77735573053359985 0 0.018798420205712318
0.81225931644439697 0 0.01348662655800581
0.8473585844039917 0 0.0073801795952022076
0.88061243295669556 0 0.0021443408913910389
0.91379678249359131 0 0.00016217501251958311
0.94480055570602417 0 0
0.9746396541595459 0 0
0.99766725301742554 0 0
0.99997431039810181 0 0
1 0 0
0.13741494715213776 0.13378417491912842 0.053189098834991455
0.14336046576499939 0.13429832458496094 0.052744075655937195
0.15081612765789032 0.13452984392642975 0.052414320409297943
0.16083550453186035 0.13552361726760864 0.0514364093542099
0.17481279373168945 0.13668476045131683 0.050094421952962875
0.19281771779060364 0.13811564445495605 0.048451453447341919
0.21299950778484344 0.13801640272140503 0.047573696821928024
0.23553894460201263 0.1368822306394577 0.047764621675014496
0.26051726937294006 0.13525699079036713 0.048397675156593323
0.28739246726036072 0.13385389745235443 0.049564756453037262
0.31740081310272217 0.13174653053283691 0.049782741814851761
0.3492150604724884 0.12720522284507751 0.049235865473747253
0.38134583830833435 0.12106835097074509 0.047772537916898727
0.41576352715492249 0.11257091909646988 0.046692404896020889
0.45171043276786804 0.10182327032089233 0.045100394636392593
0.48838460445404053 0.08816663920879364 0.042716886848211288
0.52917850017547607 0.069504961371421814 0.039769131690263748
0.56980043649673462 0.043120011687278748 0.036846630275249481
0.6088634729385376 0.015297493897378445 0.033168163150548935
0.64756804704666138 0.0015407449100166559 0.029099974781274796
0.68494111299514771 0 0.025224285200238228
0.72035551071166992 0 0.021141698583960533
0.75501435995101929 0 0.016107426956295967
0.78883975744247437 0 0.011177007108926773
0.82322239875793457 0 0.0057965558953583241
0.85765182971954346 0 0.0010904624359682202
0.89010429382324219 0 4.4613323552766815e-05
0.92211753129959106 0 0
0.95259773731231689 0 0
0.98155790567398071 0 0
0.99943786859512329 0 0
1 0 0
0.99999141693115234 0 0
0.14115266501903534 0.15309922397136688 0.053116105496883392
0.14696356654167175 0.15349668264389038 0.052687052637338638
0.15419253706932068 0.15329542756080627 0.052155349403619766
0.16403721272945404 0.15420280396938324 0.051362376660108566
0.1766171008348465 0.15556319057941437 0.049805134534835815
0.1937335878610611 0.15749317407608032 0.048187911510467529
0.21392817795276642 0.15941469371318817 0.046040788292884827
0.23703955113887787 0.15988524258136749 0.044991485774517059
0.26303198933601379 0.15969054400920868 0.044075366109609604
0.29253330826759338 0.15943978726863861 0.043558061122894287
0.32410126924514771 0.15884009003639221 0.044055439531803131
0.35908588767051697 0.15812714397907257 0.043683420866727829
0.39592832326889038 0.15577128529548645 0.043066084384918213
0.43192529678344727 0.15021929144859314 0.041094858199357986
0.46999165415763855 0.14218316972255707 0.038368869572877884
0.510459303855896 0.1333484947681427 0.0352524034678936
0.55034327507019043 0.12114957720041275 0.031958959996700287
0.58958655595779419 0.10576257109642029 0.027799803763628006
0.62778955698013306 0.08605782687664032 0.023882601410150528
0.66512125730514526 0.059304084628820419 0.019726736471056938
0.70126783847808838 0.030342360958456993 0.015531814657151699
0.73499429225921631 0.009758741594851017 0.010808837600052357
0.76865881681442261 0.0010274258675053716 0.0061860522255301476
0.8016473650932312 0 0.0024306420236825943
0.83461874723434448 0 0.00029242516029626131
0.86775892972946167 0 0
0.89860731363296509 0 0
0.9290580153465271 0 0
0.95866209268569946 0 0
0.98634374141693115 0 0
0.99993956089019775 0 0
1 0 0
0.99996143579483032 0 0
0.14495204389095306 0.17441004514694214 0.052340850234031677
0.15073083341121674 0.17533759772777557 0.051778007298707962
0.15778081119060516 0.17451027035713196 0.051598232239484787
0.16727447509765625 0.17499321699142456 0.050553102046251297
0.1793922483921051 0.17681077122688293 0.049238208681344986
0.19511905312538147 0.17883619666099548 0.047078203409910202
0.21476602554321289 0.18158137798309326 0.044307790696620941
0.23837663233280182 0.18422459065914154 0.04122978076338768
0.26514890789985657 0.18586567044258118 0.03859710693359375
0.29557809233665466 0.1873115599155426 0.036895938217639923
0.32960081100463867 0.18831849098205566 0.034752588719129562
0.36585453152656555 0.18879681825637817 0.03347521647810936
0.40550985932350159 0.18966871500015259 0.032099239528179169
0.44961774349212646 0.19056905806064606 0.029806220903992653
0.49432548880577087 0.1886698305606842 0.026429904624819756
0.53425848484039307 0.18165448307991028 0.022312331944704056
0.57347404956817627 0.17271995544433594 0.018584683537483215
0.61191076040267944 0.16207636892795563 0.014483122155070305
0.64905524253845215 0.14956912398338318 0.010150854475796223
0.68496239185333252 0.13481901586055756 0.0059617171064019203
0.71993726491928101 0.11763675510883331 0.0029549628961831331
0.75283235311508179 0.097379244863986969 0.0010055477032437921
0.78544247150421143 0.071284137666225433 0.00012688510469160974
0.81753158569335938 0.045230422168970108 1.2766928193741478e-05
0.84992080926895142 0.024133382365107536 0
0.88100850582122803 0.0094073088839650154 0
0.91089701652526855 0.0017158936243504286 0
0.9405859112739563 0 0
0.96846890449523926 0 0
0.99361121654510498 0 0
1 0 0
1 0 0
0.99995720386505127 0 0
0.14751781523227692 0.19970528781414032 0.049459271132946014
0.15327543020248413 0.20038081705570221 0.049021955579519272
0.16048252582550049 0.19988563656806946 0.048457946628332138
0.17014813423156738 0.19977514445781708 0.0479842908680439
0.18227440118789673 0.20081356167793274 0.046524185687303543
0.19757829606533051 0.20290297269821167 0.044222474098205566
0.21657493710517883 0.20632846653461456 0.04088306799530983
0.23941360414028168 0.20967850089073181 0.037014216184616089
0.2662462592124939 0.2133491188287735 0.032225452363491058
0.29618474841117859 0.21585008502006531 0.028586661443114281
0.33069983124732971 0.2191857248544693 0.024842768907546997
0.37077310681343079 0.22241869568824768 0.020230056717991829
0.41328433156013489 0.2255321592092514 0.016809076070785522
0.45721781253814697 0.2277899831533432 0.013728754594922066
0.50424540042877197 0.22991657257080078 0.0097528742626309395
0.55125242471694946 0.23097968101501465 0.0061784270219504833
0.59383302927017212 0.22697396576404572 0.0035322373732924461
0.63167804479598999 0.21898394823074341 0.0015492112142965198
0.66798019409179688 0.20918290317058563 0.00043053808622062206
0.70323044061660767 0.19825290143489838 4.4790205720346421e-05
0.73665255308151245 0.18681059777736664 2.6952404823532561e-06
0.76893466711044312 0.17439785599708557 0
0.80045163631439209 0.16031849384307861 0
0.8316035270690918 0.14626999199390411 0
0.86225712299346924 0.1309661865234375 0
0.89285010099411011 0.11432905495166779 0
0.92131602764129639 0.096702411770820618 0
0.949554443359375 0.077510751783847809 0
0.97648197412490845 0.058298543095588684 0
0.9976881742477417 0.044151805341243744 0
0.99990558624267578 0.034515082836151123 0
1 0.027889152988791466 0
0.99999582767486572 0.027484029531478882 0
0.14875407516956329 0.22786834836006165 0.044471807777881622
0.15487952530384064 0.22955073416233063 0.044052861630916595
0.16216032207012177 0.22876313328742981 0.043560408055782318
0.17230187356472015 0.22851455211639404 0.043000247329473495
0.18479113280773163 0.22802120447158813 0.041542265564203262
0.19994698464870453 0.23042389750480652 0.038934618234634399
0.21897877752780914 0.2341454029083252 0.035476479679346085
0.24156160652637482 0.23810397088527679 0.030547114089131355
0.26903605461120605 0.24368070065975189 0.024216201156377792
0.30120775103569031 0.24984019994735718 0.017234573140740395
0.33603948354721069 0.25435149669647217 0.011684228666126728
0.37469086050987244 0.25854703783988953 0.0050332248210906982
0.41822561621665955 0.26323810219764709 0.0019523906521499157
0.46380087733268738 0.26737084984779358 0.00046342206769622862
0.51068222522735596 0.27035510540008545 9.4472372438758612e-05
0.55753833055496216 0.27294942736625671 1.2483218597481027e-05
0.60534894466400146 0.27545812726020813 0
0.65093165636062622 0.27557522058486938 0
0.68937975168228149 0.27047795057296753 0
0.72371560335159302 0.26145437359809875 0
0.75610274076461792 0.2515600323677063 0
0.78690141439437866 0.24112118780612946 0
0.8174748420715332 0.23065043985843658 0
0.84751641750335693 0.22072571516036987 0
0.87631452083587646 0.21029564738273621 0
0.9049447774887085 0.20049247145652771 0
0.93208575248718262 0.19072736799716949 0
0.95889168977737427 0.18138651549816132 0
0.98456215858459473 0.1726076751947403 0
0.99949711561203003 0.16446208953857422 0
0.99999582767486572 0.1573355495929718 0
1 0.15219467878341675 0
1 0.15255799889564514 0
0.14781954884529114 0.25990697741508484 0.035951253026723862
0.15445826947689056 0.26197776198387146 0.034990601241588593
0.16221415996551514 0.26128759980201721 0.034133810549974442
0.17348399758338928 0.26074767112731934 0.033816549926996231
0.18692299723625183 0.26074841618537903 0.032655734568834305
0.20303422212600708 0.26272395253181458 0.029673794284462929
0.22247584164142609 0.26701366901397705 0.024785138666629791
0.2455458790063858 0.27220284938812256 0.019157961010932922
0.27308428287506104 0.27796444296836853 0.012446591630578041
0.30454915761947632 0.28441056609153748 0.0048944349400699139
0.34033781290054321 0.2909473180770874 0.00061610661214217544
0.37905308604240417 0.29632490873336792 3.5887660487787798e-05
0.42074799537658691 0.30144616961479187 0
0.46669739484786987 0.30681845545768738 0
0.51504611968994141 0.31190356612205505 0
0.56192797422409058 0.31494176387786865 0
0.60892009735107422 0.31816455721855164 0
0.65618664026260376 0.32154437899589539 0
0.7018093466758728 0.32421839237213135 0
0.74334537982940674 0.32344210147857666 0
0.77657413482666016 0.31640627980232239 0
0.80629712343215942 0.30719417333602905 0
0.83532989025115967 0.29722470045089722 0
0.86403936147689819 0.28894108533859253 0
0.89183950424194336 0.28060817718505859 0
0.91918963193893433 0.27204850316047668 0
0.94512522220611572 0.26453030109405518 0
0.97067880630493164 0.25759762525558472 0
0.99377655982971191 0.2511478066444397 0
1 0.24548111855983734 0
0.99990558624267578 0.24087294936180115 0
1 0.23778223991394043 0
1 0.23796138167381287 0
0.14464119076728821 0.29547685384750366 0.023055225610733032
0.15183568000793457 0.29780590534210205 0.020938213914632797
0.16030225157737732 0.29712754487991333 0.020502811297774315
0.17255951464176178 0.29671600461006165 0.019970234483480453
0.1868874728679657 0.29589971899986267 0.01897243969142437
0.20378977060317993 0.29576283693313599 0.016951238736510277
0.22330555319786072 0.29924023151397705 0.0124623728916049
0.24597325921058655 0.30360546708106995 0.0069759958423674107
0.27262470126152039 0.30861932039260864 0.0021528201177716255
0.30280324816703796 0.31489458680152893 0.00014550752530340105
0.33685761690139771 0.32158192992210388 0
0.37532997131347656 0.32814633846282959 0
0.41558310389518738 0.33413088321685791 0
0.45893535017967224 0.33973917365074158 0
0.50634503364562988 0.34589752554893494 0
0.55523377656936646 0.35149022936820984 0
0.60405260324478149 0.35666260123252869 0
0.65032190084457397 0.36039644479751587 0
0.69568490982055664 0.36407887935638428 0
0.74073821306228638 0.36781293153762817 0
0.7830042839050293 0.37079864740371704 0
0.81835341453552246 0.3684237003326416 0
0.84755188226699829 0.35990306735038757 0
0.87460207939147949 0.35136651992797852 0
0.90083396434783936 0.34313970804214478 0
0.92692470550537109 0.33554601669311523 0
0.95183020830154419 0.32850062847137451 0
0.97616833448410034 0.32167243957519531 0
0.99636775255203247 0.31557154655456543 0
0.99995285272598267 0.31010338664054871 0
1 0.30542942881584167 0
0.99995285272598267 0.30165427923202515 0
0.99998295307159424 0.30256679654121399 0
0.13829635083675385 0.33383968472480774 0.0058083212934434414
0.14629121124744415 0.33737996220588684 0.0042533478699624538
0.15610086917877197 0.33644381165504456 0.0039674732834100723
0.16938494145870209 0.33517685532569885 0.0035620024427771568
0.18528032302856445 0.33378687500953674 0.0029889838770031929
0.20346404612064362 0.33255839347839355 0.0025064330548048019
0.22378645837306976 0.33377060294151306 0.0010559427319094539
0.2468840628862381 0.33831900358200073 0.0001083415700122714
0.27389246225357056 0.34383994340896606 0
0.30415844917297363 0.34983643889427185 0
0.33804231882095337 0.35721951723098755 0
0.37640109658241272 0.36462059617042542 0
0.41733509302139282 0.37194934487342834 0
0.45935007929801941 0.37815955281257629 0
0.50451642274856567 0.38413947820663452 0
0.55245727300643921 0.39032232761383057 0
0.60145610570907593 0.39652168750762939 0
0.649513840675354 0.40181761980056763 0
0.69481527805328369 0.40580222010612488 0
0.73894399404525757 0.40952357649803162 0
0.78115755319595337 0.41307359933853149 0
0.82140415906906128 0.41661903262138367 0
0.858509361743927 0.41858065128326416 0
0.88866758346557617 0.41464453935623169 0
0.91438901424407959 0.40656766295433044 0
0.9390183687210083 0.39876464009284973 0
0.96242952346801758 0.39116179943084717 0
0.9857286810874939 0.38465160131454468 0
0.99958199262619019 0.37804496288299561 0
0.99995285272598267 0.37251207232475281 0
1 0.36806744337081909 0
0.99991852045059204 0.36431345343589783 0
0.99998760223388672 0.36387905478477478 0
0.12992183864116669 0.37081554532051086 9.3624139481107704e-06
0.13826902210712433 0.37355569005012512 0
0.14950259029865265 0.37261736392974854 0
0.1641312837600708 0.37135049700737 0
0.18165914714336395 0.37010729312896729 0
0.20112666487693787 0.36888742446899414 0
0.2227230966091156 0.36848935484886169 0
0.24652558565139771 0.3724992573261261 0
0.27343666553497314 0.37786358594894409 0
0.30418115854263306 0.38390874862670898 0
0.33727177977561951 0.39051374793052673 0
0.37447693943977356 0.39793401956558228 0
0.41486209630966187 0.4061034619808197 0
0.45775666832923889 0.41407626867294312 0
0.50155740976333618 0.42003598809242249 0
0.54625123739242554 0.42558082938194275 0
0.59451889991760254 0.43254432082176208 0
0.6428869366645813 0.43880820274353027 0
0.68989765644073486 0.44455456733703613 0
0.73441547155380249 0.4485907256603241 0
0.7765612006187439 0.45238488912582397 0
0.81694728136062622 0.45601272583007812 0
0.85552424192428589 0.45959961414337158 0
0.89158964157104492 0.46340182423591614 0
0.92311394214630127 0.46430480480194092 0
0.94894468784332275 0.45901566743850708 0
0.97202044725418091 0.45163172483444214 0
0.99336475133895874 0.44445672631263733 0
0.99994432926177979 0.43770235776901245 0
0.99995285272598267 0.43229544162750244 0
1 0.427559494972229 0
0.99998718500137329 0.4236074686050415 0
0.99999541044235229 0.42237427830696106 0
0.11882679909467697 0.4063599705696106 0
0.12845537066459656 0.4099888801574707 0
0.14135247468948364 0.40910488367080688 0
0.15779420733451843 0.40791758894920349 0
0.17579671740531921 0.40566271543502808 0
0.1970701664686203 0.40391391515731812 0
0.21988147497177124 0.40200981497764587 0
0.24413907527923584 0.40386980772018433 0
0.270832359790802 0.40775775909423828 0
0.30069816112518311 0.41372779011726379 0
0.33335897326469421 0.4198373556137085 0
0.36950305104255676 0.42699059844017029 0
0.40795877575874329 0.43449151515960693 0
0.44979241490364075 0.44306585192680359 0
0.49435469508171082 0.45129621028900146 0
0.53837686777114868 0.45778736472129822 0
0.5832056999206543 0.46385771036148071 0
0.63048535585403442 0.4706290066242218 0
0.67785054445266724 0.47707775235176086 0
0.72437995672225952 0.48298245668411255 0
0.76802951097488403 0.487579345703125 0
0.80831694602966309 0.49085944890975952 0
0.84701627492904663 0.49474805593490601 0
0.88299554586410522 0.4981597363948822 0
0.91695475578308105 0.50193226337432861 0
0.94908624887466431 0.50562494993209839 0
0.97573888301849365 0.50496512651443481 0
0.99621713161468506 0.4989159107208252 0
