Textures/92.cube
# Created by: G'MIC (https://gmic.eu)
TITLE "Polaroid_Polachrome.cube"
# LUT size
LUT_3D_SIZE 5
# Data domain
DOMAIN_MIN 0.0 0.0 0.0
DOMAIN_MAX 1.0 1.0 1.0
# LUT data points
0.0021461269352585077 0.0021937177516520023 0.002064981497824192
0.11111779510974884 0.012595522217452526 0.013729947619140148
0.3815511167049408 0.067054808139801025 0.067637130618095398
0.68501394987106323 0.13669605553150177 0.13330477476119995
0.86858499050140381 0.17908161878585815 0.16865421831607819
0.081482633948326111 0.15565045177936554 0.043578621000051498
0.17261122167110443 0.17610675096511841 0.067592166364192963
0.44628354907035828 0.22777111828327179 0.12295579165220261
0.7097429633140564 0.27018269896507263 0.1717972606420517
0.88259822130203247 0.27975395321846008 0.19216690957546234
0.10250984877347946 0.4516197144985199 0.12356410175561905
0.23593996465206146 0.47026991844177246 0.13831529021263123
0.52397090196609497 0.51785886287689209 0.17577816545963287
0.74209034442901611 0.5537070631980896 0.20378606021404266
0.91086602210998535 0.56797212362289429 0.20706549286842346
0.29814854264259338 0.66872876882553101 0.244207963347435
0.40835002064704895 0.68428200483322144 0.25957739353179932
0.58641558885574341 0.71442848443984985 0.28401520848274231
0.76733344793319702 0.74789267778396606 0.29766213893890381
0.92552745342254639 0.77618628740310669 0.27473613619804382
0.48936671018600464 0.84366691112518311 0.40499749779701233
0.53503251075744629 0.85068291425704956 0.41038715839385986
0.64684778451919556 0.87030339241027832 0.42315539717674255
0.79632246494293213 0.89974701404571533 0.42818340659141541
0.95102310180664062 0.93325185775756836 0.38438859581947327
0.017518267035484314 0.012108199298381805 0.13210901618003845
0.18378649652004242 0.039274048060178757 0.1678062379360199
0.45607283711433411 0.10115288943052292 0.22385282814502716
0.70024865865707397 0.15106295049190521 0.26068902015686035
0.87058812379837036 0.17924849689006805 0.26606079936027527
0.12301456928253174 0.19698569178581238 0.20607666671276093
0.23076966404914856 0.22071975469589233 0.23190304636955261
0.49574092030525208 0.27073946595191956 0.28389719128608704
0.71619725227355957 0.30251798033714294 0.31640124320983887
0.87997162342071533 0.30643892288208008 0.31651175022125244
0.16580836474895477 0.47396549582481384 0.29562336206436157
0.30287709832191467 0.49207168817520142 0.31463763117790222
0.54357844591140747 0.53346806764602661 0.35425448417663574
0.73708206415176392 0.56619071960449219 0.37759095430374146
0.89710128307342529 0.58345413208007812 0.37236350774765015
0.36802071332931519 0.67683500051498413 0.42141354084014893
0.44680336117744446 0.68889886140823364 0.43327581882476807
0.59155219793319702 0.71350425481796265 0.45546376705169678
0.75708490610122681 0.74385768175125122 0.47440388798713684
0.90520811080932617 0.76999765634536743 0.46346005797386169
0.51300680637359619 0.84407484531402588 0.52158695459365845
0.55277395248413086 0.85120624303817749 0.52819186449050903
0.65263903141021729 0.86866080760955811 0.54297018051147461
0.78863978385925293 0.89479172229766846 0.55891817808151245
0.93167716264724731 0.92324692010879517 0.55249869823455811
0.06334291398525238 0.035856530070304871 0.37121787667274475
0.26381933689117432 0.078234471380710602 0.41633120179176331
0.50462692975997925 0.13184407353401184 0.46965402364730835
0.69705426692962646 0.16689673066139221 0.50303667783737183
0.84901952743530273 0.18365995585918427 0.50710618495941162
0.19611653685569763 0.26846760511398315 0.45723855495452881
0.3295632004737854 0.29310622811317444 0.48434263467788696
0.53886884450912476 0.33190879225730896 0.52934724092483521
0.71550172567367554 0.3538423478603363 0.56394535303115845
0.85827767848968506 0.35114717483520508 0.58051818609237671
0.34120449423789978 0.520588219165802 0.53383809328079224
0.42869913578033447 0.53553855419158936 0.54994755983352661
0.5772775411605835 0.56231462955474854 0.57882809638977051
0.73684585094451904 0.5892978310585022 0.60837054252624512
0.87168776988983154 0.60395908355712891 0.62548339366912842
0.47563484311103821 0.7002524733543396 0.60542476177215576
0.52088248729705811 0.70794546604156494 0.61365830898284912
0.62741762399673462 0.72694152593612671 0.63305729627609253
0.76283377408981323 0.75121021270751953 0.65656113624572754
0.88770449161529541 0.77050143480300903 0.67046225070953369
0.57443279027938843 0.85628980398178101 0.66732913255691528
0.60480016469955444 0.86195385456085205 0.67225110530853271
0.68357771635055542 0.87645065784454346 0.68609762191772461
0.79353684186935425 0.89760255813598633 0.70332503318786621
0.92426478862762451 0.92231571674346924 0.71425479650497437
0.25067475438117981 0.15601441264152527 0.58451682329177856
0.42859217524528503 0.19606658816337585 0.62542140483856201
0.57405096292495728 0.22562648355960846 0.66023451089859009
0.72252601385116577 0.24338243901729584 0.69332444667816162
0.84383690357208252 0.23673072457313538 0.71597903966903687
0.40379324555397034 0.40822437405586243 0.64774811267852783
0.48472782969474792 0.42484819889068604 0.66582542657852173
0.60482150316238403 0.44671964645385742 0.69322723150253296
0.74401813745498657 0.46337521076202393 0.72388863563537598
0.85993367433547974 0.45639139413833618 0.74656856060028076
0.5025297999382019 0.58748674392700195 0.70047885179519653
0.54363036155700684 0.59553647041320801 0.70930850505828857
0.64167892932891846 0.61406856775283813 0.73029357194900513
0.76315206289291382 0.63499045372009277 0.75569087266921997
0.8722495436668396 0.64710140228271484 0.77561283111572266
0.58555537462234497 0.73567014932632446 0.74861836433410645
0.61566084623336792 0.74124002456665039 0.75500279664993286
0.69013416767120361 0.7554546594619751 0.77009254693984985
0.7883334755897522 0.773456871509552 0.78999024629592896
0.89072722196578979 0.78969395160675049 0.80786371231079102
0.66521984338760376 0.88236957788467407 0.79385209083557129
0.68504804372787476 0.88633471727371216 0.79785335063934326
0.73695242404937744 0.89689677953720093 0.80840146541595459
0.81629264354705811 0.91293835639953613 0.82367098331451416
0.93780624866485596 0.93602073192596436 0.84305226802825928
0.45164942741394043 0.32125195860862732 0.72237205505371094
0.54620790481567383 0.34266924858093262 0.74570572376251221
0.64583683013916016 0.36363697052001953 0.77027833461761475
0.76175785064697266 0.37691313028335571 0.79811567068099976
0.8618464469909668 0.3637254536151886 0.8217318058013916
0.5420154333114624 0.51609480381011963 0.7642514705657959
0.58769571781158447 0.52783572673797607 0.77560466527938843
0.67509704828262329 0.54500102996826172 0.796253502368927
0.77876681089401245 0.56308209896087646 0.82045042514801025
0.87451010942459106 0.56707495450973511 0.84125822782516479
0.61772191524505615 0.65294128656387329 0.80588269233703613
0.64530229568481445 0.66078460216522217 0.81226193904876709
0.71348202228546143 0.67471575736999512 0.82797539234161377
0.79915589094161987 0.6905638575553894 0.84781986474990845
0.88627499341964722 0.70000004768371582 0.86683028936386108
0.69429820775985718 0.77826797962188721 0.8517155647277832
0.71268194913864136 0.78244662284851074 0.8559148907661438
0.75959116220474243 0.79224187135696411 0.86767446994781494
0.82637518644332886 0.80534303188323975 0.8839191198348999
0.91258156299591064 0.82017958164215088 0.90269613265991211
0.76265650987625122 0.91993463039398193 0.91429734230041504
0.77353465557098389 0.92342567443847656 0.91825646162033081
0.80498909950256348 0.93104404211044312 0.92927724123001099
0.86134463548660278 0.94501781463623047 0.9486350417137146
0.98692834377288818 0.97238564491271973 0.98423188924789429
