Textures/92.cube
# Created by: G'MIC (https://gmic.eu)
TITLE "Polaroid_Polachrome.cube"
# LUT size
LUT_3D_SIZE 33
# Data domain
DOMAIN_MIN 0.0 0.0 0.0
DOMAIN_MAX 1.0 1.0 1.0
# LUT data points
0.0021461269352585077 0.0021937177516520023 0.002064981497824192
0.0086484169587492943 0.0028496105223894119 0.0030313862953335047
0.016671255230903625 0.0036368183791637421 0.0039734272286295891
0.027301643043756485 0.0046189436689019203 0.004984936211258173
0.04065975546836853 0.0056912759318947792 0.0060102338902652264
0.055204108357429504 0.0066136438399553299 0.0075676855631172657
0.071261033415794373 0.0085618728771805763 0.0092381415888667107
0.090335682034492493 0.010382878594100475 0.011399848386645317
0.11111779510974884 0.012595522217452526 0.013729947619140148
0.13493326306343079 0.015840189531445503 0.017218980938196182
0.16234530508518219 0.020158777013421059 0.02159687876701355
0.1936849057674408 0.025381438434123993 0.027122171595692635
0.22579415142536163 0.031418807804584503 0.033606726676225662
0.25982341170310974 0.038586176931858063 0.040369704365730286
0.2971949577331543 0.047594744712114334 0.048581548035144806
0.33702903985977173 0.057309277355670929 0.057467900216579437
0.3815511167049408 0.067054808139801025 0.067637130618095398
0.42975947260856628 0.078333832323551178 0.078720279037952423
0.47790238261222839 0.090280011296272278 0.089798018336296082
0.52292150259017944 0.10079924762248993 0.099573686718940735
0.56174689531326294 0.10950186848640442 0.10786327719688416
0.59621292352676392 0.11740381270647049 0.11535248905420303
0.62762159109115601 0.12436730414628983 0.12179995328187943
0.65654879808425903 0.13086043298244476 0.12771420180797577
0.68501394987106323 0.13669605553150177 0.13330477476119995
0.71304601430892944 0.14268501102924347 0.13885797560214996
0.7407146692276001 0.14890491962432861 0.14420108497142792
0.7682119607925415 0.15480081737041473 0.1492752879858017
0.79533463716506958 0.16080392897129059 0.15417398512363434
0.8221660852432251 0.16693733632564545 0.15926671028137207
0.8484073281288147 0.1736125648021698 0.16467313468456268
0.8675118088722229 0.17864648997783661 0.16865421831607819
0.86858499050140381 0.17908161878585815 0.16865421831607819
0.0058409771881997585 0.010224614292383194 0.0043298546224832535
0.011616203002631664 0.01169340405613184 0.0053566154092550278
0.019842639565467834 0.013238082639873028 0.0061109084635972977
0.031367924064397812 0.014843770302832127 0.0074369120411574841
0.045544244349002838 0.016773724928498268 0.0095325121656060219
0.060261525213718414 0.01896115206182003 0.01075427420437336
0.076894454658031464 0.021472930908203125 0.012706581503152847
0.096374019980430603 0.024551169946789742 0.015323449857532978
0.11754072457551956 0.028162257745862007 0.018403712660074234
0.14208301901817322 0.033103194087743759 0.022196033969521523
0.1696496307849884 0.038983229547739029 0.027217885479331017
0.20083755254745483 0.045931350439786911 0.033392202109098434
0.2334037721157074 0.053253564983606339 0.040156744420528412
0.26738488674163818 0.061388634145259857 0.047393843531608582
0.30430203676223755 0.070196427404880524 0.055520892143249512
0.34387087821960449 0.079398743808269501 0.064646348357200623
0.38828304409980774 0.088826701045036316 0.074799716472625732
0.43608880043029785 0.099735572934150696 0.085514932870864868
0.4837023913860321 0.11048970371484756 0.096344545483589172
0.52777993679046631 0.12031729519367218 0.10585733503103256
0.565990149974823 0.12826992571353912 0.11360639333724976
0.59957891702651978 0.13541305065155029 0.12085525691509247
0.63056319952011108 0.14153638482093811 0.12675818800926208
0.65949422121047974 0.14714731276035309 0.13202495872974396
0.68757593631744385 0.15234491229057312 0.13726603984832764
0.71550428867340088 0.15751233696937561 0.14280354976654053
0.74276077747344971 0.16234922409057617 0.14778964221477509
0.76980572938919067 0.16650354862213135 0.15296712517738342
0.79679185152053833 0.17036738991737366 0.15753407776355743
0.82319480180740356 0.17359772324562073 0.16168957948684692
0.84906727075576782 0.17728421092033386 0.1658475399017334
0.86777675151824951 0.180477574467659 0.1694469153881073
0.86879098415374756 0.18068832159042358 0.16951557993888855
0.010247033089399338 0.020459234714508057 0.006490661296993494
0.016261331737041473 0.022114111110568047 0.007674120832234621
0.023337820544838905 0.023831648752093315 0.0091104581952095032
0.034730102866888046 0.025961900129914284 0.010356009006500244
0.049284767359495163 0.028385674580931664 0.011573006398975849
0.064051173627376556 0.031093178316950798 0.013673690147697926
0.08142455667257309 0.034316878765821457 0.016194570809602737
0.10098329931497574 0.038105744868516922 0.018982982262969017
0.12273360788822174 0.042537741363048553 0.022287674248218536
0.14756621420383453 0.047855865210294724 0.026822179555892944
0.17553088068962097 0.054218687117099762 0.032155238091945648
0.20658107101917267 0.061075299978256226 0.038418658077716827
0.23903518915176392 0.068409323692321777 0.045613586902618408
0.27292713522911072 0.07643929123878479 0.053154092282056808
0.30973458290100098 0.085056357085704803 0.061554126441478729
0.34923925995826721 0.093882277607917786 0.070531152188777924
0.39375877380371094 0.10336998105049133 0.08060106635093689
0.4414277970790863 0.11406176537275314 0.091448388993740082
0.48829749226570129 0.12459826469421387 0.10170692205429077
0.53173106908798218 0.13422058522701263 0.11110544949769974
0.56908679008483887 0.14210338890552521 0.11866599321365356
0.60254043340682983 0.1489054411649704 0.12560917437076569
0.63318794965744019 0.15486840903759003 0.13153742253780365
0.66188126802444458 0.16029545664787292 0.13685649633407593
0.68988996744155884 0.16567739844322205 0.14176313579082489
0.71755260229110718 0.17079895734786987 0.14649161696434021
0.74484390020370483 0.17549793422222137 0.15089955925941467
0.77203208208084106 0.17972412705421448 0.15557223558425903
0.79881507158279419 0.18329179286956787 0.15986272692680359
0.82501065731048584 0.1863618940114975 0.16408824920654297
0.85082095861434937 0.18942604959011078 0.16774863004684448
0.8690640926361084 0.19100159406661987 0.17018088698387146
0.8698580265045166 0.19108273088932037 0.17019648849964142
0.016885809600353241 0.035425778478384018 0.010194070637226105
0.022778810933232307 0.036968328058719635 0.010974159464240074
0.030136028304696083 0.039047356694936752 0.012094561010599136
0.040152564644813538 0.04129922017455101 0.013679085299372673
0.053620520979166031 0.043825451284646988 0.015685135498642921
0.068411856889724731 0.04686969518661499 0.017688686028122902
0.086593322455883026 0.050504516810178757 0.020382318645715714
0.10660985112190247 0.054369475692510605 0.023612339049577713
0.12890668213367462 0.058870673179626465 0.027633273974061012
0.15419529378414154 0.064364895224571228 0.032588120549917221
0.18264038860797882 0.070455051958560944 0.038389116525650024
0.21357633173465729 0.077290505170822144 0.044850368052721024
0.24561864137649536 0.084654197096824646 0.052144370973110199
0.27932628989219666 0.092201948165893555 0.059760730713605881
0.31638848781585693 0.10073522478342056 0.068302489817142487
0.355836421251297 0.10927123576402664 0.077087841928005219
0.40035605430603027 0.11865304410457611 0.087137244641780853
0.44783595204353333 0.12917409837245941 0.097842015326023102
0.49392315745353699 0.13936817646026611 0.10788873583078384
0.53640341758728027 0.14864145219326019 0.11705189943313599
0.57330077886581421 0.156110018491745 0.12448341399431229
0.60570257902145386 0.16268809139728546 0.13103935122489929
0.63624143600463867 0.16855591535568237 0.1372247040271759
0.66454535722732544 0.17365898191928864 0.1422770619392395
0.69220638275146484 0.17890071868896484 0.14711299538612366
0.71992075443267822 0.18405841290950775 0.15192319452762604
0.7470097541809082 0.18848611414432526 0.15611131489276886
0.77415168285369873 0.19254675507545471 0.15998059511184692
0.80100828409194946 0.19635054469108582 0.16329632699489594
0.82721507549285889 0.1994059681892395 0.16664892435073853
0.85286551713943481 0.20247511565685272 0.16999141871929169
0.87117689847946167 0.20396535098552704 0.17241363227367401
0.87215763330459595 0.20401529967784882 0.17262893915176392
0.025702755898237228 0.053631875663995743 0.014808210544288158
0.031741529703140259 0.055150967091321945 0.015849331393837929
0.039155013859272003 0.057026218622922897 0.016837757080793381
0.048785630613565445 0.05917339026927948 0.018515316769480705
0.059697054326534271 0.061563275754451752 0.020190771669149399
0.073736712336540222 0.064469046890735626 0.022627899423241615
0.092728003859519958 0.067945845425128937 0.025925742462277412
0.11283537745475769 0.071952298283576965 0.029804728925228119
0.13614474236965179 0.07652871310710907 0.034309692680835724
0.16179998219013214 0.081683583557605743 0.039553694427013397
0.19066670536994934 0.088081292808055878 0.045987337827682495
0.22133037447929382 0.094505593180656433 0.052246738225221634
0.25330683588981628 0.10151182115077972 0.059621058404445648
0.2871742844581604 0.10924860835075378 0.067246370017528534
0.32393383979797363 0.11742205917835236 0.075793653726577759
0.36348113417625427 0.12517932057380676 0.08435513824224472
0.40786868333816528 0.13478794693946838 0.094312965869903564
0.45522570610046387 0.14505362510681152 0.10514209419488907
0.50013631582260132 0.15460237860679626 0.11467289924621582
0.54176706075668335 0.1636308878660202 0.12362106889486313
0.57764935493469238 0.17072927951812744 0.13072888553142548
0.60941994190216064 0.17684812843799591 0.13704568147659302
0.63950139284133911 0.18251112103462219 0.1432451605796814
0.66762006282806396 0.18731796741485596 0.14810045063495636
0.69501912593841553 0.19242493808269501 0.15293282270431519
0.72247833013534546 0.19728940725326538 0.15766271948814392
0.74933648109436035 0.20141930878162384 0.16160538792610168
0.7763245701789856 0.20518837869167328 0.16499239206314087
0.80302834510803223 0.20874723792076111 0.16827081143856049
0.82911187410354614 0.21201947331428528 0.1708732396364212
0.85498428344726562 0.21505127847194672 0.17287415266036987
0.87347513437271118 0.21654181182384491 0.17493957281112671
0.87439769506454468 0.21657301485538483 0.175098717212677
0.037090685218572617 0.07413957267999649 0.020345587283372879
0.042965810745954514 0.075597949326038361 0.021415781229734421
0.050132237374782562 0.077054746448993683 0.022909780964255333
0.05934445932507515 0.079142667353153229 0.024556379765272141
0.06906716525554657 0.081311337649822235 0.026499900966882706
0.081692144274711609 0.084064073860645294 0.029220143333077431
0.099931530654430389 0.087582685053348541 0.032791785895824432
0.12026195228099823 0.091467909514904022 0.036949288100004196
0.14393892884254456 0.095993973314762115 0.041830405592918396
0.1706043928861618 0.10135320574045181 0.047762811183929443
0.19950054585933685 0.10715651512145996 0.05411597341299057
0.2301575243473053 0.11349747329950333 0.06061369925737381
0.26172620058059692 0.12039971351623535 0.067709304392337799
0.29551449418067932 0.12775513529777527 0.075153648853302002
0.3323858380317688 0.13558636605739594 0.083805680274963379
0.37211552262306213 0.14320452511310577 0.092242352664470673
0.4166392982006073 0.15254716575145721 0.10211775451898575
0.46344307065010071 0.16258293390274048 0.11273202300071716
0.50740063190460205 0.17180599272251129 0.12185683101415634
0.5473785400390625 0.17990848422050476 0.13015663623809814
0.58255380392074585 0.18681837618350983 0.13755163550376892
0.61342149972915649 0.19253668189048767 0.14322878420352936
0.64316588640213013 0.1974981278181076 0.14913609623908997
0.67100030183792114 0.20199422538280487 0.15404719114303589
0.69811230897903442 0.20680426061153412 0.15841551125049591
0.72532474994659424 0.21118368208408356 0.16286371648311615
0.75201940536499023 0.21506810188293457 0.16694188117980957
0.77873808145523071 0.21843911707401276 0.17028738558292389
0.80530631542205811 0.22178748250007629 0.17335273325443268
0.83116656541824341 0.22488142549991608 0.17605793476104736
0.85671180486679077 0.22738993167877197 0.17763800919055939
0.87439817190170288 0.22883254289627075 0.1791849285364151
0.87516015768051147 0.22884501516819 0.17925356328487396
0.050815824419260025 0.099245570600032806 0.027140215039253235
0.056434348225593567 0.10041557252407074 0.028420493006706238
0.062976330518722534 0.1017192006111145 0.029734235256910324
0.071082815527915955 0.10355918854475021 0.031571414321660995
0.080587461590766907 0.10561773180961609 0.033669300377368927
0.093381822109222412 0.10828176885843277 0.03666415810585022
0.10859165340662003 0.11175040155649185 0.040373798459768295
0.12788690626621246 0.11549600958824158 0.044652145355939865
0.15227341651916504 0.11988130956888199 0.049949530512094498
0.17954309284687042 0.12512467801570892 0.055779032409191132
0.2084922194480896 0.13080967962741852 0.062328405678272247
0.23931774497032166 0.13707523047924042 0.068800710141658783
0.27069380879402161 0.14346003532409668 0.075263813138008118
0.30443638563156128 0.15061020851135254 0.08287627249956131
0.34130191802978516 0.15795473754405975 0.091513432562351227
0.38126835227012634 0.16555449366569519 0.10002361983060837
0.4258129894733429 0.17450150847434998 0.10965395718812943
0.47217214107513428 0.18416450917720795 0.11988132447004318
0.51489216089248657 0.19296543300151825 0.12874387204647064
0.5536988377571106 0.20040415227413177 0.13648536801338196
0.58789199590682983 0.20641812682151794 0.14332367479801178
0.61803293228149414 0.21169066429138184 0.14849250018596649
0.64732015132904053 0.21653692424297333 0.15394501388072968
0.67468202114105225 0.2205001562833786 0.15879552066326141
0.70148849487304688 0.22482107579708099 0.16314618289470673
0.7285691499710083 0.22878357768058777 0.16763134300708771
0.75507700443267822 0.23206281661987305 0.1715562492609024
0.78153467178344727 0.23498071730136871 0.17491140961647034
0.80781883001327515 0.2378915548324585 0.17798851430416107
0.83337700366973877 0.24024361371994019 0.1806190013885498
0.85889971256256104 0.24244144558906555 0.18239252269268036
0.87743651866912842 0.24295176565647125 0.18377335369586945
0.87843102216720581 0.24295176565647125 0.18382015824317932
0.065600097179412842 0.12575787305831909 0.034930281341075897
0.070640027523040771 0.12689822912216187 0.036162465810775757
0.076402217149734497 0.12808801233768463 0.037532888352870941
0.083957493305206299 0.12985031306743622 0.039405681192874908
0.093970268964767456 0.13193593919277191 0.041971858590841293
0.10690538585186005 0.13483589887619019 0.045147906988859177
0.12108266353607178 0.13787518441677094 0.048608750104904175
0.13837464153766632 0.14174932241439819 0.053134899586439133
0.16118893027305603 0.14612452685832977 0.058461170643568039
0.18847866356372833 0.15111751854419708 0.063955195248126984
0.21769809722900391 0.15662343800067902 0.070254027843475342
0.24844910204410553 0.16268134117126465 0.076850913465023041
0.27979123592376709 0.16891279816627502 0.083245113492012024
0.31352892518043518 0.17581234872341156 0.091106601059436798
0.35056257247924805 0.18291687965393066 0.099439442157745361
0.39095380902290344 0.1904321014881134 0.10792010277509689
0.43565747141838074 0.19905479252338409 0.11686713248491287
0.4811740517616272 0.20795366168022156 0.12620654702186584
0.52256983518600464 0.2164979875087738 0.13438129425048828
0.56001472473144531 0.22319172322750092 0.14161607623100281
0.59325170516967773 0.22874943912029266 0.14802689850330353
0.62314385175704956 0.23344345390796661 0.15315555036067963
0.6516876220703125 0.23784317076206207 0.15830445289611816
0.67879533767700195 0.24138201773166656 0.16319634020328522
0.70526248216629028 0.24521529674530029 0.16749098896980286
0.73215287923812866 0.24865157902240753 0.17187498509883881
0.75854021310806274 0.25131240487098694 0.17551018297672272
0.78473055362701416 0.25371041893959045 0.17908070981502533
0.81097757816314697 0.25594547390937805 0.18218538165092468
0.83625996112823486 0.25776752829551697 0.184703528881073
0.86147445440292358 0.25925016403198242 0.1866348534822464
0.87920749187469482 0.2597087025642395 0.18795928359031677
0.88014692068099976 0.25970873236656189 0.18799363076686859
0.081482633948326111 0.15565045177936554 0.043578621000051498
0.085712328553199768 0.15641766786575317 0.044625803828239441
0.091118611395359039 0.15751698613166809 0.046016339212656021
0.098987400531768799 0.15942810475826263 0.048242218792438507
0.10937973856925964 0.16175055503845215 0.050887208431959152
0.12189456820487976 0.16462190449237823 0.054176483303308487
0.13586224615573883 0.1678403913974762 0.057773515582084656
0.15274044871330261 0.17165590822696686 0.062353473156690598
0.17261122167110443 0.17610675096511841 0.067592166364192963
0.19785679876804352 0.18080100417137146 0.072796240448951721
0.22669878602027893 0.18606743216514587 0.078578732907772064
0.25780513882637024 0.19186000525951385 0.084984496235847473
0.28960150480270386 0.19820642471313477 0.091454915702342987
0.32347512245178223 0.20466876029968262 0.098585940897464752
0.36068072915077209 0.21160219609737396 0.10591199994087219
0.40136516094207764 0.21931508183479309 0.11404167115688324
0.44628354907035828 0.22777111828327179 0.12295579165220261
0.4905548095703125 0.23611995577812195 0.1318221241235733
0.53072410821914673 0.24389506876468658 0.13967415690422058
0.56703662872314453 0.2501804530620575 0.1468324214220047
0.59910905361175537 0.25540044903755188 0.1527479887008667
0.62841665744781494 0.25952401757240295 0.15787617862224579
0.65644377470016479 0.26363232731819153 0.16276301443576813
0.6832575798034668 0.2669699490070343 0.16747002303600311
0.7097429633140564 0.27018269896507263 0.1717972606420517
0.73637598752975464 0.2731584906578064 0.1760016530752182
0.76230645179748535 0.27517801523208618 0.17936855554580688
0.7886618971824646 0.27702036499977112 0.18313859403133392
0.81445693969726562 0.27864253520965576 0.18610444664955139
0.83953064680099487 0.27961727976799011 0.18848538398742676
0.86444342136383057 0.28009551763534546 0.1906970888376236
0.88188999891281128 0.2797883152961731 0.19209825992584229
0.88259822130203247 0.27975395321846008 0.19216690957546234
0.096183963119983673 0.18708491325378418 0.052546929568052292
0.1002868190407753 0.18813934922218323 0.05382503941655159
0.10578109323978424 0.189430832862854 0.05519229918718338
0.11365699023008347 0.19103491306304932 0.057248413562774658
0.12385145574808121 0.19367273151874542 0.060020890086889267
0.13512289524078369 0.19635495543479919 0.062982358038425446
0.14854004979133606 0.19965127110481262 0.066604234278202057
0.16409912705421448 0.20343273878097534 0.070726931095123291
0.18278823792934418 0.20789976418018341 0.07553834468126297
0.20706795156002045 0.21268488466739655 0.080592863261699677
0.23599512875080109 0.2177325040102005 0.0856904536485672
0.26720058917999268 0.22323675453662872 0.091717444360256195
0.2991279661655426 0.22932438552379608 0.098187729716300964
0.33348870277404785 0.23577901721000671 0.10552623867988586
0.37124094367027283 0.24266102910041809 0.11279073357582092
0.41219040751457214 0.25057369470596313 0.12097789347171783
0.45679280161857605 0.25892454385757446 0.1301080733537674
0.50000971555709839 0.26692777872085571 0.13872013986110687
0.5388866662979126 0.27403447031974792 0.14604507386684418
0.57403802871704102 0.27991336584091187 0.15288116037845612
0.60511130094528198 0.28475105762481689 0.15828925371170044
0.63382053375244141 0.28893935680389404 0.16303017735481262
0.66150301694869995 0.29279300570487976 0.1675819605588913
0.68809682130813599 0.2959008514881134 0.17196345329284668
0.71441090106964111 0.29883620142936707 0.17597478628158569
0.74081361293792725 0.30165496468544006 0.17975161969661713
0.76664501428604126 0.3033212423324585 0.18290889263153076
0.7926943302154541 0.30502638220787048 0.18645119667053223
0.81829792261123657 0.30592116713523865 0.18935646116733551
0.84319788217544556 0.30626949667930603 0.19195984303951263
0.86803966760635376 0.30570706725120544 0.19394151866436005
0.8854835033416748 0.3050607442855835 0.19547516107559204
0.8863227367401123 0.30499210953712463 0.1955438107252121
0.096096351742744446 0.22063209116458893 0.061262641102075577
0.10045579820871353 0.22158683836460114 0.062480248510837555
0.10632609575986862 0.22301924228668213 0.063990227878093719
0.11419866234064102 0.22464700043201447 0.066082969307899475
0.12351403385400772 0.22703352570533752 0.068431667983531952
0.13520814478397369 0.22977091372013092 0.071524329483509064
0.14949402213096619 0.23300403356552124 0.074994519352912903
0.16613201797008514 0.23680722713470459 0.078984290361404419
0.18833467364311218 0.24098744988441467 0.083737626671791077
0.21606700122356415 0.2458251416683197 0.088950455188751221
0.2453882098197937 0.2505899965763092 0.094489097595214844
0.27669784426689148 0.25643512606620789 0.10050304979085922
0.30882838368415833 0.2619970440864563 0.10701078921556473
0.34362795948982239 0.26831731200218201 0.11376238614320755
0.38203242421150208 0.27535122632980347 0.12119283527135849
0.42352396249771118 0.28335627913475037 0.12919491529464722
0.46748781204223633 0.29163062572479248 0.13728903234004974
0.50921589136123657 0.29920408129692078 0.14491643011569977
0.54690933227539062 0.3057594895362854 0.15162970125675201
0.58087629079818726 0.31132400035858154 0.15756084024906158
0.61113172769546509 0.31618121266365051 0.16248954832553864
0.63909506797790527 0.32043811678886414 0.16705964505672455
0.66650152206420898 0.32403013110160828 0.17163579165935516
0.69287717342376709 0.3269287645816803 0.17577272653579712
0.71918219327926636 0.32962200045585632 0.17946338653564453
0.74538832902908325 0.33237451314926147 0.18292604386806488
0.7711254358291626 0.33412972092628479 0.18629243969917297
0.79686480760574341 0.33581379055976868 0.18951962888240814
0.82247430086135864 0.33652535080909729 0.1923450380563736
0.84728747606277466 0.33653241395950317 0.19461815059185028
0.8718116283416748 0.33560866117477417 0.19665627181529999
0.88908869028091431 0.33448097109794617 0.19806519150733948
0.88989657163619995 0.33441236615180969 0.19814632833003998
0.098945923149585724 0.25637134909629822 0.07232019305229187
0.10300812125205994 0.25748175382614136 0.073451720178127289
0.10787621885538101 0.25857600569725037 0.074888505041599274
0.11414243280887604 0.26017114520072937 0.076565109193325043
0.1221451535820961 0.26249486207962036 0.079109907150268555
0.1332552433013916 0.26521226763725281 0.082131236791610718
0.148089200258255 0.26834967732429504 0.08578992635011673
0.16972914338111877 0.27200460433959961 0.089613176882266998
0.19660863280296326 0.27621537446975708 0.093691423535346985
0.22531998157501221 0.2807634174823761 0.098618797957897186
0.25495404005050659 0.28573665022850037 0.10361092537641525
0.28639665246009827 0.29126214981079102 0.10920948535203934
0.31893590092658997 0.29714545607566833 0.1151747852563858
0.35436078906059265 0.30314651131629944 0.1212150976061821
0.39336574077606201 0.31031084060668945 0.12827746570110321
0.43539303541183472 0.31818732619285583 0.13602180778980255
0.47853082418441772 0.32625392079353333 0.14384107291698456
0.51870965957641602 0.33360704779624939 0.15103322267532349
0.55473852157592773 0.339588463306427 0.15737263858318329
0.58747941255569458 0.3448585569858551 0.16277390718460083
0.61691564321517944 0.34950140118598938 0.16736587882041931
0.6443934440612793 0.35367923974990845 0.171700119972229
0.67153698205947876 0.35713186860084534 0.1758137047290802
0.69775497913360596 0.36005371809005737 0.1796291321516037
0.72381472587585449 0.36277937889099121 0.18293777108192444
0.74995392560958862 0.36556133627891541 0.18637047708034515
0.77554112672805786 0.36703106760978699 0.18960851430892944
0.80124592781066895 0.36894026398658752 0.1925412118434906
0.8267672061920166 0.36984410881996155 0.19519971311092377
0.85136705636978149 0.36961516737937927 0.19739228487014771
