Textures/93.cube
# Created by: G'MIC (https://gmic.eu)
TITLE "Polaroid_PX-70_3.cube"
# LUT size
LUT_3D_SIZE 5
# Data domain
DOMAIN_MIN 0.0 0.0 0.0
DOMAIN_MAX 1.0 1.0 1.0
# LUT data points
0 0.15130892395973206 0.20210111141204834
0 0.15668667852878571 0.20401640236377716
0.31275138258934021 0.17492145299911499 0.20775412023067474
0.83599853515625 0.28337827324867249 0.18385724723339081
0.99976247549057007 0.54098743200302124 0.20280690491199493
0 0.20228303968906403 0.20590555667877197
0.0098809842020273209 0.21601775288581848 0.20518215000629425
0.40959113836288452 0.2546183168888092 0.19824871420860291
0.8478659987449646 0.40242603421211243 0.16438387334346771
0.99352520704269409 0.59534752368927002 0.2076488584280014
0 0.52048283815383911 0.19017529487609863
0.0080763921141624451 0.51908320188522339 0.19360315799713135
0.54149156808853149 0.56140202283859253 0.1645277738571167
0.84798711538314819 0.6256060004234314 0.1257428377866745
0.96897560358047485 0.6828421950340271 0.2012515515089035
0.45167747139930725 0.79321950674057007 0.26649856567382812
0.50661230087280273 0.7873845100402832 0.2695273756980896
0.66853004693984985 0.79320007562637329 0.2860448956489563
0.82832348346710205 0.80678629875183105 0.29570874571800232
0.9383842945098877 0.82466655969619751 0.35817810893058777
0.8014836311340332 0.9182579517364502 0.51662611961364746
0.80730491876602173 0.91687721014022827 0.51668894290924072
0.83635497093200684 0.92002725601196289 0.52965259552001953
0.88131451606750488 0.92777955532073975 0.53886401653289795
0.93745476007461548 0.93841153383255005 0.55350977182388306
0 0.15884478390216827 0.21669092774391174
0 0.16564513742923737 0.21491533517837524
0.35414287447929382 0.17053823173046112 0.23335245251655579
0.87064015865325928 0.3502354621887207 0.26044654846191406
0.99260854721069336 0.59762918949127197 0.32247483730316162
0 0.21620941162109375 0.22798672318458557
0.081198461353778839 0.23105373978614807 0.23340032994747162
0.4783155620098114 0.29162800312042236 0.24279710650444031
0.87309509515762329 0.45768511295318604 0.2508380115032196
0.98584842681884766 0.63978749513626099 0.32666510343551636
0.030056299641728401 0.55119013786315918 0.24851116538047791
0.21870839595794678 0.54909908771514893 0.24351178109645844
0.58862268924713135 0.58281302452087402 0.23377110064029694
0.86023741960525513 0.63510853052139282 0.22607067227363586
0.9668927788734436 0.70577353239059448 0.3088410496711731
0.52941638231277466 0.79959344863891602 0.33085441589355469
0.57347744703292847 0.79522567987442017 0.33388295769691467
0.69818097352981567 0.79906272888183594 0.35489654541015625
0.83473056554794312 0.81256908178329468 0.36167800426483154
0.93865609169006348 0.82986545562744141 0.40714558959007263
0.8094363808631897 0.92008429765701294 0.52687448263168335
0.81498342752456665 0.91886943578720093 0.52732700109481812
0.84236162900924683 0.92150098085403442 0.53800708055496216
0.88495755195617676 0.92901569604873657 0.54681211709976196
0.93921571969985962 0.93938934803009033 0.55933666229248047
0 0.18083016574382782 0.29728913307189941
0.18176266551017761 0.19969019293785095 0.30442351102828979
0.48123711347579956 0.29314246773719788 0.33101105690002441
0.86326849460601807 0.31964296102523804 0.39972522854804993
0.98959755897521973 0.59912347793579102 0.44574874639511108
3.1208046493702568e-06 0.28292286396026611 0.33750885725021362
0.24963478744029999 0.2958209216594696 0.34516799449920654
0.57557791471481323 0.4224245548248291 0.35987436771392822
0.87550163269042969 0.4733060896396637 0.4131481945514679
0.97319722175598145 0.68343466520309448 0.46931305527687073
0.18712480366230011 0.57600700855255127 0.37230312824249268
0.3723309338092804 0.57730096578598022 0.37455391883850098
0.67096692323684692 0.61394566297531128 0.40059769153594971
0.86404633522033691 0.69836729764938354 0.44175472855567932
0.95002001523971558 0.77197498083114624 0.48810288310050964
0.64809077978134155 0.80178254842758179 0.44720602035522461
0.68544906377792358 0.79953485727310181 0.45082804560661316
0.75017106533050537 0.80556356906890869 0.45859822630882263
0.84594953060150146 0.81928795576095581 0.46598741412162781
0.94047600030899048 0.83467823266983032 0.48131555318832397
0.82354021072387695 0.92202907800674438 0.54797011613845825
0.82494676113128662 0.92170780897140503 0.54559612274169922
0.8513256311416626 0.92428839206695557 0.55327683687210083
0.89148133993148804 0.93088620901107788 0.5629386305809021
0.94349062442779541 0.94199651479721069 0.57281684875488281
0.38498511910438538 0.27734607458114624 0.54718005657196045
0.55311238765716553 0.31705644726753235 0.54788780212402344
0.79312610626220703 0.51814693212509155 0.54740852117538452
0.87543314695358276 0.69034349918365479 0.546242356300354
0.94937527179718018 0.70083487033843994 0.55516880750656128
0.39825668931007385 0.4164263904094696 0.55536365509033203
0.56874144077301025 0.4532780647277832 0.55277174711227417
0.79675954580307007 0.60866749286651611 0.54913562536239624
0.87355130910873413 0.73688375949859619 0.55094361305236816
0.94505268335342407 0.74059617519378662 0.56016421318054199
0.34448277950286865 0.65026378631591797 0.53459292650222778
0.50606024265289307 0.64797145128250122 0.53662163019180298
0.77759206295013428 0.70465868711471558 0.5484699010848999
0.87021279335021973 0.79131948947906494 0.55485689640045166
0.94192886352539062 0.79246538877487183 0.56418728828430176
0.6552201509475708 0.80859899520874023 0.53714221715927124
0.68737876415252686 0.80666875839233398 0.53647822141647339
0.77353501319885254 0.81281387805938721 0.54298102855682373
0.86639869213104248 0.83250731229782104 0.55693107843399048
0.94538408517837524 0.86951440572738647 0.5734286904335022
0.83096140623092651 0.92523735761642456 0.57465255260467529
0.8379666805267334 0.92482656240463257 0.57473212480545044
0.86743062734603882 0.92803496122360229 0.57970130443572998
0.90335845947265625 0.93475961685180664 0.58756685256958008
0.95102542638778687 0.94655346870422363 0.59894490242004395
0.79963952302932739 0.69541865587234497 0.64288067817687988
0.82627874612808228 0.71678066253662109 0.63803017139434814
0.88088303804397583 0.77813339233398438 0.62800663709640503
0.92889684438705444 0.84662073850631714 0.61859291791915894
0.95214492082595825 0.87490510940551758 0.61757493019104004
0.80161583423614502 0.73380398750305176 0.63877052068710327
0.8270794153213501 0.7495577335357666 0.63508373498916626
0.88054442405700684 0.79713696241378784 0.62739413976669312
0.92975223064422607 0.85671550035476685 0.6195799708366394
0.95232409238815308 0.88429379463195801 0.61917859315872192
0.77844607830047607 0.78219908475875854 0.63185805082321167
0.80260330438613892 0.78554975986480713 0.63097697496414185
0.86627781391143799 0.81862252950668335 0.62653815746307373
0.92750930786132812 0.87161809206008911 0.62215721607208252
0.95258796215057373 0.90147721767425537 0.62375950813293457
0.74212139844894409 0.85024333000183105 0.62139791250228882
0.75280553102493286 0.84775084257125854 0.62092059850692749
0.79888737201690674 0.84688252210617065 0.62196964025497437
0.91159677505493164 0.8840441107749939 0.62695854902267456
0.9551844596862793 0.92665719985961914 0.63447010517120361
0.84520751237869263 0.94064843654632568 0.63133996725082397
0.8507276177406311 0.94024050235748291 0.63093364238739014
0.87313628196716309 0.94167274236679077 0.63369143009185791
0.91157734394073486 0.94535040855407715 0.63940364122390747
0.96012252569198608 0.95634657144546509 0.65651595592498779
