Textures/93.cube
# Created by: G'MIC (https://gmic.eu)
TITLE "Polaroid_PX-70_3.cube"
# LUT size
LUT_3D_SIZE 33
# Data domain
DOMAIN_MIN 0.0 0.0 0.0
DOMAIN_MAX 1.0 1.0 1.0
# LUT data points
0 0.15130892395973206 0.20210111141204834
0 0.1515548974275589 0.20236584544181824
0 0.15160800516605377 0.20238269865512848
0 0.15135517716407776 0.20211145281791687
0 0.15176956355571747 0.20228604972362518
0 0.1529402881860733 0.20259569585323334
0 0.15424785017967224 0.20329363644123077
0 0.15506026148796082 0.20354898273944855
0 0.15668667852878571 0.20401640236377716
0.0012230399297550321 0.1581181138753891 0.20465990900993347
0.030691090971231461 0.15938664972782135 0.20534162223339081
0.074171341955661774 0.16091424226760864 0.20574209094047546
0.1135442703962326 0.16236892342567444 0.20601290464401245
0.15533968806266785 0.16540282964706421 0.20705936849117279
0.20168696343898773 0.16861695051193237 0.20739217102527618
0.25329029560089111 0.17199353873729706 0.20777788758277893
0.31275138258934021 0.17492145299911499 0.20775412023067474
0.37937349081039429 0.17793886363506317 0.20750695466995239
0.45030555129051208 0.18082809448242188 0.20608106255531311
0.52488666772842407 0.18494945764541626 0.20485550165176392
0.59808999300003052 0.19129501283168793 0.20205233991146088
0.66665828227996826 0.20346292853355408 0.19892138242721558
0.72996336221694946 0.22316546738147736 0.19429537653923035
0.7859618067741394 0.24985773861408234 0.18933579325675964
0.83599853515625 0.28337827324867249 0.18385724723339081
0.87819314002990723 0.32063665986061096 0.17834790050983429
0.91107660531997681 0.35901272296905518 0.17428094148635864
0.93669825792312622 0.39588561654090881 0.17163538932800293
0.95646578073501587 0.43028160929679871 0.17209941148757935
0.97195816040039062 0.46141424775123596 0.17518250644207001
0.98409038782119751 0.49051791429519653 0.18175572156906128
0.99346816539764404 0.51517021656036377 0.19032050669193268
0.99976247549057007 0.54098743200302124 0.20280690491199493
0 0.15140083432197571 0.20227807760238647
0 0.15165399014949799 0.20237992703914642
0 0.15163619816303253 0.20236334204673767
0 0.15146805346012115 0.20227897167205811
0 0.15217843651771545 0.20263224840164185
0 0.15311542153358459 0.20291745662689209
0 0.15426149964332581 0.20344291627407074
0 0.1552494615316391 0.20369742810726166
0 0.15685011446475983 0.20413538813591003
0.0024098146241158247 0.15818129479885101 0.2046838253736496
0.034596219658851624 0.15965341031551361 0.20500881969928741
0.078453414142131805 0.16143466532230377 0.20560285449028015
0.11830969154834747 0.1642097681760788 0.20635610818862915
0.16056080162525177 0.16749763488769531 0.20676843822002411
0.20739412307739258 0.17066192626953125 0.20707044005393982
0.25985494256019592 0.17453098297119141 0.20747485756874084
0.31985169649124146 0.17794628441333771 0.20731543004512787
0.3867928683757782 0.18144120275974274 0.20695504546165466
0.45772296190261841 0.18471135199069977 0.2057647705078125
0.53240656852722168 0.18945620954036713 0.20379506051540375
0.60560297966003418 0.19724822044372559 0.20098191499710083
0.67338413000106812 0.21089251339435577 0.19759467244148254
0.73600304126739502 0.23155026137828827 0.19326922297477722
0.7913285493850708 0.25884747505187988 0.18780288100242615
0.84085541963577271 0.29278454184532166 0.18246479332447052
0.88224548101425171 0.33067214488983154 0.17697124183177948
0.91404998302459717 0.36829078197479248 0.1729360967874527
0.93899470567703247 0.40439119935035706 0.17062816023826599
0.95812064409255981 0.43835628032684326 0.17168493568897247
0.97301739454269409 0.46925336122512817 0.17544557154178619
0.98517119884490967 0.49684712290763855 0.182411789894104
0.99448466300964355 0.52112197875976562 0.1916838139295578
0.99978369474411011 0.546092689037323 0.20445375144481659
0 0.15137439966201782 0.20216889679431915
0 0.15154418349266052 0.2021971195936203
0 0.15179307758808136 0.20253504812717438
0 0.15168297290802002 0.20244170725345612
0 0.15209737420082092 0.20246961712837219
0 0.15345790982246399 0.20271700620651245
0 0.15483774244785309 0.20351943373680115
0 0.15556107461452484 0.20381826162338257
0 0.15707942843437195 0.20417632162570953
0.0050192209891974926 0.15891565382480621 0.20479078590869904
0.042229678481817245 0.16111685335636139 0.20545372366905212
0.085389837622642517 0.16364234685897827 0.20564654469490051
0.12515094876289368 0.16651733219623566 0.20579917728900909
0.16787198185920715 0.17078527808189392 0.20674620568752289
0.2147982269525528 0.17445644736289978 0.20701044797897339
0.2674328088760376 0.17836543917655945 0.20737999677658081
0.32773083448410034 0.18240541219711304 0.20702250301837921
0.39443832635879517 0.18610717356204987 0.20622381567955017
0.46515056490898132 0.19035311043262482 0.20495863258838654
0.53944498300552368 0.19596414268016815 0.20331726968288422
0.61152327060699463 0.2049625962972641 0.19987921416759491
0.67834639549255371 0.21947376430034637 0.19625575840473175
0.74053186178207397 0.24105769395828247 0.19165445864200592
0.79602718353271484 0.26886582374572754 0.18659958243370056
0.84414565563201904 0.30289825797080994 0.18121600151062012
0.88453644514083862 0.34048941731452942 0.17535462975502014
0.91614079475402832 0.37796750664710999 0.1715894341468811
0.94049102067947388 0.41356819868087769 0.1696365624666214
0.95947253704071045 0.44752600789070129 0.1713821142911911
0.97407978773117065 0.47750404477119446 0.17558188736438751
0.98602497577667236 0.50475531816482544 0.18329629302024841
0.99496912956237793 0.52996164560317993 0.1937297135591507
0.99975866079330444 0.5548553466796875 0.20824901759624481
0 0.1532798558473587 0.20265108346939087
0 0.15343117713928223 0.2025991678237915
0 0.15367934107780457 0.20272210240364075
0 0.15426705777645111 0.20286823809146881
0 0.15478479862213135 0.20286807417869568
0 0.15547242760658264 0.20325379073619843
0 0.1569058746099472 0.20351827144622803
0 0.1585705429315567 0.20389625430107117
5.8515092860034201e-06 0.16017626225948334 0.20426914095878601
0.012699433602392673 0.16222207248210907 0.20467889308929443
0.053993098437786102 0.16486369073390961 0.2049298882484436
0.095422662794589996 0.16782611608505249 0.20548340678215027
0.13439255952835083 0.17110370099544525 0.20588546991348267
0.17622208595275879 0.17517228424549103 0.20673295855522156
0.22288006544113159 0.17916509509086609 0.20672638714313507
0.27510672807693481 0.18354122340679169 0.20641711354255676
0.33495974540710449 0.18810726702213287 0.20625120401382446
0.40026596188545227 0.19281807541847229 0.20559239387512207
0.46964403986930847 0.19774134457111359 0.20384626090526581
0.54179126024246216 0.20438790321350098 0.20164406299591064
0.61228299140930176 0.21435460448265076 0.19912420213222504
0.67738842964172363 0.22932988405227661 0.19540728628635406
0.73801541328430176 0.25032451748847961 0.19062104821205139
0.79242295026779175 0.27716630697250366 0.18561488389968872
0.84010040760040283 0.3098825216293335 0.1803906261920929
0.88016581535339355 0.34591451287269592 0.17522339522838593
0.91146206855773926 0.38143301010131836 0.17082703113555908
0.93573004007339478 0.41572678089141846 0.16883730888366699
0.95535266399383545 0.44815418124198914 0.16995169222354889
0.97034907341003418 0.47735637426376343 0.17399366199970245
0.98266035318374634 0.50518560409545898 0.18154053390026093
0.99239283800125122 0.52931457757949829 0.19141700863838196
0.99938923120498657 0.55391997098922729 0.20463159680366516
0 0.15878851711750031 0.20354361832141876
0 0.15886922180652618 0.20332399010658264
0 0.15964233875274658 0.20347262918949127
0 0.15978844463825226 0.20371763408184052
0 0.16085356473922729 0.20348702371120453
0 0.16195061802864075 0.20336808264255524
0 0.16321390867233276 0.20373362302780151
0 0.16368681192398071 0.20387062430381775
0.0011121940333396196 0.16535329818725586 0.20413602888584137
0.026716794818639755 0.16768136620521545 0.20447555184364319
0.068474754691123962 0.17020034790039062 0.2049749344587326
0.10753762722015381 0.17326022684574127 0.20527222752571106
0.14611198008060455 0.17674019932746887 0.20558612048625946
0.18803650140762329 0.18128277361392975 0.20614355802536011
0.23560914397239685 0.18604816496372223 0.20607082545757294
0.28861179947853088 0.19088876247406006 0.20584945380687714
0.34869641065597534 0.19629248976707458 0.20523318648338318
0.4139866828918457 0.2020200788974762 0.20426455140113831
0.48318463563919067 0.20818330347537994 0.20234872400760651
0.55435949563980103 0.21658602356910706 0.19993883371353149
0.6237298846244812 0.22791984677314758 0.1966596394777298
0.687386155128479 0.24435895681381226 0.19295166432857513
0.74686795473098755 0.26656654477119446 0.18830814957618713
0.79952907562255859 0.29420396685600281 0.18309882283210754
0.84564775228500366 0.32701990008354187 0.17775116860866547
0.88393884897232056 0.36248049139976501 0.1723799854516983
0.91413354873657227 0.39670544862747192 0.16851150989532471
0.93790078163146973 0.43002107739448547 0.16722902655601501
0.95634293556213379 0.46069428324699402 0.16869218647480011
0.9709247350692749 0.48928120732307434 0.17374420166015625
0.98271340131759644 0.51524257659912109 0.18187427520751953
0.99238818883895874 0.53838038444519043 0.19214363396167755
0.99925941228866577 0.56210219860076904 0.20649413764476776
0 0.16627611219882965 0.20433579385280609
0 0.16653391718864441 0.204290971159935
0 0.16681230068206787 0.20403005182743073
0 0.16739602386951447 0.20422779023647308
0 0.16843719780445099 0.20421062409877777
0 0.16993765532970428 0.20414566993713379
0 0.17164376378059387 0.20401504635810852
0 0.17259101569652557 0.20397026836872101
0.0053879288025200367 0.17358873784542084 0.20417799055576324
0.043041341006755829 0.17487621307373047 0.20405815541744232
0.083331957459449768 0.17732656002044678 0.20444302260875702
0.12088906019926071 0.18102401494979858 0.20472182333469391
0.15917867422103882 0.18476267158985138 0.20512720942497253
0.20122036337852478 0.18945847451686859 0.20510917901992798
0.24887850880622864 0.19467930495738983 0.20496839284896851
0.30153480172157288 0.20025794208049774 0.20441731810569763
0.36112698912620544 0.20660540461540222 0.20373277366161346
0.42577487230300903 0.21333372592926025 0.2025076150894165
0.49308735132217407 0.22070853412151337 0.20053055882453918
0.5627591609954834 0.23011204600334167 0.19756178557872772
0.63038289546966553 0.24333535134792328 0.19491763412952423
0.69246512651443481 0.26029926538467407 0.19098512828350067
0.75025820732116699 0.28318032622337341 0.18639853596687317
0.80145221948623657 0.31082817912101746 0.18119582533836365
0.84677672386169434 0.34319010376930237 0.17540474236011505
0.88389259576797485 0.37733802199363708 0.16977325081825256
0.91338825225830078 0.41068217158317566 0.16625882685184479
0.93675696849822998 0.44252988696098328 0.16524168848991394
0.95547181367874146 0.47242650389671326 0.1675892174243927
0.97007685899734497 0.49979525804519653 0.17322893440723419
0.98196154832839966 0.52526962757110596 0.18196088075637817
0.99163675308227539 0.54859298467636108 0.19367517530918121
0.99848395586013794 0.57141846418380737 0.20862148702144623
0 0.17536082863807678 0.20444774627685547
0 0.17573140561580658 0.20450508594512939
0 0.17594827711582184 0.20447386801242828
0 0.17673540115356445 0.20486737787723541
0 0.17760330438613892 0.20472462475299835
0 0.17956215143203735 0.20465934276580811
0 0.18178623914718628 0.20469477772712708
0 0.18387235701084137 0.20420899987220764
0.0088719688355922699 0.18544647097587585 0.20417679846286774
0.053040426224470139 0.18723858892917633 0.20425310730934143
0.095538757741451263 0.18903224170207977 0.2041439563035965
0.13504111766815186 0.19157770276069641 0.2041330486536026
0.17402929067611694 0.19523799419403076 0.20426051318645477
0.21629655361175537 0.20020365715026855 0.20407214760780334
0.26387634873390198 0.20625917613506317 0.20372694730758667
0.31653192639350891 0.2128681093454361 0.20317026972770691
0.37532025575637817 0.21965296566486359 0.20232051610946655
0.43861567974090576 0.2274048775434494 0.20050576329231262
0.5047115683555603 0.23609356582164764 0.19860078394412994
0.57259100675582886 0.24709127843379974 0.19579100608825684
0.63743752241134644 0.26113033294677734 0.19280976057052612
0.69697189331054688 0.27858409285545349 0.18875867128372192
0.75251996517181396 0.30173769593238831 0.18391020596027374
0.80182421207427979 0.32883355021476746 0.1782875657081604
0.84514707326889038 0.35936468839645386 0.17252029478549957
0.88175642490386963 0.39178699254989624 0.16724833846092224
0.91010558605194092 0.42270585894584656 0.16370947659015656
0.93324297666549683 0.45255720615386963 0.16283218562602997
0.95149171352386475 0.48059403896331787 0.16508638858795166
0.96586263179779053 0.50611388683319092 0.17087638378143311
0.97828453779220581 0.53049063682556152 0.17924752831459045
0.98798495531082153 0.5523306131362915 0.19056905806064606
0.99721670150756836 0.57452642917633057 0.20550289750099182
0 0.18747507035732269 0.20522384345531464
0 0.18768137693405151 0.20559513568878174
0 0.18807186186313629 0.20546877384185791
0 0.18859808146953583 0.20556360483169556
0 0.18997587263584137 0.20607827603816986
0 0.19185347855091095 0.20588305592536926
0 0.19410021603107452 0.20539416372776031
0 0.19680216908454895 0.20480038225650787
0.012597916647791862 0.19960600137710571 0.20452219247817993
0.064075104892253876 0.20253688097000122 0.2043079137802124
0.10651685297489166 0.20523053407669067 0.20419912040233612
0.14776846766471863 0.20822104811668396 0.20377768576145172
0.18914908170700073 0.21163837611675262 0.20337821543216705
0.23398822546005249 0.21555832028388977 0.20248253643512726
0.28335729241371155 0.22123204171657562 0.20212282240390778
0.33598500490188599 0.22796070575714111 0.2011321634054184
0.39514228701591492 0.23622114956378937 0.20005136728286743
0.4586043655872345 0.2452131062746048 0.19838780164718628
0.52349323034286499 0.25530877709388733 0.19610585272312164
0.58977818489074707 0.2677423357963562 0.1930338442325592
0.65185540914535522 0.2834848165512085 0.18948851525783539
0.70900458097457886 0.30277019739151001 0.18517707288265228
0.76240760087966919 0.3266390860080719 0.17975699901580811
0.80964142084121704 0.35378333926200867 0.17416273057460785
0.85082709789276123 0.38386461138725281 0.16814908385276794
0.88508027791976929 0.41456842422485352 0.16297222673892975
0.91226166486740112 0.44386842846870422 0.16025890409946442
0.93419367074966431 0.47201615571975708 0.16049343347549438
0.95167481899261475 0.49773809313774109 0.16344965994358063
0.96587753295898438 0.52222716808319092 0.17032401263713837
0.97750985622406006 0.54481106996536255 0.17995895445346832
0.98714572191238403 0.56471055746078491 0.19161872565746307
0.99616998434066772 0.58585882186889648 0.20756708085536957
0 0.20228303968906403 0.20590555667877197
0 0.20270383358001709 0.205889493227005
0 0.20282775163650513 0.20594824850559235
0 0.2036123126745224 0.20635826885700226
0 0.20485368371009827 0.20641140639781952
0 0.20673565566539764 0.20622384548187256
0 0.2094806432723999 0.20571587979793549
0 0.21265065670013428 0.20532850921154022
0.0098809842020273209 0.21601775288581848 0.20518215000629425
0.067241258919239044 0.21984735131263733 0.20471355319023132
0.11735585331916809 0.22429774701595306 0.20401190221309662
0.15937913954257965 0.22816963493824005 0.20336692035198212
0.20233637094497681 0.23304452002048492 0.2030661553144455
0.24831688404083252 0.23771476745605469 0.2021162360906601
0.29840433597564697 0.24266074597835541 0.2010904848575592
0.35168981552124023 0.24744836986064911 0.19977739453315735
0.40959113836288452 0.2546183168888092 0.19824871420860291
0.47107893228530884 0.26435217261314392 0.19635091722011566
0.53342890739440918 0.27568089962005615 0.19399970769882202
0.59654945135116577 0.28893914818763733 0.19053424894809723
0.65586620569229126 0.30514460802078247 0.18653547763824463
0.71059131622314453 0.32429701089859009 0.18221591413021088
0.7619166374206543 0.34735214710235596 0.17618279159069061
0.80775564908981323 0.37391006946563721 0.17031541466712952
0.8478659987449646 0.40242603421211243 0.16438387334346771
0.88177645206451416 0.43155235052108765 0.15946896374225616
0.90866392850875854 0.459077388048172 0.15685822069644928
0.93058276176452637 0.48561739921569824 0.15721866488456726
0.94833511114120483 0.51053881645202637 0.16084660589694977
0.96260368824005127 0.53367817401885986 0.16824693977832794
0.97481358051300049 0.55548542737960815 0.17862509191036224
0.98491024971008301 0.57547801733016968 0.19137251377105713
0.99352520704269409 0.59534752368927002 0.2076488584280014
0 0.22225576639175415 0.20648984611034393
0 0.22275276482105255 0.20679222047328949
0 0.22323073446750641 0.2069101482629776
0 0.2237543910741806 0.20723403990268707
0 0.22464491426944733 0.20728509128093719
0 0.22707240283489227 0.20708686113357544
0 0.23016358911991119 0.20694875717163086
0 0.23324371874332428 0.20654390752315521
0.0098698744550347328 0.23740988969802856 0.20594383776187897
0.068886063992977142 0.24182581901550293 0.2052621990442276
0.1245386153459549 0.2471596747636795 0.20455305278301239
0.17501990497112274 0.25273311138153076 0.20297360420227051
0.21993452310562134 0.25874543190002441 0.20228351652622223
0.26733300089836121 0.26475697755813599 0.20125561952590942
0.31893464922904968 0.27088889479637146 0.19957065582275391
0.37284848093986511 0.27670019865036011 0.19788359105587006
0.42983853816986084 0.28262907266616821 0.19572277367115021
0.48929333686828613 0.28911414742469788 0.19317977130413055
0.54934298992156982 0.2996763288974762 0.1902240663766861
0.60942280292510986 0.31417515873908997 0.18659847974777222
0.6655503511428833 0.33085435628890991 0.18222928047180176
0.71770036220550537 0.35031083226203918 0.17693205177783966
0.76682156324386597 0.37312430143356323 0.17119801044464111
0.81053471565246582 0.39871078729629517 0.16501745581626892
0.84874194860458374 0.4251849353313446 0.15912051498889923
0.88104444742202759 0.45251196622848511 0.15447767078876495
0.90683150291442871 0.47753244638442993 0.15271684527397156
0.92791080474853516 0.50188988447189331 0.15368601679801941
0.94527661800384521 0.52467644214630127 0.15800565481185913
0.95932745933532715 0.54606461524963379 0.16589082777500153
0.97139441967010498 0.56619280576705933 0.17646411061286926
0.98115444183349609 0.58351790904998779 0.18870355188846588
0.99082595109939575 0.60321915149688721 0.20586884021759033
0 0.24913467466831207 0.20740780234336853
0 0.24937058985233307 0.20754042267799377
0 0.24966156482696533 0.20781303942203522
0 0.25027775764465332 0.2079281210899353
0 0.25112700462341309 0.2081773579120636
0 0.25350785255432129 0.20819996297359467
0 0.25660660862922668 0.20783880352973938
0 0.26023373007774353 0.20720693469047546
0.01054032240062952 0.26519384980201721 0.20659345388412476
0.073836900293827057 0.26995167136192322 0.2055438905954361
0.13165152072906494 0.27566677331924438 0.20448285341262817
0.18636257946491241 0.2825494110584259 0.20297412574291229
0.24075378477573395 0.29062953591346741 0.20138798654079437
0.29111450910568237 0.29768693447113037 0.19937430322170258
0.34401172399520874 0.30517995357513428 0.19730003178119659
0.39847522974014282 0.31252145767211914 0.19457927346229553
0.45569705963134766 0.31977668404579163 0.19198516011238098
0.51388955116271973 0.3270200788974762 0.18866457045078278
0.5705188512802124 0.33416140079498291 0.18502451479434967
0.62621629238128662 0.34450939297676086 0.18076355755329132
0.67944765090942383 0.36093598604202271 0.1761624813079834
0.72952920198440552 0.38101509213447571 0.17079471051692963
0.77597671747207642 0.40389695763587952 0.16377235949039459
0.81744378805160522 0.42849680781364441 0.15767073631286621
0.85382270812988281 0.45386230945587158 0.15209400653839111
0.88433754444122314 0.47938245534896851 0.14837779104709625
0.90852183103561401 0.50243920087814331 0.14743266999721527
0.92876344919204712 0.52535110712051392 0.15017303824424744
0.94565755128860474 0.54669779539108276 0.15643700957298279
0.95903873443603516 0.56663686037063599 0.16572682559490204
0.97070902585983276 0.584250807762146 0.17784912884235382
0.98066246509552002 0.60084253549575806 0.19186769425868988
0.99009585380554199 0.619068443775177 0.21030297875404358
0 0.28029245138168335 0.20778103172779083
0 0.28023689985275269 0.20796947181224823
0 0.28037813305854797 0.20808102190494537
0 0.28113684058189392 0.20830804109573364
0 0.28175544738769531 0.20865640044212341
0 0.28313696384429932 0.20878545939922333
0 0.28630930185317993 0.20815514028072357
0 0.29049110412597656 0.20744290947914124
0.006921734195202589 0.29525724053382874 0.20651465654373169
0.072249613702297211 0.30067124962806702 0.20551270246505737
0.13376739621162415 0.30657398700714111 0.20402690768241882
0.18892413377761841 0.31298857927322388 0.20214051008224487
0.24423912167549133 0.32065758109092712 0.20031146705150604
0.30310547351837158 0.32989442348480225 0.19730529189109802
0.35761538147926331 0.33814609050750732 0.19464235007762909
0.41138416528701782 0.34610038995742798 0.19143867492675781
0.46697413921356201 0.3543412983417511 0.18848064541816711
0.52274167537689209 0.36226308345794678 0.18442113697528839
0.57671654224395752 0.36997660994529724 0.18035304546356201
0.62897884845733643 0.37857544422149658 0.1762559562921524
0.67729181051254272 0.38792377710342407 0.17140993475914001
0.72373557090759277 0.40206500887870789 0.16584905982017517
0.7689436674118042 0.42291882634162903 0.15940605103969574
0.80978262424468994 0.44581785798072815 0.15332375466823578
0.84482258558273315 0.46871384978294373 0.14741647243499756
0.87555128335952759 0.49195131659507751 0.14388567209243774
0.9003828763961792 0.51374465227127075 0.14302091300487518
0.92068594694137573 0.53468257188796997 0.14517597854137421
0.93778616189956665 0.55405426025390625 0.15090583264827728
0.95175278186798096 0.57252132892608643 0.15966823697090149
0.963795006275177 0.58967441320419312 0.17143484950065613
0.9739842414855957 0.60482043027877808 0.18440639972686768
0.98416334390640259 0.62233239412307739 0.20267707109451294
0 0.32351905107498169 0.20639508962631226
0 0.32339245080947876 0.20673371851444244
0 0.32304409146308899 0.20708842575550079
0 0.32293877005577087 0.20709770917892456
0 0.32350125908851624 0.20758837461471558
0 0.32471746206283569 0.2079031765460968
0 0.32733806967735291 0.20736682415008545
0 0.33102542161941528 0.20644721388816833
0.0052984049543738365 0.33606791496276855 0.20552848279476166
0.075591802597045898 0.34167018532752991 0.20369622111320496
0.14332312345504761 0.34803342819213867 0.20248177647590637
0.20169056951999664 0.35499581694602966 0.19996309280395508
0.25850781798362732 0.36261376738548279 0.19756540656089783
0.31708449125289917 0.37026745080947876 0.19411985576152802
0.38116610050201416 0.38075339794158936 0.18996015191078186
0.43855836987495422 0.38980388641357422 0.18617130815982819
0.49322474002838135 0.39856454730033875 0.18193623423576355
0.54693520069122314 0.40706589818000793 0.17754438519477844
0.59797912836074829 0.41583648324012756 0.17271780967712402
0.64711707830429077 0.42493104934692383 0.16757401823997498
0.69325006008148193 0.43420308828353882 0.16228441894054413
0.73582494258880615 0.44427630305290222 0.15656653046607971
0.77688694000244141 0.45679178833961487 0.15052784979343414
0.81471765041351318 0.47458696365356445 0.1443164199590683
0.84836310148239136 0.49610671401023865 0.13938789069652557
0.87705737352371216 0.51738572120666504 0.13647353649139404
0.90009784698486328 0.53703564405441284 0.13673292100429535
0.9203065037727356 0.55653178691864014 0.14061909914016724
0.93635815382003784 0.57437127828598022 0.14789676666259766
0.94991838932037354 0.59047651290893555 0.15826484560966492
0.96169519424438477 0.60551691055297852 0.17077329754829407
0.97177630662918091 0.61953610181808472 0.18490347266197205
0.98216056823730469 0.63581937551498413 0.20433351397514343
0 0.36818170547485352 0.20430921018123627
