Textures/94.cube
# Created by: G'MIC (https://gmic.eu)
TITLE "Polaroid_PX-70_Cold_3.cube"
# LUT size
LUT_3D_SIZE 5
# Data domain
DOMAIN_MIN 0.0 0.0 0.0
DOMAIN_MAX 1.0 1.0 1.0
# LUT data points
0 0.16041280329227448 0.24708245694637299
0 0.16492244601249695 0.24929764866828918
0.24678060412406921 0.18350519239902496 0.2592732310295105
0.75650769472122192 0.27362653613090515 0.26177534461021423
0.99999380111694336 0.53450167179107666 0.28187716007232666
0 0.20476607978343964 0.25423884391784668
0 0.21759945154190063 0.2549666166305542
0.33026289939880371 0.25417378544807434 0.25444245338439941
0.77732610702514648 0.38184937834739685 0.25215587019920349
0.99996143579483032 0.59424227476119995 0.28543883562088013
0 0.48309433460235596 0.27585777640342712
0 0.48257425427436829 0.27907979488372803
0.437416672706604 0.52802813053131104 0.26595887541770935
0.80162662267684937 0.60939794778823853 0.244305819272995
0.98805844783782959 0.69321143627166748 0.27980926632881165
0.23385629057884216 0.80299460887908936 0.3330102264881134
0.34301060438156128 0.7961961030960083 0.33572950959205627
0.58289599418640137 0.80773717164993286 0.34512284398078918
0.80945038795471191 0.8280254602432251 0.34673380851745605
0.96222901344299316 0.84922343492507935 0.39310586452484131
0.80338048934936523 0.94357472658157349 0.53320586681365967
0.8096081018447876 0.94232624769210815 0.53320956230163574
0.84979856014251709 0.94294488430023193 0.54569035768508911
0.90022802352905273 0.94573462009429932 0.55578553676605225
0.95025676488876343 0.94997984170913696 0.57251185178756714
0 0.16703526675701141 0.26489925384521484
0 0.17360106110572815 0.26306962966918945
0.2776067852973938 0.1828637421131134 0.28624162077903748
0.80210775136947632 0.32694923877716064 0.32970571517944336
0.99998295307159424 0.57663613557815552 0.37765520811080933
0 0.21634441614151001 0.28003585338592529
0 0.23098079860210419 0.28755348920822144
0.3807104229927063 0.28873977065086365 0.30559960007667542
0.81669086217880249 0.42995047569274902 0.32593542337417603
0.99999582767486572 0.62841004133224487 0.37914341688156128
0 0.51295888423919678 0.32643407583236694
0.0067885667085647583 0.51198089122772217 0.32273972034454346
0.48458784818649292 0.54979449510574341 0.31897008419036865
0.82201159000396729 0.61979049444198608 0.30974593758583069
0.9917568564414978 0.71237695217132568 0.36145898699760437
0.34091150760650635 0.81503379344940186 0.38066986203193665
0.42232558131217957 0.80974489450454712 0.38343903422355652
0.61494112014770508 0.81776309013366699 0.39780563116073608
0.82045507431030273 0.83579820394515991 0.39886042475700378
0.96397924423217773 0.85348659753799438 0.43484640121459961
0.81799983978271484 0.94417750835418701 0.54286468029022217
0.82431381940841675 0.94300395250320435 0.5433429479598999
0.86035895347595215 0.9431031346321106 0.55385184288024902
0.90593975782394409 0.94594812393188477 0.56382697820663452
0.9517437219619751 0.95031106472015381 0.57938790321350098
0 0.18843093514442444 0.35475257039070129
0.042035616934299469 0.20370261371135712 0.35728302597999573
0.3710843026638031 0.28832599520683289 0.38346359133720398
0.79376775026321411 0.29366368055343628 0.44998285174369812
1 0.54469150304794312 0.48915636539459229
0 0.27602899074554443 0.38902133703231812
0.12845915555953979 0.28946474194526672 0.39637485146522522
0.46465501189231873 0.39618700742721558 0.41311150789260864
0.83021599054336548 0.42981889843940735 0.46402493119239807
1 0.65534603595733643 0.50149714946746826
0 0.53903651237487793 0.42681780457496643
0.22523044049739838 0.5423702597618103 0.42900422215461731
0.57534211874008179 0.58327996730804443 0.45016512274742126
0.85240650177001953 0.68302994966506958 0.47808137536048889
0.98199522495269775 0.77979987859725952 0.51153045892715454
0.51831382513046265 0.82233911752700806 0.47951993346214294
0.57819801568984985 0.82017886638641357 0.4812888503074646
0.68409311771392822 0.82799226045608521 0.48471555113792419
0.84096968173980713 0.84436178207397461 0.4887523353099823
0.96682590246200562 0.85738646984100342 0.50186395645141602
0.84439939260482788 0.94393718242645264 0.56267142295837402
0.84570455551147461 0.94353818893432617 0.56099098920822144
0.87681514024734497 0.94382774829864502 0.56922739744186401
0.91586524248123169 0.9459453821182251 0.5817558765411377
0.95501446723937988 0.95137417316436768 0.59520655870437622
0.28334617614746094 0.27285858988761902 0.57107925415039062
0.46526232361793518 0.30346903204917908 0.57289636135101318
0.74721747636795044 0.47181376814842224 0.57618707418441772
0.87860363721847534 0.66411697864532471 0.5718110203742981
0.98741567134857178 0.67852020263671875 0.57919836044311523
0.27341926097869873 0.39143058657646179 0.581584632396698
0.47647595405578613 0.42157647013664246 0.5800667405128479
0.75828683376312256 0.5688556432723999 0.57772397994995117
0.8809775710105896 0.72953450679779053 0.57335054874420166
0.98133987188339233 0.73556655645370483 0.57975906133651733
0.037085577845573425 0.63899582624435425 0.56271648406982422
0.35628843307495117 0.6335984468460083 0.56532442569732666
0.73008424043655396 0.68997633457183838 0.57485997676849365
0.8806646466255188 0.80656164884567261 0.57247334718704224
0.97200632095336914 0.80927866697311401 0.57874566316604614
0.53476101160049438 0.83344942331314087 0.55713629722595215
0.5868532657623291 0.83067077398300171 0.5565255880355835
0.72898858785629272 0.83787810802459717 0.5609404444694519
0.87918311357498169 0.85997766256332397 0.57146954536437988
0.96297043561935425 0.89850741624832153 0.58797770738601685
0.85727369785308838 0.94487971067428589 0.58887642621994019
0.86556726694107056 0.94428473711013794 0.58959299325942993
0.89831215143203735 0.9446374773979187 0.59789544343948364
0.92922884225845337 0.94767177104949951 0.60910636186599731
0.95888209342956543 0.95405644178390503 0.62208956480026245
0.76557415723800659 0.67672622203826904 0.66960841417312622
0.80529510974884033 0.70505094528198242 0.66379475593566895
0.88591444492340088 0.78957909345626831 0.64998304843902588
0.94449669122695923 0.8765525221824646 0.63642257452011108
0.96311366558074951 0.90483903884887695 0.63493973016738892
0.77100753784179688 0.72899407148361206 0.66375589370727539
0.80906516313552856 0.75051790475845337 0.65897852182388306
0.88754361867904663 0.81599456071853638 0.64796453714370728
0.94494110345840454 0.88713240623474121 0.63737261295318604
0.96180117130279541 0.91261041164398193 0.63655358552932739
0.74456566572189331 0.79318028688430786 0.65443474054336548
0.78195905685424805 0.79914647340774536 0.65282756090164185
0.87526953220367432 0.84305709600448608 0.64591473340988159
0.94306915998458862 0.90176481008529663 0.6390424370765686
0.9607120156288147 0.92606621980667114 0.64021784067153931
0.70323830842971802 0.87081700563430786 0.64271712303161621
0.72004860639572144 0.86850851774215698 0.6421169638633728
0.79224085807800293 0.86931651830673218 0.64195132255554199
0.93191736936569214 0.91248005628585815 0.64270991086959839
0.96090161800384521 0.9427298903465271 0.6481202244758606
0.88139975070953369 0.95153450965881348 0.64627063274383545
0.8866729736328125 0.95091748237609863 0.64636093378067017
0.90695130825042725 0.95177555084228516 0.64793854951858521
0.93520361185073853 0.9529494047164917 0.65163707733154297
0.96286451816558838 0.95912402868270874 0.66179096698760986
