Textures/94.cube
# Created by: G'MIC (https://gmic.eu)
TITLE "Polaroid_PX-70_Cold_3.cube"
# LUT size
LUT_3D_SIZE 33
# Data domain
DOMAIN_MIN 0.0 0.0 0.0
DOMAIN_MAX 1.0 1.0 1.0
# LUT data points
0 0.16041280329227448 0.24708245694637299
0 0.1605183482170105 0.24710001051425934
0 0.16042366623878479 0.24707618355751038
0 0.16056600213050842 0.24710622429847717
0 0.16050748527050018 0.24707621335983276
0 0.16102352738380432 0.24730782210826874
0 0.16244699060916901 0.24808941781520844
0 0.16321492195129395 0.2486431896686554
0 0.16492244601249695 0.24929764866828918
0 0.16642366349697113 0.25030273199081421
0 0.16852055490016937 0.25130379199981689
0 0.17008280754089355 0.25236091017723083
0.02172737754881382 0.17194084823131561 0.25338894128799438
0.085155494511127472 0.17439787089824677 0.25486069917678833
0.1389923095703125 0.17633330821990967 0.25653374195098877
0.19143769145011902 0.17949202656745911 0.25783666968345642
0.24678060412406921 0.18350519239902496 0.2592732310295105
0.30601146817207336 0.18827216327190399 0.26060009002685547
0.3683944046497345 0.19301669299602509 0.26144522428512573
0.43502616882324219 0.19879379868507385 0.26265981793403625
0.50210362672805786 0.20550796389579773 0.26311606168746948
0.56926017999649048 0.21478334069252014 0.26363945007324219
0.63512927293777466 0.22872510552406311 0.26336020231246948
0.6971733570098877 0.24797898530960083 0.2628110945224762
0.75650769472122192 0.27362653613090515 0.26177534461021423
0.81121164560317993 0.30564621090888977 0.25993180274963379
0.85955750942230225 0.34167453646659851 0.25833636522293091
0.90004366636276245 0.3788091242313385 0.25707674026489258
0.93419718742370605 0.41560858488082886 0.25839430093765259
0.96223944425582886 0.44945266842842102 0.26129680871963501
0.9850267767906189 0.48091697692871094 0.26652428507804871
0.99882858991622925 0.50750613212585449 0.27251553535461426
0.99999380111694336 0.53450167179107666 0.28187716007232666
0 0.16047543287277222 0.24711874127388
0 0.16055397689342499 0.24708092212677002
0 0.16059565544128418 0.24708905816078186
0 0.16045837104320526 0.24705904722213745
0 0.16053205728530884 0.24716590344905853
0 0.16101644933223724 0.24735265970230103
0 0.1622820645570755 0.24801021814346313
0 0.163470059633255 0.24875827133655548
0 0.16509678959846497 0.24995903670787811
0 0.16663309931755066 0.25052151083946228
0 0.16853070259094238 0.25136423110961914
0 0.16997279226779938 0.2523132860660553
0.026128461584448814 0.17229506373405457 0.25357896089553833
0.089477978646755219 0.17452345788478851 0.25498005747795105
0.14395143091678619 0.17769573628902435 0.25614729523658752
0.19746772944927216 0.18208207190036774 0.25773036479949951
0.25294229388237 0.18645460903644562 0.25915044546127319
0.3125247061252594 0.1917463093996048 0.26058679819107056
0.37469428777694702 0.19647666811943054 0.26108130812644958
0.44132143259048462 0.20262771844863892 0.26234865188598633
0.50901013612747192 0.21033324301242828 0.26303711533546448
0.57596921920776367 0.22020293772220612 0.26316991448402405
0.64129257202148438 0.23467116057872772 0.26305201649665833
0.70303678512573242 0.25463715195655823 0.26207628846168518
0.76265019178390503 0.28212329745292664 0.26108387112617493
0.81662654876708984 0.31445473432540894 0.25917723774909973
0.86401689052581787 0.3505210280418396 0.25707852840423584
0.90424436330795288 0.38775867223739624 0.25658562779426575
0.93791872262954712 0.4240621030330658 0.25818946957588196
0.96535038948059082 0.45754218101501465 0.26158076524734497
0.98752003908157349 0.48767295479774475 0.26704466342926025
0.99950766563415527 0.51393270492553711 0.27366811037063599
0.99999552965164185 0.54034560918807983 0.28288668394088745
0 0.16047318279743195 0.24706995487213135
0 0.16050241887569427 0.24707815051078796
0 0.16040921211242676 0.24706330895423889
0 0.1606120765209198 0.24712339043617249
0 0.1605164110660553 0.24706372618675232
0 0.16145895421504974 0.24757847189903259
0 0.1628136932849884 0.24853093922138214
0 0.16361784934997559 0.24891375005245209
0 0.16529178619384766 0.24986006319522858
0 0.16698114573955536 0.25060376524925232
0 0.168672114610672 0.25184252858161926
7.6600226748269051e-05 0.1704246997833252 0.25249627232551575
0.032685253769159317 0.17285735905170441 0.25350552797317505
0.096841767430305481 0.17675255239009857 0.25504237413406372
0.15150661766529083 0.18087854981422424 0.25661253929138184
0.20422625541687012 0.18537700176239014 0.25799983739852905
0.25977656245231628 0.1906377375125885 0.25894054770469666
0.31894516944885254 0.19560444355010986 0.26013907790184021
0.38106700778007507 0.20132195949554443 0.26105985045433044
0.44736996293067932 0.20801855623722076 0.26226785778999329
0.51478713750839233 0.2159029096364975 0.26236787438392639
0.58104240894317627 0.22672869265079498 0.26256096363067627
0.64652484655380249 0.24193824827671051 0.26236516237258911
0.70792567729949951 0.2631945013999939 0.2614593505859375
0.76677918434143066 0.29037415981292725 0.26005715131759644
0.82056403160095215 0.32342368364334106 0.25801512598991394
0.86770260334014893 0.35997536778450012 0.25650817155838013
0.90759736299514771 0.39702844619750977 0.25592312216758728
0.94097822904586792 0.43327033519744873 0.25835928320884705
0.96784615516662598 0.46610832214355469 0.26179218292236328
0.98929274082183838 0.49607047438621521 0.26748266816139221
0.9995427131652832 0.52319085597991943 0.27518054842948914
0.99999839067459106 0.54986846446990967 0.28558257222175598
0 0.16044080257415771 0.24707621335983276
0 0.16047473251819611 0.24708828330039978
0 0.16060070693492889 0.24710191786289215
0 0.16072584688663483 0.24716901779174805
0 0.16082702577114105 0.24718111753463745
0 0.16187572479248047 0.24771770834922791
0 0.16319954395294189 0.24847538769245148
0 0.16449962556362152 0.24919825792312622
0 0.16606494784355164 0.24995514750480652
0 0.16822972893714905 0.25097319483757019
0 0.17033243179321289 0.25161939859390259
0.0015482489252462983 0.17330728471279144 0.25256520509719849
0.046887025237083435 0.17676004767417908 0.25373023748397827
0.10765307396650314 0.18053293228149414 0.25502684712409973
0.16046881675720215 0.18547610938549042 0.25633919239044189
0.21182176470756531 0.19028165936470032 0.25737941265106201
0.26686027646064758 0.19556534290313721 0.25871098041534424
0.32467839121818542 0.20149695873260498 0.25973191857337952
0.38560310006141663 0.20753209292888641 0.26086920499801636
0.4502551257610321 0.21477502584457397 0.26132887601852417
0.51622319221496582 0.22326374053955078 0.26190328598022461
0.58096873760223389 0.23453593254089355 0.26209399104118347
0.6443219780921936 0.24990406632423401 0.26117828488349915
0.70431375503540039 0.27042335271835327 0.26006942987442017
0.76166743040084839 0.29716286063194275 0.25874948501586914
0.81526374816894531 0.32906576991081238 0.25704076886177063
0.86150181293487549 0.36361902952194214 0.2554297149181366
0.9011046290397644 0.39920371770858765 0.25546729564666748
0.93479132652282715 0.43393531441688538 0.25769129395484924
0.9619826078414917 0.46603411436080933 0.26092666387557983
0.98487591743469238 0.49660694599151611 0.2667926549911499
0.99911701679229736 0.5229155421257019 0.27363896369934082
1 0.54873204231262207 0.28351891040802002
0 0.16365392506122589 0.24792057275772095
0 0.16399089992046356 0.24786671996116638
0 0.164478600025177 0.24830320477485657
0 0.16499479115009308 0.24824060499668121
0 0.16538318991661072 0.24838948249816895
0 0.16614300012588501 0.24834507703781128
0 0.1675385981798172 0.24910563230514526
0 0.16839690506458282 0.24947360157966614
0 0.1702864021062851 0.25011420249938965
0 0.17261864244937897 0.25094631314277649
0 0.17532609403133392 0.25182223320007324
0.0082944296300411224 0.17835088074207306 0.25297075510025024
0.065399900078773499 0.18222081661224365 0.25391185283660889
0.12153500318527222 0.18684713542461395 0.25495073199272156
0.17275519669055939 0.19192840158939362 0.25644716620445251
0.22403517365455627 0.19705022871494293 0.25748816132545471
0.27875834703445435 0.20291081070899963 0.25853791832923889
0.33630719780921936 0.20930282771587372 0.2593626081943512
0.39713233709335327 0.21621303260326385 0.26013943552970886
0.46144494414329529 0.22421413660049438 0.26082083582878113
0.52686327695846558 0.23383735120296478 0.26081541180610657
0.59092980623245239 0.24643465876579285 0.26044526696205139
0.65328043699264526 0.26320114731788635 0.25983059406280518
0.71278524398803711 0.2850041389465332 0.25847712159156799
0.76899206638336182 0.31210252642631531 0.25697830319404602
0.82129752635955811 0.3441317081451416 0.2552916407585144
0.86674124002456665 0.37846747040748596 0.25433588027954102
0.90551340579986572 0.41360193490982056 0.25514823198318481
0.93791705369949341 0.44710904359817505 0.25734922289848328
0.9645538330078125 0.47825968265533447 0.26124414801597595
0.98648750782012939 0.50740373134613037 0.26692992448806763
0.99932795763015747 0.53254169225692749 0.27442213892936707
1 0.55777359008789062 0.28496485948562622
0 0.17049556970596313 0.24960024654865265
0 0.1707148402929306 0.24955494701862335
0 0.17100690305233002 0.24997255206108093
0 0.17158600687980652 0.24977658689022064
0 0.17229412496089935 0.24987930059432983
0 0.17362934350967407 0.25002235174179077
0 0.17544427514076233 0.24979807436466217
0 0.17619170248508453 0.25022563338279724
0 0.17776629328727722 0.25052458047866821
0 0.17955607175827026 0.25096720457077026
0 0.18202534317970276 0.25176605582237244
0.022972898557782173 0.18558098375797272 0.25249901413917542
0.084165789186954498 0.18946380913257599 0.25365760922431946
0.13622631132602692 0.1945197582244873 0.25487005710601807
0.18588188290596008 0.19972190260887146 0.25582575798034668
0.23581647872924805 0.20554423332214355 0.25648370385169983
0.28941905498504639 0.21201984584331512 0.25771090388298035
0.34630304574966431 0.21929460763931274 0.25862151384353638
0.40637469291687012 0.22682817280292511 0.25917342305183411
0.46949994564056396 0.23539038002490997 0.25938373804092407
0.53337013721466064 0.24644698202610016 0.25943654775619507
0.59568107128143311 0.25954222679138184 0.2589363157749176
0.65712076425552368 0.27694031596183777 0.25802621245384216
0.71514296531677246 0.29935845732688904 0.25679907202720642
0.77074497938156128 0.32655021548271179 0.25542247295379639
0.82253187894821167 0.35859465599060059 0.25427901744842529
0.86765873432159424 0.39211693406105042 0.25424975156784058
0.90565764904022217 0.42625975608825684 0.25472092628479004
0.93787825107574463 0.4590090811252594 0.25712829828262329
0.96441000699996948 0.48981755971908569 0.26119518280029297
0.98616665601730347 0.51773637533187866 0.26717761158943176
0.99869221448898315 0.5432848334312439 0.275453120470047
0.99999141693115234 0.56756514310836792 0.28620332479476929
0 0.17911086976528168 0.25128358602523804
0 0.17952857911586761 0.251382976770401
0 0.17967173457145691 0.2512986958026886
0 0.18039098381996155 0.25104907155036926
0 0.18103806674480438 0.25128313899040222
0 0.18263603746891022 0.2514813244342804
0 0.18491002917289734 0.2516007125377655
0 0.18689714372158051 0.25133061408996582
0 0.18853992223739624 0.25159761309623718
0 0.19015881419181824 0.25188082456588745
0.0011050574248656631 0.19219787418842316 0.25210148096084595
0.045979764312505722 0.19535264372825623 0.25305384397506714
0.1032814085483551 0.19973966479301453 0.25369414687156677
0.15202561020851135 0.20468738675117493 0.25462973117828369
0.199909508228302 0.21049875020980835 0.25550705194473267
0.2492881715297699 0.21702036261558533 0.25656229257583618
0.30217868089675903 0.22359229624271393 0.2572217583656311
0.3577674925327301 0.23124587535858154 0.25770410895347595
0.41640251874923706 0.23963212966918945 0.25786828994750977
0.4782899022102356 0.2498076856136322 0.2579655647277832
0.54008084535598755 0.26120841503143311 0.25793859362602234
0.59988975524902344 0.27462852001190186 0.25691881775856018
0.65949887037277222 0.29287213087081909 0.25623109936714172
0.71625256538391113 0.31494593620300293 0.25546029210090637
0.77022761106491089 0.34146174788475037 0.254219651222229
0.82065623998641968 0.37232738733291626 0.25342079997062683
0.86434566974639893 0.40432411432266235 0.25292810797691345
0.90159308910369873 0.43640300631523132 0.2539094090461731
0.93302112817764282 0.46746182441711426 0.25608488917350769
0.95919036865234375 0.49633258581161499 0.25969323515892029
0.98156028985977173 0.5236019492149353 0.26587951183319092
0.99776047468185425 0.54772490262985229 0.27358663082122803
0.99996143579483032 0.57152009010314941 0.28411141037940979
0 0.19053880870342255 0.25346910953521729
0 0.19095849990844727 0.25311988592147827
0 0.19141720235347748 0.25254806876182556
0 0.1917077898979187 0.25257262587547302
0 0.19271139800548553 0.2534327507019043
0 0.19410435855388641 0.25365784764289856
0 0.19632580876350403 0.25312149524688721
0 0.19908036291599274 0.25319197773933411
0 0.20209193229675293 0.2530900239944458
0 0.2049868106842041 0.25317791104316711
0.004282874520868063 0.20735390484333038 0.25308376550674438
0.063035331666469574 0.21048463881015778 0.25353613495826721
0.12035945802927017 0.21385274827480316 0.25361162424087524
0.16928276419639587 0.21786114573478699 0.25388467311859131
0.21739301085472107 0.22370053827762604 0.25478300452232361
0.26621755957603455 0.23019035160541534 0.25516843795776367
0.31846368312835693 0.23790533840656281 0.25575944781303406
0.37406846880912781 0.24654597043991089 0.25636023283004761
0.43204590678215027 0.25598573684692383 0.25606885552406311
0.49308660626411438 0.26646542549133301 0.25579562783241272
0.5535321831703186 0.27945253252983093 0.25566115975379944
0.61239296197891235 0.29459139704704285 0.25523358583450317
0.67096495628356934 0.31393682956695557 0.25451308488845825
0.72629857063293457 0.33681097626686096 0.25385889410972595
0.77883398532867432 0.36400210857391357 0.25314632058143616
0.82747286558151245 0.39433479309082031 0.25202137231826782
0.86954808235168457 0.42542552947998047 0.25175639986991882
0.90574073791503906 0.45625713467597961 0.2529195249080658
0.93563580513000488 0.48581370711326599 0.25528675317764282
0.96122223138809204 0.51340413093566895 0.25999712944030762
0.98267126083374023 0.53899353742599487 0.26637876033782959
0.99793630838394165 0.56125473976135254 0.2742844820022583
0.99995720386505127 0.58384698629379272 0.28557649254798889
0 0.20476607978343964 0.25423884391784668
0 0.20500266551971436 0.25414121150970459
0 0.20548471808433533 0.25433796644210815
0 0.20629177987575531 0.25474247336387634
0 0.20678006112575531 0.25526979565620422
0 0.20857936143875122 0.25559878349304199
0 0.21109125018119812 0.25539925694465637
0 0.21403799951076508 0.25537315011024475
0 0.21759945154190063 0.2549666166305542
0 0.22181107103824615 0.25473898649215698
0.009237365797162056 0.22572439908981323 0.25465428829193115
0.074523724615573883 0.229451984167099 0.25441202521324158
0.1313779205083847 0.23355802893638611 0.25462353229522705
0.18099775910377502 0.2375522255897522 0.25448459386825562
0.22983786463737488 0.24201701581478119 0.25447875261306763
0.2788195013999939 0.24708297848701477 0.25448110699653625
0.33026289939880371 0.25417378544807434 0.25444245338439941
0.38430261611938477 0.26286274194717407 0.25454309582710266
0.44068896770477295 0.27289760112762451 0.25480177998542786
0.49970722198486328 0.28412696719169617 0.25442254543304443
0.55793303251266479 0.29713782668113708 0.25460907816886902
0.61521977186203003 0.3130824863910675 0.25431844592094421
0.67172300815582275 0.33211573958396912 0.25358462333679199
0.72602236270904541 0.35517168045043945 0.25305342674255371
0.77732610702514648 0.38184937834739685 0.25215587019920349
0.82507652044296265 0.41112595796585083 0.25097319483757019
0.866432785987854 0.44075396656990051 0.25075563788414001
0.90240836143493652 0.47058522701263428 0.25198757648468018
0.93248951435089111 0.49908813834190369 0.25449863076210022
0.9580041766166687 0.52562820911407471 0.25922557711601257
0.97959268093109131 0.55054605007171631 0.2659527063369751
0.99527108669281006 0.57255846261978149 0.27429473400115967
0.99996143579483032 0.59424227476119995 0.28543883562088013
0 0.2234465628862381 0.25620383024215698
0 0.22400094568729401 0.25660106539726257
0 0.2240588366985321 0.25674617290496826
0 0.2249349057674408 0.25721952319145203
0 0.22551882266998291 0.25747370719909668
0 0.22731344401836395 0.25772169232368469
0 0.23047943413257599 0.25765013694763184
0 0.23349094390869141 0.2574617862701416
0 0.23735480010509491 0.2570202648639679
0 0.24160297214984894 0.25649139285087585
0.01244946476072073 0.24684529006481171 0.2562287449836731
0.088329114019870758 0.25165539979934692 0.25538492202758789
0.14510725438594818 0.25694692134857178 0.25515520572662354
0.19512787461280823 0.26200497150421143 0.25485560297966003
0.24482765793800354 0.26729032397270203 0.25465545058250427
0.29436773061752319 0.27246680855751038 0.25422164797782898
0.34608280658721924 0.27790984511375427 0.25367626547813416
0.39974862337112427 0.28405895829200745 0.25332450866699219
0.45474216341972351 0.29324990510940552 0.25340402126312256
0.51244997978210449 0.30523937940597534 0.25381243228912354
0.5687369704246521 0.31903430819511414 0.25347152352333069
0.62375032901763916 0.33516338467597961 0.25303494930267334
0.67867058515548706 0.3551098108291626 0.25234445929527283
0.73086428642272949 0.37803956866264343 0.25141477584838867
0.77996844053268433 0.40366297960281372 0.25025889277458191
0.8262171745300293 0.43173107504844666 0.24953074753284454
0.86568903923034668 0.45988938212394714 0.24929459393024445
0.90024185180664062 0.48725986480712891 0.25037506222724915
0.92965376377105713 0.51396715641021729 0.25344645977020264
0.95456910133361816 0.53857231140136719 0.25807371735572815
0.97608375549316406 0.56198227405548096 0.2647041380405426
0.99321186542510986 0.58196121454238892 0.27290114760398865
0.99998921155929565 0.60321253538131714 0.28440308570861816
0 0.24711057543754578 0.25833746790885925
0 0.24776628613471985 0.25872135162353516
0 0.24775886535644531 0.25879955291748047
0 0.24865560233592987 0.25919070839881897
0 0.24963311851024628 0.25956928730010986
0 0.25130513310432434 0.25993159413337708
0 0.25416621565818787 0.25965902209281921
0 0.25793352723121643 0.25933834910392761
0 0.26194870471954346 0.25884771347045898
0 0.26668500900268555 0.25820520520210266
0.010601412504911423 0.27195066213607788 0.25754806399345398
0.093129366636276245 0.27810439467430115 0.25689616799354553
0.16079792380332947 0.28483977913856506 0.25638827681541443
0.21299506723880768 0.2905116081237793 0.25587370991706848
0.2638077437877655 0.29723739624023438 0.25559252500534058
0.31423315405845642 0.30309388041496277 0.25512203574180603
0.36658686399459839 0.30936932563781738 0.25460907816886902
0.42058020830154419 0.31596913933753967 0.25388383865356445
0.47434863448143005 0.3221687376499176 0.25326046347618103
0.52938264608383179 0.3310529887676239 0.25245764851570129
0.58384203910827637 0.34464541077613831 0.25184711813926697
0.63761502504348755 0.36201295256614685 0.25153663754463196
0.69017255306243896 0.38234397768974304 0.25009593367576599
0.74147987365722656 0.40560698509216309 0.24911230802536011
0.78942281007766724 0.43145361542701721 0.24803157150745392
0.83370518684387207 0.45876726508140564 0.24697950482368469
0.87182033061981201 0.48584780097007751 0.24733276665210724
0.90502017736434937 0.51227116584777832 0.24887320399284363
0.93369221687316895 0.53772389888763428 0.25288978219032288
0.9577142596244812 0.56120055913925171 0.25817975401878357
0.97777837514877319 0.58190500736236572 0.26549831032752991
0.99394631385803223 0.60076349973678589 0.27450492978096008
0.99994230270385742 0.62095236778259277 0.28724756836891174
0 0.27502170205116272 0.26079151034355164
0 0.27481326460838318 0.26100113987922668
0 0.27506768703460693 0.26111471652984619
0 0.27588632702827454 0.26178786158561707
0 0.27662080526351929 0.26203566789627075
0 0.27785924077033997 0.26236951351165771
0 0.28082406520843506 0.26249012351036072
0 0.28444674611091614 0.26197466254234314
0 0.28876966238021851 0.26146650314331055
0 0.29348269104957581 0.26131632924079895
0.0050356569699943066 0.29892128705978394 0.260640949010849
0.085039429366588593 0.30425497889518738 0.25975793600082397
0.15783311426639557 0.31125947833061218 0.25924789905548096
0.22064165771007538 0.31880143284797668 0.25795793533325195
0.27351734042167664 0.32559221982955933 0.2571692168712616
0.32397729158401489 0.33250024914741516 0.25647282600402832
0.37581339478492737 0.33973520994186401 0.25597786903381348
0.4282626211643219 0.34660652279853821 0.25486806035041809
0.48008519411087036 0.35340335965156555 0.25374889373779297
0.53273403644561768 0.36094358563423157 0.25258976221084595
0.5831301212310791 0.36885619163513184 0.25119501352310181
0.63298684358596802 0.38152968883514404 0.25017586350440979
0.68418478965759277 0.40024596452713013 0.24874812364578247
0.7334439754486084 0.42256265878677368 0.24791620671749115
0.78004729747772217 0.44627872109413147 0.24629344046115875
0.82308918237686157 0.47169223427772522 0.24568019807338715
0.86111438274383545 0.49687653779983521 0.24569165706634521
0.8943067193031311 0.52128982543945312 0.24718053638935089
0.92269474267959595 0.54496747255325317 0.25015676021575928
0.9469074010848999 0.56728279590606689 0.25516629219055176
0.96806931495666504 0.58740007877349854 0.26218488812446594
0.9857717752456665 0.60525059700012207 0.27002286911010742
0.99880737066268921 0.62459629774093628 0.28222084045410156
0 0.31159096956253052 0.26383599638938904
0 0.31183150410652161 0.26463854312896729
0 0.31158512830734253 0.26471534371376038
0 0.31160840392112732 0.26503321528434753
0 0.31211584806442261 0.26536929607391357
0 0.31308874487876892 0.26618695259094238
0 0.31541678309440613 0.26611393690109253
0 0.31888467073440552 0.26575839519500732
0 0.3233044445514679 0.26513892412185669
0 0.32821366190910339 0.26445797085762024
0.0045894021168351173 0.33370786905288696 0.26386409997940063
0.088419221341609955 0.33948957920074463 0.26296785473823547
0.16395096480846405 0.3462243378162384 0.26215070486068726
0.22778159379959106 0.35327571630477905 0.26052528619766235
0.29109597206115723 0.36233755946159363 0.25883251428604126
0.34569188952445984 0.36969107389450073 0.25772866606712341
0.39756426215171814 0.37758851051330566 0.25653249025344849
0.44962430000305176 0.38513246178627014 0.25520282983779907
0.50066268444061279 0.39317044615745544 0.25377893447875977
0.55138593912124634 0.40149521827697754 0.25242474675178528
0.60005199909210205 0.41011378169059753 0.25071358680725098
0.6475447416305542 0.41996210813522339 0.248655766248703
0.69522684812545776 0.43212902545928955 0.24648627638816833
0.74192523956298828 0.45059800148010254 0.24475382268428802
0.7866058349609375 0.47357293963432312 0.24346350133419037
0.82822763919830322 0.49790787696838379 0.24274811148643494
0.86427372694015503 0.52143478393554688 0.2430693656206131
0.89628273248672485 0.54480594396591187 0.24532078206539154
0.92365479469299316 0.56690120697021484 0.24890933930873871
0.94694900512695312 0.5869479775428772 0.25424027442932129
0.96712034940719604 0.60505086183547974 0.26155486702919006
0.98448854684829712 0.62132316827774048 0.27029350399971008
0.99815458059310913 0.63981384038925171 0.28292840719223022
0 0.34933310747146606 0.26751461625099182
0 0.34910213947296143 0.26762264966964722
0 0.3488849401473999 0.26774391531944275
0 0.34919622540473938 0.26785799860954285
0 0.34981322288513184 0.26879921555519104
0 0.35073140263557434 0.26905983686447144
0 0.35256502032279968 0.26984375715255737
0 0.35598146915435791 0.26931565999984741
0 0.36008328199386597 0.26881945133209229
0 0.36528757214546204 0.26850050687789917
0.0035304278135299683 0.37103292346000671 0.26740929484367371
0.089093074202537537 0.37690120935440063 0.26614364981651306
0.16911837458610535 0.38386857509613037 0.26501816511154175
0.23442387580871582 0.3906918466091156 0.26361316442489624
