Textures/95.cube
# Created by: G'MIC (https://gmic.eu)
TITLE "Polaroid_PX-70_Warm_3.cube"
# LUT size
LUT_3D_SIZE 33
# Data domain
DOMAIN_MIN 0.0 0.0 0.0
DOMAIN_MAX 1.0 1.0 1.0
# LUT data points
0.11199229955673218 0.12082242965698242 0.14283549785614014
0.11224644631147385 0.12091083824634552 0.14316031336784363
0.11231476068496704 0.12092418968677521 0.14321303367614746
0.11206427961587906 0.12089636921882629 0.14278110861778259
0.11210738122463226 0.12083650380373001 0.1429065465927124
0.11576800048351288 0.12107045948505402 0.14313662052154541
0.12800738215446472 0.12196876853704453 0.14468251168727875
0.14048111438751221 0.12253972887992859 0.14590160548686981
0.15668757259845734 0.12297260016202927 0.14710547029972076
0.1749001145362854 0.12344889342784882 0.14887890219688416
0.19585700333118439 0.12397017329931259 0.15069274604320526
0.21917614340782166 0.12351777404546738 0.15189427137374878
0.24505101144313812 0.12289430946111679 0.15380625426769257
0.27535760402679443 0.12263388931751251 0.15640425682067871
0.31016638875007629 0.12083934247493744 0.15875796973705292
0.35046041011810303 0.11964541673660278 0.16103844344615936
0.39877864718437195 0.1186416819691658 0.16318660974502563
0.45326784253120422 0.11725332587957382 0.16501410305500031
0.51185888051986694 0.11562447249889374 0.16643917560577393
0.57475548982620239 0.11620745807886124 0.16764427721500397
0.63622939586639404 0.12077856063842773 0.16760613024234772
0.69541192054748535 0.13403217494487762 0.16693985462188721
0.75114667415618896 0.15705491602420807 0.16545091569423676
0.80274713039398193 0.18847963213920593 0.16296021640300751
0.85010123252868652 0.22743676602840424 0.15938633680343628
0.89152258634567261 0.2715073823928833 0.15426908433437347
0.92647349834442139 0.31697544455528259 0.14929598569869995
0.95451778173446655 0.36037257313728333 0.14588519930839539
0.97699803113937378 0.4011208713054657 0.14697675406932831
0.99420619010925293 0.43712732195854187 0.15221221745014191
0.99995124340057373 0.47025850415229797 0.1613188236951828
0.99997198581695557 0.49778935313224792 0.17231442034244537
0.99999380111694336 0.52571779489517212 0.18786521255970001
0.11210954189300537 0.12097910791635513 0.14324378967285156
0.1123591810464859 0.12103269994258881 0.14310497045516968
0.1123211458325386 0.12108294665813446 0.14329861104488373
0.11220680177211761 0.12086030840873718 0.14305475354194641
0.11243555694818497 0.12112341821193695 0.14348442852497101
0.11758293211460114 0.12116681039333344 0.14369867742061615
0.12987205386161804 0.12187477946281433 0.14478984475135803
0.14252683520317078 0.12256080657243729 0.14593131840229034
0.15896099805831909 0.12369291484355927 0.14792269468307495
0.1770404577255249 0.12357719987630844 0.14903219044208527
0.1975904256105423 0.12362930923700333 0.15031677484512329
0.22118845582008362 0.12358447164297104 0.15209591388702393
0.24775072932243347 0.12335099279880524 0.15397827327251434
0.27783745527267456 0.12265456467866898 0.1563999354839325
0.31367304921150208 0.12225383520126343 0.1584966629743576
0.35601747035980225 0.12220296263694763 0.1608707457780838
0.4043843150138855 0.12180234491825104 0.16278985142707825
0.45956379175186157 0.1213131919503212 0.16486267745494843
0.51793032884597778 0.12047123163938522 0.16590368747711182
0.5806124210357666 0.12211565673351288 0.16656124591827393
0.64245074987411499 0.12866158783435822 0.16678035259246826
0.70127707719802856 0.14336496591567993 0.1662391722202301
0.75647693872451782 0.16708791255950928 0.16443833708763123
0.80744224786758423 0.19895768165588379 0.16127622127532959
0.85465729236602783 0.23859938979148865 0.15751737356185913
0.89556372165679932 0.28253909945487976 0.15240085124969482
0.92976140975952148 0.32721894979476929 0.1472533792257309
0.95706355571746826 0.37032961845397949 0.14483152329921722
0.97894716262817383 0.41011884808540344 0.14679691195487976
0.99570327997207642 0.44554886221885681 0.15275396406650543
0.99999731779098511 0.47705373167991638 0.16209623217582703
0.99996209144592285 0.5040661096572876 0.17368976771831512
0.99999552965164185 0.53140580654144287 0.18955101072788239
0.11205969750881195 0.12081027030944824 0.14285805821418762
0.11216085404157639 0.12084618210792542 0.14290539920330048
0.11245264112949371 0.12096744775772095 0.14337825775146484
0.11235230416059494 0.1210717111825943 0.14314956963062286
0.11262371391057968 0.12068615108728409 0.14279477298259735
0.12051920592784882 0.12134470790624619 0.14345256984233856
0.1325945109128952 0.12213340401649475 0.14497636258602142
0.14496123790740967 0.12277828902006149 0.14642150700092316
0.16121755540370941 0.12343830615282059 0.1477835476398468
0.17945347726345062 0.12359375506639481 0.14959418773651123
0.20026001334190369 0.12415720522403717 0.15118490159511566
0.22370865941047668 0.12350117415189743 0.15231098234653473
0.25064423680305481 0.12359647452831268 0.15411777794361115
0.28276073932647705 0.1250244528055191 0.15655273199081421
0.31996551156044006 0.12593814730644226 0.1589789092540741
0.36219233274459839 0.12663829326629639 0.16098521649837494
0.4109032154083252 0.12635698914527893 0.16292718052864075
0.4659518301486969 0.12638381123542786 0.16447004675865173
0.52452892065048218 0.12685619294643402 0.16549535095691681
0.58661741018295288 0.13022492825984955 0.16621299088001251
0.64752292633056641 0.13839992880821228 0.16603510081768036
0.70544064044952393 0.15388548374176025 0.16487991809844971
0.76024466753005981 0.1785142719745636 0.16298431158065796
0.81129783391952515 0.21099682152271271 0.15987031161785126
0.85790735483169556 0.25021344423294067 0.15556518733501434
0.89813607931137085 0.2936948835849762 0.1499229222536087
0.9320671558380127 0.33841732144355774 0.14535865187644958
0.95878326892852783 0.38053330779075623 0.14361831545829773
0.98060506582260132 0.42009821534156799 0.14615163207054138
0.99588876962661743 0.45466351509094238 0.1530616283416748
0.99994784593582153 0.48573893308639526 0.16313947737216949
0.99999707937240601 0.51328080892562866 0.17650033533573151
0.99999839067459106 0.54094225168228149 0.19382345676422119
0.11242356896400452 0.12092260271310806 0.14316935837268829
0.11241729557514191 0.12096042186021805 0.14318142831325531
0.11247976869344711 0.12113057821989059 0.1432056725025177
0.11233259737491608 0.1213684007525444 0.14303348958492279
0.11470885574817657 0.12118285149335861 0.14344604313373566
0.12473567575216293 0.12179115414619446 0.14440169930458069
0.13604281842708588 0.12239467352628708 0.145504429936409
0.14910943806171417 0.12330039590597153 0.14681334793567657
0.16543211042881012 0.12391496449708939 0.1479833573102951
0.18415598571300507 0.12464927136898041 0.14967861771583557
0.20535023510456085 0.12567493319511414 0.15088003873825073
0.23013287782669067 0.12651239335536957 0.15288004279136658
0.25807502865791321 0.12794613838195801 0.15455660223960876
0.29036232829093933 0.12962958216667175 0.15666426718235016
0.32740446925163269 0.13096627593040466 0.15867850184440613
0.36927279829978943 0.13212089240550995 0.16040775179862976
0.41798543930053711 0.13329538702964783 0.16265346109867096
0.47182050347328186 0.13431160151958466 0.16399197280406952
0.52881801128387451 0.13652303814888 0.16473561525344849
0.58927035331726074 0.14074572920799255 0.16496957838535309
0.64897769689559937 0.15048079192638397 0.16462220251560211
0.70553326606750488 0.16644184291362762 0.16363000869750977
0.75885361433029175 0.19034551084041595 0.16116002202033997
0.80805313587188721 0.22108185291290283 0.15791669487953186
0.85359132289886475 0.25869846343994141 0.153249591588974
0.89387601613998413 0.30035912990570068 0.14784647524356842
0.92711740732192993 0.34205871820449829 0.14368341863155365
0.95425808429718018 0.38306218385696411 0.14249104261398315
0.97613251209259033 0.42057880759239197 0.14526867866516113
0.99322199821472168 0.45462396740913391 0.15145325660705566
0.99997580051422119 0.48606720566749573 0.16167573630809784
0.99997860193252563 0.51307553052902222 0.17377471923828125
1 0.53952819108963013 0.19020271301269531
0.11310140043497086 0.12462413311004639 0.14466109871864319
0.11310684680938721 0.12496880441904068 0.14458814263343811
0.11330965906381607 0.12592385709285736 0.14481724798679352
0.11343917995691299 0.12623894214630127 0.14501874148845673
0.11773581057786942 0.12665081024169922 0.14525535702705383
0.13062041997909546 0.12689587473869324 0.14529523253440857
0.14390578866004944 0.12750628590583801 0.14626972377300262
0.15786026418209076 0.1277129203081131 0.1471676379442215
0.17479357123374939 0.12846408784389496 0.14841830730438232
0.19353826344013214 0.12961868941783905 0.14995533227920532
0.21493968367576599 0.13095641136169434 0.1513228714466095
0.2399408370256424 0.1322907954454422 0.15278315544128418
0.267995685338974 0.13385115563869476 0.15437577664852142
0.30052036046981812 0.13629268109798431 0.15664011240005493
0.33835822343826294 0.13838094472885132 0.15874005854129791
0.38084098696708679 0.14008677005767822 0.16010557115077972
0.42957523465156555 0.14252749085426331 0.16168822348117828
0.48337829113006592 0.14477832615375519 0.16292841732501984
0.54052752256393433 0.14862687885761261 0.16353721916675568
0.60014235973358154 0.15519993007183075 0.16336475312709808
0.65883266925811768 0.16667410731315613 0.16281041502952576
0.71367567777633667 0.18419168889522552 0.16116911172866821
0.76604962348937988 0.20949350297451019 0.15816634893417358
0.81431519985198975 0.240864098072052 0.1542779952287674
0.85876059532165527 0.27820616960525513 0.14964284002780914
0.89800643920898438 0.3190867006778717 0.14453499019145966
0.93028008937835693 0.35971128940582275 0.14110347628593445
0.95662504434585571 0.39866933226585388 0.14115956425666809
0.97720986604690552 0.43457096815109253 0.14456064999103546
0.99382829666137695 0.4674856960773468 0.15179131925106049
0.99998211860656738 0.49707150459289551 0.16223631799221039
0.99997431039810181 0.52274006605148315 0.17517580091953278
1 0.5485304594039917 0.19253332912921906
0.11478646844625473 0.13309459388256073 0.14747485518455505
0.1147470697760582 0.13335913419723511 0.14764726161956787
0.11482421308755875 0.13397549092769623 0.14780908823013306
0.11563632637262344 0.13446514308452606 0.14762398600578308
0.12093696743249893 0.13473115861415863 0.14789131283760071
0.13263839483261108 0.13657663762569427 0.14811614155769348
0.14947724342346191 0.13721349835395813 0.14799679815769196
0.16676145792007446 0.13715080916881561 0.1484324038028717
0.18519078195095062 0.13692162930965424 0.14919207990169525
0.20449945330619812 0.13745957612991333 0.14977587759494781
0.22609652578830719 0.13874709606170654 0.15094579756259918
0.25121176242828369 0.14032632112503052 0.15280607342720032
0.27919867634773254 0.14252388477325439 0.15436027944087982
0.31202009320259094 0.14496597647666931 0.15617159008979797
0.34991943836212158 0.14767388999462128 0.15799480676651001
0.39208140969276428 0.15059205889701843 0.15929332375526428
0.44056034088134766 0.1537068635225296 0.16075228154659271
0.49391135573387146 0.15798299014568329 0.16154314577579498
0.54956626892089844 0.16335850954055786 0.16166837513446808
0.60768437385559082 0.17189775407314301 0.16125184297561646
0.66454923152923584 0.18491512537002563 0.16014239192008972
0.7178347110748291 0.20391082763671875 0.15815149247646332
0.76901733875274658 0.22872680425643921 0.15485052764415741
0.81621605157852173 0.25997677445411682 0.15035931766033173
0.85967373847961426 0.29643052816390991 0.14616204798221588
0.89828586578369141 0.33577212691307068 0.14162822067737579
0.93020796775817871 0.37530863285064697 0.13907207548618317
0.95608144998550415 0.41239690780639648 0.13935799896717072
0.97688448429107666 0.44726517796516418 0.14337724447250366
0.99283850193023682 0.47895190119743347 0.15133647620677948
0.99976414442062378 0.50782245397567749 0.16262766718864441
1 0.53351759910583496 0.17695768177509308
0.99999141693115234 0.55853748321533203 0.19459791481494904
0.11456607282161713 0.14418961107730865 0.15026205778121948
0.11468872427940369 0.1445835679769516 0.15037906169891357
0.11514108628034592 0.14484147727489471 0.15019999444484711
0.11790535598993301 0.14566345512866974 0.1499926745891571
0.12457166612148285 0.14598514139652252 0.15029454231262207
0.13565340638160706 0.14768879115581512 0.15073832869529724
0.15195876359939575 0.14930430054664612 0.15060892701148987
0.17275853455066681 0.15070794522762299 0.15028238296508789
0.19276145100593567 0.15090993046760559 0.15050269663333893
0.2142304927110672 0.15063957870006561 0.15089033544063568
0.23800428211688995 0.15083310008049011 0.15173318982124329
0.26403966546058655 0.15179502964019775 0.15265324711799622
0.29288432002067566 0.1541203111410141 0.15414226055145264
0.32561099529266357 0.1570533812046051 0.15586130321025848
0.36333504319190979 0.1601698100566864 0.15710482001304626
0.40553781390190125 0.16396711766719818 0.15848544239997864
0.45330342650413513 0.16851156949996948 0.15939471125602722
0.50518012046813965 0.17407403886318207 0.1595657616853714
0.55962449312210083 0.18141146004199982 0.15930914878845215
0.61562281847000122 0.19178368151187897 0.15855036675930023
0.67015045881271362 0.20615281164646149 0.15702919661998749
0.72141158580780029 0.22526755928993225 0.1541726291179657
0.77115154266357422 0.25044989585876465 0.15079140663146973
0.81674695014953613 0.2802254855632782 0.14698813855648041
0.85893779993057251 0.31467074155807495 0.14294680953025818
0.89605426788330078 0.3520524799823761 0.13938982784748077
0.92716264724731445 0.38844513893127441 0.13697698712348938
0.9524579644203186 0.42364519834518433 0.13714182376861572
0.97273057699203491 0.45613992214202881 0.14127303659915924
0.98920351266860962 0.48569592833518982 0.14876331388950348
0.99949604272842407 0.51344394683837891 0.1602347195148468
1 0.53798949718475342 0.17401006817817688
0.99996143579483032 0.56201642751693726 0.19194473326206207
0.11380697786808014 0.15842290222644806 0.15331047773361206
0.11490453034639359 0.15888279676437378 0.15291263163089752
0.11704298853874207 0.15936107933521271 0.15252381563186646
0.12246557325124741 0.15964101254940033 0.15275810658931732
0.13033641874790192 0.16023896634578705 0.15351635217666626
0.14070920646190643 0.16148348152637482 0.15407687425613403
0.15588198602199554 0.16336286067962646 0.15368685126304626
0.17543560266494751 0.16586843132972717 0.15310803055763245
0.19974805414676666 0.16773059964179993 0.15285453200340271
0.22407977283000946 0.16902799904346466 0.15314486622810364
0.24822056293487549 0.16939622163772583 0.15369997918605804
0.27637770771980286 0.17021284997463226 0.15350571274757385
0.30702060461044312 0.1707349419593811 0.15401847660541534
0.34107735753059387 0.1721741110086441 0.15446861088275909
0.37978753447532654 0.1759798526763916 0.15587139129638672
0.42206862568855286 0.18050169944763184 0.15631879866123199
0.46979859471321106 0.18668569624423981 0.15701194107532501
0.52149134874343872 0.19385731220245361 0.15683841705322266
0.57464176416397095 0.20298156142234802 0.15618357062339783
0.62930834293365479 0.21558068692684174 0.15440502762794495
0.68203741312026978 0.23175063729286194 0.15258412063121796
0.7318873405456543 0.25208944082260132 0.15006095170974731
0.78005397319793701 0.27780827879905701 0.14676967263221741
0.82434499263763428 0.30781278014183044 0.14329719543457031
0.86471724510192871 0.34169426560401917 0.13919864594936371
0.9004284143447876 0.37767142057418823 0.13561199605464935
0.92985212802886963 0.41182681918144226 0.13348935544490814
0.9538726806640625 0.44475597143173218 0.13502374291419983
0.97350150346755981 0.47509494423866272 0.14007575809955597
0.9897465705871582 0.50325065851211548 0.14908233284950256
0.99952107667922974 0.52878636121749878 0.16123014688491821
1 0.55119866132736206 0.1757068932056427
0.99995720386505127 0.57406860589981079 0.19426286220550537
0.11573353409767151 0.17549984157085419 0.15499970316886902
0.11848902702331543 0.17583243548870087 0.15530242025852203
0.12272001057863235 0.17582297325134277 0.15565311908721924
0.12914478778839111 0.17658275365829468 0.15614579617977142
0.13696381449699402 0.17714452743530273 0.15697380900382996
0.1474141925573349 0.17858849465847015 0.15753597021102905
0.16172464191913605 0.18084968626499176 0.15707670152187347
0.1801513284444809 0.18336236476898193 0.15694126486778259
0.20330196619033813 0.18610800802707672 0.15629909932613373
0.23065461218357086 0.18888391554355621 0.15541929006576538
0.25871172547340393 0.19128303229808807 0.15545162558555603
0.28767737746238708 0.19284237921237946 0.15546919405460358
0.31902390718460083 0.19470176100730896 0.15546727180480957
0.35379835963249207 0.19634218513965607 0.15525071322917938
0.39334765076637268 0.19844694435596466 0.15484133362770081
0.43560460209846497 0.20141911506652832 0.15448366105556488
0.48231685161590576 0.20697411894798279 0.15411423146724701
0.5319373607635498 0.21529035270214081 0.15367066860198975
0.58329373598098755 0.22585764527320862 0.15267080068588257
0.63574391603469849 0.23909339308738708 0.15134164690971375
0.68600767850875854 0.25574180483818054 0.14958222210407257
0.73390817642211914 0.27633240818977356 0.14742368459701538
0.78012228012084961 0.30116569995880127 0.14397126436233521
0.82346612215042114 0.33024966716766357 0.14037460088729858
0.86274456977844238 0.3625035285949707 0.1363401859998703
0.8976064920425415 0.3961784839630127 0.13237811625003815
0.926582932472229 0.42879930138587952 0.13060849905014038
0.95076543092727661 0.45997744798660278 0.13234123587608337
0.97022366523742676 0.4889833927154541 0.13774174451828003
0.9864766001701355 0.51586276292800903 0.14718933403491974
0.99754756689071655 0.54062628746032715 0.16027134656906128
1 0.56250578165054321 0.17587298154830933
0.99999582767486572 0.58415919542312622 0.19454720616340637
0.12190549075603485 0.19666804373264313 0.15853151679039001
0.12582732737064362 0.19725848734378815 0.15912507474422455
0.13051827251911163 0.19728098809719086 0.15957710146903992
0.13678057491779327 0.19799730181694031 0.1600252240896225
0.1445511132478714 0.19846418499946594 0.16065716743469238
0.15504418313503265 0.19984802603721619 0.16117264330387115
0.1698203980922699 0.20257529616355896 0.16084782779216766
0.18748895823955536 0.20520234107971191 0.16029682755470276
0.20962797105312347 0.20842437446117401 0.15943978726863861
0.23609057068824768 0.21196332573890686 0.15866924822330475
0.26720193028450012 0.2156650573015213 0.1578894704580307
0.30099385976791382 0.21881799399852753 0.1563941091299057
0.33373147249221802 0.22231154143810272 0.1559852808713913
0.36961948871612549 0.22568798065185547 0.15529870986938477
0.41003850102424622 0.22941838204860687 0.15444740653038025
0.45249515771865845 0.23306557536125183 0.15314936637878418
0.49854046106338501 0.236885666847229 0.15210208296775818
0.54703813791275024 0.24215619266033173 0.15082831680774689
0.59685361385345459 0.25219932198524475 0.14970934391021729
0.64688253402709961 0.26662361621856689 0.14817969501018524
0.69512033462524414 0.28407064080238342 0.14636266231536865
0.74085062742233276 0.30470538139343262 0.14358505606651306
0.78522264957427979 0.3295007050037384 0.14004147052764893
0.8266560435295105 0.35771140456199646 0.13586841523647308
0.86425775289535522 0.3876359760761261 0.13125212490558624
0.89724582433700562 0.41917300224304199 0.12777669727802277
0.92505252361297607 0.44932639598846436 0.12658555805683136
0.94810926914215088 0.47756054997444153 0.12910149991512299
0.96761006116867065 0.50419187545776367 0.13527409732341766
0.98312646150588989 0.52861076593399048 0.14482384920120239
0.9961887001991272 0.55191993713378906 0.15854951739311218
1 0.57144474983215332 0.17336371541023254
1 0.59277325868606567 0.19299204647541046
0.12826618552207947 0.22291846573352814 0.16200700402259827
0.13236156105995178 0.2233976423740387 0.16250436007976532
0.13739657402038574 0.22327475249767303 0.16246142983436584
0.14399561285972595 0.22387135028839111 0.16338637471199036
0.15247657895088196 0.22459806501865387 0.16387361288070679
0.16347485780715942 0.22608572244644165 0.16434745490550995
0.17814099788665771 0.22867082059383392 0.16339834034442902
0.19644787907600403 0.23187749087810516 0.16294528543949127
0.21874673664569855 0.23543423414230347 0.16248404979705811
0.24479061365127563 0.23958651721477509 0.16134652495384216
0.27511674165725708 0.24380739033222198 0.16024987399578094
0.31166720390319824 0.24899263679981232 0.15866406261920929
0.35110288858413696 0.25497162342071533 0.15744251012802124
0.38894432783126831 0.25958529114723206 0.15599733591079712
0.43018591403961182 0.26537057757377625 0.15508444607257843
0.47351077198982239 0.27047091722488403 0.15329726040363312
0.51969605684280396 0.2761874794960022 0.15147815644741058
0.5675317645072937 0.28241097927093506 0.14937129616737366
0.61472493410110474 0.28922474384307861 0.14701606333255768
0.66165786981582642 0.29948064684867859 0.14437690377235413
0.70726281404495239 0.31635046005249023 0.1415809839963913
0.75155925750732422 0.33759501576423645 0.13870212435722351
0.79418319463729858 0.36233118176460266 0.13388311862945557
0.83371204137802124 0.38987377285957336 0.12941387295722961
0.86968576908111572 0.41919106245040894 0.1246928945183754
0.90156382322311401 0.44880077242851257 0.12174089998006821
0.92780238389968872 0.47654783725738525 0.12170799076557159
0.95000612735748291 0.50299149751663208 0.12570548057556152
0.96826982498168945 0.52847421169281006 0.13391575217247009
0.98386585712432861 0.55113738775253296 0.14589864015579224
0.99581503868103027 0.57172423601150513 0.16079975664615631
1 0.58975762128829956 0.17709778249263763
1 0.60974693298339844 0.19821923971176147
0.13426141440868378 0.25297948718070984 0.16542306542396545
0.1385694146156311 0.25290676951408386 0.16575758159160614
0.14368551969528198 0.25295209884643555 0.1661149263381958
0.15099398791790009 0.25352033972740173 0.1667189747095108
0.15979012846946716 0.25388407707214355 0.16726091504096985
0.17094339430332184 0.25504836440086365 0.16800186038017273
0.18630027770996094 0.25789394974708557 0.16763642430305481
0.20435492694377899 0.26143288612365723 0.16695421934127808
0.22657974064350128 0.265144944190979 0.1660236120223999
0.25252199172973633 0.26974824070930481 0.16527937352657318
0.28213241696357727 0.27456334233283997 0.16401617228984833
0.31668025255203247 0.27985665202140808 0.16225385665893555
0.35610911250114441 0.28582468628883362 0.16071130335330963
0.40061339735984802 0.2932204008102417 0.15793445706367493
0.4428287148475647 0.29957973957061768 0.15591584146022797
0.48508533835411072 0.30593928694725037 0.15387794375419617
0.53010767698287964 0.31316801905632019 0.15170203149318695
0.57562112808227539 0.32014423608779907 0.14879247546195984
0.62044477462768555 0.32769507169723511 0.1457296758890152
0.66438323259353638 0.33608314394950867 0.14221650362014771
0.70634698867797852 0.34563866257667542 0.13856293261051178
0.74733322858810425 0.36109799146652222 0.13441172242164612
0.78829258680343628 0.38324123620986938 0.1298593133687973
0.82693392038345337 0.40892329812049866 0.12531636655330658
0.86158186197280884 0.43534544110298157 0.1205064132809639
0.89321839809417725 0.46243983507156372 0.11736927181482315
0.91951143741607666 0.4884093701839447 0.11738293617963791
0.94168704748153687 0.51286667585372925 0.12104478478431702
0.96008193492889404 0.53611844778060913 0.12877224385738373
0.97580814361572266 0.55721592903137207 0.1399177759885788
0.9893038272857666 0.57692724466323853 0.15427030622959137
0.99868988990783691 0.59410262107849121 0.16958099603652954
0.99998295307159424 0.61297315359115601 0.19043216109275818
0.13765454292297363 0.29348614811897278 0.16917307674884796
0.14299468696117401 0.29347920417785645 0.16989918053150177
0.14889174699783325 0.29325023293495178 0.17019788920879364
0.15714158117771149 0.29288989305496216 0.17066982388496399
0.1669774204492569 0.29344281554222107 0.17125715315341949
0.17921559512615204 0.29432752728462219 0.17220441997051239
