Textures/95.cube
# Created by: G'MIC (https://gmic.eu)
TITLE "Polaroid_PX-70_Warm_3.cube"
# LUT size
LUT_3D_SIZE 5
# Data domain
DOMAIN_MIN 0.0 0.0 0.0
DOMAIN_MAX 1.0 1.0 1.0
# LUT data points
0.11199229955673218 0.12082242965698242 0.14283549785614014
0.15668757259845734 0.12297260016202927 0.14710547029972076
0.39877864718437195 0.1186416819691658 0.16318660974502563
0.85010123252868652 0.22743676602840424 0.15938633680343628
0.99999380111694336 0.52571779489517212 0.18786521255970001
0.11573353409767151 0.17549984157085419 0.15499970316886902
0.20330196619033813 0.18610800802707672 0.15629909932613373
0.48231685161590576 0.20697411894798279 0.15411423146724701
0.86274456977844238 0.3625035285949707 0.1363401859998703
0.99999582767486572 0.58415919542312622 0.19454720616340637
0.14212831854820251 0.48493921756744385 0.17311148345470428
0.27735599875450134 0.48308947682380676 0.17811942100524902
0.58859455585479736 0.52719444036483765 0.15033094584941864
0.86836373805999756 0.60452288389205933 0.10839676111936569
0.99556136131286621 0.67779070138931274 0.19060620665550232
0.49467223882675171 0.78415375947952271 0.26477354764938354
0.54458028078079224 0.7776792049407959 0.26831689476966858
0.69540959596633911 0.78613227605819702 0.283853679895401
0.85464757680892944 0.80387085676193237 0.29168573021888733
0.9657365083694458 0.82606714963912964 0.3548082709312439
0.82733738422393799 0.92247098684310913 0.51966845989227295
0.83312433958053589 0.92095530033111572 0.51984632015228271
0.86272680759429932 0.92385649681091309 0.53305846452713013
0.90512967109680176 0.93061870336532593 0.54273831844329834
0.95393174886703491 0.94020760059356689 0.55751281976699829
0.11205409467220306 0.12853464484214783 0.17337128520011902
0.16487029194831848 0.13355858623981476 0.17022112011909485
0.42785117030143738 0.11674848198890686 0.20169971883296967
0.88293373584747314 0.30161130428314209 0.25228852033615112
0.99998295307159424 0.57581806182861328 0.31934294104576111
0.14526966214179993 0.18684692680835724 0.19486071169376373
0.23940250277519226 0.19884951412677765 0.20433162152767181
0.53321748971939087 0.24943870306015015 0.22427208721637726
0.88938575983047485 0.42092213034629822 0.24539980292320251
0.99999582767486572 0.62347471714019775 0.3233208954334259
0.28483980894088745 0.51523047685623169 0.24437159299850464
0.35787814855575562 0.51312637329101562 0.23980239033699036
0.62629818916320801 0.5494694709777832 0.23233242332935333
0.88116312026977539 0.61490792036056519 0.22331571578979492
0.99563491344451904 0.69842082262039185 0.30529829859733582
0.55294358730316162 0.79288339614868164 0.32957646250724792
0.59653466939926147 0.78792709112167358 0.33286097645759583
0.71948158740997314 0.79415339231491089 0.353517085313797
0.86089706420898438 0.81055033206939697 0.35887008905410767
0.96591460704803467 0.83097261190414429 0.40551659464836121
0.83653813600540161 0.92399078607559204 0.53033345937728882
0.8419385552406311 0.92284804582595825 0.53051471710205078
0.86942493915557861 0.9249650239944458 0.5415804386138916
0.90897047519683838 0.93149352073669434 0.55056679248809814
0.95516467094421387 0.94123119115829468 0.56362265348434448
0.1489623636007309 0.15098986029624939 0.28897136449813843
0.28860253095626831 0.16050061583518982 0.2921852171421051
0.5291714072227478 0.24794106185436249 0.32347691059112549
0.87576931715011597 0.26554977893829346 0.40138944983482361
1 0.5605732798576355 0.45108270645141602
0.21838904917240143 0.25001275539398193 0.33136552572250366
0.35434830188751221 0.25867876410484314 0.34000718593597412
0.61155796051025391 0.37923142313957214 0.35859555006027222
0.89457356929779053 0.42989474534988403 0.41828390955924988
1 0.65907669067382812 0.47223374247550964
0.34014973044395447 0.54123383760452271 0.37480175495147705
0.4529879093170166 0.54293292760848999 0.37732735276222229
0.69568711519241333 0.58339625597000122 0.40367141366004944
0.89079529047012329 0.67879641056060791 0.4440041184425354
0.98037075996398926 0.76466524600982666 0.49072301387786865
0.66051340103149414 0.79750782251358032 0.45047003030776978
0.69918519258499146 0.79539912939071655 0.45344391465187073
0.76840871572494507 0.80263102054595947 0.46029818058013916
0.87184536457061768 0.81894493103027344 0.46698099374771118
0.96697157621383667 0.83568799495697021 0.48391935229301453
0.8528560996055603 0.92566746473312378 0.55083709955215454
0.85394072532653809 0.92526346445083618 0.54917693138122559
0.8794856071472168 0.92739266157150269 0.55664908885955811
0.91600120067596436 0.93319344520568848 0.56666666269302368
0.95880961418151855 0.94305825233459473 0.5776444673538208
0.45971953868865967 0.23139855265617371 0.5479280948638916
0.60018265247344971 0.26842054724693298 0.54966974258422852
0.81925106048583984 0.47327029705047607 0.55330789089202881
0.90510237216949463 0.6641918420791626 0.55265539884567261
0.98363250494003296 0.67923837900161743 0.562156081199646
0.47020673751831055 0.37516388297080994 0.55937641859054565
0.61234819889068604 0.41098794341087341 0.55746793746948242
0.82286423444747925 0.57290136814117432 0.55635112524032593
0.90323686599731445 0.72078490257263184 0.55638277530670166
0.977669358253479 0.72664076089859009 0.56572103500366211
0.41657254099845886 0.63089954853057861 0.53999888896942139
0.5445522665977478 0.62704592943191528 0.5429452657699585
0.79984474182128906 0.68472695350646973 0.55571967363357544
0.89857661724090576 0.78594380617141724 0.55975693464279175
0.97089904546737671 0.78858119249343872 0.56813341379165649
0.66786611080169678 0.80662137269973755 0.54189157485961914
0.7013433575630188 0.80453461408615112 0.54137533903121948
0.7938416600227356 0.81128072738647461 0.54768669605255127
0.89412206411361694 0.83404409885406494 0.56067466735839844
0.96618038415908813 0.87432742118835449 0.57631564140319824
0.86119258403778076 0.92842006683349609 0.57705396413803101
0.86807209253311157 0.92753034830093384 0.57732993364334106
0.89552509784698486 0.93059253692626953 0.5831371545791626
0.92681425809860229 0.93650269508361816 0.59191113710403442
0.96394109725952148 0.9473455548286438 0.60427379608154297
0.82417678833007812 0.67303287982940674 0.65081769227981567
0.85193371772766113 0.69839584827423096 0.64535629749298096
0.90748119354248047 0.77077740430831909 0.6341249942779541
0.95158535242080688 0.85000330209732056 0.62253165245056152
0.96981537342071533 0.88012206554412842 0.62126898765563965
0.82596909999847412 0.71852493286132812 0.64614570140838623
0.85224735736846924 0.73751676082611084 0.64178574085235596
0.90706068277359009 0.79371798038482666 0.63245242834091187
0.95114755630493164 0.86089253425598145 0.62341576814651489
0.96886235475540161 0.88902604579925537 0.62296253442764282
0.80230671167373657 0.77526664733886719 0.63761782646179199
0.82772129774093628 0.7797122597694397 0.63657063245773315
0.89318060874938965 0.8183550238609314 0.6313207745552063
0.94851535558700562 0.87661343812942505 0.62594085931777954
0.96778202056884766 0.90646207332611084 0.62752914428710938
0.76525914669036865 0.84958219528198242 0.62672221660614014
0.77677750587463379 0.8469538688659668 0.62594354152679443
0.82574856281280518 0.84691673517227173 0.62672019004821777
0.93448978662490845 0.88914334774017334 0.63058805465698242
0.96765309572219849 0.92964702844619751 0.63782024383544922
0.87597560882568359 0.94183766841888428 0.63500851392745972
0.88059937953948975 0.94152325391769409 0.63463795185089111
0.90051400661468506 0.94260960817337036 0.6373254656791687
0.93230307102203369 0.945872962474823 0.64244288206100464
0.9694557785987854 0.95619833469390869 0.65831029415130615
