Textures/96.cube
# Created by: G'MIC (https://gmic.eu)
TITLE "Polaroid_PX-100UV+_Cold_3.cube"
# LUT size
LUT_3D_SIZE 33
# Data domain
DOMAIN_MIN 0.0 0.0 0.0
DOMAIN_MAX 1.0 1.0 1.0
# LUT data points
0.17919276654720306 0.25388464331626892 0.26205593347549438
0.18029326200485229 0.25500914454460144 0.26320835947990417
0.18217195570468903 0.25669330358505249 0.26469817757606506
0.18346589803695679 0.25776290893554688 0.26625502109527588
0.1859419047832489 0.26015472412109375 0.2684364914894104
0.18911664187908173 0.26319599151611328 0.27145484089851379
0.19368414580821991 0.26705098152160645 0.27551916241645813
0.19907210767269135 0.27181929349899292 0.28062930703163147
0.20697668194770813 0.27833172678947449 0.2872697114944458
0.21596652269363403 0.28654161095619202 0.2954050600528717
0.22632180154323578 0.29552271962165833 0.30454957485198975
0.23822329938411713 0.30505523085594177 0.31451106071472168
0.25129601359367371 0.3161698579788208 0.32534369826316833
0.26590695977210999 0.32840579748153687 0.3376409113407135
0.28155285120010376 0.34081593155860901 0.34992223978042603
0.29776841402053833 0.353849858045578 0.36338329315185547
0.31461581587791443 0.36776185035705566 0.3764491081237793
0.33211243152618408 0.38162407279014587 0.3903844952583313
0.34989935159683228 0.39595586061477661 0.40401050448417664
0.36932027339935303 0.41185182332992554 0.41946026682853699
0.38751333951950073 0.42653864622116089 0.43317899107933044
0.40552332997322083 0.44132283329963684 0.44672149419784546
0.42305135726928711 0.45573461055755615 0.4602741003036499
0.4398559033870697 0.46997401118278503 0.47322320938110352
0.45651769638061523 0.48428285121917725 0.48625224828720093
0.47303509712219238 0.49891877174377441 0.49891948699951172
0.49018043279647827 0.51435244083404541 0.51217424869537354
0.50790542364120483 0.53034675121307373 0.52600866556167603
0.52608537673950195 0.54777425527572632 0.54026812314987183
0.54463911056518555 0.56494200229644775 0.55438143014907837
0.56433731317520142 0.58375650644302368 0.56986492872238159
0.5837475061416626 0.60256862640380859 0.58477747440338135
0.60486841201782227 0.62325352430343628 0.60112154483795166
0.180921271443367 0.25548931956291199 0.26375678181648254
0.18145181238651276 0.25600901246070862 0.26424407958984375
0.18263393640518188 0.25713962316513062 0.2653941810131073
0.18389402329921722 0.25825244188308716 0.26661130785942078
0.1866413801908493 0.26053029298782349 0.26908174157142639
0.18948285281658173 0.26333719491958618 0.27166542410850525
0.19358646869659424 0.26691988110542297 0.27540653944015503
0.19909925758838654 0.27203810214996338 0.28057709336280823
0.20736785233020782 0.27902916073799133 0.28776228427886963
0.21649667620658875 0.28673866391181946 0.2956041693687439
0.22676944732666016 0.29562216997146606 0.30483415722846985
0.2390080988407135 0.30594062805175781 0.314983069896698
0.25211524963378906 0.31685402989387512 0.32616671919822693
0.26700019836425781 0.32895740866661072 0.33821544051170349
0.28187629580497742 0.34106865525245667 0.35067936778068542
0.29824385046958923 0.35434946417808533 0.36368322372436523
0.31526833772659302 0.36789172887802124 0.3772074282169342
0.33278489112854004 0.38230708241462708 0.39104524254798889
0.35069549083709717 0.39657607674598694 0.40472623705863953
0.37001913785934448 0.4120999276638031 0.41962671279907227
0.38822609186172485 0.42716589570045471 0.43390542268753052
0.40637829899787903 0.4417736828327179 0.44758772850036621
0.42358654737472534 0.45634075999259949 0.46083742380142212
0.44030338525772095 0.47033563256263733 0.47358953952789307
0.4575863778591156 0.48517253994941711 0.48713997006416321
0.47431972622871399 0.49979287385940552 0.49996188282966614
0.49107745289802551 0.51517713069915771 0.51278150081634521
0.50873696804046631 0.53126472234725952 0.52660965919494629
0.52728402614593506 0.54832345247268677 0.54105961322784424
0.5458642840385437 0.5662497878074646 0.55552917718887329
0.56538575887680054 0.5848044753074646 0.57051128149032593
0.58473354578018188 0.60356944799423218 0.58560085296630859
0.60566139221191406 0.62396419048309326 0.60164117813110352
0.18244738876819611 0.2568855881690979 0.26527708768844604
0.18266595900058746 0.25710299611091614 0.26556003093719482
0.18395045399665833 0.25814250111579895 0.26656749844551086
0.18536855280399323 0.25962755084037781 0.26809516549110413
0.18687406182289124 0.26082730293273926 0.26935851573944092
0.18974451720714569 0.26350951194763184 0.27197045087814331
0.19407680630683899 0.26735097169876099 0.27590763568878174
0.19982032477855682 0.27233922481536865 0.28093430399894714
0.20760117471218109 0.27903267741203308 0.28797256946563721
0.21697153151035309 0.28743481636047363 0.29612493515014648
0.22749373316764832 0.29658523201942444 0.30560123920440674
0.23944529891014099 0.30617910623550415 0.31582444906234741
0.25262132287025452 0.31721895933151245 0.32659578323364258
0.26734641194343567 0.32948663830757141 0.33895733952522278
0.28296491503715515 0.34198972582817078 0.35161939263343811
0.29931178689002991 0.35532721877098083 0.3644137978553772
0.31604421138763428 0.36867877840995789 0.37778511643409729
0.33352598547935486 0.38292038440704346 0.3916642963886261
0.35202130675315857 0.39773634076118469 0.4059700071811676
0.37108123302459717 0.41307750344276428 0.4205670952796936
0.38925397396087646 0.42801597714424133 0.43465253710746765
0.406931072473526 0.4422965943813324 0.44811588525772095
0.42451035976409912 0.45723745226860046 0.46160778403282166
0.44170486927032471 0.47155642509460449 0.47479844093322754
0.45875644683837891 0.48633992671966553 0.4877188503742218
0.47520443797111511 0.50073468685150146 0.50044107437133789
0.49261379241943359 0.51622170209884644 0.5141528844833374
0.51000386476516724 0.53257298469543457 0.52762693166732788
0.52905374765396118 0.54987895488739014 0.54233187437057495
0.54785865545272827 0.56787097454071045 0.55690330266952515
0.56762504577636719 0.58700054883956909 0.57206803560256958
0.58715111017227173 0.60613346099853516 0.58758950233459473
0.60893011093139648 0.62671196460723877 0.60422974824905396
0.18518416583538055 0.25923353433609009 0.26774737238883972
0.18532343208789825 0.25949639081954956 0.26777079701423645
0.18612438440322876 0.2602728009223938 0.26883184909820557
0.18749482929706573 0.26131606101989746 0.26990863680839539
0.18961058557033539 0.26334351301193237 0.27189025282859802
0.19253580272197723 0.26574966311454773 0.27438059449195862
0.19572752714157104 0.26866337656974792 0.2774280309677124
0.20092009007930756 0.27322202920913696 0.28221553564071655
0.20865000784397125 0.27972817420959473 0.28888565301895142
0.21805429458618164 0.28832525014877319 0.29718121886253357
0.22862334549427032 0.29700389504432678 0.30625885725021362
0.24058076739311218 0.30738791823387146 0.3167555034160614
0.25394639372825623 0.318308025598526 0.32766866683959961
0.26853644847869873 0.33041927218437195 0.33958625793457031
0.28377360105514526 0.34298416972160339 0.35256889462471008
0.30000418424606323 0.35596868395805359 0.36512365937232971
0.31704118847846985 0.36960715055465698 0.3784528374671936
0.3347288966178894 0.38394257426261902 0.39257857203483582
0.35346698760986328 0.39878606796264648 0.40702095627784729
0.37208065390586853 0.41371437907218933 0.42127081751823425
0.39028730988502502 0.4288618266582489 0.43543148040771484
0.40793618559837341 0.44310545921325684 0.44894284009933472
0.42502802610397339 0.45745939016342163 0.46181914210319519
0.44177147746086121 0.47164595127105713 0.47477972507476807
0.45856568217277527 0.48619529604911804 0.48771989345550537
0.47520580887794495 0.50121015310287476 0.50095933675765991
0.49210184812545776 0.51608473062515259 0.51364833116531372
0.50977832078933716 0.53215533494949341 0.52754586935043335
0.52848130464553833 0.54945814609527588 0.54207289218902588
0.54716426134109497 0.56730300188064575 0.55652648210525513
0.56668758392333984 0.58587461709976196 0.57136440277099609
0.58598941564559937 0.60477113723754883 0.58668464422225952
0.60725677013397217 0.625599205493927 0.60318994522094727
0.18849967420101166 0.26233765482902527 0.27093416452407837
0.18826678395271301 0.26222166419029236 0.27060732245445251
0.18900838494300842 0.26287704706192017 0.27131521701812744
0.19050180912017822 0.26422470808029175 0.27269688248634338
0.19256669282913208 0.26580804586410522 0.274405837059021
0.19605112075805664 0.26934990286827087 0.27781224250793457
0.20037361979484558 0.27294626832008362 0.28183174133300781
0.20493194460868835 0.27690193057060242 0.28549593687057495
0.21058127284049988 0.2822110652923584 0.29104498028755188
0.21929603815078735 0.28920987248420715 0.29833880066871643
0.23017212748527527 0.29831850528717041 0.30763477087020874
0.24211171269416809 0.30855321884155273 0.31779041886329651
0.25547081232070923 0.31961879134178162 0.32891911268234253
0.2700076699256897 0.33166313171386719 0.34098327159881592
0.28577858209609985 0.34441030025482178 0.35372114181518555
0.30164435505867004 0.35705640912055969 0.36642402410507202
0.31884759664535522 0.37097847461700439 0.37995269894599915
0.33690160512924194 0.38555040955543518 0.39424106478691101
0.35516929626464844 0.40045660734176636 0.40856507420539856
0.37376216053962708 0.41520330309867859 0.42253541946411133
0.39166614413261414 0.42995205521583557 0.43643942475318909
0.40918481349945068 0.4442405104637146 0.44974789023399353
0.42629554867744446 0.45841124653816223 0.46301081776618958
0.44293677806854248 0.47268897294998169 0.47574898600578308
0.45981618762016296 0.48716467618942261 0.48861861228942871
0.47651013731956482 0.50198352336883545 0.50173294544219971
0.49340316653251648 0.51711046695709229 0.51470500230789185
0.51130193471908569 0.53346019983291626 0.52870285511016846
0.52956587076187134 0.55069231986999512 0.54293262958526611
0.54833561182022095 0.5682750940322876 0.5573354959487915
0.56735658645629883 0.58673864603042603 0.57227426767349243
0.58721888065338135 0.6060025691986084 0.5875399112701416
0.60848110914230347 0.62646198272705078 0.60391330718994141
0.19383902847766876 0.26666474342346191 0.2753998339176178
0.19366075098514557 0.26669532060623169 0.27537253499031067
0.19375152885913849 0.26681292057037354 0.27551373839378357
0.19523568451404572 0.26841455698013306 0.27700167894363403
0.19735570251941681 0.27034857869148254 0.27899181842803955
0.20102135837078094 0.27351608872413635 0.28194418549537659
0.20614336431026459 0.27807599306106567 0.28686106204986572
0.21218432486057281 0.28323662281036377 0.2921508252620697
0.21784196794033051 0.28817069530487061 0.29727122187614441
0.22451202571392059 0.29349929094314575 0.30290132761001587
0.23246560990810394 0.30056211352348328 0.30951589345932007
0.24377363920211792 0.3097493052482605 0.31914466619491577
0.25691589713096619 0.32079842686653137 0.33008897304534912
0.27140024304389954 0.33278453350067139 0.34219443798065186
0.28676924109458923 0.34517168998718262 0.3546481728553772
0.30306768417358398 0.35819646716117859 0.36746737360954285
0.32049021124839783 0.37247273325920105 0.38142871856689453
0.33908966183662415 0.38686743378639221 0.39579394459724426
0.35696515440940857 0.40175032615661621 0.40975531935691833
0.3748641312122345 0.4159398078918457 0.42351141571998596
0.39285418391227722 0.4310242235660553 0.43711361289024353
0.41027376055717468 0.44516721367835999 0.45060956478118896
0.42752766609191895 0.45939922332763672 0.46358716487884521
0.4441259503364563 0.47374528646469116 0.47633260488510132
0.46108487248420715 0.48845472931861877 0.48964336514472961
0.47791576385498047 0.50315248966217041 0.50262629985809326
0.49486669898033142 0.5185554027557373 0.51575404405593872
0.51248389482498169 0.53490805625915527 0.52957719564437866
0.53137493133544922 0.55231684446334839 0.54423302412033081
0.55035412311553955 0.57010918855667114 0.55884027481079102
0.5699080228805542 0.58894264698028564 0.57410931587219238
0.58984559774398804 0.60836517810821533 0.5896640419960022
0.61125797033309937 0.62943989038467407 0.60605543851852417
0.20112477242946625 0.27365490794181824 0.28209412097930908
0.20116940140724182 0.27339506149291992 0.28213939070701599
0.20083710551261902 0.27311903238296509 0.2820429801940918
0.20188596844673157 0.27463799715042114 0.28312215209007263
0.20438137650489807 0.27652221918106079 0.28516697883605957
0.20804846286773682 0.27977588772773743 0.2885577380657196
0.21274314820766449 0.28349143266677856 0.29235714673995972
0.21883827447891235 0.28904527425765991 0.29797619581222534
0.22624765336513519 0.29537931084632874 0.30425441265106201
0.23312237858772278 0.30093559622764587 0.31008461117744446
0.24060416221618652 0.30722197890281677 0.31654137372970581
0.24923115968704224 0.31442096829414368 0.3237021267414093
0.25965085625648499 0.32321509718894958 0.33260944485664368
0.27345791459083557 0.3345482349395752 0.34369412064552307
0.28925317525863647 0.34699591994285583 0.35655531287193298
0.30627742409706116 0.36075854301452637 0.37014126777648926
0.32369139790534973 0.37482702732086182 0.38374125957489014
0.34106060862541199 0.38872882723808289 0.39721015095710754
0.35879987478256226 0.40299192070960999 0.41088226437568665
0.37675541639328003 0.41765785217285156 0.42503255605697632
0.39409691095352173 0.43195652961730957 0.43833377957344055
0.41108351945877075 0.44560521841049194 0.45148748159408569
0.4280320405960083 0.46010756492614746 0.46437588334083557
0.44469776749610901 0.47410416603088379 0.47719511389732361
0.46134817600250244 0.48848080635070801 0.48998329043388367
0.47779658436775208 0.50339782238006592 0.50275450944900513
0.49494472146034241 0.51851105690002441 0.51560676097869873
0.51241612434387207 0.53474217653274536 0.52949053049087524
0.53094559907913208 0.55158078670501709 0.54365980625152588
0.54970693588256836 0.56972509622573853 0.55847162008285522
0.56904798746109009 0.58835351467132568 0.57336211204528809
0.58869689702987671 0.60763043165206909 0.58857262134552002
0.61024457216262817 0.62854641675949097 0.60531145334243774
0.21151582896709442 0.28269165754318237 0.29163128137588501
0.21167479455471039 0.28276616334915161 0.29149207472801208
0.21113146841526031 0.28216588497161865 0.29102945327758789
0.21124865114688873 0.28252223134040833 0.29117327928543091
0.21387462317943573 0.28460302948951721 0.29345399141311646
0.21736949682235718 0.28745368123054504 0.29665625095367432
0.2213636040687561 0.29115214943885803 0.30010023713111877
0.22647026181221008 0.2954634428024292 0.30456322431564331
0.23394650220870972 0.30172419548034668 0.31076619029045105
0.24304193258285522 0.30948621034622192 0.31869965791702271
0.2507292628288269 0.31577035784721375 0.32497626543045044
0.2588619589805603 0.32262182235717773 0.33215945959091187
0.26844590902328491 0.33042570948600769 0.33982446789741516
0.27936404943466187 0.33916234970092773 0.34870558977127075
0.29328638315200806 0.35043051838874817 0.35958963632583618
0.3090413510799408 0.36300498247146606 0.37219473719596863
0.32633444666862488 0.37683388590812683 0.38569295406341553
0.34383609890937805 0.39067575335502625 0.39929771423339844
0.36103197932243347 0.40472644567489624 0.41264832019805908
0.37864196300506592 0.4190431535243988 0.42622217535972595
0.39582312107086182 0.4330601692199707 0.43978279829025269
0.41291031241416931 0.44722846150398254 0.45258089900016785
0.42989590764045715 0.4615216851234436 0.4655584990978241
0.4466993510723114 0.47564080357551575 0.47836527228355408
0.46311214566230774 0.49002006649971008 0.49124008417129517
0.47970864176750183 0.50466054677963257 0.50392246246337891
0.49644073843955994 0.52007603645324707 0.51716947555541992
0.51453530788421631 0.53643029928207397 0.53117567300796509
0.53255659341812134 0.55337679386138916 0.54511523246765137
0.55140417814254761 0.5714719295501709 0.5599818229675293
0.57091289758682251 0.5900428295135498 0.57463109493255615
0.59055161476135254 0.60909384489059448 0.59005343914031982
0.61167329549789429 0.62982666492462158 0.60637229681015015
0.22401052713394165 0.29344272613525391 0.30247697234153748
0.22403706610202789 0.29343953728675842 0.30245652794837952
0.22358420491218567 0.29281163215637207 0.30207061767578125
0.2231069952249527 0.2926514744758606 0.30169016122817993
0.2246764749288559 0.29396191239356995 0.3029019832611084
0.22783778607845306 0.29688909649848938 0.3056405782699585
0.23196794092655182 0.30015575885772705 0.30925247073173523
0.23678143322467804 0.30423083901405334 0.31346237659454346
0.24292711913585663 0.30919522047042847 0.3182329535484314
0.25060951709747314 0.31548130512237549 0.32511380314826965
0.26170030236244202 0.32478135824203491 0.33405154943466187
0.27092096209526062 0.33198842406272888 0.34192585945129395
0.28045177459716797 0.34016752243041992 0.34961697459220886
0.29101249575614929 0.34858822822570801 0.35779768228530884
0.30188712477684021 0.35716909170150757 0.36676114797592163
0.31378430128097534 0.36711332201957703 0.37604883313179016
0.32852843403816223 0.37870502471923828 0.38758480548858643
0.34576097130775452 0.39258772134780884 0.40083938837051392
0.36286982893943787 0.40631774067878723 0.4141685962677002
0.38008102774620056 0.42054498195648193 0.42760610580444336
0.39706328511238098 0.43439355492591858 0.44074460864067078
0.41415238380432129 0.44832542538642883 0.45360332727432251
0.43074518442153931 0.46235430240631104 0.4663526713848114
0.44737789034843445 0.47663569450378418 0.4793032705783844
0.4639345109462738 0.49097692966461182 0.49208477139472961
0.48066559433937073 0.50568515062332153 0.50497162342071533
0.497845858335495 0.52133285999298096 0.51824790239334106
0.51596081256866455 0.53760576248168945 0.531963050365448
0.5343279242515564 0.55524361133575439 0.54658102989196777
0.5535312294960022 0.57336503267288208 0.56144195795059204
0.57312160730361938 0.59229904413223267 0.57651811838150024
0.59294742345809937 0.61162275075912476 0.59211450815200806
0.61441820859909058 0.63253182172775269 0.60864204168319702
0.23817937076091766 0.30523467063903809 0.31443136930465698
0.23865991830825806 0.30564269423484802 0.31474077701568604
0.23805586993694305 0.30515474081039429 0.3143354058265686
0.23717978596687317 0.30446293950080872 0.31391412019729614
0.23728121817111969 0.30460658669471741 0.31393864750862122
0.24025699496269226 0.30692967772483826 0.31632497906684875
0.24439312517642975 0.31031572818756104 0.32006171345710754
0.2494133859872818 0.31449815630912781 0.32394939661026001
0.25509509444236755 0.31957554817199707 0.32880115509033203
0.2621782124042511 0.32515501976013184 0.33463454246520996
0.27098646759986877 0.33253392577171326 0.34187644720077515
0.28310790657997131 0.34239897131919861 0.35175728797912598
0.2937387228012085 0.35062858462333679 0.36016672849655151
0.30329832434654236 0.35871079564094543 0.36777862906455994
0.3139302134513855 0.3670404851436615 0.37637308239936829
0.32488831877708435 0.37585899233818054 0.38497757911682129
0.33662658929824829 0.38536658883094788 0.39383995532989502
0.34934648871421814 0.39550128579139709 0.40371787548065186
0.36503821611404419 0.40814089775085449 0.41579222679138184
0.38221827149391174 0.42207303643226624 0.4291558563709259
0.39899060130119324 0.43573909997940063 0.44198796153068542
0.41566348075866699 0.44937661290168762 0.45459765195846558
0.43227618932723999 0.4636862576007843 0.46755173802375793
0.44909238815307617 0.4779394268989563 0.48021233081817627
0.465251624584198 0.49194091558456421 0.49284267425537109
0.48175916075706482 0.50654971599578857 0.50551486015319824
0.49847772717475891 0.52184206247329712 0.51880443096160889
0.51641720533370972 0.53837895393371582 0.53251934051513672
0.53494179248809814 0.55554038286209106 0.54699736833572388
0.55364453792572021 0.57343238592147827 0.56155151128768921
0.57322001457214355 0.59245532751083374 0.5769457221031189
0.59261101484298706 0.6113436222076416 0.59177899360656738
0.61455225944519043 0.63277721405029297 0.60864883661270142
0.2540372908115387 0.31828948855400085 0.32771313190460205
0.25450146198272705 0.31861639022827148 0.32827910780906677
0.25387957692146301 0.31818696856498718 0.32771459221839905
0.25349560379981995 0.31783583760261536 0.32724791765213013
0.25298389792442322 0.31763383746147156 0.326822429895401
0.25512322783470154 0.31910005211830139 0.32860675454139709
0.25923469662666321 0.32258513569831848 0.33183985948562622
0.26413843035697937 0.3266521692276001 0.3360346257686615
0.26962625980377197 0.33148160576820374 0.34084752202033997
0.27609801292419434 0.33650997281074524 0.34604400396347046
0.28355458378791809 0.34277620911598206 0.35189062356948853
0.29238352179527283 0.34977900981903076 0.35941082239151001
0.30614426732063293 0.3609035313129425 0.36995738744735718
0.31694096326828003 0.36957120895385742 0.37849807739257812
0.32732853293418884 0.37768200039863586 0.38656410574913025
0.33739984035491943 0.38562691211700439 0.39462959766387939
0.34845378994941711 0.39495155215263367 0.4031088650226593
0.36016127467155457 0.40421757102012634 0.41224634647369385
0.37167748808860779 0.41345205903053284 0.42098793387413025
0.38528308272361755 0.42469775676727295 0.43128764629364014
0.40123611688613892 0.43776321411132812 0.44368907809257507
0.41797828674316406 0.45159560441970825 0.45650795102119446
0.43423548340797424 0.46559163928031921 0.46929278969764709
0.45093509554862976 0.47965702414512634 0.48201459646224976
0.46751612424850464 0.49414220452308655 0.49458277225494385
0.48423352837562561 0.50903099775314331 0.50771009922027588
0.50131326913833618 0.52444881200790405 0.5208667516708374
0.51930004358291626 0.54087251424789429 0.53477919101715088
0.53792500495910645 0.55870360136032104 0.54953539371490479
0.55732744932174683 0.57699102163314819 0.56437522172927856
0.57687324285507202 0.59592682123184204 0.57948213815689087
0.59681934118270874 0.61504840850830078 0.59480410814285278
0.61811572313308716 0.63614082336425781 0.61139720678329468
0.27178817987442017 0.33298629522323608 0.34258782863616943
0.27199611067771912 0.33334201574325562 0.34275498986244202
0.27166220545768738 0.33287203311920166 0.34229001402854919
0.27114877104759216 0.33276110887527466 0.34185567498207092
0.27075770497322083 0.33204555511474609 0.34137123823165894
0.27075293660163879 0.33214929699897766 0.34144997596740723
0.27404153347015381 0.33488038182258606 0.34417265653610229
0.27853986620903015 0.33821871876716614 0.348040372133255
0.28383702039718628 0.34277144074440002 0.3518977165222168
0.28977525234222412 0.34764495491981506 0.3569464385509491
0.29652541875839233 0.35291352868080139 0.36248719692230225
0.30420678853988647 0.35881155729293823 0.36832529306411743
0.31297725439071655 0.366289883852005 0.37564313411712646
0.32689177989959717 0.37728545069694519 0.38641762733459473
0.33895248174667358 0.3872489333152771 0.39559364318847656
0.34880849719047546 0.39516362547874451 0.40365681052207947
0.35956451296806335 0.40412402153015137 0.41203457117080688
0.37051060795783997 0.41277319192886353 0.42022651433944702
0.38155362010002136 0.42176419496536255 0.42857906222343445
0.3931424617767334 0.43107017874717712 0.43755677342414856
0.40483564138412476 0.44083887338638306 0.44637089967727661
0.4189206063747406 0.45232531428337097 0.4570809006690979
0.43487158417701721 0.46573245525360107 0.46945038437843323
0.45157673954963684 0.48009884357452393 0.48230743408203125
0.46754789352416992 0.49390316009521484 0.49461585283279419
0.48428872227668762 0.50899499654769897 0.50774669647216797
0.50120043754577637 0.52432411909103394 0.52108675241470337
0.51922625303268433 0.54083037376403809 0.53484970331192017
0.53746706247329712 0.55807554721832275 0.54903465509414673
0.55627936124801636 0.57598012685775757 0.56368285417556763
0.57578158378601074 0.59490233659744263 0.57872450351715088
0.59520584344863892 0.61372292041778564 0.59371364116668701
0.61724162101745605 0.63526701927185059 0.61084288358688354
0.29096299409866333 0.34814167022705078 0.35770285129547119
0.2923102080821991 0.34946009516716003 0.35869526863098145
0.29136860370635986 0.34874308109283447 0.35807594656944275
