Textures/96.cube
# Created by: G'MIC (https://gmic.eu)
TITLE "Polaroid_PX-100UV+_Cold_3.cube"
# LUT size
LUT_3D_SIZE 5
# Data domain
DOMAIN_MIN 0.0 0.0 0.0
DOMAIN_MAX 1.0 1.0 1.0
# LUT data points
0.17919276654720306 0.25388464331626892 0.26205593347549438
0.20697668194770813 0.27833172678947449 0.2872697114944458
0.31461581587791443 0.36776185035705566 0.3764491081237793
0.45651769638061523 0.48428285121917725 0.48625224828720093
0.60486841201782227 0.62325352430343628 0.60112154483795166
0.22401052713394165 0.29344272613525391 0.30247697234153748
0.24292711913585663 0.30919522047042847 0.3182329535484314
0.32852843403816223 0.37870502471923828 0.38758480548858643
0.4639345109462738 0.49097692966461182 0.49208477139472961
0.61441820859909058 0.63253182172775269 0.60864204168319702
0.36700356006622314 0.40959024429321289 0.417295902967453
0.36457294225692749 0.40761950612068176 0.41543635725975037
0.41459161043167114 0.44853943586349487 0.45395064353942871
0.50124901533126831 0.52443808317184448 0.52071857452392578
0.63017702102661133 0.64821243286132812 0.62077969312667847
0.52242821455001831 0.54390877485275269 0.53726863861083984
0.51712262630462646 0.53903275728225708 0.53304409980773926
0.5387885570526123 0.55931979417800903 0.55002415180206299
0.59710592031478882 0.61565077304840088 0.5954277515411377
0.7078511118888855 0.72442072629928589 0.68086743354797363
0.74845314025878906 0.76298952102661133 0.71206170320510864
0.74482917785644531 0.75929510593414307 0.70938789844512939
0.74887633323669434 0.76332849264144897 0.71215182542800903
0.78921967744827271 0.80071252584457397 0.7436644434928894
0.83318984508514404 0.83999228477478027 0.77738356590270996
0.24026019871234894 0.30699381232261658 0.31614887714385986
0.27568519115447998 0.33626824617385864 0.34572288393974304
0.38444733619689941 0.42391490936279297 0.43068507313728333
0.5081794261932373 0.53075867891311646 0.52640962600708008
0.64035773277282715 0.65823966264724731 0.62877047061920166
0.28103455901145935 0.3405509889125824 0.34976834058761597
0.31918081641197205 0.37117660045623779 0.3803122341632843
0.41072887182235718 0.44562765955924988 0.45106890797615051
0.51501548290252686 0.53695195913314819 0.53132504224777222
0.64915680885314941 0.66673082113265991 0.63546961545944214
0.43616697192192078 0.46690303087234497 0.47069638967514038
0.43173754215240479 0.46288752555847168 0.46669363975524902
0.46000507473945618 0.48716792464256287 0.48872435092926025
0.53565210103988647 0.55620372295379639 0.54745233058929443
0.66213929653167725 0.67954868078231812 0.64562737941741943
0.56405782699584961 0.58357018232345581 0.56962740421295166
0.55965930223464966 0.57922077178955078 0.56618416309356689
0.57041966915130615 0.58960825204849243 0.57449144124984741
0.62257581949234009 0.64078515768051147 0.61498808860778809
0.72500461339950562 0.740711510181427 0.69383865594863892
0.76502996683120728 0.77851420640945435 0.72481119632720947
0.762123703956604 0.77576524019241333 0.72243046760559082
0.76409530639648438 0.77727019786834717 0.72392129898071289
0.7973862886428833 0.80771094560623169 0.74944603443145752
0.83817875385284424 0.84443038702011108 0.78101229667663574
0.42008867859840393 0.45345801115036011 0.45815348625183105
0.44195809960365295 0.47166520357131958 0.4748079776763916
0.48516181111335754 0.50985437631607056 0.50831788778305054
0.57216233015060425 0.59118813276290894 0.57576537132263184
0.69787633419036865 0.71457666158676147 0.67304253578186035
0.44996193051338196 0.47868168354034424 0.48105981945991516
0.46934431791305542 0.49532422423362732 0.49584963917732239
0.50574690103530884 0.52826392650604248 0.52425318956375122
0.59353923797607422 0.61208659410476685 0.59260439872741699
0.7113640308380127 0.7275269627571106 0.68338608741760254
0.48936349153518677 0.51365864276885986 0.51186501979827881
0.50435405969619751 0.52729803323745728 0.52326881885528564
0.54957932233810425 0.56954687833786011 0.5581400990486145
0.62514632940292358 0.6431577205657959 0.61692231893539429
0.72866350412368774 0.74417710304260254 0.6968727707862854
0.6328120231628418 0.65071135759353638 0.62279480695724487
0.63979142904281616 0.65755993127822876 0.62824565172195435
0.644431471824646 0.66220247745513916 0.63197606801986694
0.67683964967727661 0.69391453266143799 0.65681570768356323
0.760975182056427 0.77448958158493042 0.72141063213348389
0.8003685474395752 0.81063193082809448 0.75211930274963379
0.79835295677185059 0.8089631199836731 0.75048238039016724
0.79893672466278076 0.80965626239776611 0.75102335214614868
0.81452548503875732 0.82302200794219971 0.76262599229812622
0.84976911544799805 0.85447275638580322 0.79010295867919922
0.61336475610733032 0.63180959224700928 0.60783118009567261
0.62254238128662109 0.64075696468353271 0.61512124538421631
0.65386766195297241 0.67163640260696411 0.63958114385604858
0.68560993671417236 0.70245450735092163 0.66361570358276367
0.75108212232589722 0.76551467180252075 0.7143816351890564
0.63009852170944214 0.64765763282775879 0.62046468257904053
0.63754212856292725 0.65538138151168823 0.62667965888977051
0.66595375537872314 0.68310397863388062 0.64837700128555298
0.69689422845840454 0.71348822116851807 0.67243444919586182
0.76483762264251709 0.77798968553543091 0.72431427240371704
0.63805294036865234 0.65585535764694214 0.6267351508140564
0.65072178840637207 0.66836202144622803 0.6367066502571106
0.68679380416870117 0.70353424549102783 0.66441619396209717
0.71943128108978271 0.73528647422790527 0.68950754404067993
0.79341471195220947 0.80402272939682007 0.74660545587539673
0.68399238586425781 0.70108062028884888 0.66241085529327393
0.68982219696044922 0.70685684680938721 0.66694051027297974
0.71496421098709106 0.73109865188598633 0.68618738651275635
0.75880181789398193 0.77301251888275146 0.72024685144424438
0.82248634099960327 0.83034723997116089 0.76926374435424805
0.83037334680557251 0.83719456195831299 0.77485626935958862
0.83194297552108765 0.83901101350784302 0.77653974294662476
0.84165894985198975 0.84747684001922607 0.78390932083129883
0.84790897369384766 0.85298317670822144 0.78849560022354126
0.86805808544158936 0.87063503265380859 0.804268479347229
0.82801651954650879 0.83529525995254517 0.77313542366027832
0.82953929901123047 0.83681094646453857 0.7745661735534668
0.83869856595993042 0.84496206045150757 0.78147131204605103
0.85260540246963501 0.85709863901138306 0.79235315322875977
0.86107319593429565 0.86450099945068359 0.79908508062362671
0.83146864175796509 0.83844929933547974 0.77586197853088379
0.83347684144973755 0.84035104513168335 0.77781307697296143
0.84172910451889038 0.84752357006072998 0.78396379947662354
0.8550230860710144 0.85929590463638306 0.79419994354248047
0.86384463310241699 0.86682230234146118 0.80087023973464966
0.83654344081878662 0.84291595220565796 0.77953583002090454
0.83911919593811035 0.84487676620483398 0.78157764673233032
0.84705644845962524 0.85244029760360718 0.78797018527984619
0.8600422739982605 0.86355817317962646 0.79790002107620239
0.86971592903137207 0.87193071842193604 0.80548912286758423
0.84162390232086182 0.84739428758621216 0.78365176916122437
0.84271717071533203 0.84827369451522827 0.78438776731491089
0.84985941648483276 0.85472655296325684 0.79009777307510376
0.86815553903579712 0.87062263488769531 0.80431735515594482
0.88014966249465942 0.88095307350158691 0.81354647874832153
0.86745715141296387 0.86984735727310181 0.80366051197052002
0.86801731586456299 0.87079155445098877 0.80428898334503174
0.8724626898765564 0.87469136714935303 0.80788952112197876
0.88086497783660889 0.88171392679214478 0.81428003311157227
0.89411109685897827 0.89324867725372314 0.82445365190505981
