Textures/97.cube
# Created by: G'MIC (https://gmic.eu)
TITLE "Polaroid_PX-100UV+_Warm_3.cube"
# LUT size
LUT_3D_SIZE 33
# Data domain
DOMAIN_MIN 0.0 0.0 0.0
DOMAIN_MAX 1.0 1.0 1.0
# LUT data points
0.26852497458457947 0.24559576809406281 0.24766078591346741
0.26962918043136597 0.24679048359394073 0.24812398850917816
0.27063953876495361 0.24867197871208191 0.24992252886295319
0.27226769924163818 0.24991497397422791 0.25173351168632507
0.27463006973266602 0.25247412919998169 0.25414106249809265
0.27709725499153137 0.25569891929626465 0.25731384754180908
0.28136250376701355 0.26017871499061584 0.26200360059738159
0.28585749864578247 0.26560792326927185 0.26721367239952087
0.29263746738433838 0.2731020450592041 0.27470976114273071
0.30018165707588196 0.28198739886283875 0.28352224826812744
0.30925145745277405 0.2918243408203125 0.29356741905212402
0.31912127137184143 0.30275276303291321 0.30459216237068176
0.32968375086784363 0.31465458869934082 0.31652605533599854
0.34169554710388184 0.3278127908706665 0.33003643155097961
0.35417848825454712 0.34151062369346619 0.34405213594436646
0.36753776669502258 0.35572949051856995 0.35808533430099487
0.38050886988639832 0.36991184949874878 0.37247565388679504
0.3944733738899231 0.38433966040611267 0.38735780119895935
0.40817242860794067 0.39888116717338562 0.40213379263877869
0.42357960343360901 0.41470754146575928 0.41796910762786865
0.43758931756019592 0.42901596426963806 0.43218043446540833
0.45162758231163025 0.44297587871551514 0.44648781418800354
0.46566852927207947 0.45725306868553162 0.46025696396827698
0.47925913333892822 0.47094988822937012 0.47342509031295776
0.49302390217781067 0.48444411158561707 0.48687613010406494
0.50730782747268677 0.49834778904914856 0.49994537234306335
0.52249407768249512 0.51279532909393311 0.51378798484802246
0.53835052251815796 0.52787691354751587 0.52777940034866333
0.5557553768157959 0.54425787925720215 0.54300308227539062
0.5735352635383606 0.56107538938522339 0.55817079544067383
0.59342277050018311 0.57932353019714355 0.57491141557693481
0.61297899484634399 0.59775066375732422 0.59147381782531738
0.6350896954536438 0.61808687448501587 0.60938763618469238
0.26979184150695801 0.24733497202396393 0.24907012283802032
0.2705681324005127 0.24779678881168365 0.24937130510807037
0.27151811122894287 0.24911786615848541 0.25079384446144104
0.27258679270744324 0.25043585896492004 0.25218155980110168
0.27494910359382629 0.253183513879776 0.25460314750671387
0.27738308906555176 0.25601056218147278 0.25769299268722534
0.28131747245788574 0.25990632176399231 0.26194590330123901
0.28601497411727905 0.26545095443725586 0.26731622219085693
0.29307982325553894 0.27362081408500671 0.27518326044082642
0.30052250623703003 0.2823466956615448 0.28376761078834534
0.30944335460662842 0.29204902052879333 0.29400384426116943
0.31950467824935913 0.30319243669509888 0.30549198389053345
0.33062028884887695 0.31538683176040649 0.31738811731338501
0.34233918786048889 0.32861894369125366 0.33050021529197693
0.35484465956687927 0.34180271625518799 0.34442314505577087
0.36773708462715149 0.35597333312034607 0.35879519581794739
0.38124838471412659 0.37046328186988831 0.37337550520896912
0.39501398801803589 0.38503295183181763 0.38796994090080261
0.40875515341758728 0.39968565106391907 0.40310916304588318
0.4237324595451355 0.41490796208381653 0.41812071204185486
0.43836131691932678 0.42962881922721863 0.43307924270629883
0.45235899090766907 0.44397717714309692 0.44719108939170837
0.46595034003257751 0.45787826180458069 0.4607430100440979
0.47975543141365051 0.47142946720123291 0.4738292396068573
0.49394595623016357 0.48532569408416748 0.48781111836433411
0.50852209329605103 0.49918588995933533 0.50085568428039551
0.52318650484085083 0.51329129934310913 0.5144074559211731
0.53941518068313599 0.52855867147445679 0.52850598096847534
0.55659210681915283 0.5452415943145752 0.54378801584243774
0.57469922304153442 0.56230098009109497 0.55928164720535278
0.59423685073852539 0.58043521642684937 0.57577234506607056
0.6140211820602417 0.59868127107620239 0.59182775020599365
0.63563024997711182 0.6187940239906311 0.609810471534729
0.2714063823223114 0.24900935590267181 0.25073143839836121
0.2715894877910614 0.2491779625415802 0.25123345851898193
0.2727770209312439 0.25035452842712402 0.25223937630653381
0.27392485737800598 0.25189632177352905 0.25346064567565918
0.27531382441520691 0.25326603651046753 0.25532448291778564
0.2776237428188324 0.25624153017997742 0.25780493021011353
0.28155288100242615 0.26060488820075989 0.26238405704498291
0.28629946708679199 0.26627263426780701 0.26773235201835632
0.2934105396270752 0.27400040626525879 0.27543681859970093
0.30128136277198792 0.28285601735115051 0.28435561060905457
0.31013277173042297 0.2930639386177063 0.29469761252403259
0.3201674222946167 0.30420631170272827 0.30585083365440369
0.33088317513465881 0.31591534614562988 0.31806525588035583
0.34313377737998962 0.32930490374565125 0.33154577016830444
0.35579594969749451 0.34284660220146179 0.34552210569381714
0.36845517158508301 0.35678136348724365 0.35974225401878357
0.38180416822433472 0.37120690941810608 0.37392586469650269
0.39561155438423157 0.38556194305419922 0.38879889249801636
0.41007182002067566 0.40057262778282166 0.4039878249168396
0.42473959922790527 0.41601592302322388 0.41932198405265808
0.43888294696807861 0.43058893084526062 0.43375846743583679
0.45290154218673706 0.44463205337524414 0.44772350788116455
0.46675470471382141 0.4585145115852356 0.46156054735183716
0.4807363748550415 0.4723237156867981 0.47500008344650269
0.49512621760368347 0.48642182350158691 0.48832410573959351
0.50916504859924316 0.49989661574363708 0.50182116031646729
0.52458244562149048 0.51463931798934937 0.51569080352783203
0.54049527645111084 0.53000378608703613 0.52971404790878296
0.5580517053604126 0.54654479026794434 0.54504841566085815
0.57648378610610962 0.56405746936798096 0.5606919527053833
0.59622848033905029 0.58236557245254517 0.57749408483505249
0.61664342880249023 0.60121256113052368 0.59426045417785645
0.63891434669494629 0.62179654836654663 0.61236292123794556
0.27370455861091614 0.25161057710647583 0.25341466069221497
0.27383443713188171 0.2517564594745636 0.25359794497489929
0.27438914775848389 0.25266796350479126 0.25421708822250366
0.27589696645736694 0.25393068790435791 0.25588124990463257
0.27778229117393494 0.2562248706817627 0.25798895955085754
0.28040188550949097 0.25903668999671936 0.26086580753326416
0.28308555483818054 0.26227670907974243 0.26388406753540039
0.28739455342292786 0.26725760102272034 0.26876303553581238
0.29393568634986877 0.27477899193763733 0.27621498703956604
0.30198726058006287 0.28375884890556335 0.28555360436439514
0.31113049387931824 0.29362213611602783 0.29563286900520325
0.32104587554931641 0.30515137314796448 0.30696871876716614
0.33193299174308777 0.31717881560325623 0.31912881135940552
0.34375593066215515 0.33027222752571106 0.33233222365379333
0.35654106736183167 0.34415337443351746 0.34629181027412415
0.36918029189109802 0.35754355788230896 0.36014282703399658
0.38271766901016235 0.37209758162498474 0.37476572394371033
0.39656880497932434 0.38661834597587585 0.38998857140541077
0.41118079423904419 0.40166756510734558 0.40515854954719543
0.42538934946060181 0.41657793521881104 0.41992995142936707
0.43976837396621704 0.43144902586936951 0.43455347418785095
0.45371171832084656 0.44550967216491699 0.44838035106658936
0.46723476052284241 0.45880585908889771 0.46189603209495544
0.48070517182350159 0.47236931324005127 0.47511908411979675
0.49518701434135437 0.4862944483757019 0.4883568286895752
0.5094800591468811 0.50032824277877808 0.50180673599243164
0.52405464649200439 0.51416146755218506 0.51508194208145142
0.54030072689056396 0.52963942289352417 0.52947908639907837
0.55764251947402954 0.54626518487930298 0.54477667808532715
0.5758359432220459 0.56326168775558472 0.5603407621383667
0.59533721208572388 0.58132213354110718 0.57652997970581055
0.61522924900054932 0.599884033203125 0.59308856725692749
0.63742214441299438 0.62016534805297852 0.61134493350982666
0.2766202986240387 0.25499841570854187 0.2565380334854126
0.27655622363090515 0.25481739640235901 0.25655275583267212
0.27705246210098267 0.25558355450630188 0.25738036632537842
0.27867498993873596 0.25702649354934692 0.25884765386581421
0.28028365969657898 0.25909203290939331 0.2608802318572998
0.28324869275093079 0.26252767443656921 0.26425823569297791
0.28705877065658569 0.26683732867240906 0.26850098371505737
0.29091200232505798 0.27119353413581848 0.27299955487251282
0.29573434591293335 0.27680045366287231 0.27876788377761841
0.30333229899406433 0.28494098782539368 0.28688469529151917
0.31241163611412048 0.29493951797485352 0.29703223705291748
0.32210496068000793 0.30618560314178467 0.30837917327880859
0.3332018256187439 0.31856915354728699 0.32048779726028442
0.3452782928943634 0.33176806569099426 0.3338204026222229
0.35774406790733337 0.34535539150238037 0.34786388278007507
0.3704829216003418 0.3589819073677063 0.36150038242340088
0.38406303524971008 0.37341323494911194 0.37629750370979309
0.39827388525009155 0.38855797052383423 0.39160904288291931
0.41257479786872864 0.40335282683372498 0.40643927454948425
0.42677849531173706 0.41797840595245361 0.42117995023727417
0.44075405597686768 0.4325006902217865 0.43564450740814209
0.45448949933052063 0.44606074690818787 0.44935199618339539
0.46830877661705017 0.46004179120063782 0.46302798390388489
0.48192897439002991 0.47345072031021118 0.47618234157562256
0.49598023295402527 0.48710504174232483 0.48976686596870422
0.51034092903137207 0.50133830308914185 0.50257056951522827
0.52506214380264282 0.51544147729873657 0.51639556884765625
0.54172468185424805 0.53096944093704224 0.53063291311264038
0.55871796607971191 0.54714667797088623 0.54570966958999634
0.57715421915054321 0.5644037127494812 0.56135523319244385
0.59645062685012817 0.58221900463104248 0.57727360725402832
0.6164630651473999 0.60101777315139771 0.59424895048141479
0.63845336437225342 0.62149643898010254 0.61212581396102905
0.28130331635475159 0.26025715470314026 0.26194438338279724
0.28101068735122681 0.26019039750099182 0.26166531443595886
0.28124737739562988 0.26013350486755371 0.26178011298179626
0.28250810503959656 0.26177814602851868 0.26313391327857971
0.28446078300476074 0.26383543014526367 0.26552489399909973
0.28737476468086243 0.26731985807418823 0.26892644166946411
0.2920038104057312 0.27246692776679993 0.27427494525909424
0.29702731966972351 0.2784065306186676 0.27997443079948425
0.30190485715866089 0.28367993235588074 0.28552502393722534
0.30749881267547607 0.28970962762832642 0.29173555970191956
0.31406429409980774 0.29724207520484924 0.29923281073570251
0.32368731498718262 0.30785608291625977 0.30980238318443298
0.33439353108406067 0.31972339749336243 0.32186368107795715
0.3461851179599762 0.33276230096817017 0.33484423160552979
0.35871833562850952 0.34648275375366211 0.34873014688491821
0.3714674711227417 0.36001473665237427 0.36299431324005127
0.38542786240577698 0.37503579258918762 0.37790969014167786
0.39992040395736694 0.39016926288604736 0.39334893226623535
0.41377872228622437 0.40459978580474854 0.40764671564102173
0.4274580180644989 0.41902965307235718 0.42226958274841309
0.44144943356513977 0.4331214427947998 0.43654611706733704
0.45525199174880981 0.44703122973442078 0.45028391480445862
0.46917498111724854 0.46070829033851624 0.46359345316886902
0.48286247253417969 0.47439748048782349 0.47671645879745483
0.49684348702430725 0.48837831616401672 0.49038445949554443
0.51134318113327026 0.50218945741653442 0.50369232892990112
0.52653419971466064 0.5165092945098877 0.51754719018936157
0.54295814037322998 0.53241097927093506 0.53204083442687988
0.56062281131744385 0.54887169599533081 0.54723590612411499
0.5789029598236084 0.56611615419387817 0.56281006336212158
0.59891504049301147 0.58444869518280029 0.57956182956695557
0.61918556690216064 0.60360890626907349 0.59642446041107178
0.64167523384094238 0.62432074546813965 0.61454331874847412
0.28756406903266907 0.26748254895210266 0.26934421062469482
0.28762608766555786 0.26748216152191162 0.26904380321502686
0.28709131479263306 0.26715683937072754 0.26872974634170532
0.28824600577354431 0.26829749345779419 0.27030816674232483
0.29037582874298096 0.2707374095916748 0.27257615327835083
0.29357016086578369 0.27444541454315186 0.27621406316757202
0.29759490489959717 0.27877438068389893 0.2802225649356842
0.30284693837165833 0.28468841314315796 0.28645032644271851
0.30895614624023438 0.29182061553001404 0.29334947466850281
0.31471723318099976 0.2979280948638916 0.29994320869445801
0.32101550698280334 0.30504155158996582 0.30689510703086853
0.32816106081008911 0.31285578012466431 0.31469088792800903
0.33679473400115967 0.3222196102142334 0.32465112209320068
0.34778687357902527 0.3347935676574707 0.33688601851463318
0.36070859432220459 0.34818834066390991 0.35068237781524658
0.37424740195274353 0.36282235383987427 0.36543840169906616
0.38785433769226074 0.37748488783836365 0.38045084476470947
0.40124183893203735 0.39187487959861755 0.39489626884460449
0.41494494676589966 0.40628638863563538 0.40943410992622375
0.42912116646766663 0.42052233219146729 0.42365628480911255
0.44290620088577271 0.43440797924995422 0.43780449032783508
0.45601770281791687 0.44778552651405334 0.45118206739425659
0.46991649270057678 0.46161866188049316 0.46437588334083557
0.48321238160133362 0.47477430105209351 0.47755801677703857
0.49726188182830811 0.48814499378204346 0.49061578512191772
0.51157402992248535 0.50238239765167236 0.50370949506759644
0.52654886245727539 0.5165296196937561 0.51733136177062988
0.54267340898513794 0.5319327712059021 0.53167158365249634
0.56028342247009277 0.54865288734436035 0.54685616493225098
0.57839870452880859 0.56579214334487915 0.56242340803146362
0.59807080030441284 0.58378380537033081 0.57877683639526367
0.61801141500473022 0.60242229700088501 0.59555697441101074
0.64042186737060547 0.62320232391357422 0.61384785175323486
0.29660052061080933 0.27760908007621765 0.27950403094291687
0.29669913649559021 0.27772286534309387 0.2792130708694458
0.29621472954750061 0.27723142504692078 0.27885854244232178
0.29632896184921265 0.27730241417884827 0.27903863787651062
0.29842942953109741 0.27985632419586182 0.28159001469612122
0.30140075087547302 0.28301405906677246 0.28495806455612183
0.30492430925369263 0.28705200552940369 0.28884047269821167
0.30924072861671448 0.29159694910049438 0.2936091423034668
0.31529662013053894 0.2985176146030426 0.30068430304527283
0.32302156090736389 0.30724802613258362 0.30942609906196594
0.3294660747051239 0.31423643231391907 0.31631067395210266
0.3363625705242157 0.32178971171379089 0.32409957051277161
0.34387969970703125 0.33021479845046997 0.33263301849365234
0.35269787907600403 0.33955860137939453 0.34206482768058777
0.36375144124031067 0.35159027576446533 0.35437232255935669
0.37627077102661133 0.36507681012153625 0.36793720722198486
0.38974308967590332 0.37939900159835815 0.38251343369483948
0.40346264839172363 0.39394515752792358 0.39705511927604675
0.41686117649078369 0.40785253047943115 0.41108402609825134
0.43045616149902344 0.42192691564559937 0.42527559399604797
0.44410032033920288 0.4357755184173584 0.43916106224060059
0.45766028761863708 0.44950217008590698 0.4522450864315033
0.47114765644073486 0.46301332116127014 0.46562421321868896
0.48489880561828613 0.47622749209403992 0.47883650660514832
0.49883449077606201 0.48995804786682129 0.49213635921478271
0.51308959722518921 0.50354886054992676 0.50539392232894897
0.52814429998397827 0.51794892549514771 0.51891660690307617
0.54444092512130737 0.53385204076766968 0.53315699100494385
0.56177753210067749 0.55000871419906616 0.54845172166824341
0.58030050992965698 0.56736457347869873 0.56402117013931274
0.60002392530441284 0.58544653654098511 0.58037501573562622
0.62007606029510498 0.60427945852279663 0.59677708148956299
0.64199978113174438 0.62468916177749634 0.6149601936340332
0.30712935328483582 0.28955549001693726 0.29114863276481628
0.30720454454421997 0.28942742943763733 0.29133820533752441
0.30674886703491211 0.28901031613349915 0.29066610336303711
0.3062623143196106 0.28863614797592163 0.29041323065757751
0.30760562419891357 0.29013976454734802 0.29178529977798462
0.31026601791381836 0.29324609041213989 0.29494941234588623
0.31389620900154114 0.29722091555595398 0.29891958832740784
0.31809449195861816 0.3017159104347229 0.30344250798225403
0.32273274660110474 0.30684497952461243 0.30933135747909546
0.32938081026077271 0.31419980525970459 0.31630754470825195
0.33842164278030396 0.32424876093864441 0.32625263929367065
0.34610661864280701 0.33200401067733765 0.33492738008499146
0.35371914505958557 0.34098553657531738 0.34313744306564331
0.36178308725357056 0.34958013892173767 0.35220116376876831
0.37087583541870117 0.35916003584861755 0.36172521114349365
0.38019475340843201 0.3691076934337616 0.37221339344978333
0.39159992337226868 0.38180160522460938 0.38484042882919312
0.40489009022712708 0.39556807279586792 0.39871999621391296
0.41815873980522156 0.40950033068656921 0.41237041354179382
0.43186637759208679 0.42329111695289612 0.42630350589752197
0.44529485702514648 0.43696033954620361 0.43991920351982117
0.45866620540618896 0.45036971569061279 0.45338049530982971
0.47168415784835815 0.4633348286151886 0.46637469530105591
0.48549649119377136 0.4770035445690155 0.47967636585235596
0.49945059418678284 0.49062120914459229 0.49274453520774841
0.51403725147247314 0.50481873750686646 0.50603377819061279
0.52935028076171875 0.51907789707183838 0.51967757940292358
0.54582208395004272 0.53511661291122437 0.53442978858947754
0.56341791152954102 0.55151474475860596 0.54977279901504517
0.58222061395645142 0.56936186552047729 0.56572502851486206
0.60215163230895996 0.58783721923828125 0.58216363191604614
0.62255162000656128 0.60645902156829834 0.59885036945343018
0.64497917890548706 0.62769150733947754 0.61747819185256958
0.31894862651824951 0.30275681614875793 0.30452361702919006
0.31939223408699036 0.3029593825340271 0.30521672964096069
0.31877472996711731 0.30250295996665955 0.30443122982978821
0.31841027736663818 0.30207258462905884 0.30377876758575439
0.31839543581008911 0.30187526345252991 0.30375665426254272
0.32082274556159973 0.30478882789611816 0.30646631121635437
0.32469946146011353 0.30872151255607605 0.31030166149139404
0.32832500338554382 0.31288373470306396 0.31486678123474121
0.33302029967308044 0.31812486052513123 0.32049870491027832
0.33882981538772583 0.32440924644470215 0.32690486311912537
0.34603726863861084 0.33257803320884705 0.33461025357246399
0.35589566826820374 0.34325829148292542 0.34548464417457581
0.36433827877044678 0.35225465893745422 0.35461688041687012
0.37191560864448547 0.36067351698875427 0.36322674155235291
0.38055703043937683 0.36944419145584106 0.37238931655883789
0.38907238841056824 0.37842088937759399 0.38166037201881409
0.39792856574058533 0.38797873258590698 0.39088737964630127
0.40782788395881653 0.39858189225196838 0.4015936553478241
0.41991394758224487 0.41116169095039368 0.41413012146949768
0.43339169025421143 0.42463278770446777 0.42803949117660522
0.44662171602249146 0.43810933828353882 0.44137674570083618
0.45980373024940491 0.45130908489227295 0.45436671376228333
0.47300681471824646 0.46464347839355469 0.46770420670509338
0.48683249950408936 0.47833737730979919 0.48070934414863586
0.50058770179748535 0.49164506793022156 0.49350130558013916
0.51500993967056274 0.50544703006744385 0.50691157579421997
0.52990138530731201 0.52038592100143433 0.52059859037399292
0.54642069339752197 0.53532558679580688 0.53484970331192017
0.56416833400726318 0.55209356546401978 0.55023086071014404
0.58241111040115356 0.56942534446716309 0.56576734781265259
0.6023826003074646 0.58768272399902344 0.58229833841323853
0.62240612506866455 0.60655361413955688 0.59884274005889893
0.64509087800979614 0.62762606143951416 0.61745685338973999
0.3319517970085144 0.3172156810760498 0.31918585300445557
0.33239799737930298 0.31756317615509033 0.31976747512817383
0.33202841877937317 0.31713983416557312 0.31904938817024231
0.33165812492370605 0.31672307848930359 0.3185914158821106
0.33116084337234497 0.31624174118041992 0.31835970282554626
0.33312895894050598 0.3183530867099762 0.32007795572280884
0.33626314997673035 0.32181236147880554 0.32380247116088867
0.34008273482322693 0.32618993520736694 0.32832461595535278
0.34500953555107117 0.33126357197761536 0.33376115560531616
0.35015022754669189 0.33697995543479919 0.33940219879150391
0.35589137673377991 0.34350287914276123 0.34597113728523254
0.36342012882232666 0.35122019052505493 0.3538183867931366
0.37399688363075256 0.36277815699577332 0.36554929614067078
0.38255301117897034 0.37216359376907349 0.37472626566886902
0.39061722159385681 0.38057553768157959 0.38359645009040833
0.39860180020332336 0.38890016078948975 0.3920130729675293
0.40714201331138611 0.39781931042671204 0.40078920125961304
0.41629654169082642 0.40702399611473083 0.41031056642532349
0.42505952715873718 0.41642698645591736 0.41973266005516052
0.43565788865089417 0.42719119787216187 0.43037682771682739
0.44845783710479736 0.43990921974182129 0.44293546676635742
0.46166694164276123 0.45324906706809998 0.45641353726387024
0.47471636533737183 0.46646851301193237 0.4694792628288269
0.48881950974464417 0.48017421364784241 0.4825860857963562
0.50244933366775513 0.49361902475357056 0.49557018280029297
0.51698583364486694 0.50756102800369263 0.50903803110122681
0.53240340948104858 0.52228277921676636 0.52256745100021362
0.54899036884307861 0.53810352087020874 0.53730815649032593
0.56720799207687378 0.55496644973754883 0.55267494916915894
0.58621066808700562 0.57252252101898193 0.56862103939056396
0.60570579767227173 0.59135615825653076 0.5849260687828064
0.62627863883972168 0.61018002033233643 0.60209470987319946
0.64881086349487305 0.63109403848648071 0.6206432580947876
0.34666779637336731 0.33297070860862732 0.33532273769378662
0.34704563021659851 0.33361858129501343 0.33603283762931824
0.34659343957901001 0.33299762010574341 0.33529731631278992
0.34611549973487854 0.33281666040420532 0.33480605483055115
0.34558543562889099 0.33196821808815002 0.33451959490776062
0.34567198157310486 0.33215436339378357 0.33443215489387512
0.3484523594379425 0.33512651920318604 0.33772650361061096
0.35211625695228577 0.33889117836952209 0.34148538112640381
0.35605964064598083 0.34376218914985657 0.34595084190368652
0.36097261309623718 0.34880936145782471 0.35145887732505798
0.3665631115436554 0.35468697547912598 0.35725739598274231
0.37234130501747131 0.3608526885509491 0.36387401819229126
0.37964627146720886 0.36870166659355164 0.3715759813785553
0.39035207033157349 0.37992185354232788 0.38312214612960815
0.39960971474647522 0.39004459977149963 0.39311420917510986
0.40767279267311096 0.39813897013664246 0.40117323398590088
0.41611483693122864 0.40690037608146667 0.40999424457550049
0.42437624931335449 0.41560995578765869 0.41850602626800537
0.4327121376991272 0.42420682311058044 0.42758667469024658
0.44210198521614075 0.43353694677352905 0.43687105178833008
0.45131871104240417 0.4427344799041748 0.44596132636070251
0.46227419376373291 0.45398080348968506 0.45699313282966614
0.4750826358795166 0.46690106391906738 0.46969690918922424
0.48914000391960144 0.48046863079071045 0.48289093375205994
0.50251978635787964 0.49334803223609924 0.49579575657844543
0.51717054843902588 0.50763219594955444 0.50893336534500122
0.53244686126708984 0.52243953943252563 0.52269142866134644
0.54894810914993286 0.53806948661804199 0.53706824779510498
0.5666394829750061 0.55454009771347046 0.55238330364227295
0.58527958393096924 0.57168132066726685 0.56812489032745361
0.60504835844039917 0.59032690525054932 0.58437389135360718
0.62513107061386108 0.60908478498458862 0.60107886791229248
0.64813446998596191 0.63027995824813843 0.61973673105239868
0.36194610595703125 0.34966662526130676 0.35209476947784424
0.36279267072677612 0.35075262188911438 0.35339933633804321
