Textures/97.cube
# Created by: G'MIC (https://gmic.eu)
TITLE "Polaroid_PX-100UV+_Warm_3.cube"
# LUT size
LUT_3D_SIZE 5
# Data domain
DOMAIN_MIN 0.0 0.0 0.0
DOMAIN_MAX 1.0 1.0 1.0
# LUT data points
0.26852497458457947 0.24559576809406281 0.24766078591346741
0.29263746738433838 0.2731020450592041 0.27470976114273071
0.38050886988639832 0.36991184949874878 0.37247565388679504
0.49302390217781067 0.48444411158561707 0.48687613010406494
0.6350896954536438 0.61808687448501587 0.60938763618469238
0.30712935328483582 0.28955549001693726 0.29114863276481628
0.32273274660110474 0.30684497952461243 0.30933135747909546
0.39159992337226868 0.38180160522460938 0.38484042882919312
0.49945059418678284 0.49062120914459229 0.49274453520774841
0.64497917890548706 0.62769150733947754 0.61747819185256958
0.42137077450752258 0.41266685724258423 0.41601932048797607
0.41950413584709167 0.41069111227989197 0.41391795873641968
0.4586760401725769 0.45056864619255066 0.45370021462440491
0.53241491317749023 0.52225810289382935 0.52268606424331665
0.66170316934585571 0.64290231466293335 0.63110291957855225
0.5520395040512085 0.54078596830368042 0.53990602493286133
0.54704529047012329 0.5360913872718811 0.53554868698120117
0.56786459684371948 0.55575454235076904 0.55358874797821045
0.62698012590408325 0.6107819676399231 0.60286355018615723
0.74248576164245605 0.71923398971557617 0.69809192419052124
0.78262728452682495 0.75831711292266846 0.73323756456375122
0.77880221605300903 0.75474083423614502 0.72980034351348877
0.78285473585128784 0.75879573822021484 0.73350441455841064
0.82049363851547241 0.79669654369354248 0.76806646585464478
0.85897177457809448 0.83644169569015503 0.80517864227294922
0.32061192393302917 0.30454039573669434 0.30655691027641296
0.34985941648483276 0.33670756220817566 0.33894267678260803
0.435151606798172 0.42653647065162659 0.42973881959915161
0.5388563871383667 0.52847397327423096 0.52845245599746704
0.67243391275405884 0.65285724401473999 0.63961023092269897
0.35387903451919556 0.34111559391021729 0.34376946091651917
0.38434964418411255 0.37373572587966919 0.37642773985862732
0.45558682084083557 0.44734606146812439 0.45079624652862549
0.54503357410430908 0.53412449359893799 0.53375148773193359
0.68138366937637329 0.66143172979354858 0.64724040031433105
0.47638285160064697 0.46803203225135803 0.47077912092208862
0.47253021597862244 0.46409666538238525 0.46681207418441772
0.49589693546295166 0.48722919821739197 0.48941320180892944
0.56467574834823608 0.55269312858581543 0.55077564716339111
0.69530379772186279 0.6744200587272644 0.65864700078964233
0.59294039011001587 0.57921874523162842 0.57470297813415527
0.58852392435073853 0.57476520538330078 0.57074415683746338
0.59927773475646973 0.58484846353530884 0.57973712682723999
0.65359842777252197 0.63523948192596436 0.62433803081512451
0.75959330797195435 0.73580563068389893 0.71292001008987427
0.79831504821777344 0.77405631542205811 0.74722188711166382
0.79542464017868042 0.77123677730560303 0.74479925632476807
0.79713284969329834 0.7732774019241333 0.74637788534164429
0.82736796140670776 0.80373859405517578 0.77499908208847046
0.86288028955459595 0.84099996089935303 0.8095703125
0.46354907751083374 0.45521283149719238 0.45799469947814941
0.48114439845085144 0.47247594594955444 0.47513386607170105
0.51795971393585205 0.50869143009185791 0.50976604223251343
0.60109657049179077 0.58689188957214355 0.5813591480255127
0.73217147588729858 0.70941793918609619 0.68924576044082642
0.48783251643180847 0.47922933101654053 0.48174837231636047
0.50384974479675293 0.49490001797676086 0.49714061617851257
0.5364946722984314 0.52625548839569092 0.52622067928314209
0.62311530113220215 0.60741722583770752 0.59981870651245117
0.74570417404174805 0.72245293855667114 0.70112836360931396
0.52190393209457397 0.51226574182510376 0.51324856281280518
0.53529393672943115 0.524891197681427 0.52504473924636841
0.57825577259063721 0.56545490026473999 0.56203609704971313
0.65626817941665649 0.63791888952255249 0.62661010026931763
0.76318585872650146 0.73904943466186523 0.7156904935836792
0.66428792476654053 0.64552110433578491 0.63341104984283447
0.67165559530258179 0.65219169855117798 0.63931703567504883
0.6764417290687561 0.65671837329864502 0.6433367133140564
0.7110627293586731 0.68872499465942383 0.671486496925354
0.79426062107086182 0.76982957124710083 0.7437971830368042
0.83035671710968018 0.80663859844207764 0.77748847007751465
0.82862669229507446 0.80498141050338745 0.77561962604522705
0.8293185830116272 0.80566167831420898 0.77607637643814087
0.84249180555343628 0.81918197870254517 0.78920096158981323
0.87282925844192505 0.85140389204025269 0.81925147771835327
0.64416533708572388 0.62673419713973999 0.61643457412719727
0.65353351831436157 0.63565641641616821 0.62426269054412842
0.68685770034790039 0.66617536544799805 0.65171390771865845
0.71984082460403442 0.6975213885307312 0.67896336317062378
0.7851225733757019 0.76100969314575195 0.73521161079406738
0.66139203310012817 0.64263981580734253 0.63081860542297363
0.66924434900283813 0.64998739957809448 0.63746827840805054
0.69920319318771362 0.67817676067352295 0.66180765628814697
0.73149347305297852 0.70863431692123413 0.68882608413696289
0.79789787530899048 0.77366393804550171 0.74697887897491455
0.66961729526519775 0.65024393796920776 0.6375541090965271
0.68326020240783691 0.66322833299636841 0.64852476119995117
0.72091972827911377 0.69862121343612671 0.67988163232803345
0.75413107872009277 0.73034489154815674 0.70801502466201782
0.82372796535491943 0.79987055063247681 0.77128666639328003
0.71816855669021606 0.69587689638137817 0.67742520570755005
0.72419720888137817 0.70163702964782715 0.68261909484863281
0.74963861703872681 0.72607523202896118 0.70422160625457764
0.79267638921737671 0.76861608028411865 0.74224990606307983
0.8494875431060791 0.82683748006820679 0.79637527465820312
0.85609251260757446 0.83371764421463013 0.80275070667266846
0.85777437686920166 0.83534687757492065 0.80422753095626831
0.86620724201202393 0.84400755167007446 0.81237632036209106
0.87107181549072266 0.84985637664794922 0.81772333383560181
0.88831746578216553 0.86744403839111328 0.83487176895141602
0.85407501459121704 0.83169114589691162 0.80089741945266724
0.85560125112533569 0.83328020572662354 0.80234408378601074
0.86338514089584351 0.84116703271865845 0.81004726886749268
0.87519901990890503 0.85377848148345947 0.82169699668884277
0.88267070055007935 0.86147189140319824 0.82888311147689819
0.85721385478973389 0.8347465991973877 0.80379706621170044
0.85905784368515015 0.83678597211837769 0.80569738149642944
0.86604946851730347 0.84400302171707153 0.81237035989761353
0.87727850675582886 0.85578650236129761 0.82380765676498413
0.88452768325805664 0.86362361907958984 0.83107131719589233
0.8612944483757019 0.83949750661849976 0.80813366174697876
0.86377400159835815 0.84160763025283813 0.81012547016143799
0.8705260157585144 0.84907442331314087 0.8172832727432251
0.88142240047454834 0.86046814918518066 0.82788562774658203
0.88963562250137329 0.86880779266357422 0.8359910249710083
0.86587804555892944 0.84382599592208862 0.81231087446212769
0.86671608686447144 0.84497588872909546 0.81337755918502808
0.87299799919128418 0.85128235816955566 0.81929582357406616
0.88812762498855591 0.86738479137420654 0.8347516655921936
0.89810723066329956 0.87804877758026123 0.8449520468711853
0.88743525743484497 0.8669164776802063 0.83414387702941895
0.88837671279907227 0.86735188961029053 0.83487397432327271
0.89195477962493896 0.87154257297515869 0.83881527185440063
0.89879137277603149 0.87869364023208618 0.84562689065933228
0.90959930419921875 0.89061993360519409 0.8568413257598877
