Textures/98.cube
# Created by: G'MIC (https://gmic.eu)
TITLE "Polaroid_PX-680_3.cube"
# LUT size
LUT_3D_SIZE 5
# Data domain
DOMAIN_MIN 0.0 0.0 0.0
DOMAIN_MAX 1.0 1.0 1.0
# LUT data points
0.023400302976369858 0.18186308443546295 0.20717813074588776
0.056832749396562576 0.18189935386180878 0.20686632394790649
0.49127516150474548 0.17800094187259674 0.19754008948802948
0.88175457715988159 0.32539883255958557 0.19017957150936127
0.98427015542984009 0.55175286531448364 0.27924433350563049
0 0.21325495839118958 0.20475234091281891
0.11941228061914444 0.2332521378993988 0.20225070416927338
0.57461899518966675 0.28160452842712402 0.18364013731479645
0.87192362546920776 0.42970415949821472 0.18261656165122986
0.97687780857086182 0.59546500444412231 0.28799158334732056
0 0.49068349599838257 0.19841308891773224
0.0093519426882266998 0.49988868832588196 0.20421823859214783
0.5686296820640564 0.5599028468132019 0.19602517783641815
0.83533728122711182 0.6183047890663147 0.19817648828029633
0.95451521873474121 0.66673004627227783 0.28123053908348083
0.17731116712093353 0.70038366317749023 0.26088359951972961
0.31560921669006348 0.69862860441207886 0.26883777976036072
0.57754415273666382 0.7184564471244812 0.300230473279953
0.78625059127807617 0.75691568851470947 0.34875020384788513
0.9258081316947937 0.80273038148880005 0.4151160717010498
0.63478338718414307 0.87671661376953125 0.46671116352081299
0.65288335084915161 0.87545108795166016 0.47073200345039368
0.71171212196350098 0.88608527183532715 0.50104790925979614
0.80075454711914062 0.90700417757034302 0.53766167163848877
0.87711232900619507 0.9337659478187561 0.59134483337402344
0.021231364458799362 0.18155625462532043 0.21439304947853088
0.088199876248836517 0.18412581086158752 0.21924315392971039
0.54822194576263428 0.13687668740749359 0.25829288363456726
0.88288211822509766 0.41770294308662415 0.33694598078727722
0.97391510009765625 0.60399395227432251 0.41209837794303894
0 0.23527456820011139 0.24022229015827179
0.20835274457931519 0.26361104846000671 0.25797915458679199
0.63768637180328369 0.34040170907974243 0.2882392406463623
0.87291771173477173 0.4966166615486145 0.33343186974525452
0.9693673849105835 0.63538175821304321 0.41253969073295593
0.14038082957267761 0.52497726678848267 0.28973358869552612
0.25967288017272949 0.53351742029190063 0.28336772322654724
0.61931437253952026 0.58128529787063599 0.3017476499080658
0.84137547016143799 0.62461185455322266 0.3122393786907196
0.95370268821716309 0.68719279766082764 0.38912543654441833
0.31954813003540039 0.71025711297988892 0.3226759135723114
0.41032430529594421 0.70948046445846558 0.33092159032821655
0.60980355739593506 0.7258220911026001 0.36469712853431702
0.79449295997619629 0.76476895809173584 0.40937539935112
0.92654913663864136 0.80619734525680542 0.45909968018531799
0.64155369997024536 0.87989610433578491 0.48324054479598999
0.65979909896850586 0.87877333164215088 0.48748558759689331
0.71732550859451294 0.88854026794433594 0.51575803756713867
0.80477273464202881 0.90845167636871338 0.55296516418457031
0.87855792045593262 0.93594396114349365 0.60449403524398804
0.084106720983982086 0.19121704995632172 0.38747233152389526
0.3328823447227478 0.21838776767253876 0.40429112315177917
0.65161079168319702 0.37253937125205994 0.44039362668991089
0.8675607442855835 0.39546161890029907 0.48025915026664734
0.97335416078567505 0.59871387481689453 0.51803714036941528
0.11216039955615997 0.32292285561561584 0.42803823947906494
0.39801943302154541 0.34840995073318481 0.4433460533618927
0.68828064203262329 0.49535694718360901 0.46336612105369568
0.86152654886245728 0.51849764585494995 0.49285858869552612
0.96488142013549805 0.6623690128326416 0.5340876579284668
0.24339036643505096 0.54420393705368042 0.42310157418251038
0.42367774248123169 0.55861949920654297 0.435233473777771
0.70454162359237671 0.61758303642272949 0.48013216257095337
0.84355151653289795 0.68073195219039917 0.51113271713256836
0.94446760416030884 0.74091553688049316 0.54857504367828369
0.49396783113479614 0.70810574293136597 0.44268801808357239
0.56898444890975952 0.71450179815292358 0.45480015873908997
0.67327797412872314 0.73594659566879272 0.47117036581039429
0.81173652410507202 0.77653390169143677 0.51085478067398071
0.92955362796783447 0.80540204048156738 0.53203213214874268
0.66155141592025757 0.87977617979049683 0.52752602100372314
0.66948354244232178 0.88040179014205933 0.52426433563232422
0.72181349992752075 0.89158093929290771 0.54299598932266235
0.81134772300720215 0.90919625759124756 0.58528918027877808
0.88340115547180176 0.94086152315139771 0.63462954759597778
0.50495827198028564 0.33559241890907288 0.60431760549545288
0.63452517986297607 0.38835728168487549 0.60303777456283569
0.79704767465591431 0.5687674880027771 0.60384005308151245
0.85994189977645874 0.68953180313110352 0.61359912157058716
0.93987113237380981 0.68145328760147095 0.62283825874328613
0.50527983903884888 0.45243439078330994 0.60306042432785034
0.63284629583358765 0.49056696891784668 0.60171830654144287
0.79394650459289551 0.62455558776855469 0.60650742053985596
0.86112785339355469 0.72192192077636719 0.62051701545715332
0.93797236680984497 0.71305614709854126 0.62957310676574707
0.36354061961174011 0.60676956176757812 0.56905335187911987
0.51772350072860718 0.61120635271072388 0.57579916715621948
0.76038134098052979 0.67311400175094604 0.60164624452590942
0.86052107810974121 0.76666414737701416 0.62774986028671265
0.93362867832183838 0.76154440641403198 0.63665652275085449
0.49880892038345337 0.72202086448669434 0.54793494939804077
0.55977547168731689 0.72392261028289795 0.55178618431091309
0.70401734113693237 0.74445146322250366 0.57380688190460205
0.85039436817169189 0.80213993787765503 0.6266670823097229
0.91509795188903809 0.85123986005783081 0.65662670135498047
0.61454635858535767 0.87233203649520874 0.5758323073387146
0.64100676774978638 0.8735848069190979 0.5773964524269104
0.72429424524307251 0.88835668563842773 0.59615319967269897
0.82185834646224976 0.91085159778594971 0.6333615779876709
0.89341729879379272 0.95064795017242432 0.68095684051513672
0.77666467428207397 0.68269151449203491 0.73303890228271484
0.79832279682159424 0.69758164882659912 0.72938328981399536
0.85520213842391968 0.7490038275718689 0.72409325838088989
0.89873009920120239 0.82378333806991577 0.71762222051620483
0.90828531980514526 0.86157369613647461 0.71782851219177246
0.77187818288803101 0.70594674348831177 0.73149436712265015
0.79480165243148804 0.7191241979598999 0.72876620292663574
0.85400682687759399 0.76436370611190796 0.7243112325668335
0.896717369556427 0.83520513772964478 0.71934938430786133
0.90533256530761719 0.87263554334640503 0.72008800506591797
0.73579096794128418 0.74046128988265991 0.72706860303878784
0.76101338863372803 0.74390548467636108 0.72674322128295898
0.83649748563766479 0.78081643581390381 0.72492742538452148
0.89105421304702759 0.85230547189712524 0.72239524126052856
0.90186303853988647 0.89239555597305298 0.72651112079620361
0.63598227500915527 0.79859501123428345 0.71699315309524536
0.65646260976791382 0.79595702886581421 0.71687746047973633
0.73113256692886353 0.79774945974349976 0.72094088792800903
0.87455260753631592 0.86078476905822754 0.72805547714233398
0.90500020980834961 0.92116451263427734 0.74363058805465698
0.66151624917984009 0.92065435647964478 0.71859079599380493
0.67511659860610962 0.9200519323348999 0.71842193603515625
0.72892212867736816 0.9239581823348999 0.72250205278396606
0.81185746192932129 0.93475830554962158 0.73374032974243164
0.93139910697937012 0.96767038106918335 0.7831382155418396
