Textures/98.cube
# Created by: G'MIC (https://gmic.eu)
TITLE "Polaroid_PX-680_3.cube"
# LUT size
LUT_3D_SIZE 33
# Data domain
DOMAIN_MIN 0.0 0.0 0.0
DOMAIN_MAX 1.0 1.0 1.0
# LUT data points
0.023400302976369858 0.18186308443546295 0.20717813074588776
0.023529002442955971 0.18187698721885681 0.20726224780082703
0.023043839260935783 0.18218797445297241 0.20725178718566895
0.022207573056221008 0.18188866972923279 0.20717057585716248
0.02208610437810421 0.1818416565656662 0.20719650387763977
0.02309069037437439 0.18163913488388062 0.20717222988605499
0.027679845690727234 0.18231402337551117 0.20722343027591705
0.037641346454620361 0.18198439478874207 0.20687922835350037
0.056832749396562576 0.18189935386180878 0.20686632394790649
0.08414795994758606 0.18253803253173828 0.20655812323093414
0.12026216089725494 0.1833731085062027 0.20635752379894257
0.16544444859027863 0.18419536948204041 0.20549561083316803
0.2180895060300827 0.18486510217189789 0.2045074850320816
0.27890351414680481 0.18508560955524445 0.20347808301448822
0.34638598561286926 0.18371424078941345 0.20189961791038513
0.41801020503044128 0.18113823235034943 0.19999222457408905
0.49127516150474548 0.17800094187259674 0.19754008948802948
0.56259602308273315 0.17599891126155853 0.19530896842479706
0.63047897815704346 0.17724783718585968 0.1929343193769455
0.69560438394546509 0.18665112555027008 0.19062389433383942
0.7486603856086731 0.20393775403499603 0.18851399421691895
0.79242390394210815 0.22873245179653168 0.18743008375167847
0.82874530553817749 0.25860819220542908 0.18718130886554718
0.85776674747467041 0.29098370671272278 0.18812870979309082
0.88175457715988159 0.32539883255958557 0.19017957150936127
0.90120774507522583 0.35997271537780762 0.19430360198020935
0.9171983003616333 0.39344128966331482 0.20073133707046509
0.93050658702850342 0.42511370778083801 0.20892557501792908
0.94251865148544312 0.45475858449935913 0.21995651721954346
0.95317274332046509 0.48171389102935791 0.23202845454216003
0.96386271715164185 0.5067097544670105 0.24614474177360535
0.97400307655334473 0.52893126010894775 0.26123476028442383
0.98427015542984009 0.55175286531448364 0.27924433350563049
0.023511456325650215 0.18218283355236053 0.20734764635562897
0.02341785840690136 0.18194839358329773 0.20732399821281433
0.022970130667090416 0.18206600844860077 0.20737230777740479
0.022261215373873711 0.18184259533882141 0.20718520879745483
0.022603424265980721 0.1823405921459198 0.20740687847137451
0.024044675752520561 0.18175764381885529 0.20725101232528687
0.029128868132829666 0.18192906677722931 0.20722787082195282
0.040762357413768768 0.18213930726051331 0.20694302022457123
0.061649452894926071 0.18301540613174438 0.20722277462482452
0.08922334760427475 0.18340367078781128 0.20644617080688477
0.12595900893211365 0.18446768820285797 0.20593513548374176
0.17212311923503876 0.18564027547836304 0.20539279282093048
0.22540742158889771 0.18693456053733826 0.20418712496757507
0.28654396533966064 0.18698298931121826 0.2030450701713562
0.35419818758964539 0.18590348958969116 0.20116585493087769
0.42499575018882751 0.18469192087650299 0.19918352365493774
0.49729821085929871 0.18204282224178314 0.19703607261180878
0.56860643625259399 0.18104645609855652 0.19497841596603394
0.63721960783004761 0.18382254242897034 0.19214737415313721
0.70044052600860596 0.19428922235965729 0.18972709774971008
0.75290346145629883 0.2132541835308075 0.18776316940784454
0.79577428102493286 0.23850449919700623 0.18711180984973907
0.83117932081222534 0.26840052008628845 0.18669331073760986
0.85953205823898315 0.30054348707199097 0.18751205503940582
0.88347935676574707 0.33499357104301453 0.19025951623916626
0.90257751941680908 0.36924144625663757 0.19465306401252747
0.91830188035964966 0.40178048610687256 0.20135745406150818
0.93138188123703003 0.43271473050117493 0.21019625663757324
0.94365698099136353 0.46222946047782898 0.22154094278812408
0.95410841703414917 0.48834341764450073 0.23419840633869171
0.96496021747589111 0.51272028684616089 0.24853488802909851
0.97480076551437378 0.53426289558410645 0.26357558369636536
0.98486155271530151 0.55654966831207275 0.28201371431350708
0.023347260430455208 0.18162526190280914 0.20724320411682129
0.023237708956003189 0.18159416317939758 0.20720192790031433
0.022914716973900795 0.18218272924423218 0.20728878676891327
0.022451108321547508 0.18195736408233643 0.20734584331512451
0.022721240296959877 0.18158926069736481 0.2069517970085144
0.025368966162204742 0.18184515833854675 0.20693041384220123
0.032596912235021591 0.18246735632419586 0.20716443657875061
0.046032745391130447 0.18251052498817444 0.20668680965900421
0.067662276327610016 0.18342708051204681 0.20682054758071899
0.096607089042663574 0.18461789190769196 0.20626577734947205
0.13414458930492401 0.18639272451400757 0.20622551441192627
0.18057391047477722 0.1873791515827179 0.20499452948570251
0.23396401107311249 0.18886302411556244 0.20386782288551331
0.29521244764328003 0.19022379815578461 0.20262476801872253
0.36244222521781921 0.19023740291595459 0.20076808333396912
0.432607501745224 0.18897867202758789 0.19888617098331451
0.5042119026184082 0.18756045401096344 0.1964268684387207
0.57470893859863281 0.18744745850563049 0.1939798891544342
0.64348787069320679 0.19230738282203674 0.19141067564487457
0.70477086305618286 0.20416875183582306 0.18939006328582764
0.75580680370330811 0.22344379127025604 0.18709753453731537
0.79739445447921753 0.24878080189228058 0.1861463189125061
0.83266973495483398 0.27889329195022583 0.18619641661643982
0.86107850074768066 0.31130638718605042 0.18761461973190308
0.88439059257507324 0.34488588571548462 0.1900901198387146
0.90294015407562256 0.3783881664276123 0.19472815096378326
0.91879898309707642 0.41064471006393433 0.20218855142593384
0.93198901414871216 0.4412274956703186 0.21152174472808838
0.94384986162185669 0.47032114863395691 0.22336874902248383
0.95475649833679199 0.49587595462799072 0.23655475676059723
0.96559083461761475 0.51981860399246216 0.25172260403633118
0.97583091259002686 0.54206371307373047 0.26804468035697937
0.98673200607299805 0.56434357166290283 0.28769373893737793
0.023149542510509491 0.18180544674396515 0.2071811854839325
0.023063695058226585 0.18178009986877441 0.20723108947277069
0.022896455600857735 0.18178588151931763 0.20728966593742371
0.023262171074748039 0.18177975714206696 0.20754146575927734
0.023819476366043091 0.18192461133003235 0.20717974007129669
0.028075253590941429 0.18277940154075623 0.20721432566642761
0.037858214229345322 0.18328778445720673 0.20707900822162628
0.054083824157714844 0.18411490321159363 0.20707529783248901
0.076931759715080261 0.18496152758598328 0.20640437304973602
0.10731582343578339 0.1865980327129364 0.20614764094352722
0.14537927508354187 0.18866682052612305 0.20521575212478638
0.19214773178100586 0.19123318791389465 0.20449675619602203
0.24559788405895233 0.19302995502948761 0.20310269296169281
0.30549666285514832 0.19466334581375122 0.20187485218048096
0.37233197689056396 0.19540639221668243 0.19987986981868744
0.44124573469161987 0.19532069563865662 0.19756497442722321
0.51149445772171021 0.19530940055847168 0.19569870829582214
0.58179503679275513 0.19704592227935791 0.19306361675262451
0.6490180492401123 0.20360153913497925 0.19047956168651581
0.70753759145736694 0.21652936935424805 0.18786124885082245
0.75659465789794922 0.23621569573879242 0.18642468750476837
0.79690772294998169 0.26076561212539673 0.18575887382030487
0.8306279182434082 0.28883719444274902 0.18528476357460022
0.85822838544845581 0.31931343674659729 0.18652921915054321
0.88137310743331909 0.35131269693374634 0.1893719881772995
0.90044170618057251 0.3838062584400177 0.19396710395812988
0.91555488109588623 0.41399544477462769 0.2007201761007309
0.92870646715164185 0.44335108995437622 0.20972105860710144
0.94091951847076416 0.47100889682769775 0.22126668691635132
0.95182704925537109 0.49586248397827148 0.233795166015625
0.96244484186172485 0.51902556419372559 0.24810488522052765
0.97265559434890747 0.54008311033248901 0.26343178749084473
0.98328906297683716 0.56208574771881104 0.2822243869304657
0.021959995850920677 0.18207485973834991 0.2072022408246994
0.021823100745677948 0.1820041686296463 0.20704111456871033
0.022432779893279076 0.18253085017204285 0.20712432265281677
0.023412017151713371 0.18266735970973969 0.20744825899600983
0.02528136782348156 0.18259939551353455 0.20702919363975525
0.030624434351921082 0.18374666571617126 0.20698226988315582
0.043153248727321625 0.1849752813577652 0.20710280537605286
0.061752490699291229 0.18618994951248169 0.20639395713806152
0.087805800139904022 0.18779996037483215 0.20589856803417206
0.12080537527799606 0.19028018414974213 0.20577031373977661
0.1600000262260437 0.19282029569149017 0.20485480129718781
0.20720244944095612 0.19575656950473785 0.20368997752666473
0.26062095165252686 0.19861713051795959 0.20229378342628479
0.32105171680450439 0.20112720131874084 0.20065538585186005
0.38721379637718201 0.20317389070987701 0.19905894994735718
0.45432689785957336 0.20426860451698303 0.19656455516815186
0.52427971363067627 0.20567016303539276 0.19420057535171509
0.595458984375 0.21018731594085693 0.19139485061168671
0.65914702415466309 0.21906845271587372 0.18880215287208557
0.71483391523361206 0.23375256359577179 0.18667431175708771
0.76189088821411133 0.25410518050193787 0.18509781360626221
0.80034404993057251 0.27852049469947815 0.18438002467155457
0.83313071727752686 0.30632111430168152 0.18438468873500824
0.85993647575378418 0.3359338641166687 0.18560692667961121
0.88203734159469604 0.36690631508827209 0.18882238864898682
0.90068703889846802 0.39785310626029968 0.19411961734294891
0.91570591926574707 0.42700141668319702 0.20134261250495911
0.92905300855636597 0.45539510250091553 0.21103315055370331
0.94068151712417603 0.48150864243507385 0.22272279858589172
0.95167523622512817 0.50529235601425171 0.23592239618301392
0.96222031116485596 0.52766311168670654 0.24983540177345276
0.9727216362953186 0.54798293113708496 0.2661973237991333
0.98319840431213379 0.56873184442520142 0.28514048457145691
0.018018780276179314 0.18426118791103363 0.20678065717220306
0.018727103248238564 0.18442438542842865 0.20687128603458405
0.019548475742340088 0.18455126881599426 0.20695485174655914
0.02160932868719101 0.18490612506866455 0.20685841143131256
0.025722067803144455 0.18548847734928131 0.2067311704158783
0.033273797482252121 0.18659956753253937 0.20674540102481842
0.048559561371803284 0.18830317258834839 0.20624738931655884
0.07116612046957016 0.19064465165138245 0.20578412711620331
0.099052287638187408 0.19375762343406677 0.20543874800205231
0.1340370774269104 0.19626832008361816 0.20460999011993408
0.17461816966533661 0.19901387393474579 0.20372462272644043
0.22249007225036621 0.20238450169563293 0.20254458487033844
0.27557525038719177 0.20614269375801086 0.20104047656059265
0.33468368649482727 0.20993795990943909 0.19932979345321655
0.3990633487701416 0.21280473470687866 0.19724071025848389
0.46615824103355408 0.21563693881034851 0.19488479197025299
0.53752052783966064 0.21967370808124542 0.19238211214542389
0.60517036914825439 0.22622160613536835 0.18968817591667175
0.66493809223175049 0.23666881024837494 0.18707476556301117
0.71767675876617432 0.25219404697418213 0.18478412926197052
0.7625465989112854 0.27236422896385193 0.1834615021944046
0.80025690793991089 0.2962697446346283 0.18267439305782318
0.83190548419952393 0.32304799556732178 0.18282173573970795
0.85842710733413696 0.35138911008834839 0.18429721891880035
0.88052403926849365 0.38105130195617676 0.18789099156856537
0.89883363246917725 0.41050064563751221 0.19321542978286743
0.91406571865081787 0.4386964738368988 0.20102877914905548
0.92750018835067749 0.46542245149612427 0.21102158725261688
0.93939465284347534 0.49131587147712708 0.22334830462932587
0.95054167509078979 0.5144694447517395 0.23682825267314911
0.96146273612976074 0.53611844778060913 0.25214812159538269
0.97229504585266113 0.55629187822341919 0.26884087920188904
0.98314636945724487 0.57671648263931274 0.28847381472587585
0.010003113187849522 0.18892624974250793 0.20639024674892426
0.010857163928449154 0.18913501501083374 0.20620141923427582
0.01271305326372385 0.18954986333847046 0.20616446435451508
0.016355115920305252 0.1902649849653244 0.20638415217399597
0.022716231644153595 0.19090606272220612 0.20598419010639191
0.03443467989563942 0.19280408322811127 0.2058698832988739
0.052077077329158783 0.19452336430549622 0.20576144754886627
0.077399387955665588 0.19785930216312408 0.20489072799682617
0.11095094680786133 0.20311324298381805 0.20417910814285278
0.14755013585090637 0.20735977590084076 0.203399658203125
0.19003619253635406 0.21168960630893707 0.202313631772995
0.23905803263187408 0.21490511298179626 0.20111380517482758
0.29198279976844788 0.21778428554534912 0.19950297474861145
0.35033544898033142 0.22164195775985718 0.19767065346240997
0.41553181409835815 0.22637161612510681 0.19541420042514801
0.4844726026058197 0.2317197322845459 0.1929372102022171
0.55236506462097168 0.23771290481090546 0.19015876948833466
0.61505228281021118 0.24564862251281738 0.1873260885477066
0.67075252532958984 0.25753358006477356 0.18495549261569977
0.72061580419540405 0.27362009882926941 0.18274253606796265
0.76317304372787476 0.29340121150016785 0.18136110901832581
0.79880619049072266 0.31577417254447937 0.18057481944561005
0.82988345623016357 0.34087306261062622 0.18095700442790985
0.85551315546035767 0.36741802096366882 0.18272727727890015
0.877025306224823 0.39469107985496521 0.18614600598812103
0.89529746770858765 0.42207083106040955 0.19162704050540924
0.91029852628707886 0.44801142811775208 0.19939519464969635
0.92362135648727417 0.47341972589492798 0.20915693044662476
0.93550151586532593 0.49713045358657837 0.22115729749202728
0.94625645875930786 0.51885545253753662 0.23434987664222717
0.95753800868988037 0.53957390785217285 0.24895811080932617
0.96842688322067261 0.55851984024047852 0.26474478840827942
0.97958731651306152 0.57853704690933228 0.28416594862937927
0.00069096713559702039 0.19804774224758148 0.20614436268806458
0.0012407853500917554 0.19857223331928253 0.20595246553421021
0.0024771839380264282 0.19897741079330444 0.20583555102348328
0.0056125475093722343 0.1992659866809845 0.20568639039993286
0.015032245777547359 0.20134495198726654 0.20590712130069733
0.030390175059437752 0.20327307283878326 0.20541426539421082
0.053470753133296967 0.20631411671638489 0.20500144362449646
0.081358857452869415 0.20983381569385529 0.20453321933746338
0.11860761791467667 0.21576845645904541 0.20297403633594513
0.1638798862695694 0.22445271909236908 0.20177720487117767
0.20837715268135071 0.23006135225296021 0.20030577480792999
0.25887474417686462 0.23500959575176239 0.19846495985984802
0.31448164582252502 0.23910735547542572 0.19662678241729736
0.3759608268737793 0.24192188680171967 0.19452501833438873
0.4411490261554718 0.2456163614988327 0.19235312938690186
0.50564956665039062 0.25144714117050171 0.18944092094898224
0.56920099258422852 0.2592695951461792 0.18672235310077667
0.62771427631378174 0.26935702562332153 0.18425823748111725
0.67974281311035156 0.28222697973251343 0.1815660297870636
0.7268061637878418 0.29884880781173706 0.17958861589431763
0.76695436239242554 0.31855177879333496 0.17836634814739227
0.80123680830001831 0.34038072824478149 0.17812451720237732
0.8311837911605835 0.36453345417976379 0.17868731915950775
0.85578632354736328 0.38980323076248169 0.18081329762935638
0.87679481506347656 0.41550123691558838 0.18522149324417114
0.89458215236663818 0.44089162349700928 0.19127592444419861
0.90928137302398682 0.46535640954971313 0.19948166608810425
0.92236238718032837 0.48892614245414734 0.21057708561420441
0.93437588214874268 0.5112156867980957 0.22261697053909302
0.94562262296676636 0.53192818164825439 0.23623819649219513
0.95687931776046753 0.55093526840209961 0.25105428695678711
0.96779274940490723 0.56898248195648193 0.26755985617637634
0.97849845886230469 0.58748626708984375 0.28696316480636597
0 0.21325495839118958 0.20475234091281891
0 0.2143310159444809 0.20506745576858521
0 0.21448923647403717 0.20475232601165771
6.5607828219071962e-06 0.21539820730686188 0.20494070649147034
0.0021938516292721033 0.21719612181186676 0.20464150607585907
0.017262771725654602 0.21973444521427155 0.20430533587932587
0.047570656985044479 0.22330617904663086 0.20396226644515991
0.081909641623497009 0.22770300507545471 0.20334623754024506
0.11941228061914444 0.2332521378993988 0.20225070416927338
0.16547679901123047 0.24135573208332062 0.20072503387928009
0.22244539856910706 0.25357270240783691 0.19822481274604797
0.27716431021690369 0.26158496737480164 0.19584059715270996
0.33432713150978088 0.26779299974441528 0.19388200342655182
0.39445817470550537 0.27207633852958679 0.19139699637889862
0.45575723052024841 0.27470269799232483 0.18859711289405823
0.51579082012176514 0.27629038691520691 0.18634265661239624
0.57461899518966675 0.28160452842712402 0.18364013731479645
0.62992382049560547 0.29198199510574341 0.18092080950737
0.67949491739273071 0.30513513088226318 0.17872864007949829
0.72448956966400146 0.32116439938545227 0.17661571502685547
0.76318776607513428 0.3396209180355072 0.17559105157852173
0.79707187414169312 0.36017251014709473 0.17551806569099426
0.82612645626068115 0.38252100348472595 0.17589905858039856
0.85065621137619019 0.40602749586105347 0.1782841831445694
0.87192362546920776 0.42970415949821472 0.18261656165122986
0.89000964164733887 0.45402848720550537 0.18922488391399384
0.90505355596542358 0.47719722986221313 0.19775228202342987
0.91862696409225464 0.49964472651481628 0.20876255631446838
0.93092411756515503 0.52102547883987427 0.22117562592029572
0.94254958629608154 0.54091173410415649 0.23552210628986359
0.95408004522323608 0.55975568294525146 0.25094720721244812
0.9653359055519104 0.57698702812194824 0.26795938611030579
0.97687780857086182 0.59546500444412231 0.28799158334732056
0 0.23630896210670471 0.20349797606468201
0 0.23799100518226624 0.20356506109237671
0 0.23827645182609558 0.2037050873041153
0 0.23876382410526276 0.20372772216796875
0 0.24005791544914246 0.20362910628318787
0.0021101983729749918 0.24330715835094452 0.20340150594711304
0.029753491282463074 0.24758309125900269 0.20280596613883972
0.075767651200294495 0.25338268280029297 0.2018919438123703
0.12168990820646286 0.26059773564338684 0.20076362788677216
0.17082405090332031 0.26916435360908508 0.19932949542999268
0.22827945649623871 0.28031545877456665 0.1971190869808197
0.29870578646659851 0.29640468955039978 0.19255463778972626
0.35838186740875244 0.30522418022155762 0.18947061896324158
0.41686990857124329 0.31091803312301636 0.18679967522621155
0.47641667723655701 0.31459259986877441 0.18397419154644012
0.5329887866973877 0.31665739417076111 0.18140237033367157
0.58690309524536133 0.31788361072540283 0.17887043952941895
0.63712668418884277 0.32118594646453857 0.17648787796497345
0.68348526954650879 0.33125102519989014 0.17422287166118622
0.72608411312103271 0.34736451506614685 0.17276927828788757
0.76305007934570312 0.36492267251014709 0.17186267673969269
0.79555302858352661 0.38386639952659607 0.17143276333808899
0.82377439737319946 0.40503588318824768 0.17255190014839172
0.84806990623474121 0.42678117752075195 0.17560519278049469
0.86850780248641968 0.44846302270889282 0.18017415702342987
0.88645482063293457 0.47048479318618774 0.18715253472328186
0.90141874551773071 0.49148771166801453 0.19604198634624481
0.91485416889190674 0.51228582859039307 0.2068968266248703
0.92715543508529663 0.53181231021881104 0.21990099549293518
0.9386669397354126 0.55012232065200806 0.23341581225395203
0.9505649209022522 0.56775194406509399 0.24893252551555634
0.961708664894104 0.58342337608337402 0.2651112973690033
0.97363573312759399 0.60133504867553711 0.28539192676544189
0 0.26662600040435791 0.20185878872871399
0 0.26921254396438599 0.20187827944755554
0 0.26928448677062988 0.20182757079601288
0 0.27026697993278503 0.20200428366661072
0 0.2720654308795929 0.20235304534435272
0 0.27585980296134949 0.20221145451068878
0.0066281678155064583 0.28139162063598633 0.20131494104862213
0.059908583760261536 0.28813254833221436 0.20011036098003387
0.11983031779527664 0.29617169499397278 0.19900505244731903
0.17497670650482178 0.30525478720664978 0.19735582172870636
0.23328195512294769 0.31534305214881897 0.19503051042556763
0.30006855726242065 0.32775092124938965 0.19201575219631195
0.37814086675643921 0.34652742743492126 0.186489537358284
0.4411337673664093 0.35594305396080017 0.18230460584163666
0.4977719783782959 0.36057731509208679 0.17940400540828705
0.55092829465866089 0.36332440376281738 0.17640556395053864
0.6015770435333252 0.36556562781333923 0.17396068572998047
0.64826333522796631 0.36807632446289062 0.17182062566280365
0.69040888547897339 0.37069305777549744 0.16948534548282623
0.72949522733688354 0.37770733237266541 0.16744337975978851
0.76481163501739502 0.39265084266662598 0.16676470637321472
0.79606550931930542 0.41092836856842041 0.16748271882534027
0.82344138622283936 0.4307066798210144 0.16861580312252045
0.8472171425819397 0.45097705721855164 0.17277660965919495
0.867431640625 0.4711742103099823 0.1781822144985199
0.88490480184555054 0.49148708581924438 0.18634139001369476
0.89979124069213867 0.51140600442886353 0.19618378579616547
0.91335362195968628 0.53075903654098511 0.2082546204328537
0.92599028348922729 0.54929018020629883 0.22202977538108826
0.93789249658584595 0.56660538911819458 0.23712430894374847
0.95004916191101074 0.58316165208816528 0.25333771109580994
0.96164774894714355 0.59842634201049805 0.27088746428489685
0.97348147630691528 0.61451804637908936 0.29151776432991028
0 0.30060365796089172 0.20053015649318695
0 0.30371144413948059 0.2003834992647171
0 0.30415111780166626 0.20049154758453369
0 0.30499371886253357 0.20090195536613464
0 0.30612176656723022 0.2011929452419281
0 0.30830016732215881 0.20107509195804596
0 0.31332781910896301 0.2005118727684021
0.026517542079091072 0.3193621039390564 0.19940900802612305
0.10179710388183594 0.32672926783561707 0.19800466299057007
0.1634286493062973 0.33503365516662598 0.19668646156787872
0.22273653745651245 0.34427386522293091 0.1943105161190033
0.28545308113098145 0.35473984479904175 0.19197238981723785
0.35363677144050598 0.36675646901130676 0.18852584064006805
0.43405425548553467 0.38606849312782288 0.18171635270118713
0.49835571646690369 0.39739659428596497 0.1765362024307251
0.55043208599090576 0.40188771486282349 0.17368996143341064
0.59924590587615967 0.40573793649673462 0.17104248702526093
0.64391261339187622 0.40845021605491638 0.16859988868236542
0.68449807167053223 0.41140106320381165 0.16622769832611084
0.72214627265930176 0.41453254222869873 0.16479143500328064
0.75584805011749268 0.41807568073272705 0.16318574547767639
0.78629225492477417 0.42826780676841736 0.1631256639957428
0.81405490636825562 0.44479963183403015 0.16427513957023621
0.83829450607299805 0.46332785487174988 0.16791988909244537
0.85856330394744873 0.48176437616348267 0.17322766780853271
0.87665915489196777 0.50105857849121094 0.18077483773231506
0.89224350452423096 0.51901966333389282 0.19049327075481415
0.90590852499008179 0.53695416450500488 0.20190919935703278
0.91852730512619019 0.55406993627548218 0.21511803567409515
0.93041640520095825 0.57023054361343384 0.22946536540985107
0.94294911623001099 0.58584165573120117 0.24506054818630219
0.95482146739959717 0.59991943836212158 0.26123669743537903
0.96731024980545044 0.61621952056884766 0.28200241923332214
0 0.34388214349746704 0.19842725992202759
0 0.34797078371047974 0.19881707429885864
0 0.3478127121925354 0.19890658557415009
0 0.34798702597618103 0.19932806491851807
0 0.34839555621147156 0.19958360493183136
0 0.34964281320571899 0.20044462382793427
0 0.35299840569496155 0.19982802867889404
0.0053230687044560909 0.35908651351928711 0.19875325262546539
0.082283101975917816 0.36652788519859314 0.19758851826190948
0.15756151080131531 0.37461560964584351 0.19573114812374115
