Textures/99.cube
# Created by: G'MIC (https://gmic.eu)
TITLE "Polaroid_PX-680_Cold_3.cube"
# LUT size
LUT_3D_SIZE 5
# Data domain
DOMAIN_MIN 0.0 0.0 0.0
DOMAIN_MAX 1.0 1.0 1.0
# LUT data points
0.16956596076488495 0.21281957626342773 0.24954722821712494
0.1686929315328598 0.21262264251708984 0.24988320469856262
0.35428336262702942 0.20443829894065857 0.24689091742038727
0.81674385070800781 0.27047964930534363 0.22405217587947845
0.96650600433349609 0.46087583899497986 0.27159550786018372
0.16699939966201782 0.21498191356658936 0.24954971671104431
0.17405867576599121 0.21896454691886902 0.24875281751155853
0.44410079717636108 0.27107253670692444 0.2350432425737381
0.81307524442672729 0.37956079840660095 0.20036011934280396
0.95713651180267334 0.51988178491592407 0.283957839012146
0 0.4338819682598114 0.22501491010189056
0.0006345614674501121 0.44722995162010193 0.22584781050682068
0.46177169680595398 0.52645689249038696 0.20261122286319733
0.78403198719024658 0.58430546522140503 0.19188451766967773
0.92757564783096313 0.61922967433929443 0.28938731551170349
0 0.69101881980895996 0.27231517434120178
0 0.68985557556152344 0.28140974044799805
0.41983306407928467 0.71416276693344116 0.31574493646621704
0.70604997873306274 0.75195330381393433 0.36984699964523315
0.88178902864456177 0.79770362377166748 0.44870394468307495
0.53596556186676025 0.86791431903839111 0.51559245586395264
0.56019300222396851 0.86640524864196777 0.51854944229125977
0.64692586660385132 0.87431246042251587 0.54859775304794312
0.76646929979324341 0.89247024059295654 0.58338296413421631
0.87067782878875732 0.91384106874465942 0.63498848676681519
0.16917195916175842 0.21283458173274994 0.25012281537055969
0.16978849470615387 0.21265587210655212 0.24972756206989288
0.38737061619758606 0.17901940643787384 0.26518726348876953
0.83342462778091431 0.31082579493522644 0.31906026601791382
0.947731614112854 0.54396039247512817 0.42682576179504395
0.16296088695526123 0.21867448091506958 0.2537168562412262
0.18708555400371552 0.22701436281204224 0.25997114181518555
0.51542520523071289 0.27677246928215027 0.27691727876663208
0.82838696241378784 0.418498694896698 0.32321962714195251
0.94140863418579102 0.58629602193832397 0.43160274624824524
0 0.47754707932472229 0.29269912838935852
0.042823430150747299 0.49015280604362488 0.28398478031158447
0.50737720727920532 0.55225217342376709 0.29674145579338074
0.79380911588668823 0.58814072608947754 0.31419163942337036
0.920063316822052 0.65461313724517822 0.41392722725868225
0 0.7026132345199585 0.34364834427833557
0.17853431403636932 0.70238018035888672 0.35276249051094055
0.47005978226661682 0.72145742177963257 0.39267325401306152
0.72108805179595947 0.75870245695114136 0.44205668568611145
0.88286763429641724 0.80273622274398804 0.49626338481903076
0.54870939254760742 0.87070715427398682 0.53238409757614136
0.57295000553131104 0.86924487352371216 0.53580349683761597
0.65534460544586182 0.87633603811264038 0.56329977512359619
0.76985281705856323 0.89412450790405273 0.59803509712219238
0.87259894609451294 0.91526246070861816 0.64876252412796021
0.084260888397693634 0.2141139954328537 0.37480300664901733
0.24460333585739136 0.20651713013648987 0.38739970326423645
0.5109022855758667 0.27151790261268616 0.43573662638664246
0.81296259164810181 0.28643637895584106 0.49554482102394104
0.93834394216537476 0.56006538867950439 0.54789209365844727
0.0065520936623215675 0.27428832650184631 0.43045714497566223
0.26675683259963989 0.27921012043952942 0.45207726955413818
0.57529979944229126 0.42183354496955872 0.48130598664283752
0.80970102548599243 0.45981070399284363 0.51665163040161133
0.9272339940071106 0.63756424188613892 0.56931447982788086
0 0.5064164400100708 0.44855746626853943
0.24278838932514191 0.52660053968429565 0.46360617876052856
0.60521441698074341 0.59388256072998047 0.51336926221847534
0.78884446620941162 0.66130179166793823 0.54816591739654541
0.90273755788803101 0.73193573951721191 0.5862504243850708
0.34184500575065613 0.70204257965087891 0.47903117537498474
0.44334813952445984 0.70899283885955811 0.49356797337532043
0.56996268033981323 0.73104012012481689 0.51254785060882568
0.74894511699676514 0.76972615718841553 0.55195677280426025
0.8884354829788208 0.80455952882766724 0.57231569290161133
0.57787007093429565 0.86998438835144043 0.57642942667007446
0.58849406242370605 0.8703950047492981 0.57260614633560181
0.65889936685562134 0.8791622519493103 0.58965426683425903
0.77109265327453613 0.89545023441314697 0.6295086145401001
0.87691706418991089 0.9183119535446167 0.68241780996322632
0.31996175646781921 0.26682645082473755 0.64089280366897583
0.47796902060508728 0.30995291471481323 0.64238166809082031
0.70665436983108521 0.51636582612991333 0.64344823360443115
0.80367779731750488 0.66160064935684204 0.65091007947921753
0.89639866352081299 0.65887147188186646 0.66386646032333374
0.33165797591209412 0.39141139388084412 0.64455199241638184
0.49053469300270081 0.43716174364089966 0.64386087656021118
0.71070277690887451 0.59156322479248047 0.64638823270797729
0.80364203453063965 0.70220065116882324 0.65772229433059692
0.89446508884429932 0.69586044549942017 0.67202478647232056
0.10949870944023132 0.57167303562164307 0.61505109071731567
0.37742498517036438 0.58257120847702026 0.62049388885498047
0.67734599113464355 0.65780085325241089 0.64267045259475708
0.80180937051773071 0.75514405965805054 0.66665130853652954
0.89420479536056519 0.74926638603210449 0.68088412284851074
0.34557980298995972 0.71531784534454346 0.59319931268692017
0.43043750524520874 0.7178381085395813 0.59660232067108154
0.61437880992889404 0.73920738697052002 0.61712712049484253
0.79159730672836304 0.79496830701828003 0.66715717315673828
0.8947632908821106 0.83901822566986084 0.70157545804977417
0.51780778169631958 0.86327832937240601 0.62462311983108521
0.55277961492538452 0.86396431922912598 0.62648266553878784
0.65765070915222168 0.87655109167098999 0.64664870500564575
0.77131950855255127 0.89811021089553833 0.6792292594909668
0.8848111629486084 0.92424410581588745 0.74297362565994263
0.7048073410987854 0.66392737627029419 0.79337751865386963
0.73739731311798096 0.68040239810943604 0.78921782970428467
0.80870658159255981 0.73496717214584351 0.78569477796554565
0.86572235822677612 0.81034088134765625 0.78344690799713135
0.89341580867767334 0.84387385845184326 0.78698617219924927
0.69816344976425171 0.69200092554092407 0.79254436492919922
0.73200398683547974 0.70577484369277954 0.78951907157897949
0.80488038063049316 0.7524532675743103 0.78710305690765381
0.86511200666427612 0.8216397762298584 0.78665518760681152
0.89293283224105835 0.85433065891265869 0.79109048843383789
0.64522290229797363 0.73793816566467285 0.78660362958908081
0.6795957088470459 0.73768538236618042 0.78707194328308105
0.77693378925323486 0.77205485105514526 0.7889401912689209
0.86052745580673218 0.8384249210357666 0.7925114631652832
0.89206814765930176 0.8751988410949707 0.79942965507507324
0.50705921649932861 0.80939114093780518 0.77231675386428833
0.5368196964263916 0.8062635064125061 0.77198529243469238
0.63835281133651733 0.80545729398727417 0.77930933237075806
0.83219772577285767 0.84819811582565308 0.79894357919692993
0.89328062534332275 0.90373474359512329 0.81508231163024902
0.57095390558242798 0.91160404682159424 0.78568720817565918
0.58772724866867065 0.91051656007766724 0.78528112173080444
0.65215027332305908 0.91200107336044312 0.79093509912490845
0.76347452402114868 0.91644102334976196 0.80375546216964722
0.89822542667388916 0.93712514638900757 0.83984601497650146
