Textures/99.cube
# Created by: G'MIC (https://gmic.eu)
TITLE "Polaroid_PX-680_Cold_3.cube"
# LUT size
LUT_3D_SIZE 33
# Data domain
DOMAIN_MIN 0.0 0.0 0.0
DOMAIN_MAX 1.0 1.0 1.0
# LUT data points
0.16956596076488495 0.21281957626342773 0.24954722821712494
0.16948115825653076 0.21274769306182861 0.24979355931282043
0.16984871029853821 0.21324539184570312 0.24976049363613129
0.16949088871479034 0.2129274308681488 0.24962583184242249
0.16960929334163666 0.21280945837497711 0.24984598159790039
0.16948600113391876 0.21278330683708191 0.24957139790058136
0.16979184746742249 0.21327821910381317 0.25002926588058472
0.16921021044254303 0.21299976110458374 0.24963441491127014
0.1686929315328598 0.21262264251708984 0.24988320469856262
0.16964639723300934 0.2128177136182785 0.24966077506542206
0.1723504364490509 0.21295717358589172 0.24970471858978271
0.17891696095466614 0.21264603734016418 0.2491813451051712
0.19263932108879089 0.21209536492824554 0.24906331300735474
0.21590588986873627 0.21163161098957062 0.2493324875831604
0.25059393048286438 0.21032319962978363 0.24883686006069183
0.29701077938079834 0.2081819623708725 0.24793264269828796
0.35428336262702942 0.20443829894065857 0.24689091742038727
0.41955402493476868 0.200638547539711 0.24517375230789185
0.49135851860046387 0.19885712862014771 0.24291296303272247
0.56892216205596924 0.20004205405712128 0.24014364182949066
0.63657504320144653 0.20529563724994659 0.23656147718429565
0.69398695230484009 0.21555560827255249 0.23250001668930054
0.74212402105331421 0.23106887936592102 0.22940737009048462
0.78198498487472534 0.24950939416885376 0.22644352912902832
0.81674385070800781 0.27047964930534363 0.22405217587947845
0.84691113233566284 0.29314956068992615 0.22250601649284363
0.87250185012817383 0.31657886505126953 0.2226518988609314
0.8938068151473999 0.3402639627456665 0.22455105185508728
0.91309666633605957 0.36470568180084229 0.22864334285259247
0.92840027809143066 0.3879813551902771 0.23489116132259369
0.94250404834747314 0.41202300786972046 0.24425993859767914
0.95476299524307251 0.43470442295074463 0.25518164038658142
0.96650600433349609 0.46087583899497986 0.27159550786018372
0.16963918507099152 0.21318331360816956 0.2497982382774353
0.16959512233734131 0.2129388153553009 0.25001239776611328
0.16997681558132172 0.21329036355018616 0.24986940622329712
0.1695595383644104 0.21297109127044678 0.24967086315155029
0.16992329061031342 0.21330910921096802 0.25007355213165283
0.16956090927124023 0.21286274492740631 0.24986220896244049
0.16945207118988037 0.21296356618404388 0.24983489513397217
0.16898159682750702 0.21271587908267975 0.24955737590789795
0.16885755956172943 0.21303480863571167 0.25014957785606384
0.16963666677474976 0.21287696063518524 0.24961750209331512
0.17246747016906738 0.21256871521472931 0.24971954524517059
0.17983829975128174 0.21246860921382904 0.24935875833034515
0.19391202926635742 0.2120119035243988 0.24943535029888153
0.21745742857456207 0.21149390935897827 0.24914140999317169
0.25267425179481506 0.20981314778327942 0.2483794093132019
0.29965820908546448 0.20792393386363983 0.24786125123500824
0.3573143482208252 0.20511849224567413 0.24651522934436798
0.42378029227256775 0.20365899801254272 0.24509179592132568
0.4970507025718689 0.2026091068983078 0.24228507280349731
0.5731998085975647 0.20487295091152191 0.23908904194831848
0.64058709144592285 0.21153716742992401 0.23548236489295959
0.69755828380584717 0.22291018068790436 0.23198410868644714
0.74482476711273193 0.23846296966075897 0.22847037017345428
0.78422552347183228 0.25649628043174744 0.22499506175518036
0.81920158863067627 0.27775046229362488 0.22292652726173401
0.84908014535903931 0.30028155446052551 0.22155535221099854
0.87391549348831177 0.32327181100845337 0.22168491780757904
0.8956989049911499 0.34699377417564392 0.22407166659832001
0.91439604759216309 0.37098008394241333 0.22838062047958374
0.9298166036605835 0.39434894919395447 0.23505324125289917
0.94390159845352173 0.41771680116653442 0.24461022019386292
0.95574164390563965 0.44069460034370422 0.25605693459510803
0.96712613105773926 0.46623027324676514 0.27335736155509949
0.16955168545246124 0.21273353695869446 0.24958927929401398
0.16930757462978363 0.21263419091701508 0.24973295629024506
0.16975532472133636 0.21317772567272186 0.24995416402816772
0.16976243257522583 0.2131837010383606 0.24991230666637421
0.16949927806854248 0.21266284584999084 0.24973390996456146
0.16960577666759491 0.21294984221458435 0.24953894317150116
0.16946814954280853 0.21329616010189056 0.2498927116394043
0.16897958517074585 0.21286706626415253 0.24949777126312256
0.16868394613265991 0.21281607449054718 0.24991030991077423
0.16987557709217072 0.21292512118816376 0.2496601939201355
0.17339456081390381 0.21307750046253204 0.2498348206281662
0.18107375502586365 0.21255418658256531 0.24908970296382904
0.19536016881465912 0.21198441088199615 0.24899899959564209
0.22006659209728241 0.21140377223491669 0.24919977784156799
0.2559378445148468 0.210462287068367 0.24872662127017975
0.30371305346488953 0.2089998722076416 0.24765923619270325
0.36269691586494446 0.20795874297618866 0.24630184471607208
0.42947858572006226 0.20747031271457672 0.24417266249656677
0.50414294004440308 0.20803585648536682 0.24142318964004517
0.57857203483581543 0.21163663268089294 0.23830345273017883
0.6440122127532959 0.21925662457942963 0.23431934416294098
0.69990652799606323 0.23127210140228271 0.23058415949344635
0.74686819314956665 0.24712665379047394 0.22702911496162415
0.78628909587860107 0.26580178737640381 0.22386172413825989
0.82054221630096436 0.28644227981567383 0.22160725295543671
0.85038191080093384 0.30890780687332153 0.22007718682289124
0.87535005807876587 0.33166846632957458 0.22085784375667572
0.89671832323074341 0.35465678572654724 0.22299028933048248
0.9156264066696167 0.37836498022079468 0.22806441783905029
0.93119275569915771 0.40142923593521118 0.23502448201179504
0.94527631998062134 0.42498987913131714 0.24536421895027161
0.95747661590576172 0.44853469729423523 0.2584647536277771
0.96879494190216064 0.4753296971321106 0.27794483304023743
0.16979740560054779 0.21311531960964203 0.24990518391132355
0.16960158944129944 0.21295814216136932 0.24990475177764893
0.16973337531089783 0.21308133006095886 0.24995903670787811
0.16971084475517273 0.21306230127811432 0.25015115737915039
0.16963852941989899 0.21303005516529083 0.24987408518791199
0.16967521607875824 0.21305327117443085 0.25000187754631042
0.16938100755214691 0.21303984522819519 0.25002726912498474
0.16889311373233795 0.21298268437385559 0.25002777576446533
0.16899916529655457 0.21284882724285126 0.24973678588867188
0.17021617293357849 0.21290645003318787 0.24978576600551605
0.17421057820320129 0.21262703835964203 0.24967212975025177
0.18300144374370575 0.21258816123008728 0.24945735931396484
0.19880346953868866 0.21209123730659485 0.24924945831298828
0.2249765545129776 0.21190929412841797 0.24906127154827118
0.26342549920082092 0.21186208724975586 0.24806210398674011
0.31313541531562805 0.21206924319267273 0.24709706008434296
0.37249308824539185 0.21227787435054779 0.24545468389987946
0.44055801630020142 0.21335706114768982 0.24314500391483307
0.51456952095031738 0.2161392867565155 0.24007122218608856
0.58552277088165283 0.22143387794494629 0.23641791939735413
0.6486583948135376 0.23073628544807434 0.23274518549442291
0.70185065269470215 0.24353723227977753 0.22865387797355652
0.74686777591705322 0.25879296660423279 0.22510258853435516
0.78466576337814331 0.2765224277973175 0.22170250117778778
0.81871777772903442 0.29627087712287903 0.219516322016716
0.84795123338699341 0.31775814294815063 0.21839354932308197
0.87213337421417236 0.33894190192222595 0.21821612119674683
0.89347881078720093 0.36054381728172302 0.2206207811832428
0.91199904680252075 0.38283845782279968 0.22506819665431976
0.92758697271347046 0.40460443496704102 0.23186579346656799
0.94160568714141846 0.42646193504333496 0.24150717258453369
0.95348227024078369 0.4482606053352356 0.25449612736701965
0.96519219875335693 0.47427281737327576 0.27454707026481628
0.16974140703678131 0.21301642060279846 0.24971994757652283
0.16965091228485107 0.21295168995857239 0.24974246323108673
0.16970439255237579 0.21294508874416351 0.25009086728096008
0.16976325213909149 0.21308739483356476 0.25010085105895996
0.16973099112510681 0.21292252838611603 0.24969504773616791
0.16940565407276154 0.21285349130630493 0.24996834993362427
0.16920965909957886 0.2132137268781662 0.25020936131477356
0.16887681186199188 0.21301239728927612 0.24967449903488159
0.16911385953426361 0.21273846924304962 0.24977573752403259
0.17104256153106689 0.21286064386367798 0.24988272786140442
0.17608781158924103 0.21289514005184174 0.24975770711898804
0.1863696277141571 0.21306999027729034 0.24942009150981903
0.20403069257736206 0.21324348449707031 0.24903357028961182
0.23259767889976501 0.21421355009078979 0.24869118630886078
0.27276095747947693 0.21530044078826904 0.24782419204711914
0.32257035374641418 0.21647192537784576 0.24622143805027008
0.38312220573425293 0.2184613049030304 0.24453708529472351
0.45369517803192139 0.22171685099601746 0.24168127775192261
0.52551060914993286 0.22645233571529388 0.23851391673088074
0.59420573711395264 0.23385998606681824 0.23478235304355621
0.65460628271102905 0.2444845587015152 0.23039571940898895
0.70596802234649658 0.25780403614044189 0.22640632092952728
0.74989438056945801 0.27363032102584839 0.22267115116119385
0.78737914562225342 0.2912503182888031 0.21920840442180634
0.82019412517547607 0.31062051653862 0.2169555127620697
0.84887397289276123 0.33092451095581055 0.21576809883117676
0.87304788827896118 0.35131889581680298 0.21598634123802185
0.89435470104217529 0.37240692973136902 0.21844795346260071
0.91212666034698486 0.39341133832931519 0.22344134747982025
0.92787802219390869 0.41434639692306519 0.2305106520652771
0.94154661893844604 0.43564870953559875 0.24103397130966187
0.95390850305557251 0.45745158195495605 0.25609102845191956
0.96507096290588379 0.48311203718185425 0.27735552191734314
0.1698211133480072 0.21294166147708893 0.24980613589286804
0.16971732676029205 0.2127692848443985 0.24993105232715607
0.16978664696216583 0.21287132799625397 0.24995067715644836
0.1697864830493927 0.21286532282829285 0.24990725517272949
0.16953086853027344 0.21257035434246063 0.24991965293884277
0.16943392157554626 0.21260370314121246 0.25001108646392822
0.16919732093811035 0.21283242106437683 0.24976086616516113
0.16905207931995392 0.21272586286067963 0.25000986456871033
0.16999748349189758 0.21298649907112122 0.24974066019058228
0.17289672791957855 0.21319985389709473 0.24984714388847351
0.17942072451114655 0.21328206360340118 0.24931046366691589
0.19156605005264282 0.21440832316875458 0.24896956980228424
0.21153964102268219 0.21538820862770081 0.24850247800350189
0.24164070188999176 0.21713025867938995 0.24779847264289856
0.28274443745613098 0.2198810875415802 0.24673327803611755
0.33414611220359802 0.22275976836681366 0.24475312232971191
0.39801150560379028 0.22713559865951538 0.24269777536392212
0.466776043176651 0.23283101618289948 0.2397979199886322
0.53467017412185669 0.23929399251937866 0.236249178647995
0.60002362728118896 0.24857431650161743 0.23206852376461029
0.65825343132019043 0.26096248626708984 0.22741347551345825
0.70743471384048462 0.27471938729286194 0.22343982756137848
0.75008708238601685 0.29017725586891174 0.21947254240512848
0.78666448593139648 0.30733975768089294 0.21623192727565765
0.81924921274185181 0.32587069272994995 0.21379552781581879
0.84767580032348633 0.34509748220443726 0.21263091266155243
0.87204593420028687 0.36455827951431274 0.21293279528617859
0.8928183913230896 0.38456937670707703 0.2155243307352066
0.91140192747116089 0.40489339828491211 0.220753014087677
0.92724829912185669 0.42490896582603455 0.22908738255500793
0.94131040573120117 0.44601303339004517 0.24184533953666687
0.95328003168106079 0.46804454922676086 0.25882631540298462
0.96453553438186646 0.4932442307472229 0.28079217672348022
0.16922152042388916 0.2122650146484375 0.24971604347229004
0.16933035850524902 0.21241241693496704 0.24951156973838806
0.1695815771818161 0.21240188181400299 0.24938955903053284
0.16962410509586334 0.21267175674438477 0.24973717331886292
0.16920825839042664 0.21233247220516205 0.24935168027877808
0.16921705007553101 0.21248205006122589 0.2495916485786438
0.16932705044746399 0.21280337870121002 0.24956117570400238
0.16943797469139099 0.212681844830513 0.24970054626464844
0.17112173140048981 0.21339626610279083 0.24940590560436249
0.17545038461685181 0.21398904919624329 0.24913874268531799
0.18407589197158813 0.21537016332149506 0.2492683082818985
0.19884242117404938 0.21704426407814026 0.2490047812461853
0.22106938064098358 0.21940197050571442 0.24822312593460083
0.25300952792167664 0.22289840877056122 0.24705937504768372
0.29760321974754333 0.22701871395111084 0.24542102217674255
0.35317695140838623 0.23298108577728271 0.24356763064861298
0.41543403267860413 0.23942303657531738 0.24071033298969269
0.48066312074661255 0.24704334139823914 0.23738278448581696
0.54535192251205444 0.25568994879722595 0.23347845673561096
0.60714906454086304 0.26686066389083862 0.22916732728481293
0.66170525550842285 0.2795691192150116 0.22466543316841125
0.70843476057052612 0.29362091422080994 0.21994367241859436
0.74970483779907227 0.30884575843811035 0.21606738865375519
0.78502976894378662 0.32475179433822632 0.21246512234210968
0.81657612323760986 0.3418097198009491 0.20987258851528168
0.84445303678512573 0.3598056435585022 0.20825842022895813
0.86813592910766602 0.37748923897743225 0.20856176316738129
0.88887065649032593 0.3956044614315033 0.21117950975894928
0.90718746185302734 0.4144115149974823 0.21721464395523071
0.92288416624069214 0.43299385905265808 0.2267056405544281
0.93666708469390869 0.45245209336280823 0.24044187366962433
0.9489750862121582 0.47267058491706848 0.25706097483634949
0.96046459674835205 0.4971347451210022 0.27876883745193481
0.16919539868831635 0.2132384330034256 0.24991725385189056
0.16917434334754944 0.21346387267112732 0.24987746775150299
0.16895860433578491 0.2131744772195816 0.24994347989559174
0.16902686655521393 0.21308213472366333 0.24965661764144897
0.1689465194940567 0.21343064308166504 0.24966531991958618
0.16892828047275543 0.21362502872943878 0.24964936077594757
0.1693798303604126 0.21347461640834808 0.24959008395671844
0.17017579078674316 0.21399183571338654 0.24940657615661621
0.17257307469844818 0.21491344273090363 0.24915927648544312
0.17848387360572815 0.2167883962392807 0.24908651411533356
0.18914780020713806 0.21913553774356842 0.2484438419342041
0.20640817284584045 0.22176149487495422 0.24765807390213013
0.23288990557193756 0.22552774846553802 0.24704180657863617
0.27006590366363525 0.23098497092723846 0.24531388282775879
0.31809338927268982 0.23833706974983215 0.24392980337142944
0.37233993411064148 0.24561689794063568 0.24083766341209412
0.43292906880378723 0.2544536292552948 0.23778423666954041
0.49581420421600342 0.263898104429245 0.23419593274593353
0.55719959735870361 0.27461212873458862 0.22945074737071991
0.61549943685531616 0.28689241409301758 0.22475108504295349
0.66741877794265747 0.30068916082382202 0.22022645175457001
0.71248573064804077 0.31482169032096863 0.21560445427894592
0.75197881460189819 0.32984903454780579 0.21126106381416321
0.78658080101013184 0.34534820914268494 0.20773112773895264
0.81764644384384155 0.36192956566810608 0.20494797825813293
0.84486573934555054 0.37846025824546814 0.20378327369689941
0.86828982830047607 0.39511865377426147 0.20466932654380798
0.88885360956192017 0.41221734881401062 0.20881514251232147
0.90691548585891724 0.42952471971511841 0.2168470025062561
0.92263072729110718 0.44742074608802795 0.22831718623638153
0.93618959188461304 0.46634542942047119 0.24278989434242249
0.94829320907592773 0.48559126257896423 0.25980311632156372
0.9596097469329834 0.50897610187530518 0.28188899159431458
0.16699939966201782 0.21498191356658936 0.24954971671104431
0.16705475747585297 0.21525679528713226 0.2493273913860321
0.16674785315990448 0.2151922881603241 0.24911731481552124
0.16668465733528137 0.2155025452375412 0.24921157956123352
0.16705510020256042 0.21579515933990479 0.2492929995059967
0.16772481799125671 0.21613535284996033 0.24922235310077667
0.16862525045871735 0.21667000651359558 0.24883118271827698
0.17068943381309509 0.21749264001846313 0.24877746403217316
0.17405867576599121 0.21896454691886902 0.24875281751155853
0.18081963062286377 0.22130982577800751 0.24834546446800232
0.19485411047935486 0.22592867910861969 0.24783800542354584
0.21599584817886353 0.23174366354942322 0.24674955010414124
0.24612928926944733 0.23831552267074585 0.24553360044956207
0.28554189205169678 0.24552272260189056 0.24368749558925629
0.33307665586471558 0.25268954038619995 0.24137267470359802
0.38634636998176575 0.26090103387832642 0.23843139410018921
0.44410079717636108 0.27107253670692444 0.2350432425737381
0.50336742401123047 0.2821124792098999 0.23095495998859406
0.56164360046386719 0.29447796940803528 0.22628776729106903
0.61736148595809937 0.30746454000473022 0.22108040750026703
0.66630840301513672 0.32158243656158447 0.21595132350921631
0.71014726161956787 0.33556282520294189 0.21130965650081635
0.74828910827636719 0.34961119294166565 0.20662342011928558
0.78209549188613892 0.36437827348709106 0.20307068526744843
0.81307524442672729 0.37956079840660095 0.20036011934280396
0.84059357643127441 0.39512252807617188 0.19949883222579956
0.86398196220397949 0.41041842103004456 0.20183144509792328
0.88492542505264282 0.42630434036254883 0.20740348100662231
0.90324360132217407 0.44293347001075745 0.21638114750385284
0.91913998126983643 0.46005302667617798 0.22827115654945374
0.93309891223907471 0.47823682427406311 0.24348826706409454
0.94529050588607788 0.49731814861297607 0.26114994287490845
0.95713651180267334 0.51988178491592407 0.283957839012146
0.16275157034397125 0.22039517760276794 0.24908626079559326
0.16242779791355133 0.22126978635787964 0.24906425178050995
0.162507563829422 0.22114567458629608 0.24890734255313873
0.16292770206928253 0.22146230936050415 0.24891273677349091
0.16344863176345825 0.22189918160438538 0.24866628646850586
0.16462689638137817 0.22240382432937622 0.24866421520709991
0.166780024766922 0.22353591024875641 0.24881859123706818
0.17015564441680908 0.22534789144992828 0.24812310934066772
0.17621716856956482 0.22818289697170258 0.24785691499710083
0.18533468246459961 0.23156316578388214 0.24706293642520905
0.20072424411773682 0.2369125634431839 0.24647963047027588
0.2274928092956543 0.24687473475933075 0.24438174068927765
0.26168054342269897 0.25738281011581421 0.24249351024627686
0.30279684066772461 0.26741126179695129 0.24008838832378387
0.3512025773525238 0.27756687998771667 0.2374241054058075
0.40338614583015442 0.28655272722244263 0.23378199338912964
0.45823809504508972 0.29498472809791565 0.23044741153717041
0.514137864112854 0.30431070923805237 0.22626776993274689
0.56921148300170898 0.31655347347259521 0.221260666847229
0.62185949087142944 0.3306923508644104 0.21601606905460358
0.66867232322692871 0.34463554620742798 0.21059885621070862
0.70992064476013184 0.35805115103721619 0.20566633343696594
0.74749851226806641 0.3716733455657959 0.20121611654758453
0.78097420930862427 0.3855113685131073 0.19793529808521271
0.81112480163574219 0.399131178855896 0.19616030156612396
0.83794939517974854 0.41329649090766907 0.19681701064109802
0.86097961664199829 0.42727643251419067 0.19991078972816467
0.88150262832641602 0.44192978739738464 0.20630480349063873
0.89937186241149902 0.45720675587654114 0.21570698916912079
0.91503828763961792 0.47279468178749084 0.22788946330547333
0.92914962768554688 0.48964840173721313 0.24307790398597717
0.9413909912109375 0.50691181421279907 0.26003292202949524
0.95323270559310913 0.52861934900283813 0.28299602866172791
0.15379071235656738 0.23099707067012787 0.24762880802154541
0.15348458290100098 0.23230348527431488 0.24777726829051971
0.15427768230438232 0.23267345130443573 0.24762347340583801
0.15518447756767273 0.23329347372055054 0.24754691123962402
0.15649643540382385 0.23388832807540894 0.24747131764888763
0.15868693590164185 0.23492462933063507 0.24743297696113586
0.16203296184539795 0.23731563985347748 0.24702145159244537
0.16770890355110168 0.24036407470703125 0.24661049246788025
0.17658977210521698 0.24508197605609894 0.24592851102352142
0.18983274698257446 0.25003394484519958 0.24493874609470367
0.20808574557304382 0.25646796822547913 0.24374720454216003
0.23470441997051239 0.26521539688110352 0.24238480627536774
0.27656340599060059 0.28195977210998535 0.2388371080160141
0.32167655229568481 0.29669737815856934 0.23525881767272949
0.37036561965942383 0.30938637256622314 0.23186953365802765
0.42146521806716919 0.32032287120819092 0.22782111167907715
0.47493237257003784 0.33024722337722778 0.2233583927154541
0.52883243560791016 0.33949357271194458 0.2191089391708374
0.57958000898361206 0.34719163179397583 0.21447603404521942
0.62827849388122559 0.35646265745162964 0.20962725579738617
0.67316997051239014 0.36889275908470154 0.20443733036518097
0.713165283203125 0.3822740912437439 0.20008380711078644
0.74949431419372559 0.39474096894264221 0.19574707746505737
0.78264933824539185 0.40811648964881897 0.19338501989841461
0.81224507093429565 0.42110747098922729 0.19269153475761414
0.83868867158889771 0.43432551622390747 0.19404025375843048
0.86110037565231323 0.44764712452888489 0.19823542237281799
0.88122648000717163 0.46166914701461792 0.20641249418258667
0.89914244413375854 0.47655048966407776 0.21691697835922241
0.91463112831115723 0.49180141091346741 0.23042844235897064
0.92863708734512329 0.50830775499343872 0.24723848700523376
0.94101661443710327 0.5254560112953186 0.26590389013290405
0.95249015092849731 0.54610365629196167 0.28915956616401672
0.13855864107608795 0.24964812397956848 0.24564848840236664
0.13846525549888611 0.2518044114112854 0.24538347125053406
0.13975873589515686 0.25188690423965454 0.24516879022121429
0.14211642742156982 0.25276178121566772 0.2452743798494339
0.14461608231067657 0.25339028239250183 0.24522833526134491
0.14784529805183411 0.25469380617141724 0.2452131062746048
0.15356576442718506 0.25731185078620911 0.2446853369474411
0.1617298424243927 0.26123523712158203 0.24400345981121063
0.17344281077384949 0.26620632410049438 0.24325293302536011
0.18925496935844421 0.27234363555908203 0.24239562451839447
0.20974841713905334 0.27952837944030762 0.24077758193016052
0.23672245442867279 0.2883152961730957 0.23881177604198456
0.27152583003044128 0.29938694834709167 0.23677578568458557
0.32250863313674927 0.31964340806007385 0.23190951347351074
0.3760446310043335 0.33821296691894531 0.22636500000953674
0.42664763331413269 0.35134392976760864 0.22165313363075256
0.47931072115898132 0.36366209387779236 0.21708156168460846
0.5304376482963562 0.37321814894676208 0.21248185634613037
0.57947570085525513 0.38123545050621033 0.20749038457870483
0.62598055601119995 0.38816559314727783 0.20352749526500702
0.66762822866439819 0.39291787147521973 0.19985450804233551
0.70594459772109985 0.40055868029594421 0.19628073275089264
0.74160122871398926 0.41179600358009338 0.19234611093997955
0.7741660475730896 0.42435270547866821 0.19042463600635529
0.803108811378479 0.43638265132904053 0.18963393568992615
0.8294980525970459 0.44859263300895691 0.19143900275230408
0.85218793153762817 0.46084833145141602 0.19597809016704559
0.8722720742225647 0.47359919548034668 0.20348940789699554
0.8899725079536438 0.48664519190788269 0.21359381079673767
0.90578377246856689 0.50025224685668945 0.22643154859542847
0.92008686065673828 0.51493924856185913 0.2421344518661499
0.93241649866104126 0.53019750118255615 0.2592986524105072
0.94526523351669312 0.54963397979736328 0.28267410397529602
0.11170399934053421 0.27708756923675537 0.24235601723194122
0.11055396497249603 0.28136059641838074 0.24228790402412415
0.11347981542348862 0.28128749132156372 0.24219754338264465
